{
 "type": "map",
 "version": 1.1,
 "tiledversion": "1.11.0",
 "orientation": "orthogonal",
 "renderorder": "right-down",
 "width": 128,
 "height": 128,
 "tilewidth": 40,
 "tileheight": 40,
 "infinite": false,
 "nextlayerid": 4,
 "nextobjectid": 1,
 "compressionlevel": -1,
 "properties": [],
 "tilesets": [
  {
   "firstgid": 1,
   "source": "terrain.tsx"
  }
 ],
 "layers": [
  {
   "id": 1,
   "name": "terrain",
   "type": "tilelayer",
   "x": 0,
   "y": 0,
   "width": 128,
   "height": 128,
   "opacity": 1,
   "visible": true,
   "data": [
    1199,
    1200,
    1387,
    1199,
    1200,
    1383,
    1388,
    1388,
    1163,
    1385,
    1149,
    1387,
    1147,
    1385,
    1383,
    1149,
    1147,
    1213,
    1214,
    1107,
    1148,
    1123,
    1123,
    1124,
    881,
    812,
    813,
    1090,
    1386,
    1385,
    1093,
    7,
    785,
    786,
    787,
    4,
    16,
    785,
    786,
    787,
    15,
    2,
    4,
    977,
    978,
    979,
    992,
    703,
    703,
    941,
    942,
    5,
    2,
    1,
    2,
    3,
    1105,
    1106,
    1165,
    1383,
    1147,
    1197,
    1198,
    1147,
    1199,
    1200,
    11,
    1147,
    1199,
    1200,
    1147,
    1388,
    1388,
    1387,
    1385,
    1385,
    1385,
    1386,
    1387,
    1386,
    1384,
    1384,
    1384,
    1388,
    1386,
    1383,
    1384,
    1386,
    1387,
    1387,
    1384,
    1383,
    1385,
    1383,
    1383,
    1384,
    1383,
    1385,
    1388,
    1386,
    1386,
    1387,
    1385,
    1388,
    1197,
    1198,
    1385,
    1147,
    1197,
    1198,
    1150,
    1151,
    1147,
    1384,
    1386,
    1386,
    1385,
    1383,
    1388,
    1383,
    1199,
    1200,
    10,
    1147,
    1123,
    1123,
    1386,
    1147,
    1215,
    1216,
    1147,
    1215,
    1216,
    1386,
    1386,
    1388,
    1385,
    1386,
    1199,
    1200,
    1149,
    1147,
    1148,
    1163,
    1148,
    1123,
    1123,
    1123,
    1124,
    791,
    792,
    795,
    897,
    828,
    1090,
    1197,
    1198,
    1387,
    1385,
    1092,
    785,
    786,
    787,
    31,
    32,
    801,
    802,
    803,
    31,
    32,
    2,
    13,
    994,
    995,
    1008,
    719,
    719,
    957,
    958,
    6,
    2,
    5,
    2,
    2,
    1105,
    1106,
    1387,
    1386,
    1387,
    1213,
    1214,
    1163,
    1215,
    1216,
    1197,
    1198,
    1215,
    1216,
    1385,
    1383,
    1388,
    1386,
    1385,
    1387,
    1383,
    1164,
    1387,
    1385,
    1385,
    1386,
    1387,
    1386,
    1388,
    1388,
    1386,
    1386,
    1383,
    1386,
    1388,
    1383,
    1385,
    1165,
    1384,
    1386,
    1385,
    1388,
    1388,
    1385,
    1383,
    1385,
    1387,
    1383,
    1213,
    1214,
    1197,
    1198,
    1213,
    1214,
    1166,
    1167,
    1385,
    1385,
    1386,
    1384,
    1383,
    1387,
    1387,
    1385,
    1215,
    1216,
    1123,
    1124,
    1074,
    1074,
    1122,
    1123,
    1149,
    1197,
    1198,
    1384,
    1163,
    1383,
    1388,
    1385,
    1383,
    1147,
    1215,
    1216,
    1123,
    1125,
    1122,
    1123,
    1124,
    791,
    792,
    794,
    795,
    807,
    808,
    811,
    913,
    1090,
    1383,
    1213,
    1214,
    1197,
    1198,
    1108,
    801,
    802,
    803,
    2,
    4,
    817,
    818,
    819,
    2,
    16,
    31,
    32,
    977,
    978,
    979,
    703,
    703,
    973,
    974,
    5,
    13,
    1,
    1,
    1152,
    1090,
    1164,
    1388,
    1384,
    1383,
    1385,
    1384,
    1387,
    1388,
    1384,
    1213,
    1214,
    1165,
    1384,
    1385,
    1386,
    1384,
    1383,
    1387,
    1385,
    1384,
    1384,
    1384,
    1384,
    1383,
    1388,
    1384,
    1387,
    1164,
    1387,
    1387,
    1387,
    1384,
    1387,
    1388,
    1387,
    1384,
    1384,
    1385,
    1385,
    1386,
    1385,
    1386,
    1197,
    1198,
    1387,
    1387,
    1384,
    1385,
    1147,
    1213,
    1214,
    1388,
    1384,
    1387,
    1385,
    1388,
    1384,
    1388,
    1385,
    1385,
    1388,
    1388,
    1387,
    1165,
    1124,
    843,
    844,
    911,
    912,
    911,
    912,
    1384,
    1213,
    1214,
    1387,
    1383,
    1386,
    1386,
    1383,
    1123,
    1123,
    1123,
    1124,
    791,
    792,
    793,
    794,
    795,
    807,
    808,
    810,
    811,
    823,
    824,
    827,
    1090,
    1199,
    1200,
    1197,
    1198,
    1213,
    1214,
    1124,
    817,
    818,
    819,
    13,
    4,
    836,
    837,
    838,
    31,
    32,
    2,
    16,
    993,
    994,
    995,
    719,
    719,
    941,
    942,
    2,
    3,
    3,
    1,
    1105,
    1106,
    1386,
    1383,
    1388,
    1386,
    1384,
    1388,
    1387,
    1384,
    1383,
    1383,
    1383,
    1387,
    1386,
    1384,
    1388,
    1386,
    1385,
    1385,
    1383,
    1383,
    1387,
    1385,
    1383,
    1383,
    1387,
    1387,
    1388,
    1387,
    1384,
    1384,
    1387,
    1388,
    1385,
    1387,
    1387,
    1385,
    1385,
    1147,
    1383,
    1386,
    1385,
    1147,
    1213,
    1214,
    1383,
    1147,
    1385,
    1384,
    1384,
    1387,
    1147,
    1385,
    1383,
    1384,
    1386,
    1387,
    1388,
    1386,
    1388,
    1387,
    1388,
    1164,
    1123,
    1124,
    870,
    859,
    860,
    4,
    3,
    5,
    5,
    1147,
    1388,
    1383,
    1386,
    1165,
    1163,
    1123,
    1124,
    1074,
    1074,
    7,
    881,
    807,
    808,
    809,
    810,
    811,
    823,
    824,
    826,
    827,
    1090,
    1091,
    1091,
    1147,
    1215,
    1216,
    1213,
    1214,
    1387,
    1125,
    15,
    16,
    837,
    838,
    31,
    32,
    2,
    853,
    854,
    839,
    840,
    31,
    32,
    3,
    929,
    930,
    367,
    368,
    957,
    958,
    6,
    3,
    5,
    3,
    1105,
    1106,
    1386,
    1388,
    1383,
    1163,
    1384,
    1388,
    1387,
    1385,
    1388,
    1387,
    1384,
    1387,
    1384,
    1388,
    1385,
    1386,
    1387,
    1147,
    1387,
    1387,
    1384,
    1388,
    1147,
    1385,
    1149,
    1385,
    1387,
    1387,
    1385,
    1385,
    1385,
    1387,
    1384,
    1387,
    1388,
    1387,
    1384,
    1384,
    1165,
    1148,
    1197,
    1198,
    1150,
    1151,
    1197,
    1198,
    1386,
    1386,
    1387,
    1387,
    1388,
    1383,
    1385,
    1388,
    1387,
    1387,
    1123,
    1123,
    1165,
    1388,
    1386,
    1124,
    884,
    885,
    886,
    7,
    1090,
    1091,
    1091,
    1092,
    1075,
    1387,
    1383,
    1385,
    1387,
    1123,
    1124,
    791,
    792,
    793,
    794,
    795,
    897,
    823,
    824,
    825,
    826,
    827,
    1090,
    1092,
    1090,
    1091,
    1383,
    1388,
    1199,
    1200,
    1197,
    1198,
    11,
    1199,
    1200,
    1093,
    31,
    32,
    853,
    854,
    839,
    840,
    4,
    4,
    4,
    855,
    856,
    2,
    4,
    2,
    945,
    946,
    383,
    384,
    973,
    974,
    2,
    1,
    6,
    1,
    1090,
    1387,
    1383,
    1385,
    1383,
    1386,
    1386,
    1385,
    1388,
    1384,
    1388,
    1388,
    1385,
    1384,
    1386,
    1383,
    1383,
    1388,
    1163,
    1197,
    1198,
    1385,
    1386,
    1197,
    1198,
    1388,
    1387,
    1388,
    1387,
    1384,
    1384,
    1384,
    1384,
    1387,
    1383,
    1385,
    1387,
    1387,
    1385,
    1385,
    1387,
    1385,
    1213,
    1214,
    1166,
    1167,
    1213,
    1214,
    1147,
    1383,
    1387,
    1388,
    1383,
    1385,
    1387,
    1387,
    1123,
    1124,
    1074,
    1074,
    1122,
    1123,
    1124,
    7,
    900,
    901,
    1090,
    1091,
    1164,
    1387,
    10,
    1384,
    1091,
    1388,
    1383,
    1386,
    1124,
    866,
    867,
    807,
    808,
    809,
    810,
    811,
    913,
    1090,
    1091,
    1091,
    1091,
    1091,
    1383,
    1199,
    1200,
    1383,
    1383,
    1147,
    1215,
    1216,
    1213,
    1214,
    1147,
    1215,
    1216,
    1384,
    1091,
    1091,
    1092,
    14,
    855,
    856,
    2,
    5,
    6,
    833,
    834,
    835,
    15,
    2,
    961,
    962,
    399,
    400,
    1015,
    1016,
    1017,
    31,
    32,
    1105,
    1106,
    1386,
    1384,
    1383,
    1386,
    1386,
    1384,
    1385,
    1165,
    1386,
    1386,
    1384,
    1387,
    1383,
    1385,
    1385,
    1384,
    1147,
    1386,
    1213,
    1214,
    1387,
    1388,
    1213,
    1214,
    1147,
    1385,
    1387,
    1387,
    1385,
    1385,
    1388,
    1383,
    1384,
    1385,
    1384,
    1387,
    1385,
    1388,
    1384,
    1384,
    1147,
    1148,
    1150,
    1151,
    1197,
    1198,
    1147,
    1385,
    1387,
    1386,
    1383,
    1385,
    1387,
    1163,
    1124,
    843,
    844,
    911,
    912,
    911,
    912,
    911,
    14,
    1075,
    1090,
    1387,
    1386,
    1384,
    1165,
    1387,
    1197,
    1198,
    1383,
    1107,
    1124,
    1389,
    882,
    883,
    823,
    824,
    825,
    826,
    827,
    1089,
    1383,
    1200,
    1164,
    1147,
    1199,
    1200,
    1215,
    1216,
    1387,
    1387,
    1150,
    1151,
    1197,
    1198,
    1199,
    1200,
    1147,
    1385,
    1199,
    1200,
    1383,
    1386,
    1092,
    785,
    786,
    787,
    3,
    3,
    5,
    850,
    851,
    31,
    32,
    977,
    978,
    979,
    703,
    1031,
    1032,
    1033,
    1034,
    2,
    1105,
    1106,
    1163,
    1386,
    1383,
    1388,
    1386,
    1386,
    1384,
    1386,
    1386,
    1150,
    1151,
    1385,
    1385,
    1383,
    1386,
    1385,
    1384,
    1197,
    1198,
    1197,
    1198,
    1383,
    1387,
    1199,
    1200,
    1384,
    1387,
    1385,
    1388,
    1384,
    1387,
    1388,
    1387,
    1384,
    1383,
    1384,
    1386,
    1387,
    1388,
    1385,
    1199,
    1200,
    1166,
    1167,
    1213,
    1214,
    1383,
    1386,
    1384,
    1383,
    1386,
    1383,
    1123,
    1124,
    870,
    859,
    860,
    4,
    3,
    5,
    5,
    3,
    1090,
    1091,
    1383,
    1386,
    1387,
    1387,
    1385,
    1147,
    1213,
    1214,
    1388,
    1108,
    1109,
    1405,
    898,
    899,
    1090,
    1091,
    1092,
    1090,
    1091,
    1147,
    1199,
    1200,
    1383,
    1387,
    1215,
    1216,
    1388,
    1388,
    1164,
    1147,
    1166,
    1167,
    1213,
    1214,
    1215,
    1216,
    1197,
    1198,
    1215,
    1216,
    1197,
    1198,
    1108,
    801,
    802,
    803,
    4,
    4,
    6,
    785,
    786,
    787,
    13,
    16,
    994,
    995,
    719,
    1047,
    1048,
    1049,
    1050,
    3,
    2,
    1122,
    1383,
    1388,
    1384,
    1385,
    1383,
    1383,
    1387,
    1383,
    1388,
    1166,
    1167,
    1197,
    1198,
    1386,
    1197,
    1198,
    10,
    1213,
    1214,
    1213,
    1214,
    1147,
    1385,
    1215,
    1216,
    1383,
    1384,
    1386,
    1387,
    1388,
    1385,
    1387,
    1387,
    1385,
    1385,
    1388,
    1387,
    1387,
    1385,
    1147,
    1215,
    1216,
    1197,
    1198,
    1147,
    1149,
    1383,
    1388,
    1387,
    1385,
    1387,
    1125,
    884,
    885,
    886,
    7,
    1090,
    1091,
    1091,
    1092,
    1075,
    1090,
    1384,
    1163,
    1387,
    1386,
    1385,
    1197,
    1198,
    1150,
    1151,
    1147,
    1384,
    1386,
    1092,
    1421,
    1089,
    1091,
    1147,
    1165,
    1197,
    1198,
    1199,
    1200,
    1215,
    1216,
    1199,
    1200,
    1197,
    1198,
    1383,
    1383,
    1383,
    1199,
    1200,
    11,
    1148,
    1147,
    1197,
    1198,
    1213,
    1214,
    1197,
    1198,
    1213,
    1214,
    1108,
    817,
    818,
    819,
    6,
    4,
    6,
    801,
    802,
    803,
    31,
    32,
    980,
    981,
    1319,
    1320,
    1303,
    1015,
    1016,
    1017,
    3,
    1105,
    1106,
    1385,
    1387,
    1384,
    1385,
    1387,
    1388,
    1387,
    1197,
    1198,
    1147,
    1213,
    1214,
    1388,
    1213,
    1214,
    1182,
    11,
    1147,
    1197,
    1198,
    1386,
    1384,
    1387,
    1383,
    1385,
    1388,
    1387,
    1387,
    1385,
    1384,
    1387,
    1385,
    1388,
    1384,
    1383,
    1384,
    1386,
    1387,
    1388,
    1383,
    1147,
    1213,
    1214,
    1147,
    1387,
    1388,
    1387,
    1387,
    1384,
    1124,
    880,
    900,
    901,
    1090,
    1091,
    1388,
    1387,
    1165,
    1384,
    1091,
    1387,
    1385,
    1385,
    1386,
    1383,
    1147,
    1213,
    1214,
    1166,
    1167,
    1384,
    1386,
    1388,
    1388,
    1091,
    1197,
    1198,
    1199,
    1200,
    1213,
    1214,
    1215,
    1216,
    1199,
    1200,
    1215,
    1216,
    1213,
    1214,
    1385,
    1387,
    1388,
    1215,
    1216,
    1147,
    1197,
    1198,
    1213,
    1214,
    1199,
    1200,
    1213,
    1214,
    1147,
    1147,
    1125,
    796,
    797,
    2,
    2,
    2,
    5,
    817,
    818,
    819,
    1090,
    1091,
    1092,
    997,
    998,
    983,
    984,
    1031,
    1032,
    1033,
    1034,
    1105,
    1106,
    1164,
    1384,
    1387,
    1388,
    1384,
    1385,
    1385,
    1213,
    1214,
    1182,
    1383,
    1199,
    1200,
    1383,
    1199,
    1200,
    1147,
    1148,
    1213,
    1214,
    1384,
    1388,
    1383,
    1383,
    1387,
    1388,
    1387,
    1384,
    1384,
    1383,
    1384,
    1386,
    1387,
    1388,
    1385,
    1388,
    1387,
    1387,
    1385,
    1383,
    1197,
    1198,
    1384,
    1383,
    1386,
    1386,
    1383,
    1388,
    1125,
    895,
    896,
    1,
    1089,
    1388,
    1163,
    1387,
    1387,
    1385,
    1385,
    1387,
    1385,
    1197,
    1198,
    1384,
    1147,
    1199,
    1200,
    1147,
    1197,
    1198,
    1199,
    1386,
    1164,
    1388,
    1384,
    1213,
    1214,
    1215,
    1216,
    1197,
    1198,
    1199,
    1200,
    1215,
    1216,
    1383,
    1147,
    1383,
    1385,
    1387,
    1386,
    1147,
    1148,
    1199,
    1200,
    1213,
    1214,
    1385,
    1147,
    1215,
    1216,
    1148,
    1123,
    1123,
    1124,
    881,
    812,
    813,
    1104,
    4,
    4,
    2,
    785,
    786,
    787,
    1106,
    1076,
    1077,
    1092,
    7,
    999,
    1000,
    1047,
    1048,
    1049,
    1050,
    2,
    1122,
    1123,
    1123,
    1386,
    1387,
    1386,
    1387,
    1163,
    1147,
    1197,
    1198,
    1148,
    1215,
    1216,
    927,
    1215,
    1216,
    1199,
    1200,
    1163,
    1383,
    1383,
    1387,
    1384,
    1385,
    1385,
    1387,
    1387,
    1385,
    1385,
    1385,
    1388,
    1387,
    1388,
    1387,
    1387,
    1388,
    1387,
    1384,
    1384,
    1148,
    1213,
    1214,
    1387,
    1387,
    1383,
    1385,
    1385,
    1125,
    884,
    885,
    886,
    1090,
    1147,
    1387,
    1384,
    1387,
    1385,
    1388,
    1384,
    1384,
    1147,
    1213,
    1214,
    1199,
    1200,
    1215,
    1216,
    11,
    1213,
    1214,
    1215,
    1165,
    1384,
    1383,
    1384,
    1386,
    1384,
    1165,
    733,
    1213,
    1214,
    1215,
    1216,
    1384,
    1385,
    1385,
    1386,
    1387,
    1165,
    1386,
    1383,
    1197,
    1198,
    1215,
    1216,
    1385,
    1385,
    1123,
    1125,
    1122,
    1123,
    1124,
    791,
    792,
    795,
    897,
    828,
    2,
    3,
    4,
    1,
    4,
    801,
    802,
    803,
    1122,
    1383,
    1386,
    1388,
    1092,
    977,
    978,
    979,
    703,
    1438,
    1439,
    1440,
    1019,
    1020,
    1021,
    1122,
    1384,
    1388,
    1386,
    1383,
    1383,
    1213,
    1214,
    1147,
    11,
    1147,
    1197,
    1198,
    1147,
    1215,
    1216,
    1386,
    1385,
    1386,
    1197,
    1198,
    1385,
    1384,
    1387,
    1388,
    1387,
    1384,
    1387,
    1388,
    1385,
    1387,
    1387,
    1385,
    1387,
    1387,
    1385,
    1385,
    1385,
    1386,
    1386,
    1386,
    1384,
    1388,
    1163,
    1124,
    880,
    900,
    901,
    1090,
    1384,
    1165,
    1387,
    1383,
    1384,
    1386,
    1387,
    1388,
    1197,
    1198,
    11,
    1147,
    1215,
    1216,
    1147,
    1197,
    1198,
    1385,
    1384,
    1387,
    1199,
    1200,
    1386,
    1386,
    1385,
    1165,
    1384,
    1383,
    1384,
    1165,
    1387,
    1386,
    1384,
    1383,
    1387,
    1384,
    1388,
    1384,
    1199,
    1200,
    1213,
    1214,
    1123,
    1123,
    1123,
    1124,
    791,
    792,
    793,
    794,
    795,
    807,
    808,
    811,
    913,
    914,
    3,
    3,
    1,
    3,
    2,
    817,
    818,
    819,
    14,
    1121,
    1386,
    1388,
    1108,
    1109,
    994,
    995,
    719,
    1454,
    1455,
    1456,
    1035,
    1036,
    1037,
    1038,
    1121,
    1147,
    1199,
    1200,
    1384,
    1385,
    1385,
    1197,
    1198,
    1148,
    1213,
    1214,
    1384,
    1387,
    1388,
    1387,
    1383,
    1148,
    1213,
    1214,
    1386,
    1383,
    1385,
    1387,
    1387,
    1385,
    1385,
    1387,
    1384,
    1387,
    1385,
    1384,
    1387,
    1385,
    1388,
    1384,
    1387,
    1387,
    1386,
    1388,
    1385,
    1388,
    1125,
    895,
    896,
    1,
    1089,
    1388,
    1387,
    1383,
    1384,
    1385,
    1388,
    1387,
    1150,
    1151,
    1213,
    1214,
    1147,
    1197,
    1198,
    1147,
    1388,
    1213,
    1214,
    1385,
    1384,
    1388,
    1215,
    1216,
    1385,
    1385,
    1388,
    1387,
    1387,
    1384,
    1385,
    1384,
    1383,
    1383,
    1387,
    1384,
    1386,
    1387,
    1388,
    1147,
    1215,
    1216,
    1123,
    1124,
    1074,
    1074,
    7,
    881,
    807,
    808,
    809,
    810,
    811,
    823,
    824,
    827,
    7,
    865,
    6,
    2,
    3,
    3,
    7,
    796,
    797,
    7,
    8,
    1089,
    1383,
    1387,
    1387,
    1092,
    980,
    981,
    982,
    1304,
    1471,
    1472,
    1051,
    1052,
    1053,
    1054,
    2,
    1122,
    1215,
    1216,
    1147,
    1387,
    1163,
    1213,
    1214,
    1163,
    1147,
    1388,
    1148,
    1385,
    1388,
    1147,
    1386,
    1197,
    1198,
    1384,
    1386,
    1385,
    1384,
    1387,
    1385,
    1388,
    1384,
    1387,
    1383,
    1384,
    1386,
    1383,
    1384,
    1386,
    1387,
    1388,
    1388,
    1384,
    1384,
    1383,
    1387,
    1124,
    884,
    7,
    16,
    1089,
    1385,
    1387,
    1386,
    1385,
    1388,
    1387,
    1387,
    1147,
    1166,
    1167,
    1387,
    1199,
    1200,
    1213,
    1214,
    1384,
    1386,
    1123,
    1123,
    1386,
    1388,
    1165,
    1387,
    1197,
    1198,
    1147,
    1388,
    1165,
    1383,
    1387,
    1383,
    1383,
    1384,
    1387,
    1386,
    1387,
    1383,
    1386,
    1384,
    1123,
    1123,
    1124,
    791,
    792,
    793,
    794,
    795,
    897,
    823,
    824,
    825,
    826,
    827,
    1090,
    1092,
    15,
    16,
    3,
    2,
    6,
    4,
    866,
    867,
    812,
    813,
    1090,
    1091,
    1388,
    1388,
    1384,
    1164,
    1108,
    996,
    997,
    998,
    975,
    976,
    983,
    984,
    1068,
    1069,
    1070,
    3,
    1105,
    1106,
    1148,
    1199,
    1200,
    1384,
    1386,
    1383,
    1165,
    1164,
    1163,
    1386,
    1388,
    1147,
    1197,
    1198,
    1213,
    1214,
    1385,
    1383,
    1148,
    1383,
    1384,
    1386,
    1387,
    1383,
    1384,
    1385,
    1388,
    1387,
    1385,
    1388,
    1387,
    1387,
    1385,
    1387,
    1384,
    1387,
    1387,
    1125,
    880,
    900,
    31,
    1090,
    1385,
    1384,
    1387,
    1384,
    1388,
    1384,
    1385,
    1383,
    1387,
    1197,
    1198,
    1147,
    1215,
    1216,
    1387,
    1387,
    1123,
    1124,
    1074,
    1074,
    1122,
    1123,
    1123,
    1147,
    1213,
    1214,
    1197,
    1198,
    1197,
    1198,
    1147,
    1148,
    1384,
    1383,
    1388,
    1383,
    1386,
    1385,
    1387,
    1124,
    1074,
    866,
    867,
    807,
    808,
    809,
    810,
    811,
    913,
    1090,
    1091,
    1091,
    1091,
    1091,
    1165,
    1124,
    31,
    32,
    1,
    5,
    5,
    881,
    882,
    883,
    828,
    1105,
    1106,
    1385,
    1387,
    1386,
    1147,
    1384,
    1124,
    15,
    16,
    2,
    15,
    16,
    999,
    1000,
    1304,
    941,
    942,
    7,
    1105,
    1106,
    1163,
    1215,
    1216,
    1199,
    1200,
    1148,
    1385,
    1383,
    1199,
    1200,
    1147,
    1149,
    1213,
    1214,
    1384,
    1148,
    1385,
    1387,
    1386,
    1385,
    1388,
    1387,
    1387,
    1385,
    1388,
    1387,
    1387,
    1385,
    1385,
    1164,
    1387,
    1386,
    1387,
    1384,
    1197,
    1198,
    1108,
    798,
    799,
    1,
    1090,
    1164,
    1384,
    1383,
    1386,
    1384,
    1383,
    1386,
    1384,
    1383,
    1147,
    1213,
    1214,
    1383,
    1385,
    1387,
    1383,
    1124,
    843,
    844,
    911,
    912,
    911,
    912,
    911,
    1197,
    1198,
    1147,
    1213,
    1214,
    1213,
    1214,
    1199,
    1200,
    1197,
    1198,
    1383,
    1385,
    1387,
    1123,
    1125,
    7,
    1389,
    882,
    883,
    823,
    824,
    825,
    826,
    827,
    1089,
    1383,
    1384,
    1164,
    1147,
    1123,
    1124,
    1023,
    1024,
    3,
    3,
    6,
    1389,
    897,
    898,
    899,
    15,
    1105,
    1106,
    1384,
    1385,
    1384,
    1388,
    1125,
    3,
    31,
    32,
    3,
    31,
    32,
    939,
    940,
    703,
    957,
    958,
    2,
    1105,
    1106,
    1147,
    1147,
    1148,
    1215,
    1216,
    1199,
    1200,
    1149,
    1215,
    1216,
    1197,
    1198,
    1147,
    1148,
    1199,
    1200,
    1147,
    1148,
    1383,
    1388,
    1386,
    1387,
    1385,
    1386,
    1385,
    1387,
    1387,
    1383,
    1388,
    1385,
    1383,
    1385,
    1385,
    1383,
    1213,
    1214,
    1108,
    814,
    815,
    1105,
    1106,
    1385,
    1383,
    1385,
    1388,
    1385,
    1384,
    1163,
    1383,
    1387,
    1386,
    1388,
    1383,
    1386,
    1164,
    1123,
    1124,
    870,
    859,
    860,
    4,
    3,
    5,
    5,
    3,
    1213,
    1214,
    1147,
    1199,
    1200,
    1197,
    1198,
    1215,
    1216,
    1213,
    1214,
    1147,
    1386,
    1124,
    1074,
    15,
    16,
    1405,
    898,
    899,
    1090,
    1091,
    1092,
    1090,
    1091,
    1387,
    1384,
    1383,
    1148,
    1124,
    866,
    867,
    1039,
    1040,
    4,
    7,
    2,
    1405,
    913,
    1090,
    1092,
    31,
    1090,
    1385,
    1388,
    1385,
    1123,
    1124,
    934,
    935,
    936,
    937,
    936,
    937,
    938,
    955,
    956,
    719,
    973,
    974,
    14,
    1090,
    1384,
    1197,
    1198,
    11,
    1199,
    1200,
    1215,
    1216,
    1199,
    1200,
    1149,
    1213,
    1214,
    1197,
    1198,
    1215,
    1216,
    1197,
    1198,
    1197,
    1198,
    1148,
    1385,
    1387,
    1388,
    1387,
    1383,
    1388,
    1388,
    1387,
    1385,
    1384,
    1385,
    1386,
    1148,
    1383,
    1387,
    1124,
    830,
    831,
    3,
    1122,
    1384,
    1385,
    1388,
    1387,
    1387,
    1383,
    1385,
    1383,
    1388,
    1383,
    1383,
    1385,
    1387,
    1125,
    884,
    885,
    886,
    7,
    1,
    5,
    7,
    3,
    2,
    6,
    1385,
    1199,
    1200,
    1215,
    1216,
    1213,
    1214,
    1123,
    1123,
    1123,
    1385,
    1383,
    1124,
    1023,
    1024,
    31,
    32,
    1421,
    1089,
    1091,
    1384,
    1165,
    1199,
    1200,
    1197,
    1198,
    1383,
    1107,
    1124,
    881,
    882,
    883,
    1055,
    914,
    1090,
    1091,
    1093,
    1421,
    1090,
    1385,
    1165,
    1091,
    1383,
    1385,
    1163,
    1124,
    1010,
    1011,
    950,
    951,
    952,
    953,
    952,
    953,
    954,
    971,
    1304,
    989,
    990,
    991,
    1089,
    1385,
    1147,
    1213,
    1214,
    733,
    1215,
    1216,
    1150,
    1151,
    1215,
    1216,
    1197,
    1198,
    11,
    1213,
    1214,
    1197,
    1198,
    1213,
    1214,
    1213,
    1214,
    1384,
    1387,
    1197,
    1198,
    1386,
    1388,
    1385,
    1383,
    1383,
    1383,
    1383,
    1387,
    1383,
    1385,
    1385,
    1125,
    884,
    885,
    886,
    1090,
    1091,
    1386,
    1386,
    1384,
    1385,
    1386,
    1383,
    1387,
    1387,
    1383,
    11,
    1387,
    1384,
    1124,
    880,
    900,
    901,
    1,
    843,
    844,
    911,
    912,
    911,
    912,
    911,
    1384,
    1215,
    1216,
    1123,
    1123,
    1123,
    1124,
    1074,
    47,
    1074,
    1122,
    1124,
    881,
    1039,
    1040,
    3,
    2,
    1090,
    1383,
    1387,
    1384,
    1388,
    1215,
    1216,
    1213,
    1214,
    1147,
    1124,
    805,
    897,
    898,
    899,
    1090,
    1091,
    1385,
    1165,
    1384,
    1091,
    1384,
    1385,
    1388,
    1384,
    1387,
    1123,
    1125,
    1025,
    1026,
    1027,
    966,
    967,
    968,
    969,
    968,
    969,
    970,
    1013,
    1014,
    1005,
    1006,
    1090,
    1385,
    1384,
    1163,
    1147,
    1388,
    1147,
    1197,
    1198,
    1166,
    1167,
    1147,
    1388,
    1213,
    1214,
    1148,
    1199,
    1200,
    1213,
    1214,
    1150,
    1151,
    1387,
    1197,
    1198,
    1147,
    1213,
    1214,
    1383,
    1165,
    1383,
    1384,
    1385,
    1385,
    1384,
    1384,
    1388,
    1387,
    1124,
    880,
    900,
    901,
    1090,
    1387,
    1386,
    1384,
    1385,
    1383,
    1387,
    1384,
    1383,
    1387,
    1388,
    1199,
    1200,
    1147,
    1125,
    895,
    896,
    13,
    2,
    880,
    859,
    860,
    6,
    3,
    1,
    4,
    5,
    1123,
    1123,
    1124,
    1074,
    1074,
    791,
    792,
    793,
    794,
    793,
    794,
    795,
    897,
    1055,
    2,
    1090,
    1091,
    1383,
    1387,
    1384,
    1387,
    1164,
    1386,
    1147,
    1197,
    1198,
    1108,
    820,
    821,
    913,
    1090,
    1091,
    1383,
    1384,
    1386,
    1388,
    1387,
    1388,
    1387,
    1387,
    1384,
    1387,
    1124,
    1010,
    1011,
    1041,
    1042,
    1043,
    987,
    988,
    975,
    976,
    985,
    986,
    1028,
    1029,
    1030,
    1090,
    1091,
    1164,
    1384,
    1385,
    1123,
    1386,
    1148,
    11,
    1213,
    1214,
    1197,
    1198,
    1388,
    1147,
    1164,
    1197,
    1198,
    1215,
    1216,
    1147,
    1388,
    1166,
    1167,
    1148,
    1213,
    1214,
    1199,
    1200,
    1385,
    1383,
    1383,
    1385,
    1386,
    1386,
    1383,
    1384,
    1385,
    1388,
    1125,
    895,
    896,
    1,
    1089,
    1388,
    1388,
    1384,
    1384,
    1383,
    1387,
    1386,
    1387,
    1387,
    1386,
    1147,
    1215,
    1216,
    1124,
    884,
    885,
    886,
    4,
    895,
    896,
    1,
    843,
    844,
    911,
    912,
    911,
    912,
    1074,
    1074,
    791,
    792,
    795,
    807,
    808,
    809,
    810,
    809,
    810,
    811,
    913,
    914,
    1090,
    1383,
    1387,
    1384,
    1386,
    1387,
    1386,
    1388,
    1388,
    1147,
    1213,
    1214,
    1124,
    796,
    797,
    1090,
    1386,
    1387,
    1387,
    1387,
    1386,
    1388,
    1387,
    1385,
    1384,
    1163,
    1123,
    1124,
    1025,
    1026,
    1027,
    1057,
    1058,
    944,
    1003,
    1004,
    15,
    16,
    1001,
    1002,
    1044,
    1045,
    1089,
    1383,
    1386,
    1123,
    1123,
    1124,
    1074,
    1122,
    1123,
    1384,
    1383,
    1147,
    1213,
    1214,
    1148,
    1386,
    1388,
    1213,
    1214,
    1149,
    1197,
    1198,
    1148,
    1147,
    1197,
    1198,
    1147,
    1385,
    1215,
    1216,
    1197,
    1198,
    1383,
    1383,
    1386,
    1384,
    1386,
    1387,
    1387,
    1124,
    1,
    7,
    16,
    1089,
    1163,
    1387,
    1388,
    1383,
    1386,
    1384,
    1388,
    1383,
    1386,
    1388,
    1197,
    1198,
    1387,
    1125,
    880,
    900,
    901,
    1,
    845,
    846,
    847,
    880,
    859,
    860,
    1090,
    1091,
    1091,
    1091,
    794,
    795,
    807,
    808,
    811,
    823,
    824,
    825,
    826,
    825,
    826,
    827,
    1090,
    1091,
    1384,
    1387,
    1386,
    1387,
    1383,
    1386,
    1387,
    1388,
    1148,
    1123,
    1123,
    1125,
    881,
    812,
    813,
    1106,
    1386,
    1164,
    1383,
    1125,
    1121,
    1386,
    1164,
    1387,
    1387,
    1124,
    1010,
    1011,
    1041,
    1042,
    1043,
    1012,
    959,
    960,
    1,
    3,
    1,
    1,
    1090,
    1091,
    1092,
    1090,
    1163,
    1383,
    1125,
    1074,
    1074,
    2,
    7,
    3,
    1074,
    1122,
    1123,
    1383,
    1384,
    1383,
    1387,
    1388,
    1147,
    1385,
    1197,
    1198,
    1213,
    1214,
    1199,
    1200,
    1213,
    1214,
    1385,
    1197,
    1198,
    1147,
    1213,
    1214,
    1388,
    1383,
    1385,
    1383,
    1385,
    1386,
    1124,
    736,
    1,
    31,
    1090,
    1385,
    1384,
    1387,
    1385,
    1385,
    1384,
    1383,
    1383,
    1385,
    1165,
    1383,
    1213,
    1214,
    1124,
    895,
    896,
    1,
    5,
    870,
    861,
    862,
    895,
    896,
    7,
    1090,
    1388,
    1150,
    1151,
    1147,
    810,
    811,
    823,
    824,
    827,
    1090,
    1091,
    1092,
    14,
    7,
    1090,
    1091,
    1384,
    1384,
    1385,
    1388,
    1383,
    1386,
    1385,
    1387,
    1384,
    1123,
    1124,
    791,
    792,
    795,
    897,
    828,
    1090,
    1386,
    1163,
    1123,
    1124,
    1023,
    1024,
    1122,
    1123,
    1123,
    1124,
    1025,
    1026,
    1027,
    1057,
    1058,
    1303,
    1028,
    1029,
    2,
    3,
    15,
    7,
    1090,
    1385,
    1384,
    1163,
    1387,
    1388,
    1124,
    843,
    844,
    911,
    912,
    911,
    912,
    839,
    840,
    7,
    1122,
    1388,
    1383,
    1383,
    1164,
    1388,
    1386,
    1213,
    1214,
    1148,
    1387,
    1215,
    1216,
    10,
    1147,
    1148,
    1213,
    1214,
    11,
    1150,
    1151,
    1383,
    1383,
    1385,
    1388,
    1383,
    1124,
    798,
    799,
    1,
    1090,
    1387,
    1384,
    1383,
    1386,
    1386,
    1388,
    1385,
    1383,
    1387,
    1388,
    1383,
    1147,
    1385,
    1125,
    884,
    885,
    886,
    6,
    7,
    16,
    4,
    845,
    846,
    847,
    1089,
    1386,
    1165,
    1166,
    1167,
    1387,
    826,
    827,
    1090,
    1091,
    1091,
    1388,
    1386,
    1384,
    1093,
    1089,
    1388,
    1387,
    1384,
    1384,
    1386,
    1383,
    1385,
    1387,
    1384,
    1123,
    1125,
    3,
    1389,
    807,
    808,
    811,
    913,
    1090,
    1383,
    1388,
    1124,
    789,
    790,
    1039,
    1040,
    2,
    1152,
    1010,
    1011,
    1041,
    1042,
    1043,
    1304,
    1013,
    1014,
    1044,
    1045,
    2,
    1,
    31,
    32,
    1122,
    1123,
    1123,
    1123,
    1123,
    1124,
    870,
    859,
    860,
    1,
    1,
    1,
    1,
    855,
    856,
    2,
    7,
    1122,
    1384,
    1384,
    1385,
    1383,
    1383,
    1385,
    1385,
    1385,
    1149,
    1385,
    1383,
    1199,
    1200,
    1388,
    1147,
    1199,
    1200,
    1166,
    1167,
    1388,
    1388,
    1388,
    1385,
    1108,
    1109,
    814,
    815,
    1105,
    1106,
    1385,
    1383,
    1385,
    1388,
    1386,
    1386,
    1386,
    1387,
    1386,
    1383,
    1385,
    1387,
    1124,
    880,
    900,
    901,
    1,
    3,
    6,
    32,
    880,
    861,
    862,
    1090,
    1387,
    1388,
    1383,
    1147,
    1123,
    1124,
    3,
    1089,
    1388,
    1384,
    1384,
    1385,
    1164,
    1384,
    1385,
    1385,
    1387,
    1388,
    1384,
    1383,
    1165,
    1383,
    1124,
    1122,
    1124,
    3,
    6,
    7,
    1405,
    823,
    824,
    827,
    1090,
    1130,
    1126,
    1125,
    804,
    805,
    806,
    1055,
    2,
    3,
    1025,
    1026,
    1027,
    1057,
    1058,
    1303,
    1028,
    1029,
    1030,
    1089,
    1091,
    1092,
    3,
    843,
    844,
    911,
    912,
    841,
    842,
    884,
    885,
    886,
    1,
    843,
    844,
    911,
    912,
    839,
    836,
    837,
    838,
    3,
    2,
    1121,
    1388,
    1385,
    1383,
    1388,
    1123,
    1123,
    1148,
    1386,
    1387,
    1147,
    1215,
    1216,
    1197,
    1198,
    1215,
    1216,
    1385,
    1386,
    1165,
    1387,
    1385,
    1384,
    1388,
    1092,
    830,
    831,
    1090,
    1076,
    1077,
    1385,
    1388,
    1387,
    1383,
    1383,
    1385,
    1388,
    1383,
    1386,
    1388,
    1125,
    895,
    896,
    4,
    5,
    6,
    4,
    4,
    895,
    896,
    1090,
    1091,
    1387,
    1385,
    1388,
    1387,
    1124,
    884,
    885,
    1091,
    1386,
    1165,
    1385,
    1384,
    1388,
    1385,
    1387,
    1388,
    1388,
    1387,
    1388,
    1383,
    1383,
    1384,
    1108,
    1109,
    1,
    6,
    2,
    1,
    2,
    1421,
    1090,
    1091,
    1091,
    1130,
    1180,
    1135,
    1088,
    820,
    821,
    822,
    7,
    932,
    933,
    1041,
    1042,
    1043,
    1319,
    1320,
    944,
    1044,
    1045,
    1090,
    1383,
    1123,
    1124,
    870,
    859,
    860,
    3,
    3,
    857,
    858,
    900,
    901,
    1,
    880,
    859,
    860,
    1,
    4,
    855,
    856,
    853,
    854,
    839,
    840,
    1152,
    1122,
    1123,
    1123,
    1124,
    1074,
    1074,
    1122,
    1123,
    1387,
    1386,
    1384,
    1386,
    1213,
    1214,
    1385,
    1383,
    1387,
    1384,
    1388,
    1388,
    1387,
    1165,
    1384,
    1108,
    798,
    799,
    1106,
    1165,
    1383,
    1383,
    1387,
    1383,
    1387,
    1387,
    1383,
    1383,
    1385,
    1387,
    1124,
    884,
    885,
    886,
    4,
    4,
    2,
    2,
    5,
    779,
    780,
    1106,
    1165,
    1387,
    1388,
    1388,
    1124,
    880,
    900,
    901,
    702,
    1388,
    1384,
    1385,
    1386,
    1386,
    1386,
    1383,
    1388,
    1386,
    1383,
    1163,
    1383,
    1385,
    1123,
    1124,
    1023,
    1024,
    2,
    6,
    1090,
    1091,
    1091,
    1107,
    1164,
    1124,
    1132,
    1134,
    1,
    865,
    796,
    797,
    2,
    947,
    948,
    949,
    1057,
    1058,
    1319,
    1320,
    959,
    960,
    1090,
    1091,
    1385,
    1125,
    884,
    885,
    886,
    2,
    3,
    5,
    2,
    2,
    1,
    1,
    7,
    895,
    896,
    3,
    2,
    1,
    1,
    836,
    837,
    838,
    1,
    855,
    856,
    31,
    32,
    7,
    15,
    4,
    911,
    912,
    839,
    840,
    1122,
    1388,
    1387,
    1147,
    1386,
    1385,
    1383,
    1383,
    1387,
    1384,
    1383,
    1388,
    1387,
    1387,
    1385,
    1108,
    814,
    815,
    1122,
    1383,
    1387,
    1384,
    1383,
    1383,
    1388,
    1386,
    1387,
    1388,
    1387,
    1125,
    880,
    900,
    901,
    5,
    4,
    4,
    4,
    15,
    4,
    6,
    1105,
    1106,
    1388,
    1387,
    1386,
    1108,
    895,
    896,
    7,
    1090,
    1384,
    1386,
    1385,
    1384,
    1385,
    1385,
    1383,
    1383,
    1388,
    1387,
    1387,
    1388,
    1384,
    1124,
    789,
    790,
    1039,
    1040,
    5,
    1090,
    1383,
    1076,
    1077,
    1123,
    1124,
    1,
    1,
    3,
    2,
    881,
    812,
    813,
    3,
    963,
    964,
    965,
    1303,
    1319,
    1320,
    989,
    990,
    991,
    1106,
    1384,
    1124,
    880,
    900,
    901,
    1,
    843,
    844,
    911,
    912,
    841,
    842,
    843,
    844,
    1,
    843,
    844,
    911,
    912,
    839,
    840,
    853,
    854,
    839,
    836,
    837,
    838,
    7,
    2,
    31,
    32,
    3,
    7,
    855,
    856,
    7,
    1121,
    1383,
    1388,
    1387,
    1384,
    1386,
    1387,
    1386,
    1387,
    1385,
    1387,
    1388,
    1386,
    1384,
    1124,
    830,
    831,
    7,
    1122,
    1386,
    1387,
    1383,
    1383,
    1387,
    1163,
    1387,
    1385,
    1124,
    779,
    780,
    6,
    6,
    3,
    4,
    3,
    15,
    31,
    2,
    1,
    1105,
    1106,
    1384,
    1387,
    1388,
    1124,
    779,
    780,
    1090,
    1384,
    1384,
    1387,
    1384,
    1388,
    1385,
    1388,
    1383,
    1387,
    1388,
    1386,
    1384,
    1386,
    1124,
    804,
    805,
    806,
    1055,
    914,
    1090,
    1388,
    1387,
    1077,
    1125,
    1074,
    2,
    791,
    792,
    794,
    795,
    897,
    828,
    7,
    2,
    929,
    930,
    1319,
    1320,
    1320,
    944,
    1005,
    1006,
    1090,
    1388,
    1125,
    895,
    896,
    6,
    3,
    880,
    859,
    860,
    3,
    7,
    857,
    858,
    859,
    860,
    870,
    859,
    860,
    1090,
    1092,
    855,
    856,
    2,
    1,
    855,
    856,
    853,
    854,
    15,
    16,
    4,
    16,
    912,
    839,
    836,
    837,
    838,
    2,
    1122,
    1385,
    1384,
    1386,
    1383,
    1388,
    1383,
    1386,
    1386,
    1384,
    1387,
    1388,
    1385,
    1092,
    871,
    872,
    873,
    2,
    1121,
    1383,
    1385,
    1387,
    1386,
    1387,
    1387,
    1383,
    1092,
    2,
    3,
    2,
    1,
    5,
    5,
    3,
    5,
    735,
    736,
    3,
    1090,
    1388,
    1383,
    1385,
    1383,
    1093,
    6,
    4,
    1106,
    1388,
    1385,
    1383,
    1384,
    1387,
    1386,
    1385,
    1383,
    1385,
    1387,
    1384,
    1388,
    1125,
    47,
    820,
    821,
    822,
    7,
    1089,
    1383,
    1385,
    1163,
    1124,
    15,
    2,
    1389,
    807,
    808,
    810,
    811,
    913,
    2,
    3,
    3,
    945,
    946,
    1303,
    1304,
    959,
    960,
    3,
    1090,
    1384,
    1124,
    845,
    846,
    847,
    3,
    895,
    896,
    1088,
    5,
    6,
    1,
    4,
    1,
    884,
    885,
    886,
    1090,
    1091,
    1107,
    1108,
    836,
    837,
    838,
    2,
    836,
    837,
    838,
    1,
    31,
    4,
    31,
    32,
    1,
    855,
    856,
    853,
    854,
    839,
    840,
    1121,
    1387,
    1386,
    1387,
    1383,
    1385,
    1387,
    11,
    1147,
    1388,
    1387,
    1384,
    1384,
    1092,
    888,
    889,
    890,
    1105,
    1106,
    1384,
    1164,
    1383,
    1386,
    1388,
    1388,
    1124,
    3,
    3,
    5,
    6,
    2,
    4,
    2,
    845,
    846,
    847,
    1089,
    1383,
    1387,
    1384,
    1386,
    1387,
    1108,
    4,
    2,
    1121,
    1388,
    1387,
    1383,
    1387,
    1165,
    1386,
    1383,
    1386,
    1385,
    1388,
    1387,
    1385,
    1093,
    14,
    785,
    786,
    787,
    1090,
    1387,
    1384,
    1387,
    1124,
    15,
    2,
    32,
    1405,
    823,
    824,
    826,
    827,
    1075,
    3,
    2,
    2,
    961,
    962,
    1319,
    1320,
    941,
    942,
    2,
    1122,
    1125,
    880,
    861,
    862,
    1152,
    845,
    846,
    847,
    843,
    844,
    911,
    912,
    911,
    912,
    900,
    901,
    1088,
    1122,
    1123,
    1123,
    1124,
    1088,
    853,
    854,
    839,
    852,
    853,
    854,
    4,
    4,
    1090,
    1091,
    1091,
    1092,
    836,
    837,
    838,
    1,
    855,
    856,
    1105,
    1106,
    1384,
    1388,
    1383,
    1386,
    1150,
    1151,
    1197,
    1198,
    10,
    1387,
    1384,
    1384,
    1092,
    905,
    906,
    1090,
    1388,
    1385,
    1383,
    1385,
    1387,
    1385,
    1125,
    1,
    2,
    6,
    4,
    2,
    6,
    7,
    880,
    861,
    862,
    1090,
    1383,
    1383,
    1383,
    1388,
    1383,
    1123,
    1124,
    736,
    7,
    1105,
    1106,
    1384,
    1384,
    1386,
    1386,
    1383,
    1386,
    1163,
    1387,
    1385,
    1388,
    1387,
    1385,
    1092,
    801,
    802,
    803,
    1106,
    1388,
    1077,
    1124,
    15,
    2,
    32,
    2,
    1421,
    4,
    13,
    1,
    1090,
    1091,
    1092,
    7,
    3,
    939,
    940,
    703,
    703,
    957,
    958,
    1152,
    2,
    895,
    896,
    1,
    1,
    2,
    861,
    862,
    880,
    859,
    860,
    843,
    844,
    911,
    911,
    912,
    912,
    841,
    842,
    843,
    844,
    839,
    840,
    1090,
    1092,
    855,
    856,
    1,
    1,
    2,
    1090,
    1384,
    1125,
    1122,
    1124,
    852,
    853,
    854,
    839,
    836,
    837,
    838,
    1122,
    1384,
    1383,
    1385,
    1387,
    1166,
    1167,
    1213,
    1214,
    1147,
    1387,
    1388,
    1384,
    1108,
    798,
    799,
    1106,
    1384,
    1387,
    1387,
    1384,
    1386,
    1124,
    3,
    3,
    3,
    735,
    736,
    5,
    5,
    895,
    896,
    1090,
    1091,
    1383,
    1387,
    1384,
    1165,
    1164,
    1124,
    845,
    846,
    847,
    1075,
    1089,
    1387,
    1386,
    1385,
    1385,
    1387,
    1388,
    1387,
    1383,
    1383,
    1387,
    1383,
    1383,
    1385,
    1108,
    817,
    818,
    819,
    1106,
    1077,
    1125,
    3,
    31,
    32,
    914,
    915,
    2,
    2,
    3,
    1090,
    1165,
    1383,
    1124,
    932,
    933,
    955,
    956,
    719,
    719,
    973,
    974,
    7,
    15,
    16,
    886,
    884,
    885,
    3,
    1,
    895,
    896,
    1,
    880,
    859,
    860,
    1075,
    1090,
    1091,
    1092,
    857,
    858,
    859,
    860,
    855,
    856,
    1122,
    1124,
    836,
    837,
    838,
    2,
    1105,
    1106,
    1387,
    1092,
    911,
    912,
    839,
    840,
    5,
    855,
    856,
    853,
    854,
    839,
    1122,
    1383,
    1388,
    1383,
    1199,
    1200,
    1148,
    1383,
    1388,
    1388,
    1387,
    1385,
    1108,
    814,
    815,
    1122,
    1383,
    1388,
    1386,
    1387,
    1108,
    3,
    2,
    5,
    15,
    798,
    799,
    862,
    845,
    846,
    847,
    1106,
    1387,
    1387,
    1386,
    1387,
    1163,
    1124,
    880,
    861,
    1075,
    1090,
    1091,
    1384,
    1388,
    1385,
    1384,
    1385,
    1387,
    1385,
    1384,
    1388,
    1165,
    1383,
    1385,
    1387,
    1385,
    1108,
    785,
    786,
    787,
    1122,
    1124,
    6,
    2,
    31,
    32,
    2,
    1085,
    4,
    4,
    1089,
    1385,
    1107,
    1124,
    947,
    948,
    949,
    971,
    1319,
    1320,
    989,
    990,
    991,
    15,
    31,
    32,
    798,
    799,
    901,
    1,
    845,
    846,
    847,
    895,
    896,
    3,
    1090,
    1091,
    1383,
    1387,
    1384,
    1091,
    1091,
    1091,
    1092,
    836,
    837,
    838,
    1152,
    852,
    853,
    854,
    2,
    2,
    1122,
    1123,
    1124,
    1152,
    7,
    855,
    856,
    3,
    833,
    834,
    835,
    1,
    855,
    856,
    1121,
    1165,
    1387,
    1215,
    1216,
    11,
    1147,
    1199,
    1200,
    1388,
    1164,
    1124,
    830,
    831,
    7,
    1122,
    1383,
    1383,
    1165,
    1108,
    798,
    799,
    4,
    31,
    814,
    815,
    798,
    799,
    862,
    1090,
    1383,
    1165,
    1388,
    1383,
    1386,
    1108,
    895,
    896,
    1090,
    1091,
    1383,
    1388,
    1385,
    1387,
    1386,
    1383,
    1383,
    1385,
    1386,
    1384,
    1388,
    1387,
    1165,
    1384,
    1387,
    1385,
    1108,
    801,
    802,
    803,
    2,
    14,
    2,
    3,
    915,
    4,
    1099,
    1101,
    1102,
    1090,
    1385,
    1384,
    1108,
    1109,
    963,
    964,
    965,
    1319,
    1320,
    944,
    1005,
    1006,
    1007,
    31,
    32,
    1088,
    814,
    815,
    1,
    880,
    861,
    15,
    15,
    16,
    847,
    3,
    1106,
    1387,
    1387,
    1386,
    1383,
    1387,
    1384,
    1150,
    1151,
    1092,
    853,
    854,
    911,
    912,
    841,
    15,
    4,
    15,
    16,
    912,
    839,
    840,
    4,
    833,
    834,
    835,
    849,
    850,
    851,
    6,
    785,
    786,
    787,
    1106,
    1383,
    1384,
    1147,
    1199,
    1200,
    1215,
    1216,
    1387,
    1388,
    1092,
    798,
    799,
    14,
    1105,
    1106,
    1385,
    1387,
    1124,
    814,
    815,
    15,
    16,
    830,
    831,
    814,
    815,
    1090,
    1197,
    1198,
    1384,
    1383,
    1385,
    1387,
    1108,
    798,
    799,
    1106,
    1387,
    1388,
    1164,
    1385,
    1384,
    1197,
    1198,
    1077,
    1384,
    1386,
    1385,
    1384,
    1385,
    1163,
    1388,
    1163,
    1388,
    1124,
    817,
    818,
    819,
    3,
    4,
    6,
    1,
    4,
    1100,
    1117,
    1180,
    1110,
    1111,
    1384,
    1385,
    1385,
    1092,
    977,
    978,
    979,
    703,
    959,
    960,
    7,
    1090,
    1092,
    15,
    16,
    2,
    830,
    831,
    779,
    780,
    1,
    31,
    31,
    32,
    7,
    1090,
    1388,
    1383,
    1388,
    1383,
    1387,
    1386,
    1387,
    1166,
    1167,
    1383,
    1092,
    1075,
    1090,
    1091,
    1092,
    31,
    32,
    31,
    4,
    2,
    855,
    856,
    5,
    849,
    850,
    851,
    1,
    785,
    786,
    787,
    801,
    802,
    803,
    1106,
    1387,
    1387,
    1385,
    1215,
    1216,
    1148,
    1383,
    1384,
    1385,
    1124,
    814,
    815,
    7,
    1090,
    1387,
    1387,
    1108,
    1109,
    830,
    831,
    31,
    32,
    798,
    799,
    830,
    831,
    1106,
    1213,
    1214,
    1384,
    1383,
    1384,
    1387,
    1124,
    814,
    815,
    1122,
    1385,
    1388,
    1385,
    1385,
    1383,
    1213,
    1214,
    1147,
    1388,
    1384,
    1383,
    1385,
    1387,
    1384,
    1388,
    1384,
    1125,
    7,
    796,
    797,
    15,
    5,
    5,
    3,
    829,
    1100,
    1086,
    1087,
    1087,
    1095,
    1111,
    1385,
    1387,
    1077,
    1108,
    1109,
    994,
    995,
    719,
    941,
    942,
    1090,
    1385,
    1108,
    31,
    32,
    6,
    779,
    780,
    4,
    4,
    735,
    736,
    15,
    16,
    1090,
    1386,
    1387,
    1384,
    1383,
    1385,
    1388,
    1383,
    1386,
    1163,
    1385,
    1387,
    1384,
    1091,
    1385,
    1385,
    1385,
    1091,
    1091,
    1092,
    15,
    4,
    833,
    834,
    835,
    1,
    785,
    786,
    787,
    801,
    802,
    803,
    817,
    818,
    819,
    1122,
    1387,
    1386,
    1147,
    1384,
    1147,
    1383,
    1384,
    1383,
    1108,
    1109,
    830,
    831,
    1105,
    1106,
    1385,
    1388,
    1387,
    1092,
    798,
    799,
    1,
    15,
    814,
    815,
    798,
    799,
    1106,
    1147,
    1199,
    1200,
    1163,
    1164,
    1108,
    1109,
    830,
    831,
    2,
    1121,
    1384,
    1383,
    1387,
    1384,
    1386,
    1148,
    1197,
    1198,
    1147,
    1148,
    1385,
    1384,
    1388,
    1387,
    1124,
    4,
    1389,
    812,
    813,
    31,
    32,
    6,
    2,
    3,
    1132,
    1133,
    1095,
    1097,
    1111,
    1387,
    1165,
    1123,
    1123,
    1124,
    2,
    939,
    940,
    703,
    957,
    958,
    1106,
    1165,
    1108,
    4,
    4,
    15,
    16,
    4,
    735,
    736,
    798,
    799,
    7,
    1105,
    1106,
    1388,
    1384,
    1387,
    1164,
    1387,
    1383,
    1385,
    1387,
    1387,
    1388,
    1387,
    1384,
    1384,
    1385,
    1385,
    1383,
    1163,
    1383,
    1384,
    1093,
    32,
    849,
    850,
    851,
    1,
    801,
    802,
    803,
    817,
    818,
    819,
    785,
    786,
    787,
    2,
    1121,
    1384,
    1199,
    1200,
    1384,
    1385,
    1385,
    1384,
    1383,
    1092,
    871,
    872,
    873,
    1122,
    1076,
    1077,
    1385,
    1108,
    814,
    815,
    1,
    31,
    830,
    831,
    814,
    815,
    1122,
    1384,
    1215,
    1216,
    1383,
    1387,
    1384,
    1092,
    798,
    799,
    4,
    1105,
    1106,
    1388,
    1383,
    1385,
    1197,
    1198,
    1213,
    1214,
    1197,
    1198,
    1386,
    1383,
    1123,
    1124,
    2,
    4,
    1405,
    828,
    15,
    16,
    1152,
    1090,
    1109,
    7,
    1023,
    1024,
    1122,
    1386,
    1386,
    1386,
    1125,
    1074,
    1074,
    932,
    933,
    955,
    956,
    719,
    973,
    974,
    1122,
    1386,
    1108,
    735,
    736,
    31,
    32,
    736,
    798,
    799,
    814,
    815,
    7,
    1090,
    1383,
    1387,
    1387,
    1388,
    1387,
    1384,
    1384,
    1387,
    1388,
    1385,
    1387,
    1387,
    1385,
    1385,
    1387,
    1383,
    1165,
    1388,
    1383,
    1385,
    1383,
    1092,
    7,
    785,
    786,
    787,
    817,
    818,
    819,
    785,
    786,
    787,
    801,
    802,
    803,
    3,
    1089,
    1386,
    1215,
    1216,
    10,
    1388,
    1385,
    1383,
    1384,
    1165,
    1092,
    888,
    889,
    890,
    1122,
    1076,
    1164,
    1124,
    830,
    831,
    15,
    16,
    798,
    799,
    830,
    831,
    1105,
    1106,
    1388,
    1384,
    1387,
    1386,
    1387,
    1108,
    814,
    815,
    2,
    1105,
    1106,
    1385,
    1388,
    1384,
    1213,
    1214,
    1387,
    1147,
    1213,
    1214,
    1147,
    1125,
    2,
    4,
    4,
    16,
    1421,
    2,
    31,
    32,
    1090,
    1108,
    789,
    790,
    1039,
    1040,
    1090,
    1383,
    1386,
    1124,
    15,
    16,
    1088,
    948,
    949,
    971,
    1304,
    989,
    990,
    991,
    1,
    1122,
    1124,
    798,
    799,
    2,
    798,
    799,
    814,
    815,
    830,
    831,
    1105,
    1106,
    1384,
    1387,
    1385,
    1387,
    1387,
    1385,
    1385,
    1385,
    1387,
    1384,
    1387,
    1388,
    1387,
    1384,
    1384,
    1165,
    1383,
    1388,
    1385,
    1388,
    1384,
    1387,
    1092,
    801,
    802,
    803,
    785,
    786,
    787,
    801,
    802,
    803,
    817,
    818,
    819,
    1090,
    1386,
    1386,
    1383,
    1150,
    1151,
    1385,
    1388,
    1383,
    1164,
    1384,
    1384,
    1092,
    905,
    906,
    1090,
    1165,
    1385,
    1092,
    798,
    799,
    31,
    32,
    814,
    815,
    871,
    872,
    873,
    1122,
    1384,
    1387,
    1388,
    1383,
    1386,
    1124,
    830,
    831,
    4,
    13,
    1122,
    1383,
    1384,
    1387,
    1147,
    1148,
    1163,
    1148,
    1123,
    1123,
    1124,
    1023,
    1024,
    15,
    16,
    3,
    4,
    16,
    2,
    1090,
    1388,
    1124,
    805,
    806,
    1055,
    1089,
    1383,
    1388,
    1125,
    1152,
    31,
    32,
    963,
    964,
    965,
    1304,
    944,
    1005,
    1006,
    15,
    7,
    15,
    16,
    814,
    815,
    3,
    814,
    815,
    830,
    831,
    798,
    799,
    1105,
    1106,
    1388,
    1387,
    1384,
    1387,
    1385,
    1388,
    1384,
    1384,
    1387,
    1383,
    1385,
    1387,
    1387,
    1385,
    1385,
    1387,
    1387,
    1388,
    1386,
    1388,
    1385,
    1384,
    1108,
    817,
    818,
    819,
    801,
    802,
    803,
    817,
    818,
    819,
    833,
    834,
    835,
    1106,
    1164,
    1197,
    1198,
    1166,
    1167,
    1148,
    1385,
    1385,
    1387,
    1384,
    1384,
    1108,
    798,
    799,
    1106,
    1384,
    1387,
    1108,
    814,
    815,
    1,
    15,
    830,
    831,
    887,
    888,
    889,
    890,
    1106,
    1384,
    1383,
    1163,
    1387,
    1092,
    871,
    872,
    873,
    2,
    1105,
    1106,
    1388,
    1384,
    1125,
    1122,
    1123,
    1124,
    791,
    792,
    795,
    1039,
    1040,
    31,
    4,
    31,
    32,
    32,
    1090,
    1107,
    1108,
    820,
    821,
    822,
    1090,
    1386,
    1386,
    1386,
    1093,
    2,
    15,
    3,
    929,
    930,
    1303,
    959,
    960,
    15,
    16,
    1,
    32,
    31,
    7,
    830,
    831,
    4,
    830,
    831,
    814,
    815,
    814,
    815,
    1105,
    1106,
    1383,
    1385,
    1383,
    1384,
    1386,
    1387,
    1388,
    1383,
    1384,
    1385,
    1384,
    1387,
    1385,
    1388,
    1384,
    1290,
    1388,
    1387,
    1386,
    1385,
    1147,
    1163,
    1108,
    785,
    786,
    787,
    817,
    818,
    819,
    833,
    834,
    835,
    849,
    850,
    851,
    1122,
    1386,
    1213,
    1214,
    1148,
    1197,
    1198,
    1388,
    1383,
    1387,
    1385,
    1164,
    1108,
    814,
    815,
    1122,
    1383,
    1388,
    1108,
    830,
    831,
    3,
    31,
    32,
    3,
    903,
    904,
    905,
    906,
    1122,
    1385,
    1385,
    1386,
    1387,
    1385,
    1093,
    888,
    889,
    890,
    1105,
    1106,
    1387,
    702,
    792,
    793,
    794,
    795,
    807,
    808,
    811,
    1055,
    914,
    1,
    1,
    2,
    3,
    2,
    1122,
    1123,
    1124,
    796,
    797,
    1090,
    1387,
    1385,
    1386,
    1383,
    1165,
    1092,
    31,
    32,
    945,
    946,
    1303,
    941,
    942,
    31,
    32,
    15,
    1,
    1,
    845,
    846,
    735,
    736,
    779,
    780,
    830,
    831,
    830,
    831,
    1090,
    1387,
    1385,
    1384,
    1385,
    1388,
    1387,
    1387,
    1385,
    1387,
    1388,
    1387,
    1384,
    1384,
    1386,
    1387,
    1388,
    1384,
    1383,
    1388,
    1384,
    1386,
    1387,
    1182,
    1124,
    801,
    802,
    803,
    833,
    834,
    835,
    849,
    850,
    851,
    1,
    785,
    786,
    787,
    1106,
    1384,
    1387,
    1387,
    1213,
    1214,
    1383,
    1387,
    1384,
    1388,
    1384,
    1124,
    830,
    831,
    7,
    1122,
    1383,
    1108,
    871,
    872,
    873,
    13,
    735,
    736,
    1,
    3,
    871,
    872,
    873,
    1122,
    1386,
    1387,
    1384,
    1386,
    1388,
    1092,
    905,
    906,
    1090,
    1165,
    1386,
    1383,
    808,
    809,
    810,
    811,
    823,
    824,
    827,
    7,
    865,
    1023,
    1024,
    15,
    4,
    7,
    3,
    3,
    1389,
    812,
    813,
    1106,
    1164,
    1383,
    1385,
    1383,
    1387,
    1108,
    1109,
    3,
    961,
    962,
    1303,
    957,
    958,
    7,
    1,
    31,
    32,
    880,
    861,
    862,
    880,
    861,
    2,
    845,
    846,
    847,
    779,
    780,
    1106,
    927,
    1163,
    1383,
    1384,
    1386,
    1387,
    1388,
    1387,
    1385,
    1387,
    1387,
    1385,
    1385,
    1387,
    1387,
    1385,
    1385,
    1387,
    1385,
    1386,
    1386,
    1384,
    1108,
    1109,
    817,
    818,
    819,
    849,
    850,
    851,
    1,
    785,
    786,
    787,
    801,
    802,
    803,
    1122,
    1385,
    1384,
    1386,
    1385,
    1387,
    1387,
    1386,
    1387,
    1387,
    1388,
    1092,
    798,
    799,
    14,
    1105,
    1106,
    1384,
    1092,
    888,
    889,
    890,
    871,
    872,
    873,
    2,
    887,
    888,
    889,
    890,
    1106,
    1165,
    1387,
    1386,
    1384,
    1124,
    798,
    799,
    1122,
    1383,
    1383,
    1388,
    824,
    825,
    826,
    827,
    1090,
    1092,
    3,
    2,
    881,
    1039,
    1040,
    31,
    32,
    2,
    4,
    1,
    1405,
    828,
    1089,
    1383,
    1388,
    1383,
    1388,
    1383,
    1383,
    1108,
    1109,
    2,
    939,
    940,
    703,
    973,
    974,
    1,
    1090,
    1092,
    895,
    896,
    1,
    895,
    896,
    1,
    880,
    861,
    862,
    895,
    896,
    7,
    1122,
    1388,
    1387,
    1385,
    1388,
    1387,
    1387,
    1385,
    1384,
    1384,
    1387,
    1385,
    1388,
    1384,
    1387,
    1385,
    1388,
    1384,
    1387,
    1383,
    1385,
    1386,
    1386,
    1108,
    1109,
    833,
    834,
    835,
    1,
    785,
    786,
    787,
    801,
    802,
    803,
    817,
    818,
    819,
    1105,
    1106,
    1197,
    1198,
    1388,
    1386,
    1388,
    1383,
    1386,
    1387,
    1385,
    1124,
    814,
    815,
    7,
    1090,
    1387,
    1384,
    1165,
    1092,
    905,
    906,
    887,
    888,
    889,
    890,
    903,
    904,
    905,
    906,
    1106,
    1385,
    1385,
    1385,
    1108,
    1109,
    814,
    815,
    1105,
    1106,
    1388,
    1384,
    1090,
    1091,
    1091,
    1091,
    1165,
    1124,
    866,
    867,
    897,
    1055,
    4,
    5,
    1,
    1,
    2,
    1,
    1421,
    1090,
    1383,
    1388,
    1165,
    1388,
    1387,
    1383,
    1383,
    1124,
    932,
    933,
    955,
    956,
    719,
    941,
    942,
    1105,
    1106,
    1108,
    798,
    799,
    1,
    798,
    799,
    895,
    896,
    7,
    6,
    798,
    799,
    14,
    1105,
    1106,
    1384,
    1385,
    1387,
    1387,
    1385,
    1385,
    1385,
    1383,
    1384,
    1386,
    1387,
    1388,
    1384,
    1386,
    1387,
    1388,
    1384,
    1383,
    1386,
    1387,
    1384,
    1163,
    1092,
    849,
    850,
    851,
    1,
    801,
    802,
    803,
    817,
    818,
    819,
    833,
    834,
    835,
    1105,
    1106,
    1213,
    1214,
    1148,
    1386,
    1383,
    1385,
    1387,
    1388,
    1108,
    1109,
    830,
    831,
    7,
    1122,
    1385,
    1385,
    1385,
    1108,
    798,
    799,
    903,
    904,
    905,
    906,
    1,
    3,
    798,
    799,
    1122,
    1383,
    1385,
    1388,
    1383,
    1092,
    830,
    831,
    7,
    1122,
    1386,
    1387,
    1200,
    1164,
    1147,
    1123,
    1124,
    881,
    882,
    883,
    913,
    914,
    2,
    3,
    1,
    6,
    15,
    7,
    1089,
    1383,
    1383,
    1386,
    1384,
    1383,
    1383,
    1388,
    1108,
    1109,
    948,
    949,
    971,
    703,
    1304,
    957,
    958,
    1090,
    1387,
    1124,
    814,
    815,
    1088,
    814,
    815,
    798,
    799,
    4,
    7,
    814,
    815,
    7,
    1089,
    1384,
    1386,
    1384,
    1387,
    1388,
    1387,
    1384,
    1387,
    1385,
    1388,
    1387,
    1387,
    1387,
    1388,
    1387,
    1384,
    1384,
    1387,
    1387,
    1385,
    1385,
    1147,
    1385,
    1384,
    1092,
    785,
    786,
    787,
    817,
    818,
    819,
    833,
    834,
    835,
    849,
    850,
    851,
    2,
    1122,
    1387,
    1197,
    1198,
    1147,
    1387,
    1386,
    1387,
    1383,
    1385,
    1092,
    871,
    872,
    873,
    7,
    1121,
    1383,
    1385,
    1108,
    814,
    815,
    1,
    1152,
    871,
    872,
    873,
    6,
    814,
    815,
    3,
    1121,
    1387,
    1387,
    1386,
    1108,
    779,
    780,
    16,
    3,
    1121,
    1388,
    1216,
    1148,
    1124,
    866,
    867,
    897,
    898,
    899,
    7,
    2,
    1,
    4,
    1090,
    1092,
    31,
    1090,
    1384,
    1386,
    1386,
    1387,
    1387,
    1387,
    1383,
    1383,
    1124,
    963,
    964,
    965,
    992,
    719,
    1320,
    973,
    974,
    1106,
    1108,
    1109,
    830,
    831,
    1,
    830,
    831,
    814,
    815,
    6,
    2,
    830,
    831,
    1090,
    1387,
    1384,
    1388,
    1383,
    1385,
    1387,
    1388,
    1387,
    1387,
    1388,
    1387,
    1384,
    1384,
    1385,
    1387,
    1387,
    1385,
    1385,
    1387,
    1384,
    1388,
    1386,
    733,
    1388,
    1387,
    1108,
    801,
    802,
    803,
    833,
    834,
    835,
    849,
    850,
    851,
    1,
    785,
    786,
    787,
    3,
    1122,
    1213,
    1214,
    1148,
    1388,
    1383,
    1163,
    1384,
    1385,
    1384,
    1092,
    888,
    889,
    890,
    1105,
    1106,
    1384,
    1124,
    830,
    831,
    3,
    7,
    887,
    888,
    889,
    890,
    830,
    831,
    7,
    3,
    1122,
    1386,
    1384,
    1164,
    1092,
    31,
    32,
    16,
    1105,
    1106,
    1123,
    1125,
    881,
    882,
    883,
    913,
    914,
    1023,
    1024,
    7,
    6,
    1090,
    1164,
    1165,
    1091,
    1383,
    1384,
    1386,
    1386,
    1385,
    1386,
    1383,
    1165,
    1108,
    1109,
    929,
    930,
    1303,
    1008,
    1179,
    989,
    990,
    991,
    1106,
    1387,
    1092,
    798,
    799,
    1,
    798,
    799,
    830,
    831,
    2,
    4,
    880,
    1090,
    1388,
    1383,
    1383,
    1387,
    1384,
    1384,
    1385,
    1387,
    1387,
    1385,
    1387,
    1387,
    1385,
    1385,
    1384,
    1387,
    1385,
    1388,
    1384,
    1384,
    1383,
    1384,
    1386,
    1383,
    1387,
    1384,
    1108,
    817,
    818,
    819,
    849,
    850,
    851,
    1,
    785,
    786,
    787,
    801,
    802,
    803,
    2,
    1105,
    1106,
    1199,
    1200,
    1383,
    1385,
    1387,
    1383,
    1387,
    1384,
    1387,
    1092,
    905,
    906,
    1090,
    1388,
    1385,
    1092,
    871,
    872,
    873,
    6,
    903,
    904,
    905,
    906,
    1390,
    1391,
    1392,
    875,
    876,
    1121,
    1385,
    1384,
    1386,
    1092,
    31,
    32,
    1105,
    1106,
    791,
    795,
    897,
    898,
    899,
    789,
    790,
    1039,
    1040,
    1090,
    1091,
    1387,
    1388,
    1387,
    1387,
    1385,
    1386,
    1386,
    1385,
    1387,
    1384,
    1388,
    1387,
    1124,
    4,
    945,
    946,
    1319,
    1320,
    944,
    1005,
    1006,
    1089,
    1386,
    1383,
    1108,
    814,
    815,
    1,
    814,
    815,
    798,
    799,
    7,
    895,
    896,
    1122,
    1387,
    1384,
    1387,
    1386,
    1387,
    1383,
    1384,
    1387,
    1385,
    1384,
    1387,
    1385,
    1388,
    1384,
    1383,
    1384,
    1386,
    1387,
    1388,
    1387,
    1387,
    1387,
    1388,
    1387,
    1386,
    1387,
    1108,
    836,
    837,
    838,
    3,
    785,
    786,
    787,
    801,
    802,
    803,
    817,
    818,
    819,
    3,
    1105,
    1106,
    1215,
    1216,
    1383,
    1387,
    1384,
    1387,
    1386,
    1165,
    1388,
    1108,
    798,
    799,
    1106,
    1384,
    1387,
    1384,
    1092,
    888,
    889,
    890,
    4,
    3,
    798,
    799,
    1406,
    1407,
    1408,
    891,
    892,
    893,
    1122,
    1387,
    1388,
    1384,
    1092,
    7,
    7,
    1122,
    807,
    811,
    913,
    914,
    804,
    805,
    806,
    1055,
    1090,
    1386,
    1163,
    1384,
    1164,
    1387,
    1387,
    1386,
    1165,
    1388,
    1384,
    1386,
    1386,
    1385,
    1125,
    1088,
    3,
    961,
    962,
    703,
    959,
    960,
    7,
    1090,
    1383,
    1384,
    1385,
    1124,
    830,
    831,
    2,
    830,
    831,
    814,
    815,
    3,
    814,
    815,
    4,
    1121,
    1383,
    1388,
    1383,
    1386,
    1384,
    1383,
    1384,
    1386,
    1383,
    1384,
    1386,
    1387,
    1388,
    1385,
    1388,
    1387,
    1387,
    1385,
    1386,
    1388,
    1386,
    1383,
    1388,
    1383,
    1386,
    1388,
    1092,
    853,
    854,
    4,
    801,
    802,
    803,
    817,
    818,
    819,
    785,
    786,
    787,
    15,
    16,
    1122,
    1147,
    1386,
    1387,
    1386,
    1387,
    1388,
    1383,
    1386,
    1148,
    1108,
    814,
    815,
    1122,
    1383,
    1388,
    1384,
    1384,
    1092,
    905,
    906,
    7,
    6,
    814,
    815,
    6,
    1423,
    1424,
    907,
    908,
    909,
    910,
    1106,
    1384,
    1384,
    1108,
    1109,
    7,
    3,
    823,
    827,
    15,
    16,
    820,
    821,
    822,
    1090,
    1147,
    1387,
    1383,
    1383,
    1388,
    1387,
    1385,
    1386,
    1387,
    1384,
    1387,
    1388,
    1386,
    1124,
    7,
    15,
    16,
    929,
    930,
    719,
    941,
    942,
    1105,
    1106,
    1165,
    1384,
    1386,
    1092,
    798,
    799,
    4,
    798,
    799,
    830,
    831,
    6,
    830,
    831,
    1088,
    1105,
    1106,
    1383,
    1385,
    1387,
    1387,
    1385,
    1388,
    1387,
    1385,
    1388,
    1387,
    1387,
    1388,
    1383,
    1164,
    1387,
    1386,
    1387,
    1384,
    1387,
    1384,
    1388,
    1383,
    1385,
    1387,
    1384,
    1387,
    1092,
    2,
    3,
    817,
    818,
    819,
    785,
    786,
    787,
    801,
    802,
    803,
    31,
    32,
    1152,
    1121,
    1384,
    1388,
    1383,
    1386,
    1383,
    1385,
    1387,
    1147,
    1124,
    830,
    831,
    7,
    1122,
    1383,
    1385,
    1385,
    1108,
    798,
    799,
    1,
    1,
    830,
    831,
    3,
    5,
    5,
    6,
    924,
    925,
    926,
    1122,
    1385,
    1388,
    1108,
    2,
    4,
    6,
    1091,
    1092,
    31,
    32,
    785,
    786,
    787,
    1106,
    1199,
    1200,
    1387,
    1165,
    1383,
    1384,
    1387,
    1385,
    1387,
    1385,
    1388,
    1123,
    1124,
    1023,
    1024,
    31,
    32,
    945,
    946,
    703,
    957,
    958,
    1105,
    1106,
    1385,
    1387,
    1163,
    1108,
    814,
    815,
    1,
    814,
    815,
    871,
    872,
    873,
    871,
    872,
    873,
    874,
    1122,
    1384,
    1384,
    1388,
    1383,
    1384,
    1384,
    1385,
    1386,
    1388,
    1386,
    1384,
    1387,
    1384,
    1388,
    1387,
    1384,
    1384,
    1383,
    1388,
    1387,
    1387,
    1384,
    1163,
    1385,
    1386,
    1123,
    1124,
    15,
    1088,
    785,
    786,
    787,
    801,
    802,
    803,
    817,
    818,
    819,
    15,
    3,
    3,
    1105,
    1106,
    1383,
    1385,
    1387,
    1383,
    1386,
    1197,
    1198,
    1092,
    798,
    799,
    14,
    1105,
    1106,
    1388,
    1384,
    1108,
    814,
    815,
    3,
    2,
    779,
    780,
    5,
    1,
    2,
    4,
    7,
    3,
    7,
    1105,
    1106,
    1383,
    1108,
    1109,
    3,
    5,
    1164,
    1147,
    1092,
    14,
    801,
    802,
    803,
    1106,
    1215,
    1216,
    1147,
    1388,
    1386,
    1387,
    1385,
    1388,
    1383,
    1387,
    1124,
    789,
    790,
    1039,
    1040,
    3,
    4,
    961,
    962,
    719,
    973,
    974,
    7,
    1122,
    1123,
    1383,
    1387,
    1108,
    830,
    831,
    5,
    830,
    831,
    887,
    888,
    889,
    890,
    888,
    889,
    890,
    4,
    1121,
    1383,
    1387,
    1384,
    1383,
    1387,
    1384,
    1384,
    1383,
    1387,
    1383,
    1386,
    1384,
    1385,
    1388,
    1385,
    1385,
    1385,
    1387,
    1386,
    1384,
    1385,
    1386,
    1386,
    1124,
    1,
    1,
    31,
    32,
    796,
    797,
    1,
    817,
    818,
    819,
    785,
    786,
    787,
    31,
    32,
    2,
    1089,
    1388,
    1383,
    1387,
    1384,
    1388,
    1387,
    1213,
    1214,
    1124,
    814,
    815,
    7,
    1090,
    1387,
    1387,
    1388,
    1124,
    830,
    831,
    3,
    3,
    6,
    3,
    5,
    1,
    3,
    1,
    894,
    6,
    2,
    1105,
    1106,
    1383,
    1383,
    1093,
    1,
    1,
    1385,
    1383,
    1108,
    1109,
    817,
    818,
    819,
    1122,
    1387,
    1197,
    1198,
    1388,
    1387,
    1385,
    1383,
    1383,
    1383,
    1124,
    804,
    805,
    806,
    1055,
    1090,
    1092,
    4,
    929,
    930,
    703,
    1438,
    1439,
    1440,
    1019,
    1020,
    1122,
    1383,
    1108,
    779,
    780,
    5,
    871,
    872,
    873,
    904,
    905,
    906,
    904,
    905,
    906,
    2,
    1105,
    1106,
    1386,
    1383,
    1387,
    1386,
    1387,
    1383,
    1387,
    1383,
    1384,
    1388,
    1386,
    1383,
    1387,
    1388,
    1386,
    1386,
    1385,
    1387,
    1386,
    1386,
    1123,
    1124,
    2,
    3,
    5,
    15,
    1389,
    812,
    813,
    1,
    785,
    786,
    787,
    801,
    802,
    803,
    15,
    16,
    1090,
    1384,
    1388,
    1387,
    1386,
    1387,
    1385,
    1147,
    1388,
    1108,
    1109,
    830,
    831,
    1105,
    1106,
    1164,
    1387,
    1387,
    1092,
    1390,
    1391,
    1392,
    875,
    876,
    4,
    5,
    3,
    1,
    1,
    4,
    5,
    6,
    7,
    1122,
    1387,
    1385,
    1386,
    1091,
    1092,
    1147,
    1165,
    1108,
    1109,
    785,
    786,
    787,
    2,
    1121,
    1213,
    1214,
    1387,
    1388,
    1387,
    1384,
    1384,
    1108,
    1109,
    820,
    821,
    822,
    1090,
    1164,
    1108,
    1109,
    945,
    946,
    719,
    1454,
    1455,
    1456,
    1035,
    1036,
    1037,
    1122,
    1384,
    1092,
    1,
    2,
    4,
    888,
    889,
    890,
    798,
    799,
    1,
    798,
    799,
    4,
    1105,
    1106,
    1165,
    927,
    1388,
    1383,
    1386,
    1387,
    1387,
    1386,
    1383,
    1165,
    1385,
    1385,
    1384,
    1385,
    1388,
    1384,
    1384,
    1386,
    1387,
    1124,
    1,
    5,
    2,
    4,
    4,
    31,
    1405,
    828,
    1,
    3,
    801,
    802,
    803,
    817,
    818,
    819,
    31,
    1105,
    1106,
    1388,
    1384,
    1163,
    1383,
    1386,
    1385,
    1199,
    1200,
    1108,
    1109,
    895,
    896,
    1105,
    1106,
    1388,
    1386,
    1385,
    1108,
    1406,
    1407,
    1408,
    891,
    892,
    893,
    894,
    1,
    3,
    2,
    5,
    735,
    736,
    3,
    1105,
    1106,
    1387,
    1385,
    1386,
    1386,
    1199,
    1200,
    1386,
    1092,
    801,
    802,
    803,
    3,
    1089,
    1147,
    1385,
    1388,
    1385,
    1383,
    1385,
    1384,
    1384,
    1092,
    785,
    786,
    787,
    1106,
    1383,
    1108,
    1109,
    961,
    962,
    1319,
    1320,
    1471,
    1472,
    1051,
    1052,
    1053,
    1054,
    1106,
    1384,
    1092,
    3,
    5,
    904,
    905,
    906,
    814,
    815,
    1,
    814,
    815,
    15,
    16,
    1122,
    1388,
    1384,
    1383,
    1385,
    1387,
    11,
    1383,
    1383,
    1383,
    1384,
    1387,
    1384,
    1386,
    1147,
    1386,
    1384,
    1384,
    1386,
    1108,
    804,
    2,
    1,
    4,
    1,
    15,
    4,
    1421,
    1,
    1,
    2,
    817,
    818,
    819,
    785,
    786,
    787,
    3,
    1105,
    1106,
    1388,
    1383,
    1383,
    1385,
    1387,
    1147,
    1215,
    1216,
    1124,
    884,
    885,
    886,
    1090,
    1387,
    1385,
    1386,
    1384,
    1387,
    1092,
    1423,
    1424,
    907,
    908,
    909,
    910,
    5,
    5,
    1,
    3,
    871,
    872,
    873,
    1105,
    1106,
    1383,
    1387,
    1387,
    1384,
    1215,
    1216,
    1148,
    1108,
    817,
    818,
    819,
    1090,
    1386,
    1383,
    1386,
    1388,
    1385,
    1383,
    1388,
    1385,
    1163,
    1108,
    801,
    802,
    803,
    1106,
    1386,
    1108,
    1109,
    977,
    978,
    979,
    703,
    1304,
    1303,
    1304,
    1068,
    1069,
    1070,
    1122,
    1164,
    1108,
    3,
    3,
    5,
    798,
    799,
    830,
    831,
    1,
    830,
    831,
    47,
    32,
    1152,
    1121,
    1387,
    733,
    731,
    732,
    1387,
    927,
    1383,
    1383,
    1387,
    1387,
    1386,
    1182,
    1384,
    1384,
    1123,
    1123,
    1123,
    1124,
    4,
    5,
    4,
    5,
    1,
    31,
    32,
    1,
    1,
    4,
    3,
    796,
    797,
    1,
    801,
    802,
    803,
    2,
    1089,
    1386,
    1386,
    1387,
    1388,
    1388,
    1384,
    1385,
    1387,
    1125,
    880,
    900,
    901,
    1090,
    1388,
    1387,
    1384,
    1385,
    1383,
    1384,
    1386,
    1091,
    1091,
    1092,
    924,
    925,
    926,
    3,
    4,
    3,
    4,
    4,
    888,
    889,
    890,
    1122,
    1384,
    1383,
    1386,
    1387,
    1148,
    1388,
    1123,
    1124,
    796,
    797,
    1090,
    1383,
    1384,
    1387,
    1387,
    1383,
    1163,
    1388,
    1385,
    1388,
    1388,
    1124,
    817,
    818,
    819,
    1122,
    1385,
    1386,
    1092,
    993,
    994,
    995,
    719,
    703,
    367,
    368,
    992,
    941,
    942,
    1105,
    1106,
    1108,
    1,
    4,
    13,
    814,
    815,
    871,
    872,
    873,
    1390,
    1391,
    1392,
    875,
    876,
    877,
    1122,
    1387,
    747,
    748,
    1182,
    1383,
    1147,
    1383,
    1384,
    1383,
    1163,
    1123,
    1123,
    1124,
    4,
    1074,
    1088,
    4,
    1023,
    1024,
    3,
    789,
    1023,
    1024,
    3,
    1,
    15,
    16,
    1389,
    812,
    813,
    1,
    817,
    818,
    819,
    1090,
    1384,
    1388,
    1386,
    1385,
    1386,
    1383,
    1385,
    1387,
    1124,
    895,
    896,
    1,
    1105,
    1106,
    1387,
    1385,
    1387,
    1387,
    1385,
    1388,
    1387,
    1387,
    1165,
    1385,
    1093,
    1152,
    15,
    16,
    3,
    2,
    5,
    903,
    2,
    905,
    906,
    1105,
    1106,
    1383,
    1384,
    1164,
    1387,
    1124,
    866,
    867,
    812,
    813,
    1106,
    1150,
    1151,
    1164,
    1388,
    1130,
    1126,
    1129,
    1127,
    1385,
    1124,
    7,
    785,
    786,
    787,
    1105,
    1106,
    1163,
    1108,
    1109,
    980,
    981,
    982,
    719,
    383,
    384,
    1008,
    957,
    958,
    2,
    1122,
    1124,
    4,
    2,
    5,
    830,
    831,
    887,
    888,
    889,
    890,
    1407,
    1408,
    891,
    892,
    893,
    894,
    1122,
    1123,
    1123,
    1387,
    733,
    1165,
    1388,
    1123,
    1123,
    1124,
    1074,
    1074,
    1152,
    3,
    791,
    792,
    795,
    1039,
    1040,
    804,
    805,
    1039,
    1040,
    914,
    2,
    31,
    32,
    1405,
    828,
    1,
    1,
    796,
    797,
    1105,
    1106,
    1164,
    1383,
    1386,
    1387,
    1383,
    1385,
    1385,
    1125,
    884,
    885,
    886,
    1075,
    1090,
    1384,
    1387,
    1384,
    1388,
    1387,
    1385,
    1383,
    1383,
    1388,
    1386,
    1384,
    1163,
    1093,
    31,
    32,
    3,
    6,
    6,
    2,
    2,
    871,
    872,
    873,
    1122,
    1386,
    1388,
    1388,
    1124,
    881,
    882,
    883,
    828,
    1090,
    1383,
    1166,
    1167,
    1386,
    1130,
    12,
    1087,
    1195,
    1110,
    1108,
    1109,
    7,
    801,
    802,
    803,
    1105,
    1106,
    1387,
    1383,
    1092,
    996,
    997,
    998,
    983,
    399,
    400,
    703,
    973,
    974,
    3,
    15,
    1152,
    2,
    5,
    4,
    871,
    872,
    873,
    904,
    905,
    906,
    1423,
    1424,
    907,
    908,
    909,
    910,
    3,
    15,
    16,
    1122,
    1123,
    1123,
    1124,
    1074,
    1074,
    791,
    792,
    793,
    794,
    795,
    807,
    808,
    811,
    1055,
    1,
    820,
    821,
    1055,
    1,
    1,
    1,
    1,
    4,
    1421,
    1,
    866,
    867,
    812,
    813,
    1090,
    1383,
    1386,
    1386,
    1386,
    1384,
    1388,
    1387,
    1124,
    5,
    900,
    901,
    1090,
    1091,
    1388,
    1387,
    1385,
    1386,
    1387,
    1386,
    1386,
    1386,
    1387,
    1385,
    1386,
    1387,
    1384,
    1384,
    1092,
    2,
    4,
    887,
    2,
    1,
    1,
    2,
    888,
    889,
    890,
    1106,
    1383,
    1386,
    795,
    897,
    898,
    899,
    1089,
    1387,
    1384,
    1197,
    1198,
    1129,
    1083,
    1117,
    1086,
    1087,
    1094,
    1164,
    1092,
    14,
    817,
    818,
    819,
    1090,
    1387,
    1165,
    1387,
    1383,
    1091,
    1092,
    1088,
    999,
    1000,
    719,
    719,
    1015,
    1016,
    1017,
    31,
    32,
    887,
    3,
    4,
    2,
    888,
    889,
    890,
    1390,
    1391,
    1392,
    875,
    876,
    877,
    925,
    926,
    4,
    31,
    32,
    2,
    1074,
    1074,
    791,
    792,
    795,
    807,
    808,
    809,
    810,
    811,
    823,
    824,
    827,
    1,
    1,
    796,
    797,
    1,
    789,
    1023,
    1024,
    1,
    2,
    5,
    1389,
    882,
    883,
    828,
    1090,
    1163,
    1383,
    1385,
    1383,
    1384,
    1385,
    1388,
    1125,
    6,
    3,
    4,
    1089,
    1388,
    1385,
    1388,
    1388,
    1384,
    1383,
    1387,
    1384,
    1387,
    1383,
    1387,
    1386,
    1387,
    1387,
    1385,
    1385,
    1108,
    798,
    799,
    903,
    4,
    1,
    6,
    903,
    2,
    905,
    906,
    1122,
    1388,
    1388,
    811,
    913,
    914,
    1090,
    1197,
    1198,
    1147,
    1213,
    1214,
    1097,
    1083,
    1086,
    1087,
    1094,
    11,
    1383,
    1147,
    1093,
    836,
    837,
    838,
    1122,
    1387,
    1385,
    1384,
    1388,
    1385,
    1163,
    1092,
    977,
    978,
    979,
    703,
    1031,
    1032,
    1033,
    1034,
    2,
    15,
    16,
    4,
    3,
    904,
    905,
    906,
    1406,
    1407,
    1408,
    891,
    892,
    893,
    1390,
    1391,
    1392,
    794,
    793,
    793,
    794,
    795,
    807,
    808,
    811,
    823,
    824,
    825,
    826,
    827,
    791,
    792,
    793,
    794,
    795,
    812,
    813,
    1152,
    805,
    1039,
    1040,
    2,
    4,
    4,
    1405,
    898,
    899,
    1089,
    1386,
    1388,
    1388,
    1388,
    1387,
    1384,
    1387,
    1124,
    884,
    7,
    16,
    1089,
    1385,
    1387,
    1387,
    1385,
    1384,
    1385,
    1388,
    1388,
    1386,
    1386,
    1383,
    1387,
    1384,
    1387,
    1385,
    1388,
    1384,
    1108,
    814,
    815,
    5,
    5,
    2,
    1,
    3,
    1,
    798,
    799,
    1105,
    1106,
    1384,
    827,
    1090,
    1091,
    1386,
    1213,
    1214,
    1199,
    1200,
    1387,
    1384,
    1114,
    1083,
    1095,
    1163,
    1150,
    1151,
    1387,
    1384,
    1092,
    853,
    854,
    839,
    1122,
    1383,
    1387,
    1386,
    1387,
    1387,
    1108,
    1109,
    994,
    995,
    719,
    1047,
    1048,
    1049,
    1050,
    1088,
    31,
    32,
    4,
    4,
    4,
    871,
    872,
    873,
    1423,
    1424,
    907,
    908,
    909,
    910,
    1407,
    1408,
    810,
    809,
    809,
    810,
    811,
    823,
    824,
    827,
    1,
    1,
    791,
    792,
    795,
    807,
    808,
    809,
    810,
    811,
    828,
    1,
    820,
    821,
    1055,
    3,
    15,
    16,
    3,
    1421,
    914,
    1090,
    1388,
    1385,
    1384,
    1385,
    1388,
    1387,
    1387,
    1125,
    880,
    900,
    31,
    1090,
    1385,
    1164,
    1387,
    1388,
    1383,
    1388,
    1383,
    1197,
    1198,
    1386,
    1385,
    1387,
    1386,
    1387,
    1387,
    1386,
    1387,
    1388,
    1124,
    830,
    831,
    4,
    4,
    4,
    2,
    3,
    3,
    814,
    815,
    1105,
    1106,
    1387,
    1091,
    1384,
    1199,
    1200,
    1147,
    1383,
    1215,
    1216,
    1147,
    1129,
    1083,
    1110,
    1111,
    1386,
    1166,
    1167,
    1197,
    1198,
    1388,
    1093,
    1,
    855,
    856,
    1121,
    1076,
    1077,
    1387,
    1383,
    1387,
    1092,
    977,
    978,
    979,
    1303,
    1304,
    1438,
    1439,
    1440,
    1019,
    1020,
    1021,
    1,
    3,
    1,
    779,
    780,
    2,
    7,
    2,
    924,
    925,
    926,
    1423,
    1424,
    826,
    825,
    825,
    826,
    827,
    1,
    1,
    791,
    792,
    795,
    807,
    808,
    811,
    823,
    824,
    825,
    826,
    827,
    1,
    1,
    796,
    797,
    4,
    2,
    31,
    32,
    2,
    1090,
    1091,
    1383,
    1387,
    1384,
    1385,
    1384,
    1388,
    1182,
    1124,
    798,
    799,
    13,
    1090,
    1387,
    1384,
    1383,
    1386,
    1386,
    1383,
    1383,
    1147,
    1213,
    1214,
    1147,
    1385,
    1388,
    1383,
    1386,
    1384,
    1387,
    1385,
    1165,
    1092,
    871,
    872,
    873,
    2,
    903,
    4,
    1,
    3,
    830,
    831,
    7,
    1122,
    1384,
    1386,
    1147,
    1215,
    1216,
    1197,
    1198,
    11,
    1387,
    1384,
    1098,
    1180,
    1094,
    1387,
    1385,
    1388,
    1387,
    1213,
    1214,
    1147,
    1387,
    1092,
    836,
    837,
    838,
    1122,
    1384,
    1388,
    1386,
    1164,
    1108,
    1109,
    994,
    995,
    1319,
    1320,
    1454,
    1455,
    1456,
    1035,
    1036,
    1037,
    1038,
    1,
    15,
    16,
    735,
    736,
    1,
    4,
    6,
    1390,
    1391,
    1392,
    794,
    793,
    794,
    793,
    794,
    793,
    794,
    795,
    807,
    808,
    811,
    823,
    824,
    827,
    791,
    792,
    793,
    794,
    793,
    794,
    795,
    812,
    813,
    2,
    1023,
    1024,
    1090,
    1091,
    1386,
    1384,
    1387,
    1386,
    1387,
    1165,
    1386,
    1199,
    1200,
    1092,
    814,
    815,
    1105,
    1106,
    1385,
    1383,
    1385,
    1388,
    1385,
    1388,
    1199,
    1200,
    1147,
    11,
    1197,
    1198,
    1383,
    1385,
    1387,
    1387,
    1384,
    1384,
    1384,
    1384,
    1092,
    888,
    889,
    890,
    7,
    5,
    6,
    3,
    798,
    799,
    7,
    1105,
    1106,
    1165,
    1387,
    1386,
    1385,
    1213,
    1214,
    1383,
    1388,
    1164,
    1383,
    1096,
    1386,
    1387,
    1387,
    1386,
    1147,
    1385,
    1199,
    1200,
    1150,
    1151,
    1093,
    853,
    854,
    839,
    1122,
    1383,
    1384,
    1388,
    1384,
    1092,
    977,
    978,
    979,
    1303,
    1304,
    1471,
    1472,
    1051,
    1052,
    1053,
    1054,
    1,
    31,
    32,
    871,
    872,
    873,
    2,
    5,
    1406,
    1407,
    1408,
    810,
    809,
    810,
    809,
    810,
    809,
    810,
    811,
    823,
    824,
    827,
    791,
    792,
    795,
    807,
    808,
    809,
    810,
    809,
    810,
    811,
    828,
    866,
    867,
    1039,
    1040,
    1106,
    1164,
    1383,
    1387,
    1388,
    1383,
    1386,
    1388,
    1147,
    1215,
    1216,
    1124,
    830,
    831,
    3,
    1122,
    1163,
    1385,
    1388,
    1387,
    1385,
    1383,
    1215,
    1216,
    1199,
    1200,
    1213,
    1214,
    1147,
    1386,
    1386,
    1383,
    1386,
    1387,
    1387,
    1384,
    1384,
    1092,
    905,
    906,
    3,
    6,
    735,
    736,
    814,
    815,
    4,
    1105,
    1106,
    1384,
    1197,
    1198,
    1148,
    1385,
    1385,
    1147,
    1388,
    1386,
    1387,
    1386,
    1388,
    1383,
    1385,
    1385,
    1385,
    1182,
    1215,
    1216,
    1166,
    1167,
    1387,
    1092,
    1,
    855,
    856,
    1121,
    1386,
    1383,
    1385,
    1108,
    1109,
    994,
    995,
    1319,
    1320,
    703,
    1304,
    1304,
    1068,
    1069,
    1070,
    13,
    5,
    3,
    5,
    888,
    889,
    890,
    13,
    5,
    1423,
    1424,
    826,
    825,
    826,
    825,
    826,
    825,
    826,
    827,
    791,
    792,
    795,
    807,
    808,
    811,
    823,
    824,
    825,
    826,
    825,
    826,
    827,
    881,
    882,
    883,
    1055,
    1090,
    1386,
    1388,
    1387,
    1386,
    1383,
    1385,
    1387,
    1197,
    1198,
    1387,
    1124,
    884,
    885,
    886,
    1090,
    1091,
    1387,
    1387,
    1383,
    1388,
    1383,
    1388,
    1387,
    1147,
    1215,
    1216,
    1197,
    1198,
    10,
    1383,
    1387,
    1384,
    1387,
    1388,
    1387,
    1384,
    1384,
    1108,
    798,
    799,
    4,
    3,
    798,
    799,
    830,
    831,
    4,
    3,
    1122,
    1388,
    1213,
    1214,
    1199,
    1200,
    1147,
    1163,
    1388,
    1387,
    1387,
    1385,
    1387,
    1387,
    1388,
    1384,
    1388,
    1385,
    1386,
    1383,
    1388,
    1387,
    1386,
    1387,
    1093,
    836,
    837,
    838,
    1122,
    1383,
    1387,
    1387,
    1092,
    980,
    981,
    982,
    1303,
    719,
    1319,
    1320,
    1304,
    1015,
    1016,
    1017,
    904,
    2,
    4,
    904,
    905,
    906,
    4,
    791,
    792,
    794,
    794,
    793,
    794,
    793,
    794,
    793,
    794,
    795,
    807,
    808,
    811,
    823,
    824,
    827,
    3,
    5,
    7,
    2,
    791,
    792,
    795,
    897,
    898,
    899,
    1089,
    1388,
    1383,
    1387,
    1384,
    1383,
    1386,
    1388,
    1386,
    1213,
    1214,
    1125,
    880,
    900,
    901,
    1090,
    1165,
    1387,
    1383,
    1385,
    1387,
    1384,
    1386,
    1388,
    1385,
    1197,
    1198,
    1148,
    1213,
    1214,
    1386,
    1387,
    1386,
    1387,
    1385,
    1387,
    1387,
    1385,
    1385,
    1108,
    814,
    815,
    1,
    3,
    814,
    815,
    798,
    799,
    31,
    32,
    7,
    1383,
    1147,
    1388,
    1215,
    1216,
    1199,
    1200,
    1386,
    1383,
    1388,
    1384,
    1165,
    1388,
    1385,
    1383,
    1384,
    1387,
    1385,
    1383,
    1163,
    1388,
    1385,
    1388,
    1386,
    1092,
    853,
    854,
    7,
    1122,
    1123,
    1165,
    1388,
    1093,
    997,
    998,
    975,
    976,
    983,
    984,
    367,
    368,
    1032,
    1033,
    1034,
    5,
    1,
    3,
    1390,
    1391,
    795,
    807,
    808,
    810,
    810,
    809,
    810,
    809,
    810,
    809,
    810,
    811,
    823,
    824,
    827,
    791,
    792,
    793,
    794,
    793,
    794,
    795,
    807,
    808,
    811,
    913,
    914,
    1090,
    1383,
    1387,
    1384,
    1386,
    1387,
    1385,
    1387,
    1383,
    1385,
    1387,
    1124,
    895,
    896,
    1,
    1105,
    1106,
    1387,
    1387,
    1386,
    1388,
    1386,
    1385,
    1385,
    1383,
    1149,
    1213,
    1214,
    1384,
    1147,
    1386,
    1383,
    1388,
    1383,
    1386,
    1384,
    1387,
    1385,
    1388,
    1163,
    1124,
    830,
    831,
    7,
    3,
    830,
    831,
    814,
    815,
    7,
    15,
    16,
    1386,
    1383,
    1148,
    1150,
    1151,
    1215,
    1216,
    1383,
    1388,
    1388,
    1384,
    1384,
    1388,
    1388,
    1387,
    1386,
    1164,
    1388,
    1130,
    1126,
    1129,
    1127,
    1385,
    1384,
    1163,
    1092,
    2,
    3,
    1023,
    1024,
    1122,
    1387,
    1163,
    1092,
    1075,
    1090,
    1092,
    999,
    1000,
    383,
    384,
    1048,
    1049,
    1050,
    887,
    2,
    5,
    2,
    1407,
    811,
    823,
    824,
    826,
    826,
    825,
    826,
    825,
    826,
    825,
    826,
    827,
    791,
    792,
    795,
    807,
    808,
    809,
    810,
    809,
    810,
    811,
    823,
    824,
    827,
    1090,
    1091,
    1147,
    1387,
    1386,
    1387,
    1383,
    1386,
    1388,
    1383,
    1386,
    1385,
    1125,
    884,
    885,
    886,
    1075,
    1090,
    1384,
    1387,
    1385,
    1384,
    1388,
    1384,
    1385,
    1386,
    1383,
    1387,
    1384,
    1388,
    1385,
    1388,
    1386,
    1387,
    1383,
    1385,
    1387,
    1383,
    1384,
    1386,
    1387,
    1388,
    1092,
    798,
    799,
    6,
    1,
    798,
    799,
    830,
    831,
    3,
    31,
    32,
    1386,
    1197,
    1198,
    1166,
    1167,
    1147,
    1386,
    1387,
    1386,
    1383,
    1386,
    1384,
    1385,
    1388,
    1385,
    1383,
    1386,
    1130,
    1195,
    1087,
    1180,
    1110,
    1111,
    1386,
    1388,
    1108,
    789,
    790,
    1039,
    1040,
    1090,
    1387,
    1385,
    1385,
    1091,
    1163,
    1108,
    977,
    978,
    399,
    400,
    1304,
    1015,
    1016,
    1017,
    3,
    2,
    1,
    1423,
    827,
    2,
    4,
    5,
    2,
    4,
    791,
    792,
    793,
    793,
    794,
    795,
    807,
    808,
    811,
    823,
    824,
    825,
    826,
    825,
    826,
    827,
    1090,
    1091,
    1091,
    1199,
    1200,
    1386,
    1388,
    1383,
    1386,
    1385,
    1387,
    1383,
    1385,
    1387,
    1124,
    880,
    900,
    901,
    1090,
    1091,
    1388,
    1387,
    1384,
    1384,
    1386,
    1385,
    1386,
    1383,
    1388,
    1387,
    1385,
    1383,
    1384,
    1385,
    1383,
    1384,
    1386,
    1384,
    1383,
    1388,
    1385,
    1388,
    1387,
    1387,
    1385,
    1124,
    814,
    815,
    2,
    2,
    814,
    815,
    1390,
    1391,
    1392,
    794,
    876,
    1147,
    1213,
    1214,
    1199,
    1200,
    1383,
    1388,
    1384,
    1385,
    1387,
    1386,
    1386,
    1385,
    1385,
    1388,
    1387,
    1385,
    1098,
    1117,
    1086,
    1087,
    1094,
    1164,
    1386,
    1386,
    1124,
    805,
    806,
    1055,
    1089,
    1383,
    1386,
    1384,
    1387,
    1148,
    10,
    1108,
    1109,
    994,
    995,
    1319,
    703,
    1031,
    1032,
    1033,
    1034,
    1,
    1,
    5,
    2,
    2,
    4,
    2,
    1,
    1389,
    807,
    808,
    809,
    809,
    810,
    811,
    823,
    824,
    827,
    1090,
    1091,
    1092,
    14,
    7,
    1090,
    1091,
    1387,
    1147,
    1385,
    1215,
    1216,
    1386,
    1383,
    1385,
    1387,
    1386,
    1383,
    1386,
    1388,
    1125,
    895,
    896,
    1,
    1089,
    1388,
    1164,
    1387,
    1387,
    1385,
    1385,
    1384,
    1384,
    1388,
    1388,
    1385,
    1163,
    1387,
    1385,
    1386,
    1388,
    1385,
    1384,
    1388,
    1384,
    1386,
    1386,
    1383,
    1383,
    1163,
    1388,
    1108,
    1109,
    830,
    831,
    2,
    2,
    830,
    831,
    1406,
    1407,
    1408,
    810,
    892,
    1199,
    1200,
    1388,
    1215,
    1216,
    1387,
    1383,
    1385,
    1385,
    1386,
    1383,
    1384,
    1387,
    1387,
    1383,
    1383,
    1385,
    1165,
    1097,
    1080,
    1094,
    1385,
    1383,
    1385,
    1108,
    820,
    821,
    822,
    8,
    1106,
    1388,
    1387,
    1383,
    1383,
    1383,
    1197,
    1198,
    1092,
    980,
    981,
    982,
    719,
    1047,
    1048,
    1049,
    1050,
    1406,
    2,
    4,
    1,
    3,
    1,
    3,
    2,
    1405,
    823,
    824,
    825,
    825,
    826,
    827,
    1090,
    1091,
    1091,
    1197,
    1198,
    1385,
    1093,
    1089,
    1387,
    1197,
    1198,
    1387,
    1148,
    1385,
    1384,
    1386,
    1385,
    1388,
    1383,
    1386,
    1163,
    1387,
    1124,
    7,
    779,
    780,
    1089,
    1385,
    1387,
    1384,
    1387,
    1385,
    1388,
    1384,
    1386,
    1385,
    1385,
    1388,
    1388,
    1383,
    1386,
    1388,
    1385,
    1386,
    1386,
    1388,
    1384,
    1386,
    1384,
    1384,
    1387,
    1383,
    1384,
    1388,
    1164,
    1092,
    798,
    799,
    1,
    4,
    798,
    799,
    4,
    1423,
    1424,
    826,
    908,
    1215,
    1216,
    1384,
    1384,
    1387,
    1387,
    1385,
    1386,
    1386,
    1385,
    1386,
    1385,
    1383,
    1383,
    1385,
    1387,
    1385,
    1385,
    1385,
    1096,
    1163,
    1387,
    1384,
    1383,
    1124,
    836,
    837,
    838,
    2,
    1122,
    1385,
    1384,
    1164,
    1385,
    1386,
    1213,
    1214,
    1108,
    1109,
    997,
    998,
    983,
    984,
    703,
    1015,
    1016,
    1017,
    5,
    1,
    5,
    7,
    15,
    16,
    15,
    1421,
    1,
    1090,
    1091,
    1092,
    1075,
    1089,
    1147,
    1150,
    1151,
    1213,
    1214,
    1147,
    1385,
    1197,
    1198,
    1213,
    1214,
    1383,
    1383,
    1386,
    1384,
    1388,
    1386,
    1383,
    1387,
    1384,
    1165,
    1125,
    6,
    2,
    31,
    1090,
    1165,
    1384,
    1387,
    1383,
    1384,
    1386,
    1387,
    1388,
    1385,
    1387,
    1165,
    1384,
    1387,
    1383,
    1387,
    1388,
    1384,
    1383,
    1386,
    1384,
    1384,
    1386,
    1384,
    1386,
    1385,
    1385,
    1383,
    1384,
    1165,
    1108,
    814,
    815,
    5,
    2,
    814,
    815,
    1,
    2,
    1,
    6,
    924,
    1386,
    1383,
    1199,
    1200,
    1147,
    1384,
    1388,
    1388,
    1165,
    1383,
    1385,
    1383,
    1165,
    1165,
    1384,
    1387,
    1385,
    1385,
    1387,
    1385,
    1383,
    1388,
    1385,
    1386,
    1092,
    7,
    853,
    854,
    839,
    840,
    1121,
    1387,
    1386,
    1387,
    1388,
    1386,
    1148,
    1147,
    1092,
    3,
    4,
    999,
    1000,
    719,
    1031,
    1032,
    1033,
    1034,
    2,
    16,
    15,
    1,
    32,
    15,
    16,
    7,
    1106,
    1385,
    1388,
    1091,
    1197,
    1198,
    1166,
    1167,
    1147,
    1197,
    1198,
    1388,
    1213,
    1214,
    1147,
    1383,
    1383,
    1383,
    1387,
    1383,
    1387,
    1384,
    1387,
    1386,
    1387,
    1124,
    6,
    3,
    1,
    1090,
    1387,
    1384,
    1383,
    1384,
    1385,
    1388,
    1387,
    1387,
    1385,
    1388,
    1386,
    1383,
    1385,
    1385,
    1387,
    1386,
    1386,
    1384,
    1383,
    1385,
    1383,
    1388,
    1386,
    1386,
    1384,
    1385,
    1384,
    1388,
    1383,
    1385,
    1124,
    830,
    831,
    1,
    7,
    830,
    831,
    5,
    2,
    1,
    3,
    2,
    1385,
    1163,
    1215,
    1216,
    1383,
    1182,
    1384,
    1386,
    1385,
    1386,
    1385,
    1387,
    1387,
    1383,
    1383,
    1385,
    1387,
    1385,
    1386,
    1385,
    1387,
    1385,
    1383,
    1384,
    1165,
    1091,
    1092,
    1,
    855,
    856,
    1105,
    1106,
    1384,
    1387,
    1385,
    1149,
    1163,
    1199,
    1200,
    1092,
    2,
    977,
    978,
    979,
    1047,
    1048,
    1049,
    1050,
    31,
    32,
    31,
    32,
    13,
    31,
    32,
    1090,
    1385,
    1383,
    1385,
    1388,
    1213,
    1214,
    1148,
    1197,
    1198,
    1213,
    1214,
    1387,
    1147,
    1384,
    1383,
    1165,
    1385,
    1383,
    1383,
    1387,
    1386,
    1387,
    1388,
    1383,
    1386,
    1092,
    3,
    4,
    1105,
    1106,
    1385,
    1383,
    1385,
    1388,
    1385,
    1387,
    1387,
    1385,
    1385,
    1387,
    1385,
    1388,
    1384,
    1388,
    1387,
    1383,
    1387,
    1383,
    1387,
    1385,
    1163,
    1384,
    1386,
    1384,
    1384,
    1384,
    1386,
    1384,
    1388,
    1383,
    1092,
    871,
    872,
    873,
    4,
    1390,
    1391,
    1392,
    793,
    794,
    875,
    876,
    1197,
    1198,
    1150,
    1151,
    1386,
    1385,
    1383,
    1385,
    1388,
    1384,
    1385,
    1383,
    1383,
    1385,
    1165,
    1384,
    1387,
    1385,
    1384,
    1385,
    1385,
    1387,
    1384,
    1386,
    1388,
    1164,
    1163,
    1093,
    836,
    837,
    838,
    1122,
    1384,
    1388,
    1388,
    1387,
    1387,
    1215,
    1216,
    1108,
    1109,
    993,
    994,
    995,
    1303,
    1304,
    1438,
    1439,
    1440,
    936,
    937,
    936,
    937,
    1019,
    1020,
    1122,
    1384,
    1199,
    1200,
    1386,
    1385,
    1388,
    1387,
    1213,
    1214,
    1147,
    1387,
    1387,
    1383,
    1387,
    1383,
    1383,
    1387,
    1383,
    1387,
    1388,
    1388,
    1386,
    1383,
    1385,
    1387,
    1124,
    735,
    736,
    3,
    1122,
    1164,
    1385,
    1388,
    1387,
    1384,
    1387,
    1385,
    1388,
    1384,
    1386,
    1386,
    1384,
    1387,
    1385,
    1384,
    1388,
    1383,
    1387,
    1385,
    1386,
    1385,
    1384,
    1386,
    1388,
    1383,
    1388,
    1385,
    1386,
    1386,
    1386,
    1384,
    1093,
    888,
    889,
    890,
    1406,
    1407,
    1408,
    809,
    810,
    891,
    892,
    1213,
    1214,
    1166,
    1167,
    1386,
    1387,
    1386,
    1386,
    1387,
    1388,
    1386,
    1387,
    1165,
    1384,
    1387,
    1385,
    1163,
    1383,
    1383,
    1383,
    1387,
    1385,
    1385,
    1383,
    1384,
    1387,
    1386,
    1387,
    1092,
    853,
    854,
    839,
    1122,
    1383,
    1388,
    1388,
    1387,
    1388,
    1147,
    1165,
    1092,
    7,
    929,
    930,
    1319,
    1320,
    1454,
    1455,
    1456,
    952,
    953,
    952,
    953,
    1035,
    1036,
    1037,
    1121,
    1215,
    1216,
    1197,
    1198,
    1388,
    1383,
    1386,
    1387,
    1385,
    1383,
    1385,
    1383,
    1383,
    1385,
    1385,
    1383,
    1387,
    1386,
    1383,
    1385,
    1387,
    1197,
    1198,
    1108,
    1109,
    895,
    896,
    7,
    1090,
    1384,
    1388,
    1385,
    1385,
    1388,
    1387,
    1383,
    1165,
    1384,
    1388,
    1383,
    1384,
    1385,
    1387,
    1384,
    1386,
    1388,
    1385,
    1386,
    1385,
    1387,
    1387,
    1388,
    1388,
    1388,
    1386,
    1384,
    1383,
    1387,
    1385,
    1383,
    1107,
    1092,
    905,
    906,
    4,
    1423,
    1424,
    825,
    826,
    907,
    908,
    1197,
    1198,
    1383,
    1385,
    1385,
    1387,
    1385,
    1386,
    1386,
    1385,
    1387,
    1385,
    1164,
    1385,
    1385,
    1386,
    1387,
    1386,
    1384,
    1386,
    1387,
    1384,
    1388,
    1386,
    1384,
    1388,
    1383,
    1386,
    1387,
    1093,
    1,
    855,
    856,
    1121,
    1383,
    1386,
    1385,
    1384,
    1384,
    1387,
    1108,
    1109,
    945,
    946,
    992,
    1303,
    1304,
    1471,
    1472,
    968,
    969,
    968,
    969,
    1051,
    1052,
    1053,
    1054,
    1106,
    1147,
    1213,
    1214,
    1386,
    1386,
    1384,
    1165,
    1386,
    1386,
    1387,
    1386,
    1386,
    1165,
    1383,
    1387,
    1388,
    1388,
    1386,
    1386,
    1149,
    1213,
    1214,
    1124,
    884,
    885,
    886,
    1090,
    1387,
    1387,
    1383,
    1383,
    1383,
    1388,
    1388,
    1384,
    1388,
    1384,
    1384,
    1383,
    1387,
    1385,
    1383,
    1383,
    1386,
    1384,
    1385,
    1386,
    1385,
    1388,
    1386,
    1385,
    1388,
    1383,
    1384,
    1385,
    1385,
    1384,
    1384,
    1387,
    1165,
    1108,
    1390,
    1391,
    1392,
    793,
    794,
    875,
    876,
    877,
    924,
    1213,
    1214,
    1182,
    1383,
    1386,
    1385,
    1383,
    1386,
    1386,
    1385,
    1387,
    1388,
    1388,
    1384,
    1385,
    1384,
    1388,
    1387,
    1386,
    1388,
    1387,
    1387,
    1383,
    1387,
    1383,
    1383,
    1385,
    1387,
    1386,
    1387,
    1092,
    785,
    786,
    787,
    1106,
    1388,
    1385,
    1388,
    1383,
    1384,
    1108,
    1109,
    961,
    962,
    1008,
    1319,
    1320,
    703,
    1303,
    1304,
    703,
    1303,
    1304,
    1047,
    1068,
    1069,
    1070,
    1122,
    1123,
    1164,
    1197,
    1198,
    1147,
    1385,
    1386,
    1383,
    1384,
    1386,
    1385,
    1383,
    1387,
    1384,
    1388,
    1388,
    1385,
    1387,
    1197,
    1198,
    1387,
    1125,
    880,
    900,
    901,
    1090,
    1165,
    1387,
    1384,
    1384,
    1385,
    1384,
    1386,
    1388,
    1388,
    1386,
    1384,
    1384,
    1388,
    1384,
    1388,
    1387,
    1386,
    1388,
    1388,
    1384,
    1383,
    1148,
    1197,
    1198,
    1385,
    1387,
    1147,
    1387,
    1386,
    1388,
    1387,
    1387,
    1384,
    1384,
    1387,
    1092,
    1407,
    1408,
    809,
    810,
    891,
    892,
    893,
    894,
    1387,
    1199,
    1200,
    1388,
    1163,
    1383,
    1384,
    1384,
    1383,
    1387,
    1387,
    1384,
    1388,
    1387,
    1384,
    1385,
    1385,
    1387,
    1387,
    1386,
    1384,
    1384,
    1383,
    1384,
    1383,
    1387,
    1383,
    1388,
    1383,
    1386,
    1108,
    801,
    802,
    803,
    1106,
    1385,
    1388,
    1388,
    1386,
    1383,
    1385,
    1093,
    980,
    981,
    982,
    1319,
    1320,
    719,
    1319,
    1320,
    719,
    1319,
    1179,
    1319,
    1320,
    1015,
    1016,
    1017,
    1018,
    1122,
    1213,
    1214,
    1199,
    1200,
    1385,
    1384,
    1387,
    1388,
    1388,
    1388,
    1383,
    1383,
    1383,
    1385,
    1387,
    1383,
    1213,
    1214,
    1124,
    895,
    896,
    1,
    1105,
    1106,
    1387,
    1387,
    1385,
    1385,
    1385,
    1385,
    1388,
    1386,
    1387,
    1386,
    1384,
    1387,
    1386,
    1386,
    1165,
    1387,
    1384,
    1385,
    1383,
    1383,
    1199,
    1200,
    1213,
    1214,
    11,
    1148,
    1197,
    1198,
    1387,
    1387,
    1386,
    1383,
    1383,
    1387,
    1384,
    1124,
    1423,
    1424,
    825,
    826,
    907,
    908,
    909,
    910,
    1387,
    1215,
    1216,
    1385,
    1388,
    1384,
    1384,
    1386,
    1388,
    1387,
    1387,
    1387,
    1384,
    1385,
    1383,
    1385,
    1387,
    1386,
    1383,
    1383,
    1385,
    1386,
    1387,
    1386,
    1385,
    1387,
    1383,
    1383,
    1385,
    1387,
    1108,
    817,
    818,
    819,
    1122,
    1385,
    1386,
    1386,
    1384,
    1383,
    1383,
    1163,
    1092,
    997,
    998,
    975,
    976,
    985,
    986,
    987,
    988,
    975,
    976,
    983,
    984,
    1031,
    1032,
    1033,
    1034,
    2,
    1121,
    1387,
    1215,
    1216,
    1148,
    1388,
    1383,
    1388,
    1385,
    1387,
    1386,
    1383,
    1387,
    1388,
    1383,
    1148,
    1385,
    1125,
    884,
    885,
    886,
    1075,
    1090,
    1384,
    1387,
    1385,
    1388,
    1384,
    1165,
    1383,
    1388,
    1387,
    1164,
    1387,
    1383,
    1387,
    1384,
    1386,
    1386,
    1385,
    1383,
    1388,
    1147,
    1165,
    1215,
    1216,
    1387,
    1123,
    1123,
    1386,
    1213,
    1214,
    1384,
    1383,
    1387,
    1386,
    1388,
    1387,
    1387,
    1093,
    1089,
    1091,
    1092,
    1075,
    3,
    924,
    925,
    926,
    1199,
    1200,
    1388,
    1164,
    1388,
    1386,
    1385,
    1388,
    1383,
    1383,
    1388,
    1383,
    1387,
    1388,
    1384,
    1384,
    1383,
    1386,
    1385,
    1388,
    1388,
    1385,
    1383,
    1385,
    1387,
    1385,
    1383,
    1386,
    1383,
    1384,
    1124,
    785,
    786,
    787,
    2,
    1121,
    1148,
    1386,
    1388,
    1385,
    1387,
    1387,
    1384,
    1092,
    1075,
    5,
    5,
    1001,
    1002,
    1003,
    1004,
    15,
    2,
    999,
    1000,
    1047,
    1048,
    1049,
    1050,
    1152,
    1105,
    1106,
    1150,
    1151,
    1386,
    1164,
    1387,
    1384,
    1383,
    1387,
    1388,
    1387,
    1386,
    1383,
    1385,
    1387,
    1124,
    880,
    900,
    901,
    1090,
    1091,
    1388,
    1147,
    1384,
    1384,
    1387,
    1388,
    1388,
    1387,
    1385,
    1387,
    1386,
    1383,
    1386,
    1383,
    1385,
    1386,
    1384,
    1383,
    1387,
    1199,
    1200,
    10,
    1147,
    1123,
    1124,
    1074,
    1074,
    1122,
    1123,
    1123,
    1387,
    1384,
    1386,
    1388,
    1383,
    1384,
    1384,
    1383,
    1387,
    1388,
    1164,
    1091,
    1092,
    3,
    1390,
    1391,
    1215,
    1216,
    1386,
    1387,
    1384,
    1387,
    1384,
    1388,
    1384,
    1384,
    1385,
    1383,
    1385,
    1385,
    1164,
    1384,
    1383,
    1387,
    1384,
    1385,
    1383,
    1383,
    1383,
    1387,
    1383,
    1163,
    1383,
    1387,
    1383,
    1124,
    7,
    801,
    802,
    803,
    3,
    1089,
    1387,
    1388,
    1386,
    1387,
    1385,
    1386,
    1387,
    1163,
    1092,
    1,
    4,
    1,
    5,
    4,
    2,
    31,
    32,
    939,
    940,
    1319,
    1320,
    941,
    942,
    2,
    1105,
    1106,
    1166,
    1167,
    1386,
    1386,
    1383,
    1385,
    1385,
    1387,
    1386,
    1388,
    1383,
    1163,
    1388,
    1125,
    895,
    896,
    1,
    1089,
    1388,
    1150,
    1151,
    1387,
    1385,
    1385,
    1387,
    1385,
    1385,
    1387,
    1383,
    1384,
    1385,
    1387,
    1387,
    1387,
    1384,
    1388,
    1385,
    1147,
    1388,
    1215,
    1216,
    1147,
    1124,
    843,
    844,
    911,
    912,
    911,
    912,
    839,
    1122,
    1383,
    1388,
    1387,
    1386,
    1147,
    1385,
    1386,
    1147,
    1386,
    1387,
    1385,
    1387,
    1093,
    1406,
    1407,
    1385,
    1197,
    1198,
    1383,
    1182,
    1385,
    1387,
    1387,
    1383,
    1385,
    1387,
    1388,
    1387,
    1387,
    1387,
    1387,
    1384,
    1383,
    1383,
    1387,
    1388,
    1388,
    1384,
    1383,
    1387,
    1388,
    1386,
    1385,
    1385,
    1092,
    7,
    817,
    818,
    819,
    1090,
    1387,
    1199,
    1200,
    1150,
    1151,
    1388,
    1383,
    1386,
    1386,
    1108,
    4,
    2,
    5,
    2,
    3,
    3,
    932,
    933,
    955,
    956,
    1303,
    1304,
    957,
    958,
    3,
    1090,
    1197,
    1198,
    1148,
    1383,
    1385,
    1385,
    1388,
    1384,
    1387,
    1385,
    1383,
    1385,
    1107,
    1124,
    1,
    7,
    16,
    1089,
    1385,
    1147,
    1166,
    1167,
    1385,
    1388,
    1384,
    1384,
    1383,
    1388,
    1383,
    1384,
    1388,
    1386,
    1385,
    1383,
    1383,
    1388,
    1386,
    1388,
    1387,
    1388,
    1147,
    1123,
    1124,
    870,
    859,
    860,
    1090,
    1091,
    1092,
    1,
    855,
    856,
    1121,
    1383,
    1387,
    1387,
    1383,
    1150,
    1151,
    1199,
    1200,
    1383,
    1384,
    1383,
    1386,
    1092,
    1423,
    1385,
    1213,
    1214,
    1386,
    1383,
    1383,
    1385,
    1386,
    1384,
    1388,
    1383,
    1386,
    1388,
    1387,
    1383,
    1388,
    1388,
    1383,
    1387,
    1385,
    1387,
    1386,
    1383,
    1385,
    1383,
    1384,
    1386,
    1383,
    1388,
    1388,
    1093,
    836,
    837,
    838,
    1122,
    1387,
    1215,
    1216,
    1166,
    1167,
    1386,
    1385,
    1387,
    1384,
    1124,
    5,
    1,
    1,
    1,
    1,
    947,
    948,
    949,
    971,
    703,
    1319,
    1320,
    973,
    974,
    1105,
    1106,
    1213,
    1214,
    1147,
    1387,
    1387,
    1387,
    1387,
    1385,
    1387,
    1388,
    1388,
    1107,
    1124,
    736,
    1,
    31,
    1090,
    1385,
    1384,
    1387,
    1383,
    1384,
    1386,
    1164,
    1388,
    1388,
    1388,
    1385,
    1383,
    1388,
    1383,
    1385,
    1388,
    1387,
    1387,
    1123,
    1123,
    1386,
    1388,
    1165,
    1124,
    884,
    885,
    886,
    7,
    1090,
    1199,
    1200,
    1108,
    1109,
    785,
    786,
    787,
    1106,
    1165,
    1388,
    1387,
    1166,
    1167,
    1215,
    1216,
    1147,
    1385,
    1387,
    1387,
    1383,
    1093,
    1197,
    1198,
    1387,
    1149,
    1387,
    1388,
    1388,
    1383,
    1386,
    1383,
    1385,
    1388,
    1384,
    1384,
    1384,
    1385,
    1387,
    1384,
    1385,
    1384,
    1387,
    1386,
    1384,
    1384,
    1388,
    1383,
    1385,
    1386,
    1383,
    1076,
    1077,
    1092,
    853,
    854,
    839,
    1122,
    1383,
    1197,
    1198,
    1385,
    1385,
    1383,
    1384,
    1125,
    6,
    3,
    6,
    5,
    2,
    6,
    963,
    964,
    965,
    1303,
    719,
    1304,
    989,
    990,
    991,
    1090,
    1197,
    1198,
    1147,
    1384,
    1383,
    1385,
    1387,
    1386,
    1385,
    1383,
    1388,
    1385,
    1124,
    798,
    799,
    1,
    1090,
    1387,
    1384,
    1383,
    1384,
    1385,
    1388,
    1387,
    1387,
    1385,
    1385,
    1387,
    1383,
    1387,
    1387,
    1385,
    1387,
    1163,
    1123,
    1124,
    1074,
    1074,
    1122,
    1123,
    1124,
    7,
    900,
    901,
    1090,
    1091,
    1147,
    1215,
    1216,
    1108,
    1109,
    801,
    802,
    803,
    1106,
    1387,
    1387,
    1387,
    1386,
    1387,
    1383,
    1387,
    1386,
    1384,
    1387,
    1385,
    1384,
    1388,
    1213,
    1214,
    1164,
    1147,
    1150,
    1151,
    1383,
    1385,
    1383,
    1386,
    1384,
    1384,
    1387,
    1386,
    1385,
    1384,
    1384,
    1384,
    1385,
    1384,
    1385,
    1384,
    1387,
    1385,
    1165,
    1385,
    1388,
    1386,
    1387,
    1387,
    1182,
    1388,
    1092,
    1,
    855,
    856,
    1121,
    1213,
    1214,
    1147,
    1387,
    1388,
    1164,
    1093,
    1075,
    1090,
    1092,
    2,
    15,
    16,
    929,
    930,
    1319,
    1320,
    1320,
    944,
    1005,
    1006,
    1090,
    1147,
    1213,
    1214,
    1388,
    1386,
    1383,
    1383,
    1387,
    1386,
    1387,
    1384,
    1197,
    1198,
    1092,
    814,
    815,
    1105,
    1106,
    1163,
    1383,
    1385,
    1388,
    1385,
    1387,
    1387,
    1385,
    1385,
    1384,
    1388,
    1385,
    1388,
    1388,
    1387,
    1383,
    1124,
    843,
    844,
    911,
    912,
    911,
    912,
    911,
    14,
    1075,
    1090,
    1163,
    1386,
    1197,
    1198,
    1387,
    1108,
    1109,
    817,
    818,
    819,
    1122,
    1388,
    1385,
    1387,
    1387,
    1388,
    1386,
    1147,
    1383,
    1385,
    1384,
    1386,
    1387,
    1384,
    1387,
    1386,
    1147,
    1165,
    1166,
    1167,
    1388,
    1386,
    1388,
    1387,
    1387,
    1388,
    1384,
    1387,
    1388,
    1384,
    1386,
    1387,
    1383,
    1386,
    1385,
    1386,
    1388,
    1388,
    1385,
    1385,
    1387,
    1385,
    1385,
    1383,
    1197,
    1198,
    1108,
    1109,
    785,
    786,
    787,
    1106,
    1388,
    1384,
    1387,
    1388,
    1385,
    1385,
    1091,
    1076,
    1077,
    1092,
    31,
    32,
    945,
    946,
    1303,
    1304,
    959,
    960,
    13,
    1105,
    1106,
    1164,
    1385,
    1385,
    1387,
    1386,
    1388,
    1383,
    1387,
    1384,
    1384,
    1386,
    1213,
    1214,
    1124,
    830,
    831,
    3,
    1122,
    1384,
    1385,
    1388,
    1387,
    1384,
    1387,
    1385,
    1388,
    1384,
    1383,
    1383,
    1387,
    1388,
    1384,
    1123,
    1124,
    870,
    859,
    860,
    4,
    3,
    5,
    5,
    3,
    1090,
    1091,
    1147,
    1197,
    1198,
    1213,
    1214,
    1148,
    1108,
    1109,
    785,
    786,
    787,
    2,
    1122,
    1384,
    1387,
    1385,
    1197,
    1198,
    1387,
    1147,
    1387,
    1385,
    1387,
    1387,
    1385,
    1197,
    1198,
    1387,
    1197,
    1198,
    11,
    1182,
    1164,
    1386,
    1387,
    1387,
    1387,
    1385,
    1385,
    1165,
    1385,
    1383,
    1387,
    1385,
    1386,
    1384,
    1384,
    1386,
    1383,
    1386,
    1388,
    1388,
    1386,
    1384,
    1387,
    1213,
    1214,
    1108,
    1109,
    801,
    802,
    803,
    1122,
    1147,
    1386,
    1385,
    1383,
    1386,
    1386,
    1076,
    1077,
    1165,
    1108,
    1109,
    4,
    961,
    962,
    1319,
    1320,
    941,
    942,
    3,
    7,
    1121,
    1383,
    1384,
    1383,
    1385,
    1385,
    1386,
    1387,
    1386,
    1387,
    1386,
    1386,
    1386,
    1147,
    1092,
    871,
    872,
    873,
    2,
    1122,
    1384,
    1386,
    1387,
    1383,
    1384,
    1386,
    1387,
    1388,
    1384,
    1385,
    1388,
    1386,
    1124,
    884,
    885,
    886,
    7,
    1090,
    1091,
    1091,
    1092,
    1075,
    1090,
    1384,
    1197,
    1198,
    1213,
    1214,
    1197,
    1198,
    1384,
    1124,
    2,
    801,
    802,
    803,
    3,
    1090,
    1385,
    1384,
    1147,
    1213,
    1214,
    1147,
    1197,
    1198,
    1384,
    1387,
    1385,
    1388,
    1213,
    1214,
    1148,
    1213,
    1214,
    1384,
    1384,
    1388,
    1385,
    1388,
    1386,
    1383,
    1387,
    1386,
    1386,
    1386,
    1384,
    1387,
    1385,
    1387,
    1387,
    1383,
    1383,
    1386,
    1388,
    1387,
    1384,
    1386,
    1388,
    1164,
    1383,
    1387,
    1108,
    1109,
    817,
    818,
    819,
    1090,
    1383,
    1387,
    1384,
    1384,
    1107,
    1388,
    1384,
    1383,
    1387,
    1384,
    1092,
    3,
    929,
    930,
    1303,
    1304,
    957,
    958,
    15,
    16,
    1105,
    1106,
    1199,
    1200,
    1147,
    1385,
    1387,
    1388,
    1383,
    1386,
    1383,
    1387,
    1384,
    1384,
    1148,
    1092,
    888,
    889,
    890,
    1105,
    1106,
    1387,
    1387,
    1385,
    1388,
    1387,
    1387,
    1383,
    1384,
    1385,
    1388,
    1125,
    895,
    896,
    1,
    1090,
    1091,
    1163,
    1387,
    1384,
    1384,
    1091,
    1387,
    1385,
    1213,
    1214,
    1383,
    1147,
    1213,
    1214,
    1125,
    15,
    16,
    817,
    818,
    819,
    1090,
    1385,
    1387,
    1388,
    1197,
    1198,
    1199,
    1200,
    1213,
    1214,
    1383,
    1147,
    1386,
    1387,
    1384,
    1197,
    1198,
    1148,
    1388,
    1165,
    1387,
    1384,
    1182,
    1387,
    1384,
    1383,
    1384,
    1383,
    1386,
    1384,
    1384,
    1383,
    1385,
    1383,
    1384,
    1384,
    1384,
    1383,
    1386,
    1384,
    1388,
    1385,
    1386,
    1182,
    1197,
    1198,
    1108,
    1109,
    785,
    786,
    787,
    1106,
    1387,
    1386,
    1387,
    1387,
    1385,
    1383,
    1385,
    1387,
    1386,
    1387,
    1384,
    1092,
    945,
    946,
    1319,
    1320,
    973,
    974,
    31,
    32,
    1105,
    1106,
    1215,
    1216,
    1199,
    1200,
    1147,
    1383,
    1385,
    1387,
    1387,
    1386,
    1387,
    1383,
    1387,
    1384,
    1092,
    905,
    906,
    1090,
    1388,
    1385,
    1388,
    1385,
    1385,
    1383,
    1387,
    1386,
    1387,
    1165,
    1124,
    884,
    7,
    16,
    1089,
    1387,
    1386,
    1384,
    1386,
    1384,
    1383,
    1387,
    1386,
    1385,
    1387,
    1387,
    1148,
    1182,
    1165,
    1384,
    1093,
    31,
    32,
    833,
    834,
    835,
    1106,
    1163,
    1387,
    1148,
    1213,
    1214,
    1215,
    1216,
    1149,
    1147,
    1385,
    1388,
    1387,
    1387,
    1148,
    1213,
    1214,
    1197,
    1198,
    1149,
    1147,
    1385,
    1384,
    1163,
    1386,
    1384,
    1386,
    1384,
    1384,
    1388,
    1387,
    1388,
    1383,
    1164,
    1182,
    10,
    1387,
    1388,
    1386,
    1384,
    1383,
    1384,
    1385,
    1147,
    1213,
    1214,
    1124,
    2,
    801,
    802,
    803,
    1122,
    1388,
    1383,
    1386,
    1386,
    1385,
    1383,
    1387,
    1384,
    1383,
    1386,
    1387,
    1108,
    961,
    962,
    1179,
    703,
    1015,
    1016,
    1017,
    1018,
    1105,
    1106,
    1197,
    1198,
    1215,
    1216,
    1199,
    1200,
    1385,
    1384,
    1388,
    1383,
    1386,
    1387,
    1386,
    1387,
    1108,
    798,
    799,
    1106,
    1384,
    1387,
    1388,
    1387,
    1387,
    1386,
    1383,
    1385,
    1386,
    1125,
    880,
    900,
    31,
    1090,
    1385,
    1386,
    1387,
    1387,
    1385,
    1384,
    1383,
    1385,
    1388,
    1386,
    1147,
    1388,
    1386,
    1147,
    1164,
    1147,
    1387,
    1092,
    835,
    849,
    850,
    851,
    1122,
    1385,
    1384,
    1386,
    1147,
    1388,
    1148,
    1199,
    1200,
    1387,
    1148,
    1387,
    1384,
    1384,
    1199,
    1200,
    1386,
    1213,
    1214,
    1197,
    1198,
    1182,
    1384,
    1388,
    1386,
    1383,
    1387,
    1384,
    1388,
    1385,
    1388,
    1384,
    1130,
    1127,
    1130,
    1126,
    1182,
    1386,
    1386,
    1386,
    1383,
    1165,
    1199,
    1200,
    1386,
    1125,
    15,
    16,
    817,
    818,
    819,
    1090,
    1383,
    1385,
    1387,
    1384,
    1386,
    1387,
    1386,
    1383,
    1387,
    1384,
    1386,
    1108,
    980,
    981,
    982,
    719,
    1031,
    1032,
    1033,
    1034,
    3,
    1122,
    1213,
    1214,
    1197,
    1198,
    1215,
    1216,
    1383,
    1385,
    1383,
    1387,
    1384,
    1388,
    1383,
    1386,
    1108,
    814,
    815,
    1122,
    1383,
    1163,
    1383,
    1387,
    1385,
    1384,
    1387,
    1383,
    1124,
    798,
    799,
    1,
    1090,
    1387,
    1384,
    1386,
    1385,
    1385,
    1387,
    1388,
    1385,
    1388,
    1383,
    1385,
    1388,
    1386,
    1388,
    1388,
    1385,
    1387,
    1385,
    1387,
    1092,
    3,
    796,
    797,
    1105,
    1106,
    1385,
    1387,
    1387,
    1386,
    1147,
    1215,
    1216,
    1385,
    1387,
    1387,
    1385,
    1385,
    1215,
    1216,
    1147,
    1199,
    1200,
    1213,
    1214,
    1385,
    1388,
    1385,
    1388,
    1383,
    1387,
    1384,
    1388,
    1388,
    1387,
    1165,
    1114,
    1086,
    1195,
    1087,
    1127,
    1388,
    1165,
    1148,
    1383,
    1182,
    1215,
    1216,
    1384,
    1093,
    31,
    32,
    833,
    834,
    835,
    1106,
    1163,
    1150,
    1151,
    1388,
    1386,
    1388,
    1383,
    1387,
    1386,
    1387,
    1387,
    1108,
    1109,
    997,
    998,
    983,
    1047,
    1048,
    1049,
    1050,
    2,
    1105,
    1106,
    1388,
    1213,
    1214,
    1387,
    1388,
    1384,
    1383,
    1387,
    1386,
    1387,
    1383,
    1385,
    1387,
    1124,
    830,
    831,
    7,
    1122,
    1383,
    1385,
    1383,
    1386,
    1385,
    1383,
    1108,
    1109,
    814,
    815,
    1105,
    1106,
    1385,
    1383,
    1383,
    1388,
    1385,
    1387,
    1164,
    1387,
    1383,
    1386,
    1386,
    1388,
    1383,
    1383,
    1383,
    1385,
    1383,
    1387,
    1388,
    1108,
    1389,
    812,
    813,
    1105,
    1106,
    1384,
    1387,
    1385,
    1387,
    1388,
    1387,
    1384,
    1147,
    1387,
    1385,
    1165,
    1384,
    1387,
    1199,
    1200,
    1215,
    1216,
    1386,
    1385,
    1383,
    1385,
    1383,
    1164,
    1388,
    1383,
    1383,
    1384,
    1182,
    1387,
    1384,
    1098,
    12,
    1087,
    1117,
    1087,
    1126,
    1384,
    1386,
    1199,
    1200,
    1147,
    1197,
    1198,
    1387,
    1092,
    835,
    849,
    850,
    851,
    1122,
    1383,
    1166,
    1167,
    1384,
    1383,
    1383,
    1385,
    1388,
    1383,
    1386,
    1387,
    1384,
    1092,
    15,
    16,
    999,
    1000,
    703,
    941,
    942,
    4,
    1105,
    1106,
    1197,
    1198,
    1147,
    1148,
    1197,
    1198,
    1388,
    1388,
    1383,
    1386,
    1386,
    1387,
    1388,
    1092,
    798,
    799,
    14,
    1105,
    1106,
    1386,
    1383,
    1383,
    1386,
    1386,
    1388,
    1092,
    830,
    831,
    1090,
    1076,
    1077,
    1385,
    1386,
    1386,
    1384,
    1386,
    1387,
    1385,
    1383,
    1386,
    1385,
    1387,
    1386,
    1384,
    1383,
    1385,
    1386,
    1386,
    1386,
    1124,
    1405,
    828,
    1088,
    1090,
    1164,
    1385,
    1384,
    1386,
    1385,
    1387,
    1387,
    1385,
    1385,
    1384,
    1386,
    1387,
    1388,
    1383,
    1215,
    1216,
    1386,
    1388,
    1165,
    1384,
    1147,
    1386,
    1385,
    1388,
    1384,
    1384,
    1197,
    1198,
    1388,
    1150,
    1151,
    1386,
    1098,
    1117,
    1086,
    1087,
    1095,
    1384,
    1386,
    1215,
    1216,
    1383,
    1213,
    1214,
    1165,
    1387,
    1092,
    3,
    796,
    797,
    1105,
    1106,
    1387,
    1384,
    1386,
    1388,
    1385,
    1387,
    1383,
    1385,
    1387,
    1386,
    1164,
    1108,
    31,
    32,
    929,
    930,
    719,
    957,
    958,
    4,
    16,
    1122,
    1213,
    1214,
    1384,
    1147,
    1213,
    1214,
    1384,
    1383,
    1385,
    1387,
    1387,
    1387,
    1163,
    1124,
    814,
    815,
    7,
    1090,
    1387,
    1388,
    1386,
    1388,
    1385,
    1385,
    1384,
    1108,
    798,
    799,
    1106,
    1384,
    1383,
    1383,
    1388,
    1385,
    1387,
    1383,
    1385,
    1384,
    1387,
    1385,
    1383,
    1388,
    1383,
    1388,
    1384,
    1388,
    1383,
    1384,
    1385,
    1092,
    1421,
    15,
    16,
    1122,
    1123,
    1385,
    1384,
    1386,
    1384,
    1387,
    1385,
    1388,
    1384,
    1388,
    1387,
    1387,
    1385,
    1197,
    1198,
    1383,
    1197,
    1198,
    1148,
    1147,
    1197,
    1198,
    1387,
    1384,
    1385,
    1387,
    1213,
    1214,
    1385,
    1166,
    1167,
    1163,
    1384,
    1097,
    1117,
    1117,
    1126,
    1147,
    1150,
    1151,
    1197,
    1198,
    1147,
    1197,
    1198,
    1388,
    1108,
    1389,
    812,
    813,
    1105,
    1106,
    1388,
    1385,
    1387,
    1387,
    1388,
    1386,
    1386,
    1384,
    1388,
    1383,
    1386,
    1108,
    1109,
    3,
    945,
    946,
    703,
    973,
    974,
    31,
    32,
    4,
    1121,
    1165,
    1147,
    1384,
    1148,
    1199,
    1200,
    1386,
    1385,
    1384,
    1385,
    1388,
    1108,
    1109,
    830,
    831,
    1105,
    1106,
    1385,
    1386,
    1387,
    1384,
    1383,
    1388,
    1385,
    1108,
    814,
    815,
    1122,
    1383,
    1387,
    1384,
    1383,
    1388,
    1384,
    1385,
    1388,
    1384,
    1385,
    1384,
    1163,
    1388,
    1387,
    1388,
    1386,
    1388,
    1385,
    1387,
    1385,
    1165,
    1092,
    1152,
    32,
    1023,
    1024,
    1122,
    1387,
    1383,
    1383,
    1384,
    1386,
    1387,
    1388,
    1385,
    1385,
    1387,
    1384,
    1213,
    1214,
    1386,
    1213,
    1214,
    1197,
    1198,
    1213,
    1214,
    1148,
    1165,
    1197,
    1198,
    1386,
    1199,
    1200,
    1386,
    1199,
    1200,
    11,
    1163,
    1097,
    1196,
    1095,
    1386,
    1166,
    1167,
    1213,
    1214,
    1383,
    1213,
    1214,
    1386,
    1124,
    1405,
    828,
    1088,
    1090,
    1388,
    1384,
    1384,
    1163,
    1384,
    1386,
    1388,
    1388,
    1386,
    1383,
    1385,
    1165,
    1108,
    1109,
    2,
    961,
    962,
    719,
    1015,
    1016,
    1017,
    1018,
    15,
    16,
    1122,
    1385,
    1197,
    1198,
    1215,
    1216,
    1383,
    1387,
    1384,
    1384,
    1388,
    1387,
    1092,
    798,
    799,
    1105,
    1106,
    1386,
    1383,
    1388,
    1387,
    1164,
    1385,
    1384,
    1124,
    830,
    831,
    7,
    1122,
    1386,
    1387,
    1384,
    1385,
    1387,
    1384,
    1384,
    1388,
    1387,
    1387,
    1386,
    1385,
    1387,
    1385,
    1383,
    1387,
    1386,
    1387,
    1384,
    1388,
    1108,
    789,
    790,
    1039,
    1040,
    1090,
    1385,
    1385,
    1385,
    1388,
    1387,
    1387,
    1385,
    1385,
    1387,
    1385,
    1387,
    1199,
    1200,
    1197,
    1198,
    1385,
    1213,
    1214,
    1197,
    1198,
    1388,
    1383,
    1213,
    1214,
    1387,
    1215,
    1216,
    1388,
    1215,
    1216,
    1199,
    1200,
    1384,
    1096,
    1387,
    1388,
    1197,
    1198,
    1384,
    1199,
    1200,
    1148,
    1384,
    1125,
    2,
    1421,
    3,
    1090,
    1386,
    1384,
    1388,
    1383,
    1387,
    1386,
    1385,
    1384,
    1385,
    1385,
    1387,
    1387,
    1387,
    1384,
    1093,
    4,
    977,
    978,
    979,
    1031,
    1032,
    1033,
    1034,
    31,
    32,
    1105,
    1106,
    1213,
    1214,
    1386,
    1147,
    1387,
    1386,
    1387,
    1383,
    1386,
    1384,
    1124,
    830,
    831,
    7,
    1122,
    1163,
    1384,
    1386,
    1383,
    1387,
    1386,
    1385,
    1092,
    871,
    872,
    873,
    2,
    1121,
    1383,
    1383,
    1383,
    1387,
    1384,
    1386,
    1384,
    1383,
    1386,
    1388,
    1383,
    1385,
    1384,
    1386,
    1384,
    1165,
    1387,
    1387,
    1386,
    1124,
    805,
    806,
    1055,
    1089,
    1383,
    1386,
    1384,
    1387,
    1385,
    1383,
    1386,
    1384,
    1383,
    1386,
    1384,
    1385,
    1215,
    1216,
    1213,
    1214,
    1199,
    1200,
    1148,
    1213,
    1214,
    1383,
    1163,
    1388,
    1199,
    1200,
    1385,
    1199,
    1200,
    1385,
    1149,
    1215,
    1216,
    1199,
    1200,
    1182,
    1148,
    1213,
    1214,
    1147,
    1215,
    1216,
    1386,
    1124,
    3,
    6,
    7,
    2,
    1121,
    1385,
    1383,
    1388,
    1387,
    1386,
    1165,
    1388,
    1383,
    1387,
    1384,
    1386,
    1386,
    1388,
    1387,
    1384,
    1092,
    993,
    994,
    995,
    1047,
    1048,
    1049,
    1050,
    15,
    4,
    1105,
    1106,
    1147,
    1199,
    1200,
    1387,
    1388,
    1383,
    1386,
    1388,
    1387,
    1385,
    1092,
    871,
    872,
    873,
    2,
    1121,
    1383,
    1383,
    1387,
    1384,
    1384,
    1384,
    1384,
    1092,
    888,
    889,
    890,
    1105,
    1106,
    1388,
    1385,
    1384,
    1388,
    1384,
    1386,
    1387,
    1383,
    1383,
    1386,
    1388,
    1387,
    1384,
    1388,
    1384,
    1385,
    1388,
    1108,
    820,
    821,
    822,
    8,
    1106,
    1388,
    1387,
    1165,
    1383,
    1383,
    1388,
    1385,
    1163,
    1385,
    1384,
    1387,
    1385,
    1387,
    1199,
    1200,
    1387,
    1215,
    1216,
    1197,
    1198,
    1386,
    1383,
    1384,
    1388,
    1215,
    1216,
    1147,
    1215,
    1216,
    1148,
    1199,
    1200,
    1147,
    1215,
    1216,
    1147,
    1197,
    1198,
    1199,
    1200,
    10,
    1384,
    1124,
    4,
    3,
    2,
    5,
    3,
    1089,
    1383,
    1387,
    1383,
    1383,
    1385,
    1384,
    1385,
    1383,
    1387,
    1385,
    1388,
    1385,
    1388,
    1387,
    1388,
    1108,
    3,
    929,
    930,
    1303,
    1304,
    941,
    942,
    31,
    32,
    1090,
    1199,
    1200,
    1215,
    1216,
    1383,
    1383,
    1385,
    1387,
    1384,
    1386,
    1384,
    1384,
    1092,
    888,
    889,
    890,
    1105,
    1106,
    1387,
    1386,
    1387,
    1385,
    1387,
    1384,
    1384,
    1092,
    905,
    906,
    1090,
    1388,
    1386,
    1383,
    1383,
    1388,
    1385,
    1385,
    1387,
    1387,
    1388,
    1383,
    1383,
    1384,
    1387,
    1148,
    1388,
    1383,
    1384,
    1124,
    836,
    837,
    838,
    2,
    1122,
    1385,
    1384,
    1388,
    1385,
    1386,
    1388,
    1387,
    1388,
    1386,
    1383,
    1387,
    1383,
    1388,
    1215,
    1216,
    1197,
    1198,
    1384,
    1213,
    1214,
    1197,
    1198,
    1388,
    1197,
    1198,
    11,
    1197,
    1198,
    1385,
    1147,
    1215,
    1216,
    1197,
    1198,
    1199,
    1200,
    1213,
    1214,
    1215,
    1216,
    1147,
    1125,
    3,
    789,
    1023,
    1024,
    6,
    1090,
    1383,
    1388,
    1383,
    1164,
    1387,
    1385,
    1387,
    1388,
    1384,
    1385,
    1384,
    1388,
    1388,
    1387,
    1383,
    1164,
    1108,
    2,
    945,
    946,
    1319,
    1320,
    957,
    958,
    2,
    1105,
    1106,
    1215,
    1216,
    1385,
    1388,
    1387,
    1386,
    1387,
    1386,
    1387,
    1383,
    1387,
    1384,
    1384,
    1092,
    905,
    906,
    1105,
    1106,
    1388,
    1383,
    1386,
    1388,
    1387,
    1384,
    1165,
    1108,
    798,
    799,
    1106,
    1164,
    1387,
    1384,
    1384,
    1387,
    1387,
    1385,
    1384,
    1383,
    1387,
    1383,
    1165,
    1123,
    1124,
    1122,
    1123,
    1123,
    1386,
    1092,
    7,
    853,
    854,
    839,
    840,
    1121,
    1387,
    1386,
    1387,
    1388,
    1383,
    1387,
    1385,
    1386,
    1384,
    1384,
    1384,
    1199,
    1200,
    1148,
    1213,
    1214,
    1147,
    1199,
    1200,
    1213,
    1214,
    1384,
    1213,
    1214,
    1149,
    1213,
    1214,
    1148,
    1197,
    1198,
    1149,
    1213,
    1214,
    1215,
    1216,
    1147,
    1197,
    1198,
    1197,
    1198,
    1092,
    804,
    805,
    1039,
    1040,
    1090,
    1383,
    1388,
    1384,
    1130,
    1127,
    1130,
    1126,
    1163,
    1107,
    1165,
    1388,
    1386,
    1386,
    1388,
    1383,
    1386,
    1387,
    1124,
    3,
    961,
    962,
    1303,
    1304,
    973,
    974,
    4,
    1105,
    1106,
    1384,
    11,
    1147,
    1383,
    1388,
    1383,
    1386,
    1383,
    1386,
    1387,
    1386,
    1388,
    1385,
    1108,
    871,
    872,
    873,
    1122,
    1383,
    1385,
    1387,
    1384,
    1387,
    1384,
    1385,
    1108,
    814,
    815,
    1122,
    1383,
    1388,
    1384,
    1386,
    1383,
    1386,
    1385,
    1385,
    1387,
    1385,
    1147,
    1124,
    843,
    844,
    911,
    912,
    839,
    1121,
    1386,
    1091,
    1092,
    1,
    855,
    856,
    1105,
    1106,
    1384,
    1387,
    1385,
    1387,
    1388,
    1388,
    1385,
    1384,
    1384,
    1147,
    1215,
    1216,
    1199,
    1200,
    1199,
    1200,
    1215,
    1216,
    1197,
    1198,
    1165,
    1387,
    1197,
    1198,
    1148,
    1197,
    1198,
    1213,
    1214,
    1197,
    1198,
    1149,
    1147,
    1197,
    1198,
    1213,
    1214,
    1213,
    1214,
    1108,
    820,
    821,
    1055,
    1105,
    1106,
    1388,
    1387,
    1165,
    1114,
    1180,
    1086,
    1087,
    1127,
    1128,
    1128,
    1128,
    1384,
    1386,
    1384,
    1384,
    1165,
    1125,
    3,
    2,
    939,
    940,
    1319,
    1320,
    941,
    942,
    3,
    1090,
    1384,
    1384,
    1165,
    1164,
    1387,
    1383,
    1385,
    1387,
    1385,
    1387,
    1383,
    1388,
    1163,
    1197,
    1198,
    1092,
    888,
    889,
    890,
    1122,
    1386,
    1387,
    1386,
    1384,
    1385,
    1384,
    1124,
    830,
    831,
    7,
    1122,
    1383,
    1386,
    1386,
    1384,
    1385,
    1163,
    1384,
    11,
    1148,
    1125,
    880,
    859,
    1090,
    1091,
    1092,
    855,
    856,
    1121,
    1383,
    1387,
    1093,
    836,
    837,
    838,
    1122,
    1384,
    1388,
    1388,
    1385,
    1388,
    1383,
    1386,
    1385,
    1164,
    1387,
    1197,
    1198,
    1215,
    1216,
    1215,
    1216,
    1197,
    1198,
    1213,
    1214,
    1387,
    1383,
    1213,
    1214,
    1147,
    1213,
    1214,
    1197,
    1198,
    1213,
    1214,
    1199,
    1200,
    1213,
    1214,
    1199,
    1200,
    1385,
    1387,
    1108,
    836,
    837,
    838,
    1105,
    1106,
    1385,
    1388,
    1384,
    1098,
    1086,
    1087,
    1117,
    1087,
    1086,
    1180,
    1196,
    1126,
    1387,
    1383,
    1384,
    1124,
    2,
    932,
    933,
    955,
    956,
    1304,
    703,
    957,
    958,
    1105,
    1106,
    1387,
    1384,
    1387,
    1384,
    1386,
    1387,
    1384,
    1384,
    1386,
    1383,
    1388,
    1197,
    1198,
    1213,
    1214,
    1384,
    1092,
    905,
    906,
    1105,
    1106,
    1383,
    1385,
    1387,
    1385,
    1388,
    1092,
    798,
    799,
    14,
    1105,
    1106,
    1388,
    1384,
    1384,
    1388,
    1199,
    1200,
    1147,
    1124,
    895,
    896,
    1090,
    1165,
    1388,
    1108,
    833,
    834,
    835,
    1106,
    1386,
    1387,
    1092,
    853,
    854,
    839,
    1122,
    1383,
    1388,
    1197,
    1198,
    1385,
    1388,
    1147,
    1148,
    1199,
    1213,
    1214,
    10,
    1197,
    1198,
    1147,
    1213,
    1214,
    1182,
    1199,
    1200,
    1387,
    1386,
    1383,
    1385,
    1386,
    1147,
    1213,
    1214,
    1150,
    1151,
    1215,
    1216,
    1199,
    1200,
    1215,
    1216,
    1386,
    1199,
    1200,
    1092,
    853,
    854,
    839,
    1122,
    1383,
    1388,
    1388,
    1386,
    1098,
    1117,
    1086,
    1087,
    1083,
    1086,
    1087,
    1094,
    1383,
    1384,
    1108,
    1109,
    947,
    948,
    949,
    971,
    1304,
    703,
    719,
    973,
    974,
    1105,
    1106,
    1165,
    1388,
    1383,
    1387,
    1388,
    1386,
    1387,
    1387,
    1388,
    1386,
    1163,
    1213,
    1214,
    1387,
    1199,
    1200,
    1108,
    798,
    799,
    1105,
    1106,
    1386,
    1383,
    1386,
    1385,
    1385,
    1124,
    814,
    815,
    7,
    1090,
    1387,
    1383,
    1387,
    1384,
    1148,
    1215,
    1216,
    1125,
    845,
    846,
    847,
    1106,
    1384,
    1384,
    1385,
    1092,
    850,
    851,
    1122,
    1383,
    1164,
    1387,
    1093,
    1,
    855,
    856,
    1121,
    1383,
    1213,
    1214,
    1148,
    1199,
    1200,
    1147,
    1215,
    1385,
    1197,
    1198,
    1213,
    1214,
    1197,
    1198,
    1199,
    1200,
    1215,
    1216,
    1387,
    1164,
    1199,
    1200,
    1385,
    1388,
    1165,
    1388,
    1166,
    1167,
    1197,
    1198,
    1215,
    1216,
    1147,
    1387,
    1164,
    1215,
    1216,
    1387,
    1092,
    1,
    855,
    856,
    1121,
    1148,
    1383,
    1386,
    1384,
    1097,
    1117,
    1117,
    1117,
    1083,
    1095,
    1387,
    1388,
    1384,
    1124,
    4,
    963,
    964,
    965,
    1304,
    703,
    719,
    989,
    990,
    991,
    1090,
    1387,
    1384,
    1384,
    1384,
    1383,
    1387,
    1384,
    1384,
    1386,
    1383,
    1383,
    1387,
    1384,
    1197,
    1198,
    1215,
    1216,
    1108,
    814,
    815,
    7,
    1122,
    1383,
    1384,
    1386,
    1387,
    1108,
    1109,
    830,
    831,
    7,
    1122,
    1385,
    1386,
    1383,
    1384,
    1385,
    1147,
    1124,
    880,
    861,
    862,
    1090,
    1383,
    1387,
    1388,
    1386,
    1108,
    785,
    786,
    787,
    1106,
    1387,
    1386,
    1387,
    1092,
    785,
    786,
    787,
    1106,
    1383,
    1197,
    1198,
    1215,
    1216,
    1199,
    1200,
    1383,
    1213,
    1214,
    1383,
    1387,
    1213,
    1214,
    1215,
    1216,
    1384,
    1386,
    1383,
    1387,
    1215,
    1216,
    1147,
    1197,
    1198,
    1147,
    1388,
    1388,
    1213,
    1214,
    1199,
    1200,
    1384,
    1388,
    1197,
    1198,
    1147,
    1197,
    1198,
    1092,
    785,
    786,
    787,
    1106,
    10,
    1148,
    1383,
    1163,
    1114,
    1086,
    1083,
    1094,
    1385,
    1388,
    1387,
    1125,
    15,
    16,
    929,
    930,
    1319,
    1320,
    719,
    944,
    1005,
    1006,
    1090,
    1163,
    1150,
    1151,
    1384,
    1383,
    1387,
    1384,
    1387,
    1383,
    1383,
    1165,
    1387,
    1386,
    1387,
    1213,
    1214,
    1388,
    1148,
    1124,
    830,
    831,
    15,
    16,
    1121,
    1387,
    1386,
    1388,
    11,
    1092,
    871,
    872,
    873,
    7,
    1121,
    1383,
    1388,
    1385,
    1384,
    1108,
    895,
    896,
    1090,
    1091,
    1385,
    1388,
    1386,
    1148,
    1165,
    1124,
    801,
    802,
    803,
    1122,
    1388,
    1148,
    1386,
    1108,
    801,
    802,
    803,
    1106,
    1147,
    1213,
    1214,
    1147,
    1148,
    1215,
    1216,
    1199,
    1200,
    1383,
    1386,
    1165,
    1385,
    1386,
    1388,
    1388,
    1384,
    1199,
    1200,
    1387,
    1383,
    1199,
    1200,
    1213,
    1214,
    1199,
    1200,
    1383,
    1165,
    1147,
    1215,
    1216,
    1386,
    1147,
    1213,
    1214,
    10,
    1213,
    1214,
    1124,
    801,
    802,
    803,
    1106,
    1383,
    1197,
    1198,
    1387,
    1097,
    1086,
    1110,
    1111,
    1388,
    1385,
    1108,
    1109,
    31,
    32,
    945,
    946,
    1303,
    1304,
    959,
    960,
    15,
    16,
    1106,
    1386,
    1166,
    1167,
    1147,
    1387,
    1386,
    1387,
    1386,
    1385,
    1388,
    1386,
    1388,
    1383,
    1386,
    1383,
    1387,
    1384,
    1388,
    1092,
    779,
    780,
    31,
    32,
    1089,
    1383,
    1388,
    1388,
    1148,
    1147,
    1092,
    888,
    889,
    890,
    1105,
    1106,
    1388,
    1386,
    1147,
    1108,
    779,
    780,
    1106,
    1387,
    1385,
    11,
    1150,
    1151,
    1108,
    1109,
    817,
    818,
    819,
    4,
    1121,
    1387,
    1386,
    1108,
    817,
    818,
    819,
    1122,
    1387,
    1388,
    1148,
    1149,
    1199,
    1200,
    1149,
    1215,
    1216,
    1384,
    1197,
    1198,
    1388,
    1383,
    1197,
    1198,
    1384,
    1215,
    1216,
    1383,
    1384,
    1215,
    1216,
    1148,
    1384,
    1215,
    1216,
    1199,
    1200,
    1386,
    1383,
    1164,
    1148,
    1199,
    1200,
    1199,
    1200,
    1387,
    1124,
    2,
    817,
    818,
    819,
    1122,
    1147,
    1213,
    1214,
    1148,
    1130,
    1083,
    1117,
    1127,
    1385,
    1383,
    1108,
    1109,
    3,
    13,
    961,
    962,
    1319,
    1320,
    941,
    942,
    31,
    32,
    1106,
    1384,
    1383,
    1385,
    1164,
    1388,
    1383,
    1386,
    1387,
    1383,
    1385,
    1385,
    1383,
    1385,
    1387,
    1387,
    1386,
    1387,
    1385,
    1124,
    3,
    4,
    7,
    1090,
    1387,
    1385,
    1387,
    1385,
    1387,
    1150,
    1151,
    1092,
    905,
    906,
    1090,
    1387,
    1383,
    1386,
    1383,
    1108,
    3,
    2,
    1122,
    1385,
    1164,
    1384,
    1166,
    1167,
    1387,
    1092,
    836,
    837,
    838,
    15,
    16,
    1106,
    1165,
    1108,
    836,
    837,
    838,
    2,
    1122,
    1147,
    1197,
    1198,
    1215,
    1216,
    1147,
    1147,
    1197,
    1198,
    1213,
    1214,
    1197,
    1198,
    1213,
    1214,
    1197,
    1198,
    1386,
    1165,
    1386,
    1384,
    1197,
    1198,
    1199,
    1200,
    1387,
    1215,
    1216,
    1197,
    1198,
    1197,
    1198,
    1215,
    1216,
    1215,
    1216,
    1108,
    1109,
    3,
    785,
    786,
    787,
    1105,
    1106,
    1384,
    1386,
    1130,
    1083,
    1087,
    1180,
    1110,
    1111,
    1385,
    1108,
    1109,
    15,
    3,
    929,
    930,
    1303,
    1304,
    957,
    958,
    2,
    1090,
    1388,
    1388,
    1387,
    1385,
    1388,
    1383,
    1385,
    1387,
    1388,
    1386,
    1384,
    1384,
    1386,
    1387,
    1386,
    1388,
    1383,
    1386,
    1108,
    1109,
    3,
    2,
    1105,
    1106,
    1165,
    1383,
    1384,
    1384,
    1387,
    1166,
    1167,
    1108,
    798,
    799,
    1106,
    1107,
    1387,
    1385,
    1388,
    1124,
    3,
    2,
    7,
    1121,
    1383,
    1386,
    1383,
    1383,
    1387,
    1108,
    1109,
    853,
    854,
    31,
    32,
    1122,
    1384,
    1388,
    1092,
    853,
    854,
    839,
    840,
    1121,
    1213,
    1214,
    1148,
    1149,
    1197,
    1385,
    1213,
    1214,
    1386,
    1165,
    1213,
    1214,
    1197,
    1198,
    1213,
    1214,
    1385,
    1383,
    1197,
    1198,
    1213,
    1214,
    1215,
    1216,
    1197,
    1198,
    1148,
    1213,
    1214,
    1213,
    1214,
    1197,
    1198,
    1383,
    1383,
    1108,
    1109,
    4,
    801,
    802,
    803,
    1105,
    1106,
    1383,
    1147,
    1098,
    1196,
    1086,
    1087,
    1094,
    1164,
    1383,
    1388,
    1092,
    31,
    32,
    945,
    946,
    1319,
    1320,
    973,
    974,
    3,
    1106,
    1386,
    1387,
    1385,
    1147,
    1385,
    1383,
    1385,
    1388,
    1386,
    1385,
    1386,
    1384,
    1387,
    1388,
    1383,
    1383,
    1385,
    1387,
    1387,
    1092,
    3,
    5,
    1105,
    1106,
    1385,
    1384,
    1385,
    1384,
    1387,
    1385,
    1164,
    1108,
    798,
    799,
    1106,
    1384,
    1387,
    1383,
    1163,
    1092,
    3,
    3,
    14,
    1089,
    1383,
    1383,
    1387,
    1387,
    1386,
    1387,
    1092,
    1,
    15,
    16,
    7,
    839,
    1122,
    1383,
    1388,
    1092,
    1,
    855,
    856,
    1105,
    1106,
    1147,
    1197,
    1198,
    1213,
    1199,
    1200,
    1148,
    1147,
    1197,
    1198,
    1147,
    1213,
    1214,
    1199,
    1200,
    1383,
    1164,
    1213,
    1214,
    1197,
    1198,
    1199,
    1200,
    1213,
    1214,
    1199,
    1200,
    1197,
    1198,
    1148,
    1213,
    1214,
    1384,
    1165,
    1148,
    1092,
    2,
    817,
    818,
    819,
    1090,
    1197,
    1198,
    1383,
    1165,
    1097,
    1080,
    1094,
    11,
    1383,
    1388,
    1386,
    1108,
    1109,
    4,
    961,
    962,
    719,
    703,
    1015,
    1016,
    1017,
    1122,
    1384,
    1384,
    1197,
    1198,
    1199,
    1200,
    1385,
    1384,
    1385,
    1387,
    1388,
    1383,
    1387,
    1383,
    1383,
    1387,
    1384,
    1384,
    1383,
    1108,
    7,
    4,
    1105,
    1106,
    1384,
    1386,
    1385,
    1383,
    1385,
    1388,
    1385,
    1108,
    814,
    815,
    1122,
    1383,
    1388,
    1387,
    1387,
    1125,
    735,
    736,
    1090,
    1384,
    1385,
    1387,
    1386,
    1388,
    1383,
    1386,
    1108,
    1109,
    31,
    32,
    1,
    855,
    856,
    1121,
    1383,
    1387,
    1093,
    836,
    837,
    838,
    1122,
    1384,
    1213,
    1214,
    1147,
    1215,
    1216,
    1199,
    1200,
    1213,
    1214,
    1197,
    1198,
    1147,
    1215,
    1216,
    1384,
    1385,
    1197,
    1198,
    1213,
    1214,
    1215,
    1216,
    1197,
    1198,
    1215,
    1216,
    1213,
    1214,
    1199,
    1200,
    1388,
    1384,
    1197,
    1198,
    1147,
    1093,
    836,
    837,
    838,
    1122,
    1213,
    1214,
    1384,
    1384,
    1385,
    1096,
    1163,
    1387,
    1384,
    1385,
    1384,
    1108,
    1109,
    3,
    980,
    981,
    982,
    719,
    1031,
    1032,
    1033,
    1034,
    1121,
    1387,
    1213,
    1214,
    1215,
    1216,
    1197,
    1198,
    1386,
    1385,
    1386,
    1386,
    1385,
    1386,
    1387,
    1386,
    1387,
    1165,
    1385,
    1124,
    735,
    736,
    7,
    1122,
    1383,
    1388,
    1388,
    1163,
    1386,
    1387,
    1384,
    1124,
    830,
    831,
    7,
    1122,
    1383,
    1387,
    1386,
    1093,
    798,
    799,
    1106,
    1163,
    1383,
    1388,
    1383,
    1383,
    1385,
    1387,
    1108,
    1109,
    7,
    1090,
    1092,
    785,
    786,
    787,
    1106,
    1386,
    1387,
    1092,
    853,
    854,
    839,
    1122,
    1383,
    1388,
    1197,
    1147,
    1182,
    1215,
    1216,
    1197,
    1198,
    1213,
    1214,
    1199,
    1200,
    1385,
    1384,
    1147,
    1213,
    1214,
    1147,
    1199,
    1200,
    1386,
    1213,
    1214,
    1199,
    1200,
    1386,
    11,
    1215,
    1216,
    1387,
    1388,
    1213,
    1214,
    1149,
    1147,
    1092,
    853,
    854,
    839,
    1122,
    1147,
    1197,
    1198,
    1385,
    1388,
    1388,
    1385,
    1387,
    1388,
    1165,
    1385,
    1093,
    1152,
    996,
    997,
    998,
    983,
    1047,
    1048,
    1049,
    1050,
    14,
    1122,
    1386,
    1147,
    1199,
    1200,
    1213,
    1214,
    11,
    1385,
    1388,
    1384,
    1386,
    1388,
    1388,
    1383,
    1386,
    1387,
    1385,
    1092,
    871,
    872,
    873,
    2,
    1121,
    1383,
    1385,
    1385,
    1383,
    1386,
    1388,
    1092,
    779,
    780,
    14,
    1105,
    1106,
    1386,
    1385,
    1108,
    814,
    815,
    1106,
    1388,
    1384,
    1383,
    1385,
    1387,
    1150,
    1151,
    1386,
    1093,
    1089,
    1386,
    1108,
    801,
    802,
    803,
    1106,
    1148,
    1386,
    1387,
    1093,
    1,
    855,
    856,
    1121,
    1383,
    1213,
    1383,
    1197,
    1198,
    11,
    1213,
    1214,
    1150,
    1151,
    1215,
    1216,
    1387,
    1165,
    1197,
    1198,
    1199,
    1200,
    1215,
    1216,
    1150,
    1151,
    1386,
    1215,
    1216,
    1148,
    1197,
    1198,
    1385,
    1384,
    1199,
    1200,
    1148,
    1147,
    1197,
    1198,
    1092,
    1,
    855,
    856,
    1121,
    1213,
    1214,
    1147,
    1383,
    1385,
    1388,
    1383,
    1386,
    1385,
    1387,
    1388,
    1092,
    3,
    4,
    13,
    999,
    1000,
    703,
    1015,
    1016,
    1017,
    1152,
    1121,
    1384,
    1215,
    1216,
    1388,
    1197,
    1198,
    1384,
    1387,
    1385,
    1388,
    1384,
    1383,
    1385,
    1387,
    1384,
    1197,
    1198,
    1092,
    888,
    889,
    890,
    1105,
    1106,
    1384,
    1383,
    1384,
    1384,
    1385,
    1124,
    1152,
    4,
    7,
    1090,
    1387,
    1386,
    1387,
    1124,
    830,
    831,
    1122,
    1123,
    1388,
    1384,
    1387,
    1147,
    1166,
    1167,
    1147,
    1386,
    1165,
    1387,
    1124,
    817,
    818,
    819,
    1122,
    1385,
    1199,
    1200,
    1387,
    1092,
    785,
    786,
    787,
    1106,
    1385,
    1384,
    1213,
    1214,
    1386,
    1387,
    1147,
    1166,
    1167,
    1386,
    1148,
    1383,
    1385,
    1213,
    1214,
    1215,
    1216,
    1197,
    1198,
    1166,
    1167,
    1387,
    1147,
    1197,
    1198,
    1213,
    1214,
    1385,
    1163,
    1215,
    1216,
    1197,
    1198,
    1213,
    1214,
    1108,
    1109,
    785,
    786,
    787,
    1106,
    1383,
    1384,
    1384,
    1385,
    1387,
    1150,
    1151,
    1388,
    1383,
    1384,
    1108,
    1109,
    15,
    16,
    929,
    930,
    719,
    1031,
    1032,
    1033,
    1034,
    1105,
    1106,
    1384,
    1388,
    1147,
    1213,
    1214,
    1388,
    1387,
    1388,
    1388,
    1384,
    1197,
    1198,
    1147,
    1388,
    1213,
    1214,
    1384,
    1092,
    905,
    906,
    1090,
    1388,
    1385,
    1383,
    1384,
    1386,
    1108,
    1109,
    735,
    736,
    7,
    1122,
    1385,
    1387,
    1385,
    1092,
    871,
    872,
    873,
    7,
    1121,
    1383,
    1149,
    1199,
    1200,
    11,
    1199,
    1200,
    1385,
    1385,
    1093,
    836,
    837,
    838,
    1105,
    1106,
    1215,
    1216,
    11,
    1108,
    801,
    802,
    803,
    1106,
    1385,
    1387,
    1148,
    1383,
    1388,
    1387,
    1383,
    11,
    1385,
    1386,
    1387,
    1383,
    1384,
    1387,
    1199,
    1200,
    1384,
    1213,
    1214,
    1199,
    1200,
    1197,
    1198,
    1213,
    1214,
    1148,
    1199,
    1200,
    1385,
    1197,
    1198,
    1213,
    1214,
    1147,
    1148,
    1108,
    1109,
    801,
    802,
    803,
    1106,
    1197,
    1198,
    1147,
    1388,
    1385,
    1166,
    1167,
    1386,
    1387,
    1164,
    1386,
    1093,
    3,
    32,
    945,
    946,
    719,
    1047,
    1048,
    1049,
    1050,
    1105,
    1106,
    1383,
    927,
    1386,
    1387,
    1388,
    1383,
    1165,
    1388,
    1387,
    1388,
    1213,
    1214,
    1197,
    1198,
    1387,
    1197,
    1198,
    1108,
    798,
    799,
    1106,
    1384,
    1387,
    1387,
    1384,
    1165,
    1385,
    1092,
    871,
    872,
    873,
    7,
    1121,
    1384,
    1384,
    1384,
    1092,
    888,
    889,
    890,
    1105,
    1106,
    1388,
    1215,
    1216,
    1147,
    1215,
    1216,
    1197,
    1198,
    1387,
    1092,
    853,
    854,
    839,
    1122,
    1383,
    1150,
    1151,
    1108,
    817,
    818,
    819,
    1122,
    1386,
    1387,
    1386,
    1385,
    1383,
    1388,
    1383,
    1383,
    1383,
    1383,
    1387,
    1388,
    1383,
    1147,
    1215,
    1216,
    1197,
    1198,
    1147,
    1215,
    1216,
    1213,
    1214,
    1148,
    1199,
    1200,
    1215,
    1216,
    1387,
    1213,
    1214,
    1147,
    1199,
    1200,
    1147,
    1108,
    1109,
    817,
    818,
    819,
    1122,
    1213,
    1214,
    1387,
    1385,
    1199,
    1200,
    1197,
    1198,
    1386,
    1388,
    1383,
    1388,
    1092,
    4,
    961,
    962,
    1303,
    1304,
    703,
    941,
    942,
    1090,
    1383,
    1384,
    1385,
    1385,
    1383,
    1387,
    1387,
    1388,
    1383,
    1150,
    1151,
    1384,
    1383,
    1213,
    1214,
    1387,
    1213,
    1214,
    1108,
    814,
    815,
    1122,
    1383,
    1388,
    1385,
    1386,
    1385,
    1384,
    1384,
    1092,
    888,
    889,
    890,
    1105,
    1106,
    1147,
    1384,
    1384,
    1092,
    905,
    906,
    1090,
    1387,
    1383,
    1197,
    1198,
    1384,
    1150,
    1151,
    1213,
    1214,
    1164,
    1387,
    1093,
    1,
    855,
    856,
    1121,
    1166,
    1167,
    1124,
    836,
    837,
    838,
    2,
    1122,
    1384,
    1165,
    1385,
    1383,
    1385,
    1383,
    1388,
    1384,
    1386,
    1387,
    1386,
    1165,
    1383,
    1385,
    1385,
    1213,
    1214,
    1383,
    1387,
    1388,
    1384,
    1383,
    1165,
    1215,
    1216,
    1387,
    1384,
    1387,
    1147,
    1197,
    1198,
    1215,
    1216,
    1197,
    1198,
    1092,
    785,
    786,
    787,
    2,
    1121,
    1199,
    1200,
    1388,
    1215,
    1216,
    1213,
    1214,
    1388,
    1147,
    1197,
    1198,
    1108,
    1109,
    977,
    978,
    1319,
    1320,
    719,
    957,
    958,
    1122,
    1386,
    1386,
    1387,
    1388,
    1385,
    1385,
    1385,
    1385,
    1385,
    1166,
    1167,
    1199,
    1200,
    1387,
    1383,
    1197,
    1198,
    1147,
    1124,
    830,
    831,
    7,
    1122,
    1383,
    1386,
    1388,
    1386,
    1387,
    1384,
    1384,
    1092,
    905,
    906,
    1090,
    1383,
    1387,
    1199,
    1200,
    1108,
    798,
    799,
    1106,
    1163,
    1387,
    1213,
    1214,
    1148,
    1166,
    1167,
    11,
    1199,
    1200,
    1386,
    1387,
    1092,
    785,
    786,
    787,
    1106,
    1385,
    1092,
    7,
    853,
    854,
    839,
    840,
    1388,
    1386,
    1387,
    1386,
    1383,
    1387,
    1383,
    1384,
    1388,
    1387,
    1385,
    1388,
    1383,
    1383,
    1384,
    1383,
    1385,
    1385,
    1165,
    1383,
    1197,
    1198,
    1385,
    1387,
    1387,
    1386,
    1147,
    1199,
    1200,
    1213,
    1214,
    11,
    1147,
    1213,
    1214,
    1108,
    801,
    802,
    803,
    3,
    1089,
    1215,
    1216,
    1197,
    1198,
    1147,
    11,
    1197,
    1198,
    1387,
    1213,
    1214,
    1108,
    1109,
    993,
    994,
    995,
    1303,
    1304,
    973,
    974,
    7,
    1121,
    1165,
    1383,
    1384,
    1383,
    1388,
    1383,
    1164,
    1199,
    1200,
    11,
    1215,
    1216,
    1199,
    1200,
    1213,
    1214,
    1388,
    1092,
    798,
    799,
    14,
    1105,
    1106,
    1384,
    1388,
    1383,
    1387,
    1384,
    1384,
    1108,
    798,
    799,
    1106,
    1197,
    1198,
    1215,
    1216,
    1108,
    798,
    799,
    1106,
    1384,
    1197,
    1198,
    1147,
    1386,
    1147,
    1197,
    1198,
    1215,
    1216,
    1383,
    1386,
    1108,
    801,
    802,
    803,
    1106,
    1163,
    1386,
    1091,
    1092,
    1,
    855,
    856,
    1387,
    1384,
    1384,
    1165,
    1384,
    1386,
    1388,
    1386,
    1383,
    1386,
    1387,
    1384,
    1385,
    1388,
    1383,
    1199,
    1200,
    1384,
    1147,
    1388,
    1213,
    1214,
    1197,
    1198,
    1388,
    1199,
    1200,
    1215,
    1216,
    1147,
    1199,
    1200,
    1197,
    1198,
    1147,
    1124,
    817,
    818,
    819,
    1090,
    1199,
    1200,
    1147,
    1213,
    1214,
    1199,
    1200,
    1213,
    1214,
    1197,
    1198,
    1147,
    1124,
    4,
    3,
    929,
    930,
    1319,
    1320,
    941,
    942,
    2,
    3,
    1122,
    1385,
    1383,
    1387,
    1386,
    1385,
    1387,
    1215,
    1216,
    1197,
    1198,
    1147,
    1215,
    1216,
    1149,
    1387,
    1385,
    1124,
    814,
    815,
    7,
    1090,
    1387,
    1384,
    1383,
    1386,
    1387,
    1385,
    1385,
    1108,
    814,
    815,
    1122,
    1213,
    1214,
    1197,
    1198,
    1108,
    814,
    815,
    1122,
    1383,
    1213,
    1214,
    1387,
    1197,
    1198,
    1213,
    1214,
    1147,
    1383,
    1148,
    1387,
    1108,
    817,
    818,
    819,
    1122,
    1386,
    1388,
    1383,
    1164,
    1093,
    836,
    837,
    1386,
    1387,
    1387,
    1383,
    1383,
    1383,
    1383,
    1387,
    1387,
    1385,
    1386,
    1385,
    1387,
    1385,
    1385,
    1215,
    1216,
    1147,
    1199,
    1200,
    1197,
    1198,
    1213,
    1214,
    1147,
    1215,
    1216,
    1147,
    1197,
    1198,
    1215,
    1216,
    1213,
    1214,
    1125,
    1152,
    833,
    834,
    835,
    1106,
    1215,
    1216,
    1148,
    1197,
    1198,
    1215,
    1216,
    1385,
    1147,
    1213,
    1214,
    1125,
    1152,
    3,
    2,
    945,
    946,
    1303,
    1304,
    957,
    958,
    15,
    16,
    2,
    1121,
    1383,
    1386,
    1385,
    1385,
    1148,
    1197,
    1198,
    1213,
    1214,
    1197,
    1198,
    1165,
    1199,
    1200,
    1108,
    1109,
    830,
    831,
    1105,
    1106,
    1385,
    1383,
    1383,
    1387,
    1385,
    1388,
    1163,
    1124,
    830,
    831,
    7,
    1121,
    1147,
    1213,
    1214,
    1124,
    830,
    831,
    7,
    1122,
    1383,
    1384,
    1384,
    1213,
    1214,
    11,
    1147,
    1197,
    1198,
    1388,
    1388,
    1124,
    833,
    834,
    835,
    2,
    1122,
    1384,
    1387,
    1386,
    1387,
    1092,
    853,
    1383,
    1384,
    1385,
    1386,
    1384,
    1384,
    1383,
    1384,
    1388,
    1386,
    1164,
    1383,
    1388,
    1384,
    1147,
    1383,
    1199,
    1200,
    1215,
    1216,
    1213,
    1214,
    1383,
    1199,
    1200,
    1147,
    1197,
    1198,
    1213,
    1214,
    1387,
    1199,
    1200,
    1124,
    47,
    15,
    16,
    850,
    851,
    1122,
    1147,
    1387,
    11,
    1213,
    1214,
    1387,
    1148,
    1199,
    1200,
    1148,
    1124,
    47,
    31,
    32,
    4,
    961,
    962,
    1319,
    1320,
    973,
    974,
    31,
    32,
    7,
    1105,
    1106,
    1163,
    1385,
    1199,
    1200,
    1213,
    1214,
    1147,
    1148,
    1213,
    1214,
    1147,
    1215,
    1216,
    1387,
    1092,
    798,
    799,
    1105,
    1106,
    1386,
    1387,
    702,
    1388,
    1386,
    1387,
    1388,
    1092,
    798,
    799,
    14,
    1105,
    1106,
    1147,
    1108,
    1109,
    798,
    799,
    7,
    1105,
    1106,
    1386,
    1148,
    1384,
    1197,
    1198,
    1148,
    1213,
    1214,
    1147,
    1108,
    1109,
    849,
    850,
    851,
    7,
    1090,
    1384,
    1388,
    1383,
    1386,
    1387,
    1093
   ]
  },
  {
   "draworder": "topdown",
   "id": 2,
   "name": "spawns",
   "objects": [
    {
     "height": 0,
     "id": 1,
     "name": "red",
     "opacity": 1,
     "point": true,
     "rotation": 0,
     "type": "",
     "visible": true,
     "width": 0,
     "x": 2398,
     "y": 1922
    },
    {
     "height": 0,
     "id": 2,
     "name": "blue",
     "opacity": 1,
     "point": true,
     "rotation": 0,
     "type": "",
     "visible": true,
     "width": 0,
     "x": 4034.66666666667,
     "y": 4001.33333333333
    }
   ],
   "opacity": 1,
   "type": "objectgroup",
   "visible": true,
   "x": 0,
   "y": 0
  },
  {
   "id": 3,
   "name": "collision",
   "type": "tilelayer",
   "x": 0,
   "y": 0,
   "width": 128,
   "height": 128,
   "opacity": 1,
   "visible": false,
   "data": [
    1552,
    1552,
    0,
    1552,
    1552,
    0,
    0,
    0,
    0,
    0,
    1552,
    0,
    1552,
    0,
    0,
    1552,
    1552,
    1552,
    1552,
    0,
    1552,
    0,
    0,
    0,
    1552,
    1552,
    0,
    0,
    0,
    0,
    0,
    0,
    1552,
    1552,
    0,
    0,
    0,
    1552,
    1552,
    0,
    0,
    0,
    0,
    0,
    1552,
    1552,
    1552,
    1552,
    1552,
    1552,
    1552,
    0,
    0,
    0,
    0,
    0,
    0,
    0,
    0,
    0,
    1552,
    1552,
    1552,
    1552,
    1552,
    1552,
    1552,
    1552,
    1552,
    1552,
    1552,
    0,
    0,
    0,
    0,
    0,
    0,
    0,
    0,
    0,
    0,
    0,
    0,
    0,
    0,
    0,
    0,
    0,
    0,
    0,
    0,
    0,
    0,
    0,
    0,
    0,
    0,
    0,
    0,
    0,
    0,
    0,
    0,
    0,
    1552,
    1552,
    0,
    1552,
    1552,
    1552,
    1552,
    1552,
    1552,
    0,
    0,
    0,
    0,
    0,
    0,
    0,
    1552,
    1552,
    1552,
    1552,
    0,
    0,
    0,
    1552,
    1552,
    1552,
    1552,
    1552,
    1552,
    0,
    0,
    0,
    0,
    0,
    1552,
    1552,
    1552,
    1552,
    1552,
    0,
    1552,
    0,
    0,
    0,
    0,
    1552,
    1552,
    1552,
    1552,
    1552,
    0,
    1552,
    1552,
    0,
    0,
    0,
    1552,
    1552,
    0,
    0,
    0,
    1552,
    1552,
    0,
    0,
    0,
    0,
    0,
    1552,
    1552,
    1552,
    1552,
    1552,
    1552,
    1552,
    0,
    0,
    0,
    0,
    0,
    0,
    0,
    0,
    0,
    0,
    1552,
    1552,
    0,
    1552,
    1552,
    1552,
    1552,
    1552,
    1552,
    0,
    0,
    0,
    0,
    0,
    0,
    0,
    0,
    0,
    0,
    0,
    0,
    0,
    0,
    0,
    0,
    0,
    0,
    0,
    0,
    0,
    0,
    0,
    0,
    0,
    0,
    0,
    0,
    0,
    0,
    0,
    0,
    0,
    0,
    1552,
    1552,
    1552,
    1552,
    1552,
    1552,
    1552,
    1552,
    0,
    0,
    0,
    0,
    0,
    0,
    0,
    0,
    1552,
    1552,
    0,
    0,
    0,
    0,
    0,
    0,
    1552,
    1552,
    1552,
    0,
    0,
    0,
    0,
    0,
    0,
    1552,
    1552,
    1552,
    0,
    0,
    0,
    0,
    0,
    1552,
    1552,
    1552,
    1552,
    1552,
    1552,
    1552,
    0,
    0,
    0,
    1552,
    1552,
    1552,
    1552,
    0,
    1552,
    1552,
    0,
    0,
    0,
    1552,
    1552,
    0,
    0,
    0,
    0,
    0,
    0,
    1552,
    1552,
    1552,
    1552,
    1552,
    1552,
    0,
    0,
    0,
    0,
    0,
    0,
    0,
    0,
    0,
    0,
    0,
    0,
    0,
    0,
    0,
    1552,
    1552,
    0,
    0,
    0,
    0,
    0,
    0,
    0,
    0,
    0,
    0,
    0,
    0,
    0,
    0,
    0,
    0,
    0,
    0,
    0,
    0,
    0,
    0,
    0,
    0,
    0,
    0,
    0,
    0,
    0,
    0,
    0,
    1552,
    1552,
    0,
    0,
    0,
    0,
    1552,
    1552,
    1552,
    0,
    0,
    0,
    0,
    0,
    0,
    0,
    0,
    0,
    0,
    0,
    0,
    0,
    0,
    1552,
    1552,
    1552,
    1552,
    1552,
    1552,
    0,
    1552,
    1552,
    0,
    0,
    0,
    0,
    0,
    0,
    0,
    0,
    0,
    0,
    1552,
    1552,
    1552,
    1552,
    1552,
    1552,
    1552,
    1552,
    1552,
    0,
    0,
    0,
    1552,
    1552,
    1552,
    1552,
    1552,
    1552,
    0,
    1552,
    1552,
    0,
    0,
    0,
    0,
    1552,
    0,
    0,
    0,
    0,
    0,
    0,
    1552,
    1552,
    1552,
    1552,
    1552,
    1552,
    0,
    0,
    0,
    0,
    0,
    0,
    0,
    0,
    0,
    0,
    0,
    0,
    0,
    0,
    0,
    0,
    0,
    0,
    0,
    0,
    0,
    0,
    0,
    0,
    0,
    0,
    0,
    0,
    0,
    0,
    0,
    0,
    0,
    0,
    0,
    0,
    0,
    0,
    0,
    0,
    0,
    0,
    0,
    1552,
    0,
    0,
    0,
    1552,
    1552,
    1552,
    0,
    1552,
    0,
    0,
    0,
    0,
    1552,
    0,
    0,
    0,
    0,
    0,
    0,
    0,
    0,
    0,
    0,
    0,
    0,
    0,
    1552,
    0,
    0,
    0,
    0,
    0,
    0,
    1552,
    0,
    0,
    0,
    0,
    0,
    0,
    0,
    0,
    0,
    0,
    1552,
    1552,
    1552,
    1552,
    1552,
    1552,
    1552,
    0,
    0,
    0,
    0,
    0,
    0,
    1552,
    1552,
    1552,
    1552,
    1552,
    0,
    0,
    0,
    0,
    1552,
    0,
    0,
    0,
    0,
    0,
    1552,
    1552,
    0,
    0,
    0,
    0,
    1552,
    1552,
    1552,
    1552,
    1552,
    1552,
    0,
    0,
    0,
    0,
    0,
    0,
    0,
    0,
    0,
    0,
    0,
    0,
    0,
    0,
    0,
    0,
    0,
    0,
    0,
    0,
    0,
    0,
    0,
    1552,
    0,
    0,
    0,
    0,
    1552,
    0,
    1552,
    0,
    0,
    0,
    0,
    0,
    0,
    0,
    0,
    0,
    0,
    0,
    0,
    0,
    0,
    1552,
    1552,
    1552,
    1552,
    1552,
    1552,
    1552,
    0,
    0,
    0,
    0,
    0,
    0,
    0,
    0,
    0,
    0,
    0,
    0,
    0,
    0,
    0,
    0,
    1552,
    1552,
    0,
    0,
    0,
    0,
    0,
    0,
    0,
    0,
    0,
    0,
    0,
    0,
    0,
    1552,
    1552,
    1552,
    1552,
    1552,
    1552,
    1552,
    0,
    0,
    0,
    0,
    0,
    0,
    0,
    0,
    0,
    0,
    1552,
    1552,
    1552,
    1552,
    1552,
    1552,
    1552,
    0,
    0,
    0,
    0,
    1552,
    1552,
    0,
    0,
    0,
    0,
    0,
    1552,
    0,
    0,
    0,
    1552,
    1552,
    1552,
    1552,
    1552,
    1552,
    0,
    0,
    0,
    0,
    0,
    0,
    0,
    0,
    0,
    0,
    0,
    0,
    0,
    0,
    0,
    0,
    0,
    0,
    0,
    0,
    0,
    0,
    0,
    1552,
    1552,
    0,
    0,
    1552,
    1552,
    0,
    0,
    0,
    0,
    0,
    0,
    0,
    0,
    0,
    0,
    0,
    0,
    0,
    0,
    0,
    0,
    0,
    1552,
    1552,
    1552,
    1552,
    1552,
    1552,
    1552,
    0,
    0,
    0,
    0,
    0,
    0,
    0,
    0,
    0,
    0,
    0,
    0,
    0,
    0,
    0,
    0,
    0,
    0,
    0,
    0,
    0,
    1552,
    0,
    0,
    0,
    0,
    0,
    0,
    0,
    1552,
    1552,
    1552,
    1552,
    1552,
    1552,
    0,
    0,
    0,
    0,
    0,
    0,
    0,
    1552,
    1552,
    0,
    0,
    1552,
    1552,
    1552,
    1552,
    1552,
    1552,
    1552,
    1552,
    0,
    0,
    0,
    0,
    0,
    0,
    1552,
    0,
    0,
    0,
    0,
    1552,
    0,
    0,
    0,
    1552,
    1552,
    1552,
    1552,
    1552,
    1552,
    1552,
    0,
    0,
    0,
    0,
    0,
    0,
    0,
    0,
    0,
    0,
    0,
    0,
    0,
    0,
    0,
    0,
    0,
    0,
    0,
    0,
    1552,
    0,
    1552,
    1552,
    0,
    0,
    1552,
    1552,
    1552,
    0,
    0,
    0,
    0,
    0,
    0,
    0,
    0,
    0,
    0,
    0,
    0,
    0,
    0,
    0,
    1552,
    1552,
    1552,
    1552,
    1552,
    1552,
    1552,
    0,
    0,
    0,
    0,
    0,
    0,
    0,
    0,
    1552,
    1552,
    1552,
    1552,
    1552,
    1552,
    1552,
    0,
    0,
    0,
    0,
    0,
    0,
    0,
    0,
    1552,
    1552,
    0,
    0,
    0,
    1552,
    1552,
    1552,
    1552,
    0,
    0,
    0,
    0,
    0,
    0,
    1552,
    0,
    1552,
    1552,
    1552,
    1552,
    1552,
    0,
    0,
    1552,
    1552,
    1552,
    1552,
    1552,
    1552,
    1552,
    0,
    1552,
    1552,
    0,
    0,
    0,
    1552,
    1552,
    0,
    0,
    0,
    0,
    1552,
    1552,
    0,
    0,
    0,
    1552,
    1552,
    1552,
    1552,
    1552,
    1552,
    0,
    0,
    0,
    0,
    0,
    0,
    0,
    0,
    0,
    0,
    0,
    0,
    0,
    1552,
    1552,
    0,
    0,
    0,
    0,
    0,
    0,
    1552,
    1552,
    1552,
    1552,
    0,
    0,
    1552,
    1552,
    0,
    0,
    0,
    0,
    0,
    0,
    0,
    0,
    0,
    0,
    0,
    0,
    0,
    0,
    0,
    1552,
    1552,
    1552,
    1552,
    1552,
    1552,
    0,
    0,
    0,
    0,
    0,
    0,
    0,
    0,
    1552,
    0,
    0,
    0,
    0,
    0,
    0,
    0,
    0,
    0,
    0,
    0,
    0,
    0,
    0,
    1552,
    1552,
    1552,
    0,
    0,
    0,
    1552,
    1552,
    0,
    0,
    0,
    0,
    0,
    0,
    1552,
    1552,
    1552,
    0,
    0,
    1552,
    1552,
    0,
    0,
    0,
    1552,
    1552,
    1552,
    1552,
    1552,
    1552,
    1552,
    1552,
    1552,
    1552,
    1552,
    1552,
    1552,
    0,
    1552,
    1552,
    0,
    0,
    0,
    0,
    1552,
    1552,
    0,
    0,
    0,
    1552,
    1552,
    1552,
    1552,
    1552,
    1552,
    1552,
    0,
    0,
    0,
    0,
    0,
    0,
    0,
    0,
    0,
    0,
    0,
    0,
    1552,
    1552,
    1552,
    1552,
    0,
    1552,
    1552,
    1552,
    1552,
    1552,
    1552,
    1552,
    1552,
    0,
    1552,
    1552,
    0,
    0,
    0,
    0,
    0,
    0,
    0,
    0,
    0,
    0,
    0,
    0,
    0,
    0,
    1552,
    1552,
    1552,
    1552,
    1552,
    1552,
    1552,
    0,
    0,
    0,
    0,
    0,
    0,
    1552,
    1552,
    0,
    0,
    0,
    0,
    0,
    0,
    0,
    0,
    0,
    0,
    0,
    0,
    0,
    1552,
    1552,
    1552,
    1552,
    1552,
    0,
    0,
    0,
    0,
    0,
    0,
    1552,
    0,
    1552,
    1552,
    1552,
    1552,
    1552,
    1552,
    1552,
    1552,
    1552,
    1552,
    0,
    0,
    0,
    1552,
    1552,
    1552,
    1552,
    1552,
    1552,
    1552,
    1552,
    1552,
    1552,
    1552,
    1552,
    1552,
    0,
    1552,
    1552,
    0,
    0,
    0,
    0,
    1552,
    1552,
    0,
    0,
    0,
    0,
    1552,
    1552,
    1552,
    1552,
    1552,
    1552,
    1552,
    0,
    0,
    0,
    0,
    0,
    0,
    0,
    0,
    0,
    0,
    1552,
    1552,
    1552,
    1552,
    1552,
    0,
    1552,
    1552,
    1552,
    1552,
    1552,
    1552,
    1552,
    0,
    0,
    0,
    0,
    0,
    0,
    0,
    0,
    0,
    0,
    0,
    0,
    0,
    0,
    0,
    0,
    0,
    0,
    0,
    0,
    1552,
    1552,
    1552,
    1552,
    0,
    0,
    0,
    0,
    0,
    0,
    1552,
    0,
    0,
    0,
    0,
    0,
    0,
    0,
    0,
    0,
    0,
    0,
    0,
    0,
    0,
    1552,
    1552,
    1552,
    1552,
    1552,
    0,
    0,
    0,
    0,
    0,
    1552,
    1552,
    1552,
    1552,
    1552,
    1552,
    1552,
    1552,
    1552,
    1552,
    1552,
    1552,
    1552,
    1552,
    0,
    0,
    0,
    1552,
    1552,
    1552,
    1552,
    1552,
    1552,
    1552,
    1552,
    1552,
    1552,
    1552,
    1552,
    1552,
    0,
    1552,
    0,
    0,
    0,
    0,
    0,
    1552,
    1552,
    0,
    0,
    0,
    0,
    0,
    1552,
    1552,
    1552,
    1552,
    1552,
    1552,
    0,
    0,
    0,
    0,
    0,
    0,
    0,
    0,
    0,
    0,
    1552,
    1552,
    1552,
    0,
    1552,
    1552,
    0,
    1552,
    1552,
    1552,
    1552,
    1552,
    1552,
    0,
    0,
    0,
    0,
    0,
    0,
    0,
    0,
    0,
    0,
    0,
    0,
    0,
    0,
    0,
    0,
    0,
    0,
    0,
    0,
    1552,
    1552,
    0,
    0,
    0,
    0,
    0,
    0,
    0,
    0,
    1552,
    0,
    0,
    0,
    0,
    0,
    0,
    0,
    0,
    0,
    0,
    1552,
    1552,
    0,
    1552,
    1552,
    1552,
    1552,
    1552,
    1552,
    1552,
    0,
    0,
    0,
    0,
    1552,
    1552,
    1552,
    1552,
    1552,
    1552,
    1552,
    1552,
    1552,
    1552,
    0,
    1552,
    0,
    0,
    0,
    0,
    1552,
    1552,
    1552,
    1552,
    1552,
    1552,
    0,
    1552,
    1552,
    1552,
    1552,
    0,
    0,
    0,
    1552,
    1552,
    0,
    0,
    0,
    0,
    0,
    1552,
    1552,
    0,
    0,
    0,
    0,
    0,
    0,
    1552,
    1552,
    1552,
    1552,
    1552,
    1552,
    0,
    0,
    0,
    0,
    0,
    0,
    0,
    0,
    0,
    1552,
    1552,
    1552,
    1552,
    1552,
    1552,
    1552,
    1552,
    1552,
    1552,
    1552,
    0,
    0,
    0,
    0,
    0,
    0,
    0,
    0,
    0,
    0,
    0,
    0,
    0,
    0,
    0,
    0,
    0,
    0,
    0,
    0,
    0,
    1552,
    1552,
    1552,
    0,
    0,
    0,
    0,
    0,
    0,
    1552,
    1552,
    0,
    0,
    1552,
    0,
    0,
    0,
    0,
    0,
    0,
    0,
    1552,
    1552,
    1552,
    1552,
    1552,
    1552,
    1552,
    1552,
    1552,
    1552,
    1552,
    0,
    0,
    0,
    0,
    0,
    0,
    0,
    1552,
    1552,
    1552,
    1552,
    1552,
    0,
    0,
    0,
    0,
    0,
    0,
    0,
    0,
    1552,
    1552,
    1552,
    1552,
    0,
    0,
    0,
    0,
    0,
    0,
    0,
    0,
    0,
    1552,
    1552,
    0,
    0,
    0,
    0,
    0,
    0,
    1552,
    1552,
    0,
    0,
    0,
    0,
    0,
    0,
    0,
    1552,
    1552,
    1552,
    1552,
    1552,
    1552,
    1552,
    0,
    0,
    0,
    0,
    0,
    0,
    0,
    0,
    1552,
    1552,
    1552,
    1552,
    1552,
    1552,
    1552,
    1552,
    1552,
    1552,
    0,
    0,
    0,
    1552,
    1552,
    0,
    0,
    0,
    0,
    0,
    0,
    0,
    0,
    0,
    0,
    0,
    0,
    0,
    0,
    0,
    0,
    0,
    0,
    0,
    0,
    0,
    0,
    0,
    0,
    1552,
    0,
    0,
    0,
    0,
    0,
    0,
    0,
    0,
    0,
    0,
    0,
    1552,
    1552,
    1552,
    1552,
    1552,
    1552,
    1552,
    1552,
    1552,
    0,
    0,
    0,
    1552,
    1552,
    0,
    0,
    0,
    0,
    0,
    0,
    0,
    0,
    0,
    0,
    0,
    0,
    0,
    0,
    0,
    0,
    1552,
    1552,
    1552,
    1552,
    0,
    0,
    0,
    0,
    0,
    0,
    1552,
    1552,
    1552,
    1552,
    1552,
    1552,
    0,
    0,
    0,
    0,
    0,
    0,
    0,
    1552,
    1552,
    0,
    0,
    0,
    0,
    0,
    0,
    0,
    1552,
    1552,
    1552,
    1552,
    1552,
    1552,
    1552,
    1552,
    0,
    0,
    0,
    1552,
    1552,
    1552,
    0,
    0,
    0,
    1552,
    1552,
    1552,
    1552,
    1552,
    0,
    0,
    0,
    0,
    0,
    1552,
    1552,
    1552,
    0,
    0,
    0,
    0,
    0,
    0,
    0,
    0,
    0,
    0,
    0,
    0,
    0,
    0,
    0,
    0,
    0,
    0,
    0,
    0,
    0,
    0,
    0,
    0,
    1552,
    0,
    0,
    0,
    0,
    0,
    0,
    0,
    0,
    0,
    1552,
    1552,
    1552,
    1552,
    1552,
    1552,
    1552,
    1552,
    0,
    1552,
    1552,
    0,
    0,
    0,
    1552,
    1552,
    0,
    0,
    0,
    0,
    0,
    0,
    0,
    0,
    0,
    0,
    0,
    0,
    0,
    0,
    0,
    1552,
    1552,
    1552,
    0,
    0,
    0,
    0,
    0,
    1552,
    1552,
    1552,
    1552,
    1552,
    1552,
    0,
    0,
    0,
    0,
    0,
    0,
    0,
    0,
    0,
    0,
    1552,
    0,
    0,
    1552,
    0,
    0,
    0,
    0,
    0,
    0,
    1552,
    1552,
    1552,
    1552,
    1552,
    1552,
    1552,
    1552,
    0,
    0,
    0,
    1552,
    1552,
    1552,
    0,
    0,
    1552,
    1552,
    0,
    1552,
    0,
    1552,
    0,
    0,
    1552,
    0,
    1552,
    1552,
    0,
    0,
    0,
    0,
    0,
    0,
    0,
    0,
    0,
    0,
    0,
    0,
    0,
    0,
    0,
    0,
    0,
    0,
    0,
    0,
    0,
    0,
    0,
    1552,
    0,
    0,
    0,
    0,
    0,
    0,
    0,
    0,
    0,
    0,
    1552,
    1552,
    1552,
    0,
    1552,
    1552,
    1552,
    1552,
    0,
    0,
    0,
    0,
    0,
    0,
    0,
    0,
    1552,
    1552,
    1552,
    0,
    0,
    0,
    0,
    0,
    0,
    0,
    0,
    0,
    0,
    0,
    0,
    0,
    0,
    0,
    0,
    1552,
    1552,
    1552,
    1552,
    1552,
    1552,
    0,
    0,
    0,
    0,
    0,
    0,
    0,
    0,
    0,
    0,
    0,
    0,
    0,
    0,
    1552,
    1552,
    0,
    0,
    0,
    0,
    0,
    0,
    0,
    0,
    0,
    0,
    1552,
    1552,
    1552,
    1552,
    1552,
    1552,
    1552,
    1552,
    0,
    0,
    0,
    1552,
    1552,
    1552,
    0,
    0,
    0,
    0,
    0,
    0,
    0,
    0,
    1552,
    1552,
    1552,
    1552,
    1552,
    0,
    0,
    1552,
    0,
    0,
    0,
    0,
    0,
    0,
    0,
    0,
    0,
    0,
    0,
    0,
    0,
    0,
    0,
    0,
    0,
    0,
    0,
    1552,
    0,
    0,
    0,
    0,
    0,
    0,
    0,
    0,
    0,
    0,
    0,
    0,
    1552,
    1552,
    1552,
    1552,
    1552,
    0,
    0,
    0,
    0,
    0,
    0,
    0,
    0,
    0,
    1552,
    1552,
    1552,
    1552,
    1552,
    1552,
    1552,
    1552,
    1552,
    0,
    0,
    0,
    0,
    0,
    0,
    0,
    0,
    0,
    0,
    1552,
    1552,
    1552,
    1552,
    1552,
    1552,
    0,
    0,
    0,
    0,
    0,
    0,
    0,
    0,
    0,
    0,
    0,
    0,
    0,
    0,
    1552,
    1552,
    0,
    0,
    0,
    0,
    0,
    0,
    1552,
    0,
    0,
    0,
    0,
    0,
    0,
    0,
    1552,
    1552,
    1552,
    1552,
    1552,
    0,
    0,
    0,
    0,
    1552,
    1552,
    1552,
    1552,
    1552,
    0,
    0,
    1552,
    1552,
    1552,
    1552,
    1552,
    1552,
    0,
    1552,
    0,
    0,
    0,
    0,
    0,
    0,
    0,
    0,
    0,
    0,
    0,
    0,
    0,
    0,
    0,
    0,
    0,
    0,
    1552,
    1552,
    0,
    1552,
    1552,
    0,
    0,
    0,
    0,
    0,
    0,
    0,
    0,
    0,
    0,
    0,
    1552,
    1552,
    1552,
    0,
    0,
    0,
    0,
    0,
    1552,
    1552,
    1552,
    1552,
    1552,
    1552,
    1552,
    1552,
    1552,
    1552,
    1552,
    1552,
    1552,
    1552,
    1552,
    1552,
    1552,
    1552,
    0,
    0,
    0,
    0,
    0,
    0,
    1552,
    1552,
    1552,
    1552,
    0,
    0,
    0,
    0,
    0,
    0,
    0,
    0,
    1552,
    0,
    0,
    1552,
    0,
    0,
    0,
    0,
    0,
    1552,
    0,
    0,
    0,
    0,
    0,
    0,
    0,
    0,
    0,
    0,
    0,
    0,
    0,
    0,
    0,
    0,
    1552,
    1552,
    1552,
    1552,
    1552,
    0,
    0,
    0,
    1552,
    1552,
    1552,
    1552,
    1552,
    1552,
    1552,
    1552,
    1552,
    1552,
    1552,
    1552,
    1552,
    1552,
    1552,
    1552,
    1552,
    1552,
    0,
    0,
    0,
    0,
    0,
    0,
    0,
    0,
    0,
    0,
    0,
    0,
    0,
    0,
    0,
    0,
    1552,
    1552,
    0,
    1552,
    1552,
    0,
    0,
    0,
    0,
    0,
    0,
    0,
    0,
    0,
    0,
    0,
    0,
    0,
    0,
    0,
    0,
    0,
    0,
    1552,
    0,
    0,
    0,
    0,
    0,
    0,
    0,
    1552,
    1552,
    1552,
    1552,
    1552,
    1552,
    1552,
    1552,
    1552,
    1552,
    1552,
    1552,
    0,
    0,
    0,
    0,
    0,
    1552,
    1552,
    0,
    0,
    0,
    0,
    0,
    0,
    0,
    0,
    0,
    1552,
    0,
    0,
    1552,
    1552,
    0,
    0,
    0,
    0,
    1552,
    0,
    0,
    0,
    0,
    0,
    0,
    0,
    0,
    0,
    0,
    1552,
    1552,
    1552,
    1552,
    1552,
    1552,
    1552,
    1552,
    1552,
    1552,
    1552,
    1552,
    0,
    0,
    0,
    1552,
    1552,
    1552,
    1552,
    1552,
    1552,
    1552,
    1552,
    1552,
    1552,
    1552,
    1552,
    1552,
    1552,
    1552,
    1552,
    1552,
    1552,
    1552,
    1552,
    1552,
    0,
    0,
    0,
    0,
    0,
    0,
    0,
    0,
    0,
    0,
    0,
    0,
    1552,
    0,
    0,
    0,
    1552,
    1552,
    0,
    0,
    0,
    0,
    0,
    0,
    0,
    0,
    0,
    0,
    0,
    0,
    0,
    0,
    0,
    0,
    1552,
    1552,
    0,
    0,
    0,
    0,
    0,
    0,
    0,
    0,
    0,
    1552,
    1552,
    1552,
    1552,
    1552,
    1552,
    0,
    0,
    0,
    0,
    0,
    0,
    1552,
    1552,
    0,
    0,
    0,
    0,
    0,
    0,
    0,
    1552,
    1552,
    1552,
    1552,
    0,
    0,
    0,
    1552,
    1552,
    1552,
    0,
    0,
    0,
    0,
    0,
    0,
    0,
    0,
    0,
    0,
    0,
    0,
    0,
    0,
    0,
    1552,
    1552,
    1552,
    1552,
    1552,
    1552,
    1552,
    1552,
    1552,
    1552,
    1552,
    1552,
    0,
    0,
    0,
    1552,
    1552,
    1552,
    1552,
    1552,
    1552,
    1552,
    1552,
    1552,
    1552,
    1552,
    1552,
    1552,
    1552,
    1552,
    1552,
    1552,
    1552,
    1552,
    1552,
    1552,
    0,
    0,
    1552,
    1552,
    0,
    0,
    0,
    0,
    0,
    0,
    0,
    0,
    0,
    0,
    0,
    0,
    1552,
    1552,
    0,
    0,
    0,
    0,
    0,
    0,
    0,
    0,
    0,
    0,
    0,
    0,
    1552,
    0,
    0,
    0,
    1552,
    0,
    0,
    0,
    1552,
    1552,
    1552,
    1552,
    1552,
    1552,
    1552,
    0,
    1552,
    1552,
    0,
    0,
    0,
    0,
    0,
    1552,
    0,
    0,
    0,
    1552,
    1552,
    0,
    0,
    0,
    0,
    0,
    0,
    0,
    0,
    1552,
    1552,
    1552,
    1552,
    1552,
    0,
    1552,
    1552,
    1552,
    0,
    0,
    0,
    0,
    0,
    0,
    0,
    0,
    0,
    0,
    0,
    0,
    0,
    0,
    1552,
    1552,
    1552,
    1552,
    1552,
    1552,
    1552,
    1552,
    1552,
    1552,
    1552,
    1552,
    1552,
    0,
    0,
    0,
    0,
    0,
    1552,
    0,
    1552,
    1552,
    1552,
    1552,
    1552,
    1552,
    0,
    1552,
    1552,
    1552,
    1552,
    1552,
    1552,
    1552,
    1552,
    1552,
    0,
    1552,
    1552,
    1552,
    1552,
    1552,
    0,
    0,
    0,
    0,
    0,
    0,
    0,
    0,
    0,
    0,
    0,
    1552,
    0,
    0,
    0,
    0,
    0,
    0,
    0,
    0,
    0,
    0,
    0,
    0,
    0,
    1552,
    1552,
    1552,
    0,
    0,
    1552,
    0,
    0,
    1552,
    0,
    0,
    0,
    0,
    0,
    0,
    0,
    0,
    0,
    0,
    0,
    0,
    0,
    1552,
    1552,
    1552,
    1552,
    1552,
    1552,
    1552,
    1552,
    0,
    0,
    0,
    0,
    0,
    0,
    0,
    0,
    0,
    1552,
    1552,
    1552,
    0,
    1552,
    1552,
    0,
    0,
    0,
    0,
    0,
    0,
    0,
    0,
    0,
    0,
    0,
    0,
    0,
    0,
    0,
    1552,
    1552,
    1552,
    1552,
    1552,
    1552,
    1552,
    1552,
    1552,
    1552,
    1552,
    1552,
    0,
    0,
    0,
    0,
    0,
    0,
    0,
    0,
    1552,
    1552,
    1552,
    1552,
    1552,
    1552,
    0,
    1552,
    0,
    1552,
    1552,
    1552,
    1552,
    1552,
    0,
    1552,
    1552,
    1552,
    1552,
    1552,
    1552,
    1552,
    0,
    0,
    0,
    0,
    0,
    0,
    0,
    0,
    0,
    0,
    0,
    0,
    1552,
    0,
    0,
    0,
    0,
    0,
    0,
    0,
    0,
    0,
    0,
    0,
    0,
    1552,
    1552,
    1552,
    0,
    1552,
    1552,
    0,
    0,
    0,
    1552,
    0,
    1552,
    1552,
    1552,
    1552,
    1552,
    1552,
    0,
    0,
    0,
    1552,
    1552,
    1552,
    1552,
    1552,
    1552,
    1552,
    1552,
    1552,
    0,
    0,
    0,
    0,
    0,
    0,
    0,
    0,
    0,
    0,
    0,
    1552,
    1552,
    1552,
    0,
    1552,
    1552,
    0,
    0,
    0,
    0,
    0,
    0,
    0,
    0,
    0,
    0,
    0,
    0,
    0,
    1552,
    1552,
    1552,
    1552,
    1552,
    1552,
    1552,
    0,
    0,
    0,
    0,
    1552,
    1552,
    0,
    0,
    0,
    0,
    0,
    0,
    0,
    0,
    0,
    0,
    0,
    0,
    1552,
    1552,
    1552,
    1552,
    0,
    0,
    1552,
    1552,
    1552,
    1552,
    1552,
    1552,
    1552,
    1552,
    1552,
    1552,
    0,
    1552,
    1552,
    1552,
    1552,
    0,
    0,
    0,
    0,
    0,
    0,
    0,
    0,
    0,
    0,
    0,
    0,
    0,
    0,
    0,
    0,
    0,
    0,
    0,
    0,
    0,
    0,
    1552,
    1552,
    0,
    0,
    1552,
    0,
    0,
    0,
    1552,
    1552,
    0,
    1552,
    0,
    0,
    0,
    0,
    0,
    0,
    1552,
    1552,
    1552,
    1552,
    1552,
    1552,
    0,
    0,
    0,
    0,
    0,
    0,
    0,
    0,
    0,
    0,
    0,
    0,
    0,
    0,
    0,
    0,
    1552,
    0,
    0,
    0,
    1552,
    1552,
    0,
    0,
    0,
    0,
    0,
    0,
    0,
    0,
    0,
    0,
    0,
    0,
    0,
    1552,
    1552,
    1552,
    1552,
    1552,
    1552,
    1552,
    0,
    0,
    0,
    0,
    0,
    0,
    0,
    0,
    0,
    0,
    0,
    0,
    0,
    0,
    0,
    0,
    0,
    0,
    0,
    0,
    0,
    0,
    0,
    0,
    1552,
    0,
    1552,
    1552,
    1552,
    1552,
    1552,
    1552,
    1552,
    1552,
    0,
    1552,
    1552,
    1552,
    1552,
    1552,
    0,
    0,
    0,
    0,
    0,
    0,
    0,
    1552,
    0,
    0,
    0,
    0,
    0,
    0,
    0,
    0,
    0,
    0,
    0,
    0,
    0,
    0,
    1552,
    1552,
    0,
    0,
    1552,
    0,
    0,
    1552,
    1552,
    0,
    0,
    1552,
    0,
    0,
    0,
    1552,
    1552,
    1552,
    1552,
    1552,
    1552,
    0,
    0,
    0,
    0,
    0,
    0,
    0,
    0,
    0,
    0,
    0,
    0,
    0,
    0,
    0,
    0,
    0,
    0,
    0,
    0,
    1552,
    1552,
    1552,
    1552,
    1552,
    0,
    0,
    0,
    0,
    0,
    1552,
    0,
    0,
    0,
    0,
    0,
    1552,
    1552,
    1552,
    1552,
    1552,
    1552,
    1552,
    1552,
    0,
    0,
    0,
    0,
    0,
    0,
    0,
    0,
    0,
    0,
    0,
    1552,
    1552,
    1552,
    1552,
    1552,
    1552,
    1552,
    0,
    0,
    0,
    0,
    0,
    0,
    0,
    0,
    0,
    1552,
    1552,
    1552,
    0,
    1552,
    1552,
    1552,
    1552,
    1552,
    1552,
    1552,
    1552,
    1552,
    1552,
    0,
    0,
    0,
    0,
    0,
    0,
    1552,
    1552,
    0,
    0,
    0,
    0,
    0,
    0,
    0,
    0,
    0,
    0,
    0,
    0,
    0,
    1552,
    0,
    0,
    1552,
    1552,
    0,
    0,
    0,
    0,
    0,
    1552,
    1552,
    0,
    0,
    0,
    0,
    1552,
    1552,
    0,
    0,
    0,
    0,
    0,
    0,
    0,
    0,
    0,
    0,
    0,
    0,
    0,
    0,
    0,
    0,
    0,
    0,
    0,
    0,
    0,
    0,
    0,
    0,
    1552,
    1552,
    1552,
    0,
    0,
    0,
    0,
    0,
    0,
    1552,
    1552,
    0,
    0,
    1552,
    0,
    1552,
    1552,
    1552,
    1552,
    1552,
    1552,
    1552,
    1552,
    0,
    0,
    0,
    0,
    0,
    0,
    0,
    0,
    0,
    0,
    0,
    1552,
    0,
    0,
    0,
    0,
    0,
    0,
    0,
    1552,
    0,
    0,
    0,
    0,
    0,
    0,
    0,
    0,
    0,
    0,
    0,
    1552,
    0,
    0,
    1552,
    1552,
    0,
    1552,
    1552,
    1552,
    1552,
    1552,
    0,
    0,
    0,
    0,
    0,
    0,
    1552,
    1552,
    0,
    0,
    0,
    0,
    0,
    0,
    0,
    0,
    0,
    0,
    0,
    0,
    0,
    0,
    0,
    1552,
    0,
    0,
    0,
    0,
    0,
    0,
    1552,
    1552,
    0,
    0,
    0,
    0,
    0,
    1552,
    0,
    0,
    0,
    0,
    0,
    0,
    0,
    0,
    0,
    0,
    0,
    0,
    0,
    0,
    0,
    0,
    0,
    0,
    0,
    0,
    0,
    0,
    0,
    0,
    1552,
    1552,
    0,
    0,
    0,
    0,
    0,
    0,
    0,
    1552,
    1552,
    0,
    0,
    0,
    1552,
    1552,
    1552,
    1552,
    1552,
    1552,
    1552,
    1552,
    0,
    0,
    0,
    0,
    0,
    1552,
    1552,
    1552,
    1552,
    1552,
    0,
    1552,
    1552,
    0,
    0,
    1552,
    1552,
    1552,
    1552,
    1552,
    0,
    1552,
    0,
    0,
    0,
    0,
    0,
    0,
    0,
    0,
    0,
    0,
    1552,
    0,
    0,
    1552,
    1552,
    1552,
    1552,
    1552,
    1552,
    1552,
    0,
    0,
    0,
    0,
    0,
    0,
    0,
    0,
    1552,
    1552,
    0,
    0,
    0,
    0,
    0,
    0,
    0,
    0,
    0,
    0,
    0,
    0,
    0,
    0,
    0,
    1552,
    0,
    0,
    0,
    0,
    0,
    0,
    1552,
    0,
    0,
    0,
    0,
    0,
    0,
    0,
    1552,
    1552,
    0,
    0,
    0,
    0,
    0,
    0,
    0,
    0,
    0,
    0,
    0,
    0,
    0,
    0,
    0,
    0,
    0,
    0,
    0,
    0,
    0,
    0,
    0,
    0,
    0,
    0,
    0,
    0,
    0,
    0,
    1552,
    1552,
    0,
    0,
    0,
    1552,
    1552,
    1552,
    1552,
    1552,
    1552,
    1552,
    1552,
    0,
    0,
    0,
    0,
    0,
    1552,
    0,
    0,
    0,
    0,
    0,
    1552,
    0,
    0,
    0,
    1552,
    0,
    0,
    0,
    0,
    0,
    1552,
    0,
    1552,
    1552,
    0,
    0,
    0,
    0,
    0,
    0,
    0,
    0,
    0,
    0,
    0,
    0,
    0,
    0,
    1552,
    1552,
    0,
    0,
    0,
    0,
    0,
    0,
    0,
    0,
    0,
    0,
    1552,
    1552,
    0,
    0,
    0,
    0,
    0,
    0,
    0,
    0,
    0,
    0,
    0,
    0,
    0,
    1552,
    1552,
    0,
    0,
    0,
    0,
    0,
    0,
    0,
    0,
    0,
    0,
    0,
    0,
    0,
    0,
    1552,
    0,
    0,
    1552,
    0,
    0,
    0,
    0,
    0,
    0,
    0,
    0,
    0,
    0,
    0,
    0,
    0,
    0,
    0,
    1552,
    0,
    0,
    0,
    0,
    0,
    0,
    0,
    0,
    0,
    0,
    0,
    0,
    0,
    1552,
    1552,
    0,
    0,
    1552,
    1552,
    1552,
    1552,
    1552,
    1552,
    1552,
    1552,
    0,
    0,
    0,
    0,
    1552,
    1552,
    0,
    0,
    0,
    0,
    0,
    0,
    0,
    0,
    0,
    0,
    1552,
    0,
    0,
    0,
    0,
    0,
    1552,
    0,
    0,
    0,
    1552,
    0,
    0,
    0,
    0,
    0,
    1552,
    1552,
    1552,
    0,
    0,
    0,
    0,
    1552,
    0,
    0,
    0,
    0,
    0,
    0,
    0,
    0,
    0,
    0,
    0,
    0,
    1552,
    1552,
    0,
    0,
    0,
    0,
    0,
    0,
    0,
    0,
    0,
    0,
    0,
    0,
    1552,
    0,
    0,
    0,
    0,
    0,
    0,
    0,
    0,
    0,
    0,
    0,
    0,
    0,
    0,
    0,
    0,
    1552,
    0,
    0,
    0,
    0,
    0,
    0,
    0,
    0,
    0,
    0,
    0,
    0,
    0,
    0,
    0,
    0,
    0,
    1552,
    1552,
    0,
    0,
    0,
    0,
    0,
    0,
    0,
    0,
    0,
    0,
    0,
    0,
    1552,
    1552,
    0,
    0,
    1552,
    1552,
    1552,
    1552,
    1552,
    1552,
    1552,
    1552,
    0,
    0,
    0,
    0,
    1552,
    0,
    0,
    0,
    1552,
    1552,
    1552,
    1552,
    1552,
    0,
    1552,
    1552,
    0,
    1552,
    1552,
    1552,
    1552,
    1552,
    0,
    0,
    1552,
    1552,
    0,
    1552,
    0,
    0,
    0,
    0,
    0,
    0,
    0,
    1552,
    1552,
    0,
    0,
    0,
    0,
    0,
    0,
    0,
    0,
    0,
    0,
    0,
    0,
    0,
    0,
    0,
    0,
    1552,
    1552,
    0,
    0,
    0,
    0,
    0,
    0,
    0,
    0,
    0,
    0,
    0,
    0,
    0,
    0,
    0,
    0,
    0,
    0,
    0,
    0,
    0,
    0,
    0,
    0,
    0,
    0,
    0,
    0,
    0,
    0,
    0,
    0,
    0,
    0,
    0,
    0,
    0,
    0,
    0,
    0,
    0,
    0,
    0,
    0,
    0,
    0,
    1552,
    1552,
    0,
    0,
    0,
    0,
    0,
    0,
    0,
    0,
    0,
    0,
    0,
    1552,
    1552,
    1552,
    1552,
    0,
    0,
    1552,
    1552,
    1552,
    1552,
    1552,
    1552,
    1552,
    0,
    0,
    0,
    0,
    0,
    1552,
    0,
    0,
    1552,
    0,
    0,
    0,
    0,
    0,
    1552,
    0,
    0,
    1552,
    0,
    0,
    0,
    0,
    0,
    1552,
    0,
    0,
    0,
    1552,
    0,
    1552,
    0,
    0,
    0,
    0,
    1552,
    1552,
    0,
    1552,
    0,
    0,
    0,
    0,
    0,
    0,
    0,
    0,
    0,
    0,
    0,
    0,
    0,
    0,
    0,
    0,
    0,
    1552,
    1552,
    0,
    0,
    0,
    0,
    0,
    0,
    0,
    0,
    0,
    0,
    0,
    0,
    0,
    0,
    0,
    0,
    0,
    0,
    0,
    1552,
    0,
    0,
    0,
    0,
    0,
    0,
    0,
    0,
    0,
    0,
    0,
    0,
    0,
    0,
    0,
    0,
    0,
    0,
    0,
    0,
    0,
    0,
    0,
    1552,
    1552,
    1552,
    0,
    0,
    0,
    0,
    0,
    0,
    0,
    0,
    0,
    0,
    1552,
    1552,
    1552,
    1552,
    0,
    0,
    0,
    0,
    1552,
    1552,
    1552,
    1552,
    1552,
    1552,
    0,
    0,
    0,
    0,
    1552,
    1552,
    0,
    0,
    0,
    1552,
    0,
    0,
    0,
    0,
    0,
    0,
    1552,
    1552,
    0,
    0,
    0,
    0,
    0,
    0,
    1552,
    0,
    0,
    0,
    1552,
    0,
    0,
    0,
    0,
    0,
    0,
    0,
    0,
    1552,
    0,
    1552,
    1552,
    0,
    0,
    0,
    0,
    0,
    0,
    0,
    0,
    1552,
    1552,
    0,
    0,
    0,
    0,
    0,
    1552,
    1552,
    1552,
    0,
    0,
    0,
    0,
    0,
    0,
    0,
    0,
    0,
    0,
    0,
    0,
    0,
    0,
    0,
    0,
    1552,
    1552,
    0,
    0,
    0,
    0,
    0,
    0,
    0,
    0,
    0,
    0,
    0,
    0,
    0,
    0,
    0,
    0,
    0,
    0,
    0,
    0,
    0,
    0,
    0,
    0,
    0,
    1552,
    1552,
    0,
    0,
    0,
    0,
    0,
    0,
    0,
    0,
    0,
    1552,
    0,
    0,
    0,
    0,
    0,
    0,
    0,
    0,
    1552,
    1552,
    1552,
    1552,
    1552,
    1552,
    0,
    0,
    0,
    1552,
    0,
    0,
    0,
    1552,
    1552,
    0,
    1552,
    1552,
    1552,
    1552,
    1552,
    1552,
    0,
    0,
    0,
    0,
    0,
    0,
    0,
    0,
    0,
    1552,
    1552,
    0,
    0,
    1552,
    0,
    0,
    0,
    0,
    0,
    0,
    0,
    1552,
    0,
    0,
    0,
    1552,
    0,
    0,
    0,
    0,
    0,
    0,
    1552,
    1552,
    1552,
    1552,
    1552,
    0,
    0,
    0,
    0,
    1552,
    1552,
    0,
    0,
    0,
    0,
    0,
    0,
    0,
    0,
    0,
    0,
    0,
    0,
    0,
    0,
    0,
    1552,
    1552,
    0,
    0,
    0,
    0,
    0,
    0,
    0,
    0,
    0,
    1552,
    0,
    0,
    0,
    0,
    0,
    0,
    0,
    0,
    0,
    0,
    0,
    0,
    0,
    0,
    0,
    0,
    1552,
    1552,
    0,
    0,
    0,
    0,
    0,
    0,
    0,
    0,
    0,
    0,
    0,
    0,
    0,
    0,
    0,
    0,
    0,
    0,
    1552,
    1552,
    1552,
    1552,
    1552,
    1552,
    0,
    0,
    0,
    1552,
    0,
    0,
    0,
    1552,
    0,
    1552,
    0,
    0,
    1552,
    1552,
    1552,
    1552,
    1552,
    1552,
    1552,
    0,
    1552,
    1552,
    1552,
    0,
    0,
    0,
    0,
    1552,
    0,
    0,
    0,
    0,
    0,
    0,
    0,
    0,
    0,
    0,
    1552,
    1552,
    0,
    1552,
    0,
    0,
    0,
    0,
    0,
    0,
    1552,
    1552,
    1552,
    1552,
    1552,
    0,
    0,
    0,
    0,
    1552,
    1552,
    0,
    0,
    0,
    0,
    0,
    0,
    0,
    0,
    0,
    0,
    0,
    1552,
    0,
    0,
    0,
    1552,
    0,
    0,
    0,
    0,
    0,
    0,
    0,
    0,
    1552,
    1552,
    0,
    0,
    0,
    0,
    0,
    0,
    0,
    0,
    0,
    0,
    0,
    0,
    0,
    0,
    0,
    0,
    0,
    1552,
    1552,
    0,
    0,
    0,
    0,
    0,
    0,
    0,
    0,
    0,
    0,
    0,
    0,
    0,
    0,
    0,
    0,
    0,
    1552,
    1552,
    1552,
    1552,
    1552,
    1552,
    1552,
    0,
    0,
    0,
    0,
    1552,
    1552,
    0,
    0,
    0,
    1552,
    0,
    1552,
    0,
    0,
    0,
    0,
    0,
    0,
    0,
    1552,
    0,
    0,
    0,
    1552,
    0,
    0,
    0,
    1552,
    0,
    0,
    0,
    0,
    0,
    0,
    1552,
    1552,
    1552,
    0,
    0,
    0,
    1552,
    0,
    1552,
    1552,
    0,
    0,
    0,
    0,
    1552,
    1552,
    1552,
    0,
    0,
    0,
    0,
    0,
    0,
    1552,
    1552,
    0,
    0,
    0,
    0,
    0,
    0,
    0,
    0,
    0,
    0,
    1552,
    1552,
    0,
    1552,
    1552,
    0,
    0,
    0,
    0,
    0,
    0,
    0,
    0,
    1552,
    1552,
    0,
    0,
    0,
    0,
    0,
    0,
    0,
    0,
    0,
    0,
    0,
    0,
    0,
    0,
    0,
    0,
    0,
    0,
    1552,
    1552,
    0,
    0,
    0,
    0,
    0,
    0,
    0,
    0,
    0,
    0,
    0,
    0,
    0,
    0,
    0,
    0,
    1552,
    1552,
    1552,
    1552,
    1552,
    1552,
    1552,
    0,
    0,
    0,
    0,
    1552,
    1552,
    0,
    0,
    1552,
    1552,
    0,
    0,
    1552,
    0,
    0,
    0,
    0,
    0,
    0,
    0,
    0,
    0,
    0,
    0,
    1552,
    0,
    0,
    0,
    0,
    1552,
    0,
    0,
    0,
    0,
    0,
    0,
    0,
    0,
    1552,
    0,
    0,
    1552,
    0,
    0,
    0,
    1552,
    0,
    0,
    0,
    1552,
    1552,
    1552,
    1552,
    1552,
    1552,
    0,
    0,
    0,
    1552,
    1552,
    0,
    0,
    0,
    0,
    0,
    0,
    1552,
    1552,
    0,
    0,
    1552,
    1552,
    1552,
    1552,
    0,
    0,
    0,
    0,
    0,
    0,
    0,
    0,
    0,
    1552,
    0,
    0,
    0,
    0,
    0,
    0,
    0,
    0,
    0,
    0,
    0,
    0,
    0,
    0,
    0,
    0,
    0,
    0,
    0,
    1552,
    1552,
    0,
    0,
    0,
    0,
    0,
    0,
    0,
    0,
    0,
    0,
    0,
    0,
    0,
    0,
    0,
    1552,
    1552,
    1552,
    1552,
    1552,
    1552,
    1552,
    0,
    0,
    0,
    0,
    0,
    1552,
    1552,
    0,
    1552,
    0,
    0,
    0,
    0,
    0,
    0,
    0,
    0,
    0,
    0,
    0,
    0,
    0,
    1552,
    1552,
    0,
    0,
    1552,
    1552,
    1552,
    1552,
    0,
    0,
    0,
    0,
    1552,
    1552,
    0,
    0,
    0,
    1552,
    0,
    0,
    1552,
    1552,
    0,
    1552,
    1552,
    0,
    0,
    0,
    0,
    1552,
    1552,
    1552,
    1552,
    1552,
    0,
    0,
    0,
    1552,
    1552,
    0,
    0,
    0,
    0,
    0,
    0,
    1552,
    1552,
    0,
    0,
    1552,
    1552,
    1552,
    1552,
    0,
    1552,
    1552,
    0,
    0,
    0,
    0,
    0,
    1552,
    1552,
    0,
    0,
    0,
    0,
    0,
    0,
    1552,
    1552,
    0,
    0,
    0,
    0,
    0,
    0,
    0,
    0,
    0,
    0,
    0,
    1552,
    1552,
    0,
    0,
    0,
    0,
    0,
    0,
    0,
    0,
    0,
    0,
    0,
    0,
    0,
    0,
    0,
    0,
    1552,
    1552,
    1552,
    1552,
    1552,
    0,
    0,
    0,
    0,
    0,
    0,
    1552,
    1552,
    0,
    0,
    0,
    0,
    0,
    0,
    0,
    0,
    0,
    0,
    0,
    0,
    0,
    0,
    0,
    1552,
    1552,
    0,
    0,
    0,
    0,
    0,
    0,
    0,
    0,
    0,
    0,
    0,
    0,
    1552,
    0,
    0,
    1552,
    1552,
    0,
    1552,
    1552,
    0,
    1552,
    1552,
    0,
    0,
    0,
    0,
    0,
    1552,
    1552,
    1552,
    0,
    0,
    0,
    0,
    1552,
    1552,
    0,
    0,
    0,
    0,
    0,
    0,
    1552,
    1552,
    0,
    0,
    1552,
    1552,
    1552,
    1552,
    0,
    1552,
    1552,
    0,
    0,
    0,
    0,
    0,
    1552,
    1552,
    0,
    0,
    0,
    0,
    0,
    0,
    1552,
    1552,
    1552,
    0,
    0,
    0,
    0,
    0,
    0,
    0,
    0,
    0,
    0,
    1552,
    0,
    0,
    0,
    0,
    0,
    0,
    0,
    0,
    0,
    0,
    0,
    0,
    0,
    0,
    0,
    0,
    0,
    1552,
    1552,
    1552,
    1552,
    1552,
    0,
    0,
    0,
    0,
    0,
    0,
    0,
    0,
    0,
    0,
    0,
    1552,
    0,
    0,
    0,
    0,
    0,
    0,
    0,
    0,
    0,
    0,
    0,
    0,
    0,
    0,
    0,
    0,
    0,
    0,
    0,
    0,
    0,
    0,
    0,
    0,
    0,
    1552,
    0,
    0,
    1552,
    1552,
    0,
    1552,
    1552,
    0,
    1552,
    1552,
    0,
    0,
    0,
    0,
    1552,
    0,
    1552,
    0,
    0,
    0,
    0,
    0,
    1552,
    1552,
    0,
    0,
    0,
    0,
    0,
    0,
    1552,
    1552,
    0,
    0,
    1552,
    1552,
    1552,
    1552,
    0,
    1552,
    1552,
    1552,
    0,
    0,
    0,
    0,
    1552,
    1552,
    0,
    0,
    0,
    0,
    0,
    0,
    0,
    1552,
    1552,
    1552,
    1552,
    1552,
    0,
    0,
    0,
    0,
    0,
    0,
    0,
    1552,
    0,
    0,
    0,
    0,
    0,
    0,
    0,
    0,
    0,
    0,
    0,
    0,
    0,
    0,
    0,
    0,
    0,
    1552,
    1552,
    1552,
    1552,
    1552,
    0,
    0,
    0,
    0,
    0,
    0,
    0,
    0,
    0,
    1552,
    1552,
    1552,
    0,
    0,
    0,
    0,
    0,
    0,
    0,
    0,
    0,
    0,
    0,
    0,
    0,
    0,
    0,
    0,
    0,
    0,
    0,
    0,
    0,
    0,
    0,
    0,
    0,
    1552,
    1552,
    0,
    1552,
    1552,
    0,
    1552,
    1552,
    0,
    1552,
    1552,
    0,
    0,
    0,
    0,
    1552,
    1552,
    0,
    0,
    0,
    0,
    0,
    0,
    0,
    1552,
    1552,
    0,
    0,
    0,
    0,
    0,
    1552,
    1552,
    0,
    0,
    1552,
    1552,
    1552,
    1552,
    0,
    0,
    1552,
    1552,
    0,
    0,
    0,
    0,
    1552,
    1552,
    0,
    0,
    0,
    0,
    0,
    0,
    1552,
    1552,
    1552,
    1552,
    1552,
    1552,
    0,
    0,
    0,
    0,
    0,
    0,
    1552,
    0,
    0,
    0,
    0,
    0,
    0,
    0,
    1552,
    0,
    0,
    0,
    0,
    0,
    0,
    0,
    0,
    0,
    1552,
    1552,
    1552,
    1552,
    1552,
    1552,
    0,
    0,
    0,
    0,
    1552,
    0,
    0,
    1552,
    1552,
    1552,
    1552,
    1552,
    0,
    0,
    0,
    0,
    0,
    0,
    0,
    0,
    0,
    0,
    0,
    0,
    0,
    0,
    0,
    0,
    0,
    0,
    0,
    0,
    0,
    0,
    0,
    0,
    0,
    1552,
    1552,
    0,
    1552,
    1552,
    0,
    1552,
    1552,
    0,
    1552,
    1552,
    0,
    0,
    0,
    0,
    1552,
    1552,
    1552,
    0,
    0,
    0,
    0,
    0,
    0,
    1552,
    1552,
    1552,
    0,
    0,
    0,
    0,
    1552,
    1552,
    0,
    0,
    1552,
    1552,
    1552,
    1552,
    0,
    0,
    0,
    0,
    0,
    0,
    0,
    0,
    1552,
    1552,
    0,
    0,
    0,
    0,
    0,
    0,
    1552,
    1552,
    0,
    1552,
    1552,
    1552,
    1552,
    0,
    0,
    0,
    0,
    0,
    0,
    0,
    0,
    0,
    0,
    0,
    0,
    1552,
    1552,
    0,
    0,
    0,
    0,
    0,
    0,
    0,
    0,
    1552,
    1552,
    1552,
    1552,
    1552,
    1552,
    0,
    0,
    0,
    0,
    1552,
    1552,
    0,
    1552,
    1552,
    1552,
    1552,
    1552,
    1552,
    0,
    0,
    0,
    0,
    0,
    0,
    0,
    0,
    0,
    0,
    0,
    0,
    0,
    0,
    0,
    0,
    0,
    0,
    0,
    0,
    0,
    0,
    0,
    0,
    0,
    1552,
    1552,
    0,
    1552,
    1552,
    0,
    1552,
    1552,
    0,
    1552,
    1552,
    0,
    0,
    0,
    0,
    0,
    1552,
    1552,
    0,
    0,
    0,
    0,
    0,
    0,
    0,
    1552,
    1552,
    0,
    0,
    0,
    0,
    1552,
    1552,
    0,
    0,
    1552,
    1552,
    0,
    1552,
    0,
    0,
    0,
    0,
    0,
    0,
    0,
    0,
    1552,
    1552,
    0,
    0,
    0,
    0,
    0,
    0,
    1552,
    1552,
    0,
    1552,
    0,
    0,
    0,
    1552,
    0,
    0,
    0,
    0,
    0,
    0,
    0,
    0,
    0,
    0,
    1552,
    1552,
    0,
    0,
    0,
    0,
    0,
    0,
    0,
    0,
    1552,
    1552,
    1552,
    1552,
    1552,
    1552,
    0,
    0,
    0,
    0,
    0,
    1552,
    1552,
    0,
    1552,
    1552,
    1552,
    1552,
    1552,
    1552,
    0,
    0,
    0,
    0,
    0,
    0,
    0,
    0,
    0,
    0,
    0,
    0,
    0,
    0,
    0,
    0,
    0,
    0,
    0,
    0,
    0,
    0,
    0,
    0,
    0,
    1552,
    1552,
    0,
    1552,
    1552,
    0,
    1552,
    1552,
    0,
    0,
    1552,
    0,
    0,
    0,
    1552,
    1552,
    1552,
    1552,
    1552,
    0,
    0,
    0,
    0,
    0,
    0,
    1552,
    1552,
    0,
    0,
    0,
    0,
    1552,
    1552,
    0,
    0,
    1552,
    1552,
    0,
    0,
    1552,
    0,
    0,
    0,
    0,
    0,
    0,
    0,
    0,
    1552,
    1552,
    0,
    0,
    0,
    0,
    0,
    0,
    0,
    0,
    0,
    1552,
    1552,
    1552,
    1552,
    0,
    0,
    0,
    0,
    0,
    0,
    0,
    0,
    0,
    1552,
    1552,
    0,
    0,
    0,
    0,
    0,
    0,
    0,
    0,
    0,
    1552,
    1552,
    1552,
    1552,
    1552,
    0,
    0,
    0,
    0,
    0,
    0,
    1552,
    1552,
    0,
    1552,
    1552,
    1552,
    1552,
    1552,
    1552,
    0,
    0,
    0,
    0,
    0,
    0,
    0,
    0,
    0,
    0,
    0,
    0,
    0,
    0,
    0,
    0,
    0,
    0,
    0,
    0,
    0,
    0,
    1552,
    0,
    0,
    1552,
    1552,
    0,
    1552,
    1552,
    0,
    0,
    1552,
    0,
    0,
    1552,
    1552,
    0,
    0,
    1552,
    1552,
    1552,
    1552,
    1552,
    0,
    0,
    0,
    0,
    0,
    0,
    1552,
    1552,
    0,
    0,
    0,
    0,
    1552,
    1552,
    0,
    0,
    0,
    0,
    0,
    0,
    1552,
    1552,
    0,
    0,
    0,
    0,
    0,
    0,
    0,
    1552,
    1552,
    1552,
    0,
    0,
    0,
    1552,
    1552,
    1552,
    1552,
    1552,
    1552,
    1552,
    1552,
    0,
    0,
    0,
    0,
    0,
    0,
    0,
    0,
    0,
    0,
    1552,
    1552,
    0,
    0,
    0,
    0,
    0,
    0,
    0,
    0,
    0,
    1552,
    1552,
    1552,
    1552,
    1552,
    0,
    0,
    0,
    0,
    0,
    1552,
    1552,
    0,
    1552,
    0,
    0,
    1552,
    1552,
    1552,
    1552,
    0,
    0,
    0,
    0,
    0,
    0,
    0,
    0,
    0,
    0,
    0,
    0,
    0,
    0,
    0,
    0,
    0,
    0,
    0,
    0,
    0,
    0,
    0,
    1552,
    0,
    1552,
    1552,
    0,
    0,
    1552,
    0,
    0,
    1552,
    1552,
    0,
    1552,
    1552,
    0,
    0,
    0,
    0,
    0,
    1552,
    1552,
    0,
    0,
    0,
    0,
    0,
    0,
    1552,
    1552,
    0,
    0,
    0,
    0,
    0,
    1552,
    0,
    0,
    0,
    1552,
    0,
    0,
    0,
    1552,
    0,
    0,
    0,
    0,
    0,
    0,
    0,
    0,
    1552,
    1552,
    0,
    0,
    0,
    0,
    1552,
    1552,
    1552,
    1552,
    1552,
    0,
    0,
    0,
    0,
    1552,
    0,
    0,
    0,
    0,
    0,
    0,
    0,
    1552,
    0,
    0,
    0,
    0,
    0,
    0,
    0,
    0,
    0,
    0,
    1552,
    1552,
    1552,
    1552,
    1552,
    0,
    0,
    0,
    0,
    1552,
    1552,
    0,
    1552,
    1552,
    0,
    1552,
    1552,
    0,
    0,
    0,
    0,
    1552,
    0,
    0,
    0,
    0,
    0,
    0,
    0,
    0,
    0,
    0,
    0,
    0,
    0,
    0,
    0,
    0,
    0,
    0,
    0,
    0,
    0,
    0,
    0,
    1552,
    1552,
    0,
    0,
    1552,
    1552,
    0,
    1552,
    1552,
    0,
    1552,
    1552,
    0,
    0,
    0,
    0,
    0,
    0,
    0,
    0,
    0,
    0,
    0,
    0,
    0,
    1552,
    1552,
    0,
    0,
    0,
    0,
    0,
    0,
    1552,
    0,
    0,
    1552,
    0,
    0,
    0,
    0,
    1552,
    0,
    0,
    0,
    0,
    0,
    0,
    0,
    1552,
    1552,
    0,
    0,
    0,
    0,
    0,
    0,
    0,
    0,
    0,
    0,
    0,
    0,
    0,
    1552,
    0,
    0,
    0,
    0,
    0,
    0,
    1552,
    1552,
    0,
    0,
    0,
    0,
    0,
    0,
    0,
    0,
    0,
    0,
    1552,
    1552,
    1552,
    1552,
    1552,
    0,
    0,
    0,
    0,
    1552,
    0,
    0,
    1552,
    0,
    1552,
    1552,
    0,
    0,
    1552,
    0,
    0,
    0,
    0,
    0,
    0,
    0,
    0,
    0,
    0,
    0,
    0,
    0,
    0,
    0,
    0,
    0,
    0,
    0,
    0,
    0,
    0,
    0,
    0,
    0,
    0,
    0,
    1552,
    0,
    0,
    1552,
    1552,
    0,
    1552,
    1552,
    0,
    1552,
    1552,
    0,
    0,
    0,
    1552,
    1552,
    0,
    0,
    0,
    0,
    0,
    0,
    0,
    0,
    1552,
    1552,
    0,
    0,
    0,
    0,
    0,
    0,
    1552,
    1552,
    0,
    0,
    1552,
    0,
    0,
    0,
    1552,
    1552,
    0,
    0,
    0,
    0,
    0,
    0,
    1552,
    1552,
    0,
    0,
    0,
    0,
    0,
    0,
    0,
    0,
    0,
    0,
    0,
    1552,
    1552,
    0,
    0,
    0,
    0,
    0,
    0,
    0,
    0,
    0,
    0,
    0,
    0,
    0,
    0,
    0,
    0,
    0,
    0,
    1552,
    1552,
    1552,
    1552,
    1552,
    1552,
    0,
    0,
    0,
    1552,
    1552,
    0,
    1552,
    1552,
    0,
    1552,
    0,
    0,
    1552,
    1552,
    0,
    0,
    0,
    0,
    0,
    0,
    0,
    0,
    0,
    0,
    0,
    0,
    0,
    0,
    0,
    0,
    0,
    0,
    0,
    0,
    0,
    0,
    0,
    0,
    0,
    0,
    0,
    1552,
    1552,
    0,
    1552,
    1552,
    0,
    1552,
    1552,
    0,
    0,
    1552,
    0,
    0,
    0,
    1552,
    1552,
    1552,
    0,
    0,
    0,
    0,
    0,
    0,
    0,
    1552,
    1552,
    0,
    0,
    0,
    0,
    0,
    0,
    1552,
    1552,
    0,
    0,
    1552,
    1552,
    0,
    0,
    1552,
    1552,
    0,
    0,
    0,
    0,
    0,
    0,
    1552,
    1552,
    0,
    0,
    0,
    0,
    1552,
    0,
    1552,
    0,
    0,
    0,
    1552,
    1552,
    0,
    0,
    0,
    0,
    0,
    0,
    0,
    0,
    0,
    0,
    0,
    0,
    0,
    0,
    0,
    0,
    0,
    0,
    1552,
    1552,
    1552,
    1552,
    1552,
    1552,
    1552,
    0,
    0,
    0,
    1552,
    1552,
    0,
    1552,
    1552,
    1552,
    1552,
    0,
    0,
    1552,
    1552,
    0,
    0,
    0,
    0,
    0,
    0,
    0,
    0,
    0,
    0,
    0,
    0,
    0,
    0,
    0,
    0,
    0,
    0,
    0,
    0,
    0,
    0,
    0,
    1552,
    0,
    0,
    0,
    1552,
    1552,
    0,
    1552,
    1552,
    0,
    0,
    1552,
    0,
    0,
    1552,
    1552,
    0,
    0,
    0,
    1552,
    1552,
    1552,
    0,
    0,
    0,
    0,
    0,
    0,
    0,
    1552,
    1552,
    0,
    0,
    0,
    0,
    0,
    1552,
    1552,
    0,
    0,
    0,
    1552,
    0,
    0,
    1552,
    1552,
    0,
    0,
    0,
    0,
    0,
    0,
    0,
    0,
    0,
    0,
    0,
    0,
    1552,
    1552,
    0,
    0,
    1552,
    1552,
    0,
    0,
    0,
    0,
    0,
    0,
    0,
    0,
    0,
    0,
    0,
    0,
    0,
    0,
    0,
    0,
    0,
    0,
    0,
    1552,
    1552,
    1552,
    1552,
    1552,
    1552,
    1552,
    1552,
    0,
    0,
    0,
    1552,
    1552,
    0,
    1552,
    1552,
    1552,
    1552,
    0,
    0,
    1552,
    1552,
    0,
    0,
    0,
    0,
    0,
    0,
    0,
    0,
    0,
    0,
    0,
    0,
    0,
    0,
    0,
    0,
    0,
    0,
    0,
    0,
    0,
    0,
    0,
    1552,
    0,
    0,
    0,
    1552,
    1552,
    0,
    0,
    1552,
    0,
    0,
    1552,
    1552,
    0,
    1552,
    1552,
    0,
    0,
    0,
    1552,
    1552,
    1552,
    0,
    0,
    0,
    0,
    0,
    0,
    0,
    1552,
    1552,
    1552,
    0,
    0,
    0,
    0,
    1552,
    1552,
    0,
    0,
    0,
    0,
    1552,
    0,
    1552,
    1552,
    0,
    0,
    0,
    0,
    0,
    0,
    0,
    0,
    0,
    0,
    0,
    0,
    0,
    0,
    0,
    1552,
    1552,
    0,
    0,
    1552,
    0,
    0,
    0,
    0,
    0,
    0,
    0,
    0,
    0,
    0,
    0,
    0,
    0,
    0,
    0,
    0,
    0,
    1552,
    1552,
    1552,
    1552,
    1552,
    1552,
    1552,
    0,
    0,
    0,
    0,
    1552,
    1552,
    0,
    1552,
    1552,
    1552,
    1552,
    0,
    0,
    1552,
    0,
    0,
    0,
    0,
    0,
    0,
    0,
    0,
    0,
    0,
    0,
    0,
    0,
    0,
    0,
    0,
    0,
    0,
    0,
    0,
    0,
    0,
    0,
    0,
    0,
    0,
    0,
    0,
    1552,
    1552,
    0,
    0,
    1552,
    1552,
    0,
    1552,
    1552,
    0,
    1552,
    1552,
    0,
    0,
    0,
    0,
    1552,
    1552,
    0,
    0,
    0,
    0,
    0,
    0,
    0,
    0,
    1552,
    1552,
    0,
    0,
    0,
    0,
    0,
    1552,
    0,
    0,
    0,
    0,
    1552,
    1552,
    0,
    1552,
    1552,
    1552,
    0,
    0,
    0,
    0,
    0,
    0,
    0,
    0,
    0,
    0,
    0,
    1552,
    1552,
    0,
    0,
    0,
    1552,
    1552,
    0,
    0,
    0,
    0,
    0,
    0,
    0,
    0,
    0,
    0,
    0,
    0,
    0,
    0,
    0,
    0,
    0,
    1552,
    1552,
    1552,
    1552,
    1552,
    1552,
    0,
    0,
    0,
    0,
    0,
    1552,
    1552,
    0,
    1552,
    1552,
    1552,
    1552,
    0,
    0,
    1552,
    0,
    0,
    0,
    0,
    0,
    0,
    0,
    0,
    0,
    0,
    0,
    0,
    0,
    0,
    0,
    0,
    0,
    0,
    0,
    0,
    0,
    0,
    0,
    0,
    0,
    0,
    0,
    0,
    0,
    1552,
    0,
    0,
    1552,
    1552,
    0,
    1552,
    1552,
    0,
    1552,
    1552,
    0,
    0,
    0,
    0,
    1552,
    1552,
    0,
    0,
    0,
    0,
    0,
    0,
    0,
    0,
    1552,
    1552,
    0,
    0,
    0,
    0,
    0,
    0,
    1552,
    0,
    0,
    0,
    1552,
    1552,
    0,
    1552,
    1552,
    1552,
    1552,
    0,
    0,
    0,
    0,
    0,
    0,
    0,
    0,
    0,
    1552,
    1552,
    0,
    0,
    0,
    1552,
    1552,
    0,
    0,
    0,
    0,
    0,
    0,
    0,
    0,
    0,
    0,
    0,
    0,
    0,
    0,
    0,
    0,
    0,
    0,
    1552,
    1552,
    1552,
    1552,
    1552,
    0,
    0,
    0,
    0,
    0,
    0,
    1552,
    1552,
    0,
    1552,
    1552,
    1552,
    1552,
    0,
    1552,
    1552,
    0,
    0,
    0,
    0,
    0,
    0,
    0,
    0,
    0,
    0,
    0,
    0,
    0,
    0,
    0,
    0,
    0,
    0,
    0,
    0,
    0,
    0,
    0,
    0,
    0,
    0,
    0,
    0,
    0,
    0,
    1552,
    0,
    1552,
    1552,
    0,
    1552,
    1552,
    0,
    1552,
    1552,
    0,
    0,
    0,
    0,
    1552,
    0,
    0,
    0,
    0,
    0,
    0,
    0,
    1552,
    0,
    1552,
    1552,
    0,
    0,
    0,
    0,
    0,
    0,
    1552,
    1552,
    0,
    0,
    1552,
    1552,
    0,
    0,
    0,
    1552,
    1552,
    1552,
    0,
    0,
    0,
    0,
    0,
    0,
    0,
    0,
    1552,
    0,
    0,
    0,
    0,
    1552,
    0,
    0,
    1552,
    0,
    0,
    0,
    0,
    0,
    0,
    0,
    0,
    0,
    0,
    0,
    0,
    0,
    0,
    0,
    0,
    1552,
    1552,
    1552,
    1552,
    1552,
    0,
    0,
    0,
    0,
    0,
    0,
    1552,
    1552,
    0,
    1552,
    1552,
    1552,
    1552,
    0,
    1552,
    1552,
    0,
    0,
    0,
    0,
    0,
    0,
    0,
    0,
    0,
    0,
    0,
    0,
    0,
    0,
    0,
    0,
    0,
    0,
    0,
    0,
    0,
    0,
    0,
    0,
    0,
    0,
    0,
    0,
    0,
    0,
    0,
    0,
    1552,
    1552,
    0,
    1552,
    1552,
    0,
    1552,
    1552,
    0,
    0,
    0,
    0,
    0,
    0,
    0,
    0,
    0,
    0,
    0,
    0,
    1552,
    0,
    1552,
    1552,
    0,
    0,
    0,
    0,
    0,
    0,
    1552,
    1552,
    0,
    0,
    1552,
    1552,
    0,
    0,
    0,
    0,
    0,
    1552,
    1552,
    0,
    0,
    0,
    0,
    0,
    0,
    0,
    0,
    0,
    0,
    0,
    1552,
    1552,
    0,
    0,
    1552,
    1552,
    0,
    0,
    0,
    0,
    0,
    0,
    0,
    0,
    0,
    0,
    0,
    1552,
    1552,
    0,
    0,
    1552,
    1552,
    1552,
    1552,
    1552,
    0,
    0,
    0,
    0,
    0,
    0,
    1552,
    1552,
    0,
    1552,
    1552,
    0,
    1552,
    0,
    0,
    1552,
    0,
    0,
    0,
    0,
    0,
    0,
    0,
    0,
    0,
    0,
    0,
    0,
    0,
    0,
    0,
    0,
    0,
    0,
    0,
    0,
    0,
    0,
    0,
    0,
    0,
    0,
    0,
    0,
    0,
    0,
    0,
    0,
    1552,
    1552,
    0,
    1552,
    1552,
    0,
    1552,
    1552,
    0,
    0,
    0,
    0,
    0,
    0,
    0,
    0,
    0,
    0,
    0,
    1552,
    1552,
    0,
    1552,
    1552,
    0,
    0,
    0,
    0,
    0,
    0,
    1552,
    1552,
    0,
    0,
    0,
    0,
    0,
    0,
    0,
    0,
    0,
    0,
    0,
    0,
    0,
    0,
    0,
    0,
    0,
    0,
    0,
    1552,
    0,
    0,
    1552,
    1552,
    0,
    0,
    1552,
    1552,
    1552,
    0,
    0,
    0,
    0,
    0,
    0,
    0,
    0,
    0,
    1552,
    1552,
    0,
    0,
    0,
    1552,
    1552,
    1552,
    1552,
    1552,
    0,
    0,
    0,
    0,
    0,
    0,
    1552,
    1552,
    0,
    1552,
    1552,
    0,
    0,
    1552,
    0,
    0,
    1552,
    0,
    0,
    0,
    0,
    0,
    0,
    0,
    0,
    0,
    0,
    0,
    0,
    0,
    0,
    0,
    0,
    0,
    0,
    0,
    0,
    0,
    0,
    0,
    0,
    0,
    0,
    0,
    0,
    0,
    0,
    0,
    1552,
    0,
    0,
    1552,
    1552,
    0,
    1552,
    1552,
    0,
    0,
    0,
    0,
    0,
    0,
    0,
    0,
    0,
    0,
    0,
    1552,
    1552,
    0,
    1552,
    1552,
    0,
    0,
    0,
    0,
    0,
    0,
    1552,
    1552,
    0,
    0,
    0,
    0,
    0,
    0,
    0,
    0,
    0,
    0,
    0,
    0,
    0,
    0,
    0,
    0,
    0,
    0,
    0,
    0,
    0,
    0,
    1552,
    1552,
    0,
    0,
    0,
    1552,
    1552,
    0,
    0,
    0,
    0,
    0,
    0,
    0,
    0,
    1552,
    1552,
    1552,
    0,
    0,
    0,
    1552,
    1552,
    1552,
    1552,
    1552,
    1552,
    1552,
    0,
    0,
    0,
    0,
    0,
    0,
    0,
    0,
    1552,
    0,
    0,
    1552,
    1552,
    0,
    1552,
    1552,
    0,
    0,
    0,
    0,
    0,
    0,
    0,
    0,
    0,
    0,
    0,
    0,
    0,
    0,
    0,
    0,
    0,
    0,
    0,
    0,
    0,
    0,
    0,
    0,
    0,
    0,
    0,
    0,
    0,
    0,
    1552,
    0,
    0,
    1552,
    1552,
    0,
    1552,
    1552,
    0,
    0,
    0,
    0,
    0,
    0,
    0,
    0,
    0,
    0,
    1552,
    0,
    0,
    0,
    1552,
    1552,
    0,
    0,
    0,
    0,
    0,
    0,
    0,
    1552,
    1552,
    0,
    0,
    0,
    0,
    0,
    0,
    0,
    0,
    0,
    0,
    0,
    0,
    0,
    0,
    0,
    0,
    0,
    1552,
    0,
    0,
    0,
    1552,
    1552,
    0,
    0,
    0,
    1552,
    1552,
    0,
    0,
    0,
    0,
    0,
    0,
    0,
    1552,
    1552,
    0,
    0,
    0,
    0,
    0,
    1552,
    1552,
    1552,
    1552,
    1552,
    1552,
    1552,
    1552,
    0,
    0,
    0,
    0,
    0,
    0,
    0,
    0,
    1552,
    0,
    1552,
    1552,
    0,
    1552,
    1552,
    0,
    0,
    0,
    0,
    1552,
    0,
    0,
    0,
    0,
    0,
    0,
    0,
    0,
    0,
    0,
    0,
    0,
    0,
    0,
    0,
    0,
    0,
    0,
    0,
    0,
    0,
    0,
    0,
    0,
    1552,
    0,
    0,
    0,
    1552,
    1552,
    0,
    1552,
    1552,
    0,
    0,
    0,
    0,
    0,
    0,
    0,
    0,
    0,
    0,
    1552,
    1552,
    0,
    0,
    0,
    1552,
    0,
    0,
    0,
    0,
    0,
    0,
    0,
    1552,
    1552,
    1552,
    1552,
    0,
    0,
    0,
    0,
    0,
    0,
    0,
    1552,
    0,
    0,
    0,
    0,
    0,
    0,
    0,
    1552,
    1552,
    0,
    0,
    1552,
    1552,
    0,
    0,
    0,
    1552,
    0,
    0,
    0,
    0,
    0,
    0,
    0,
    0,
    1552,
    1552,
    0,
    0,
    0,
    0,
    0,
    1552,
    1552,
    1552,
    1552,
    1552,
    1552,
    1552,
    1552,
    1552,
    0,
    0,
    0,
    0,
    0,
    0,
    0,
    1552,
    1552,
    1552,
    1552,
    0,
    1552,
    1552,
    0,
    0,
    0,
    0,
    0,
    0,
    0,
    0,
    1552,
    0,
    0,
    0,
    0,
    0,
    0,
    0,
    1552,
    0,
    0,
    0,
    0,
    0,
    0,
    0,
    0,
    0,
    0,
    0,
    0,
    0,
    0,
    0,
    0,
    1552,
    1552,
    0,
    1552,
    1552,
    0,
    0,
    0,
    0,
    0,
    0,
    0,
    0,
    0,
    1552,
    1552,
    1552,
    0,
    1552,
    1552,
    0,
    0,
    0,
    0,
    0,
    0,
    0,
    0,
    0,
    0,
    0,
    1552,
    1552,
    0,
    0,
    0,
    0,
    0,
    0,
    1552,
    0,
    0,
    0,
    0,
    0,
    0,
    0,
    1552,
    1552,
    1552,
    0,
    1552,
    1552,
    0,
    0,
    0,
    0,
    0,
    0,
    0,
    0,
    0,
    0,
    0,
    0,
    1552,
    1552,
    0,
    0,
    0,
    0,
    0,
    0,
    1552,
    1552,
    1552,
    1552,
    1552,
    1552,
    1552,
    1552,
    1552,
    0,
    0,
    0,
    0,
    0,
    0,
    1552,
    1552,
    1552,
    1552,
    0,
    1552,
    1552,
    1552,
    0,
    1552,
    0,
    0,
    1552,
    1552,
    1552,
    0,
    1552,
    0,
    0,
    0,
    0,
    0,
    1552,
    0,
    0,
    0,
    0,
    0,
    0,
    0,
    0,
    0,
    0,
    0,
    0,
    0,
    0,
    0,
    0,
    0,
    1552,
    0,
    0,
    1552,
    1552,
    0,
    0,
    0,
    0,
    0,
    0,
    0,
    0,
    0,
    0,
    0,
    0,
    1552,
    0,
    0,
    0,
    0,
    0,
    0,
    0,
    0,
    0,
    0,
    0,
    0,
    0,
    0,
    1552,
    0,
    0,
    0,
    0,
    0,
    0,
    0,
    1552,
    0,
    0,
    0,
    0,
    0,
    0,
    1552,
    0,
    0,
    0,
    1552,
    1552,
    0,
    0,
    0,
    0,
    0,
    0,
    0,
    0,
    0,
    0,
    0,
    0,
    1552,
    1552,
    0,
    0,
    0,
    0,
    0,
    0,
    1552,
    1552,
    1552,
    1552,
    1552,
    1552,
    1552,
    1552,
    1552,
    0,
    0,
    0,
    0,
    0,
    0,
    1552,
    1552,
    0,
    1552,
    0,
    0,
    1552,
    1552,
    0,
    0,
    0,
    0,
    0,
    1552,
    1552,
    1552,
    0,
    1552,
    0,
    0,
    0,
    0,
    0,
    0,
    0,
    0,
    0,
    0,
    0,
    1552,
    0,
    0,
    0,
    1552,
    0,
    0,
    0,
    0,
    0,
    0,
    1552,
    0,
    0,
    1552,
    1552,
    0,
    0,
    0,
    0,
    0,
    0,
    0,
    0,
    0,
    0,
    0,
    0,
    1552,
    0,
    0,
    0,
    0,
    0,
    0,
    0,
    0,
    0,
    0,
    0,
    0,
    0,
    0,
    0,
    0,
    0,
    0,
    0,
    0,
    0,
    0,
    1552,
    1552,
    0,
    0,
    0,
    0,
    0,
    0,
    0,
    0,
    1552,
    1552,
    0,
    0,
    1552,
    1552,
    0,
    0,
    0,
    0,
    0,
    0,
    0,
    0,
    0,
    1552,
    1552,
    0,
    0,
    0,
    0,
    0,
    0,
    0,
    1552,
    1552,
    1552,
    1552,
    1552,
    1552,
    1552,
    1552,
    0,
    0,
    0,
    0,
    0,
    0,
    1552,
    1552,
    0,
    0,
    1552,
    0,
    1552,
    1552,
    1552,
    1552,
    0,
    0,
    0,
    0,
    0,
    0,
    1552,
    0,
    0,
    0,
    0,
    0,
    0,
    0,
    0,
    0,
    0,
    0,
    1552,
    1552,
    0,
    0,
    1552,
    1552,
    0,
    0,
    0,
    0,
    0,
    1552,
    0,
    0,
    0,
    1552,
    0,
    0,
    0,
    0,
    0,
    0,
    0,
    0,
    0,
    0,
    0,
    1552,
    1552,
    0,
    0,
    0,
    0,
    0,
    0,
    0,
    0,
    0,
    0,
    0,
    0,
    0,
    0,
    0,
    0,
    0,
    0,
    0,
    0,
    0,
    0,
    0,
    0,
    1552,
    0,
    0,
    0,
    0,
    0,
    0,
    1552,
    1552,
    1552,
    1552,
    0,
    0,
    1552,
    1552,
    0,
    0,
    1552,
    0,
    0,
    0,
    0,
    0,
    0,
    1552,
    1552,
    0,
    0,
    0,
    0,
    0,
    0,
    0,
    0,
    1552,
    1552,
    1552,
    1552,
    1552,
    1552,
    1552,
    0,
    0,
    0,
    0,
    0,
    0,
    0,
    1552,
    0,
    0,
    1552,
    1552,
    0,
    0,
    0,
    1552,
    1552,
    0,
    0,
    0,
    0,
    0,
    0,
    0,
    0,
    0,
    0,
    0,
    0,
    1552,
    1552,
    1552,
    1552,
    1552,
    1552,
    0,
    0,
    1552,
    1552,
    0,
    0,
    0,
    0,
    0,
    0,
    0,
    0,
    0,
    1552,
    1552,
    0,
    0,
    0,
    0,
    0,
    0,
    0,
    0,
    0,
    0,
    0,
    0,
    0,
    0,
    0,
    0,
    0,
    0,
    0,
    0,
    0,
    0,
    0,
    0,
    0,
    0,
    0,
    0,
    0,
    0,
    0,
    0,
    0,
    0,
    0,
    0,
    0,
    0,
    1552,
    0,
    0,
    0,
    0,
    1552,
    1552,
    1552,
    0,
    0,
    0,
    0,
    1552,
    1552,
    0,
    0,
    0,
    0,
    0,
    0,
    0,
    0,
    0,
    1552,
    1552,
    0,
    0,
    0,
    0,
    0,
    0,
    0,
    0,
    0,
    1552,
    1552,
    1552,
    1552,
    1552,
    1552,
    1552,
    0,
    0,
    0,
    0,
    0,
    0,
    0,
    1552,
    0,
    0,
    1552,
    1552,
    1552,
    0,
    0,
    1552,
    0,
    0,
    0,
    0,
    0,
    0,
    0,
    0,
    0,
    1552,
    1552,
    1552,
    1552,
    1552,
    1552,
    0,
    0,
    0,
    0,
    0,
    1552,
    0,
    0,
    0,
    1552,
    0,
    0,
    0,
    0,
    0,
    1552,
    1552,
    0,
    0,
    0,
    0,
    0,
    0,
    0,
    0,
    0,
    0,
    0,
    0,
    0,
    0,
    0,
    0,
    0,
    0,
    0,
    0,
    0,
    0,
    0,
    0,
    0,
    0,
    0,
    0,
    0,
    0,
    0,
    1552,
    1552,
    0,
    0,
    0,
    0,
    0,
    0,
    1552,
    1552,
    0,
    0,
    0,
    1552,
    0,
    0,
    0,
    1552,
    1552,
    1552,
    1552,
    1552,
    0,
    0,
    0,
    0,
    0,
    1552,
    0,
    1552,
    0,
    0,
    1552,
    0,
    0,
    0,
    0,
    0,
    0,
    0,
    0,
    0,
    0,
    1552,
    1552,
    1552,
    1552,
    1552,
    1552,
    0,
    0,
    0,
    0,
    0,
    0,
    0,
    1552,
    1552,
    0,
    1552,
    1552,
    1552,
    1552,
    0,
    0,
    1552,
    1552,
    1552,
    1552,
    1552,
    1552,
    1552,
    1552,
    1552,
    1552,
    0,
    0,
    0,
    0,
    0,
    0,
    0,
    1552,
    1552,
    1552,
    1552,
    0,
    0,
    1552,
    1552,
    0,
    0,
    0,
    0,
    1552,
    0,
    0,
    0,
    0,
    0,
    0,
    0,
    0,
    0,
    0,
    0,
    1552,
    0,
    0,
    0,
    0,
    0,
    0,
    0,
    0,
    0,
    0,
    0,
    0,
    0,
    0,
    0,
    0,
    0,
    0,
    0,
    0,
    0,
    1552,
    1552,
    0,
    0,
    0,
    0,
    0,
    0,
    1552,
    1552,
    0,
    0,
    0,
    0,
    0,
    0,
    0,
    1552,
    1552,
    1552,
    1552,
    0,
    0,
    0,
    0,
    0,
    0,
    1552,
    1552,
    0,
    0,
    0,
    0,
    1552,
    1552,
    0,
    0,
    0,
    0,
    0,
    0,
    0,
    0,
    1552,
    1552,
    1552,
    1552,
    1552,
    1552,
    1552,
    0,
    0,
    0,
    0,
    0,
    0,
    0,
    1552,
    1552,
    0,
    0,
    1552,
    1552,
    1552,
    0,
    1552,
    1552,
    1552,
    1552,
    1552,
    1552,
    1552,
    0,
    0,
    0,
    0,
    0,
    0,
    0,
    1552,
    1552,
    1552,
    1552,
    1552,
    1552,
    0,
    0,
    1552,
    1552,
    0,
    0,
    0,
    0,
    0,
    0,
    0,
    0,
    0,
    0,
    0,
    0,
    0,
    0,
    0,
    0,
    1552,
    0,
    0,
    0,
    0,
    0,
    0,
    0,
    0,
    0,
    0,
    1552,
    1552,
    0,
    0,
    0,
    0,
    0,
    0,
    0,
    0,
    0,
    0,
    1552,
    1552,
    0,
    0,
    0,
    0,
    0,
    0,
    1552,
    1552,
    0,
    0,
    0,
    0,
    0,
    1552,
    1552,
    1552,
    0,
    1552,
    1552,
    1552,
    0,
    0,
    0,
    0,
    0,
    1552,
    1552,
    1552,
    1552,
    0,
    0,
    0,
    1552,
    1552,
    0,
    0,
    0,
    0,
    0,
    0,
    0,
    0,
    1552,
    1552,
    1552,
    1552,
    1552,
    1552,
    1552,
    1552,
    0,
    0,
    0,
    0,
    0,
    0,
    0,
    0,
    0,
    0,
    0,
    1552,
    1552,
    0,
    0,
    0,
    0,
    0,
    0,
    0,
    0,
    0,
    0,
    0,
    1552,
    1552,
    1552,
    1552,
    0,
    0,
    0,
    0,
    0,
    0,
    0,
    1552,
    0,
    0,
    0,
    0,
    0,
    0,
    0,
    0,
    0,
    0,
    0,
    0,
    0,
    0,
    1552,
    0,
    1552,
    1552,
    0,
    0,
    0,
    0,
    0,
    0,
    0,
    0,
    0,
    1552,
    1552,
    1552,
    1552,
    0,
    0,
    0,
    0,
    0,
    0,
    0,
    0,
    0,
    0,
    1552,
    0,
    0,
    0,
    0,
    0,
    0,
    1552,
    1552,
    0,
    0,
    0,
    0,
    1552,
    1552,
    1552,
    1552,
    1552,
    1552,
    0,
    0,
    0,
    0,
    0,
    0,
    0,
    0,
    0,
    1552,
    1552,
    1552,
    0,
    0,
    0,
    1552,
    0,
    0,
    0,
    0,
    0,
    0,
    0,
    0,
    1552,
    1552,
    1552,
    1552,
    1552,
    1552,
    1552,
    1552,
    1552,
    0,
    0,
    0,
    0,
    0,
    0,
    1552,
    0,
    0,
    0,
    0,
    1552,
    1552,
    1552,
    1552,
    1552,
    1552,
    1552,
    1552,
    1552,
    1552,
    1552,
    1552,
    1552,
    0,
    0,
    0,
    0,
    0,
    1552,
    1552,
    1552,
    1552,
    1552,
    1552,
    0,
    0,
    1552,
    0,
    0,
    0,
    0,
    0,
    0,
    0,
    0,
    0,
    0,
    1552,
    1552,
    0,
    1552,
    1552,
    0,
    0,
    0,
    0,
    0,
    0,
    0,
    0,
    1552,
    1552,
    1552,
    1552,
    1552,
    1552,
    0,
    0,
    0,
    0,
    0,
    0,
    0,
    0,
    0,
    0,
    1552,
    0,
    0,
    0,
    0,
    0,
    1552,
    1552,
    0,
    0,
    0,
    0,
    0,
    0,
    0,
    1552,
    1552,
    0,
    0,
    0,
    0,
    0,
    0,
    0,
    0,
    0,
    1552,
    0,
    1552,
    1552,
    1552,
    1552,
    0,
    0,
    1552,
    1552,
    0,
    0,
    0,
    0,
    0,
    0,
    0,
    1552,
    1552,
    1552,
    1552,
    1552,
    1552,
    1552,
    1552,
    1552,
    0,
    0,
    0,
    0,
    0,
    1552,
    0,
    0,
    0,
    0,
    1552,
    1552,
    1552,
    1552,
    1552,
    1552,
    1552,
    1552,
    1552,
    1552,
    0,
    0,
    0,
    0,
    0,
    1552,
    1552,
    1552,
    1552,
    1552,
    1552,
    1552,
    1552,
    0,
    0,
    1552,
    1552,
    0,
    0,
    0,
    0,
    0,
    0,
    0,
    0,
    0,
    1552,
    1552,
    1552,
    0,
    1552,
    1552,
    0,
    0,
    0,
    0,
    0,
    0,
    0,
    0,
    1552,
    1552,
    1552,
    1552,
    1552,
    1552,
    1552,
    0,
    0,
    0,
    0,
    0,
    0,
    0,
    0,
    0,
    1552,
    1552,
    0,
    0,
    0,
    1552,
    1552,
    1552,
    0,
    0,
    0,
    0,
    1552,
    1552,
    1552,
    0,
    0,
    1552,
    0,
    0,
    0,
    0,
    0,
    0,
    0,
    0,
    0,
    1552,
    1552,
    1552,
    1552,
    1552,
    0,
    0,
    0,
    1552,
    1552,
    0,
    0,
    0,
    0,
    0,
    0,
    1552,
    1552,
    1552,
    1552,
    1552,
    1552,
    1552,
    1552,
    1552,
    1552,
    0,
    0,
    0,
    0,
    0,
    1552,
    0,
    0,
    0,
    0,
    0,
    0,
    0,
    0,
    0,
    0,
    0,
    0,
    0,
    0,
    0,
    1552,
    1552,
    1552,
    1552,
    0,
    0,
    0,
    0,
    0,
    0,
    0,
    1552,
    1552,
    1552,
    0,
    0,
    0,
    0,
    0,
    0,
    0,
    0,
    0,
    1552,
    1552,
    0,
    0,
    1552,
    1552,
    0,
    0,
    0,
    0,
    0,
    0,
    0,
    0,
    0,
    0,
    1552,
    1552,
    1552,
    1552,
    1552,
    1552,
    0,
    0,
    0,
    0,
    0,
    0,
    0,
    0,
    0,
    1552,
    1552,
    0,
    0,
    1552,
    1552,
    1552,
    1552,
    0,
    0,
    0,
    0,
    1552,
    1552,
    1552,
    1552,
    1552,
    0,
    0,
    0,
    0,
    0,
    0,
    0,
    0,
    0,
    0,
    0,
    0,
    0,
    0,
    0,
    0,
    0,
    0,
    0,
    1552,
    0,
    0,
    0,
    0,
    0,
    0,
    0,
    1552,
    1552,
    1552,
    1552,
    1552,
    1552,
    1552,
    1552,
    1552,
    1552,
    0,
    0,
    0,
    0,
    1552,
    1552,
    0,
    0,
    0,
    1552,
    1552,
    1552,
    1552,
    1552,
    1552,
    1552,
    1552,
    1552,
    1552,
    1552,
    1552,
    0,
    0,
    0,
    0,
    0,
    0,
    0,
    0,
    0,
    1552,
    1552,
    1552,
    0,
    0,
    0,
    0,
    0,
    0,
    0,
    0,
    0,
    0,
    1552,
    1552,
    0,
    1552,
    0,
    0,
    0,
    0,
    0,
    0,
    0,
    0,
    0,
    0,
    0,
    0,
    1552,
    1552,
    1552,
    1552,
    1552,
    0,
    0,
    0,
    0,
    0,
    0,
    0,
    0,
    0,
    0,
    1552,
    1552,
    0,
    0,
    1552,
    1552,
    1552,
    1552,
    0,
    0,
    0,
    0,
    1552,
    0,
    1552,
    1552,
    1552,
    1552,
    0,
    0,
    0,
    0,
    0,
    0,
    0,
    0,
    0,
    0,
    0,
    0,
    0,
    0,
    0,
    0,
    0,
    0,
    0,
    1552,
    0,
    0,
    0,
    0,
    0,
    0,
    0,
    1552,
    1552,
    1552,
    1552,
    1552,
    1552,
    1552,
    1552,
    1552,
    0,
    0,
    0,
    0,
    0,
    1552,
    1552,
    1552,
    1552,
    1552,
    1552,
    1552,
    1552,
    1552,
    1552,
    1552,
    1552,
    1552,
    0,
    0,
    0,
    0,
    0,
    1552,
    1552,
    1552,
    1552,
    1552,
    1552,
    1552,
    1552,
    0,
    0,
    0,
    0,
    0,
    0,
    0,
    0,
    0,
    0,
    0,
    0,
    0,
    0,
    0,
    1552,
    0,
    0,
    0,
    0,
    0,
    0,
    0,
    0,
    0,
    0,
    0,
    1552,
    1552,
    1552,
    0,
    1552,
    0,
    0,
    0,
    0,
    0,
    0,
    0,
    0,
    0,
    0,
    0,
    1552,
    1552,
    0,
    0,
    1552,
    1552,
    1552,
    1552,
    0,
    0,
    0,
    0,
    0,
    1552,
    1552,
    1552,
    1552,
    1552,
    0,
    0,
    0,
    0,
    0,
    0,
    0,
    0,
    0,
    0,
    0,
    0,
    0,
    0,
    0,
    0,
    0,
    0,
    0,
    0,
    0,
    1552,
    0,
    0,
    0,
    0,
    0,
    0,
    0,
    0,
    1552,
    1552,
    1552,
    1552,
    1552,
    1552,
    1552,
    0,
    0,
    0,
    0,
    1552,
    1552,
    0,
    0,
    0,
    0,
    0,
    0,
    0,
    0,
    0,
    0,
    0,
    0,
    0,
    1552,
    1552,
    1552,
    1552,
    1552,
    1552,
    1552,
    1552,
    0,
    0,
    0,
    0,
    0,
    1552,
    0,
    0,
    0,
    0,
    0,
    0,
    0,
    0,
    0,
    0,
    1552,
    1552,
    0,
    0,
    0,
    0,
    0,
    0,
    0,
    0,
    0,
    0,
    0,
    0,
    0,
    0,
    0,
    0,
    0,
    0,
    0,
    0,
    0,
    0,
    0,
    0,
    0,
    0,
    0,
    0,
    1552,
    1552,
    0,
    0,
    1552,
    1552,
    1552,
    1552,
    0,
    0,
    0,
    0,
    1552,
    1552,
    1552,
    1552,
    1552,
    0,
    0,
    0,
    0,
    0,
    0,
    0,
    0,
    0,
    0,
    0,
    0,
    0,
    0,
    0,
    0,
    0,
    0,
    0,
    0,
    0,
    1552,
    1552,
    0,
    0,
    0,
    0,
    0,
    0,
    0,
    0,
    0,
    1552,
    1552,
    1552,
    1552,
    1552,
    1552,
    1552,
    0,
    0,
    0,
    0,
    0,
    0,
    0,
    0,
    0,
    0,
    0,
    0,
    1552,
    1552,
    1552,
    1552,
    1552,
    1552,
    1552,
    0,
    0,
    0,
    0,
    0,
    0,
    0,
    0,
    0,
    0,
    1552,
    1552,
    0,
    0,
    0,
    0,
    0,
    0,
    0,
    0,
    0,
    0,
    1552,
    0,
    0,
    0,
    0,
    0,
    0,
    0,
    0,
    0,
    0,
    0,
    0,
    0,
    0,
    0,
    0,
    0,
    0,
    0,
    0,
    0,
    0,
    0,
    0,
    0,
    0,
    0,
    0,
    0,
    0,
    1552,
    1552,
    0,
    0,
    1552,
    1552,
    0,
    1552,
    1552,
    1552,
    0,
    1552,
    1552,
    1552,
    1552,
    1552,
    0,
    0,
    0,
    0,
    0,
    0,
    0,
    0,
    0,
    0,
    0,
    0,
    0,
    0,
    0,
    0,
    0,
    0,
    0,
    0,
    0,
    1552,
    1552,
    0,
    0,
    0,
    0,
    0,
    0,
    1552,
    1552,
    0,
    0,
    1552,
    1552,
    1552,
    1552,
    1552,
    1552,
    1552,
    0,
    0,
    0,
    0,
    0,
    0,
    0,
    0,
    0,
    0,
    1552,
    1552,
    1552,
    1552,
    1552,
    1552,
    0,
    0,
    0,
    0,
    0,
    0,
    0,
    0,
    0,
    0,
    0,
    1552,
    0,
    1552,
    1552,
    0,
    0,
    0,
    0,
    0,
    0,
    0,
    0,
    0,
    0,
    1552,
    0,
    0,
    0,
    0,
    0,
    0,
    0,
    0,
    0,
    0,
    0,
    0,
    0,
    0,
    0,
    0,
    0,
    0,
    0,
    0,
    0,
    0,
    0,
    0,
    0,
    0,
    0,
    0,
    0,
    0,
    1552,
    1552,
    0,
    0,
    1552,
    1552,
    0,
    1552,
    1552,
    1552,
    1552,
    1552,
    1552,
    0,
    1552,
    1552,
    0,
    0,
    0,
    0,
    0,
    0,
    0,
    0,
    0,
    0,
    0,
    0,
    0,
    0,
    0,
    0,
    0,
    0,
    0,
    0,
    1552,
    1552,
    0,
    1552,
    0,
    0,
    0,
    0,
    0,
    0,
    1552,
    1552,
    0,
    0,
    1552,
    1552,
    1552,
    1552,
    1552,
    1552,
    1552,
    0,
    0,
    0,
    0,
    0,
    0,
    0,
    0,
    1552,
    0,
    0,
    0,
    0,
    0,
    0,
    0,
    0,
    0,
    1552,
    1552,
    0,
    0,
    0,
    0,
    1552,
    1552,
    0,
    1552,
    0,
    0,
    0,
    0,
    0,
    0,
    0,
    0,
    0,
    0,
    0,
    0,
    0,
    0,
    0,
    0,
    0,
    0,
    0,
    0,
    0,
    0,
    0,
    0,
    0,
    0,
    0,
    0,
    0,
    0,
    0,
    0,
    0,
    0,
    0,
    0,
    0,
    0,
    0,
    0,
    0,
    0,
    0,
    1552,
    1552,
    0,
    0,
    1552,
    1552,
    0,
    0,
    0,
    0,
    1552,
    1552,
    1552,
    0,
    0,
    0,
    0,
    0,
    0,
    0,
    0,
    0,
    0,
    0,
    0,
    0,
    0,
    0,
    0,
    0,
    0,
    0,
    0,
    0,
    0,
    0,
    0,
    1552,
    0,
    0,
    0,
    0,
    0,
    0,
    0,
    0,
    1552,
    1552,
    0,
    0,
    0,
    1552,
    1552,
    1552,
    1552,
    1552,
    1552,
    0,
    0,
    0,
    0,
    0,
    0,
    0,
    0,
    0,
    0,
    0,
    0,
    0,
    0,
    0,
    1552,
    1552,
    1552,
    1552,
    1552,
    1552,
    0,
    1552,
    1552,
    1552,
    1552,
    0,
    0,
    0,
    0,
    0,
    0,
    0,
    0,
    0,
    0,
    0,
    0,
    0,
    0,
    0,
    0,
    0,
    0,
    0,
    0,
    0,
    0,
    0,
    0,
    0,
    0,
    0,
    0,
    0,
    0,
    0,
    0,
    0,
    0,
    0,
    0,
    0,
    0,
    0,
    0,
    0,
    0,
    0,
    0,
    0,
    1552,
    1552,
    0,
    0,
    1552,
    1552,
    0,
    0,
    0,
    0,
    0,
    0,
    0,
    1552,
    1552,
    1552,
    0,
    0,
    0,
    0,
    0,
    0,
    0,
    0,
    0,
    0,
    0,
    0,
    0,
    0,
    0,
    0,
    0,
    0,
    0,
    0,
    0,
    0,
    1552,
    1552,
    0,
    0,
    0,
    0,
    0,
    0,
    0,
    1552,
    1552,
    0,
    0,
    0,
    1552,
    1552,
    1552,
    1552,
    1552,
    1552,
    0,
    0,
    0,
    0,
    0,
    0,
    0,
    0,
    0,
    0,
    0,
    0,
    0,
    1552,
    1552,
    1552,
    1552,
    1552,
    1552,
    1552,
    0,
    1552,
    1552,
    1552,
    0,
    0,
    0,
    0,
    0,
    0,
    0,
    0,
    0,
    0,
    0,
    0,
    0,
    0,
    0,
    0,
    0,
    0,
    0,
    0,
    0,
    0,
    0,
    0,
    0,
    0,
    0,
    0,
    0,
    0,
    0,
    0,
    0,
    0,
    0,
    0,
    0,
    0,
    0,
    0,
    0,
    0,
    0,
    0,
    0,
    0,
    1552,
    1552,
    0,
    0,
    1552,
    1552,
    0,
    0,
    0,
    0,
    0,
    0,
    0,
    1552,
    1552,
    0,
    1552,
    0,
    0,
    0,
    0,
    0,
    0,
    0,
    0,
    0,
    0,
    0,
    0,
    0,
    0,
    0,
    0,
    0,
    0,
    0,
    0,
    0,
    0,
    1552,
    1552,
    0,
    0,
    0,
    0,
    0,
    1552,
    0,
    1552,
    1552,
    0,
    0,
    0,
    1552,
    1552,
    1552,
    1552,
    1552,
    1552,
    0,
    0,
    0,
    0,
    0,
    0,
    0,
    0,
    0,
    0,
    0,
    0,
    1552,
    1552,
    1552,
    1552,
    1552,
    1552,
    1552,
    0,
    1552,
    0,
    0,
    0,
    0,
    0,
    0,
    0,
    0,
    0,
    0,
    0,
    0,
    0,
    0,
    0,
    0,
    0,
    0,
    0,
    0,
    0,
    0,
    0,
    0,
    0,
    0,
    0,
    0,
    0,
    0,
    0,
    0,
    0,
    0,
    0,
    0,
    0,
    0,
    0,
    0,
    0,
    0,
    0,
    0,
    0,
    0,
    0,
    0,
    0,
    1552,
    0,
    0,
    0,
    1552,
    1552,
    1552,
    1552,
    1552,
    0,
    1552,
    1552,
    1552,
    1552,
    0,
    0,
    0,
    0,
    0,
    0,
    0,
    0,
    0,
    0,
    0,
    0,
    0,
    0,
    0,
    0,
    0,
    0,
    0,
    0,
    0,
    0,
    0,
    0,
    0,
    1552,
    0,
    0,
    0,
    0,
    0,
    0,
    0,
    1552,
    1552,
    0,
    0,
    0,
    1552,
    1552,
    1552,
    1552,
    1552,
    1552,
    1552,
    1552,
    1552,
    1552,
    1552,
    1552,
    0,
    0,
    0,
    1552,
    1552,
    0,
    0,
    0,
    0,
    1552,
    1552,
    1552,
    0,
    0,
    0,
    0,
    0,
    0,
    0,
    0,
    0,
    0,
    0,
    0,
    0,
    0,
    0,
    0,
    0,
    1552,
    0,
    0,
    0,
    0,
    0,
    0,
    0,
    0,
    0,
    0,
    0,
    0,
    0,
    0,
    0,
    0,
    0,
    0,
    0,
    0,
    0,
    0,
    0,
    0,
    0,
    0,
    0,
    0,
    0,
    0,
    0,
    0,
    0,
    0,
    0,
    1552,
    0,
    0,
    1552,
    1552,
    1552,
    1552,
    1552,
    1552,
    1552,
    1552,
    1552,
    1552,
    0,
    0,
    0,
    0,
    0,
    0,
    0,
    0,
    0,
    0,
    0,
    0,
    0,
    0,
    0,
    0,
    0,
    0,
    0,
    0,
    0,
    0,
    0,
    0,
    0,
    0,
    1552,
    1552,
    0,
    0,
    0,
    0,
    0,
    0,
    1552,
    0,
    0,
    0,
    1552,
    1552,
    1552,
    1552,
    1552,
    1552,
    1552,
    1552,
    1552,
    1552,
    1552,
    1552,
    1552,
    0,
    0,
    1552,
    1552,
    1552,
    1552,
    0,
    0,
    0,
    0,
    0,
    0,
    0,
    0,
    0,
    0,
    0,
    0,
    0,
    0,
    0,
    0,
    0,
    1552,
    1552,
    0,
    0,
    0,
    1552,
    0,
    0,
    0,
    0,
    0,
    0,
    0,
    0,
    0,
    0,
    0,
    0,
    0,
    0,
    0,
    0,
    0,
    0,
    0,
    0,
    0,
    0,
    0,
    0,
    0,
    0,
    0,
    0,
    0,
    0,
    0,
    0,
    0,
    0,
    0,
    1552,
    1552,
    0,
    0,
    0,
    0,
    0,
    1552,
    1552,
    1552,
    1552,
    0,
    0,
    0,
    0,
    0,
    0,
    0,
    0,
    0,
    0,
    0,
    0,
    0,
    0,
    0,
    0,
    0,
    0,
    0,
    0,
    0,
    0,
    0,
    0,
    0,
    0,
    0,
    0,
    0,
    1552,
    1552,
    0,
    0,
    0,
    0,
    0,
    0,
    0,
    0,
    0,
    1552,
    1552,
    1552,
    1552,
    1552,
    1552,
    1552,
    1552,
    1552,
    1552,
    1552,
    1552,
    1552,
    1552,
    0,
    0,
    1552,
    1552,
    1552,
    0,
    0,
    0,
    0,
    0,
    0,
    0,
    0,
    0,
    0,
    0,
    0,
    0,
    0,
    0,
    0,
    1552,
    1552,
    1552,
    0,
    1552,
    1552,
    0,
    0,
    0,
    0,
    0,
    0,
    0,
    0,
    0,
    0,
    0,
    0,
    0,
    0,
    0,
    0,
    0,
    0,
    0,
    0,
    0,
    0,
    0,
    0,
    0,
    0,
    0,
    0,
    0,
    0,
    0,
    0,
    0,
    0,
    0,
    0,
    0,
    1552,
    1552,
    1552,
    1552,
    1552,
    0,
    0,
    0,
    1552,
    1552,
    1552,
    0,
    0,
    0,
    0,
    0,
    0,
    0,
    0,
    0,
    0,
    0,
    0,
    0,
    0,
    0,
    0,
    0,
    0,
    0,
    0,
    0,
    0,
    0,
    0,
    0,
    0,
    0,
    0,
    1552,
    1552,
    0,
    0,
    0,
    0,
    0,
    0,
    0,
    0,
    0,
    1552,
    1552,
    1552,
    1552,
    1552,
    1552,
    1552,
    1552,
    1552,
    1552,
    1552,
    1552,
    1552,
    1552,
    1552,
    0,
    0,
    0,
    1552,
    1552,
    1552,
    0,
    0,
    0,
    0,
    0,
    0,
    0,
    0,
    0,
    0,
    0,
    0,
    0,
    1552,
    1552,
    0,
    0,
    1552,
    0,
    0,
    0,
    0,
    0,
    0,
    0,
    0,
    0,
    0,
    0,
    0,
    0,
    0,
    0,
    0,
    0,
    0,
    0,
    0,
    0,
    0,
    0,
    0,
    1552,
    1552,
    1552,
    0,
    0,
    1552,
    0,
    0,
    0,
    0,
    0,
    0,
    0,
    0,
    0,
    1552,
    1552,
    1552,
    1552,
    1552,
    1552,
    0,
    0,
    0,
    1552,
    1552,
    0,
    0,
    0,
    0,
    0,
    0,
    0,
    0,
    0,
    0,
    0,
    0,
    0,
    0,
    0,
    0,
    0,
    0,
    0,
    0,
    0,
    0,
    0,
    0,
    0,
    0,
    0,
    0,
    1552,
    1552,
    0,
    0,
    0,
    0,
    0,
    0,
    0,
    0,
    0,
    0,
    1552,
    1552,
    1552,
    1552,
    1552,
    1552,
    1552,
    1552,
    1552,
    1552,
    1552,
    1552,
    1552,
    1552,
    1552,
    0,
    0,
    1552,
    1552,
    1552,
    1552,
    0,
    0,
    0,
    0,
    0,
    0,
    0,
    0,
    0,
    0,
    0,
    0,
    1552,
    1552,
    0,
    0,
    1552,
    0,
    0,
    0,
    0,
    0,
    0,
    0,
    0,
    0,
    0,
    0,
    0,
    0,
    0,
    0,
    0,
    0,
    0,
    0,
    0,
    0,
    0,
    0,
    1552,
    1552,
    1552,
    1552,
    1552,
    1552,
    1552,
    1552,
    0,
    0,
    0,
    0,
    0,
    0,
    0,
    0,
    0,
    0,
    0,
    0,
    1552,
    1552,
    1552,
    0,
    0,
    1552,
    1552,
    0,
    0,
    0,
    0,
    0,
    0,
    0,
    0,
    0,
    0,
    0,
    0,
    0,
    0,
    0,
    0,
    0,
    0,
    0,
    0,
    0,
    0,
    0,
    0,
    0,
    0,
    0,
    0,
    1552,
    1552,
    0,
    0,
    0,
    0,
    0,
    0,
    0,
    0,
    0,
    0,
    0,
    1552,
    1552,
    1552,
    1552,
    1552,
    1552,
    1552,
    1552,
    1552,
    1552,
    1552,
    1552,
    1552,
    1552,
    0,
    0,
    0,
    0,
    1552,
    1552,
    1552,
    0,
    0,
    0,
    0,
    0,
    0,
    0,
    0,
    0,
    0,
    1552,
    0,
    0,
    1552,
    1552,
    0,
    0,
    0,
    0,
    0,
    0,
    0,
    0,
    0,
    0,
    0,
    0,
    0,
    0,
    0,
    0,
    0,
    0,
    0,
    0,
    0,
    0,
    1552,
    0,
    1552,
    1552,
    0,
    0,
    0,
    0,
    1552,
    1552,
    0,
    0,
    0,
    0,
    0,
    0,
    0,
    0,
    0,
    0,
    0,
    0,
    0,
    0,
    1552,
    1552,
    1552,
    1552,
    0,
    0,
    0,
    0,
    0,
    0,
    0,
    0,
    0,
    0,
    0,
    0,
    0,
    0,
    0,
    0,
    0,
    0,
    0,
    0,
    0,
    0,
    0,
    0,
    0,
    0,
    0,
    0,
    0,
    1552,
    1552,
    0,
    0,
    0,
    1552,
    0,
    0,
    0,
    0,
    0,
    0,
    0,
    0,
    0,
    0,
    0,
    1552,
    1552,
    0,
    0,
    0,
    1552,
    1552,
    1552,
    1552,
    1552,
    1552,
    0,
    0,
    0,
    1552,
    1552,
    0,
    0,
    0,
    0,
    0,
    0,
    0,
    0,
    0,
    0,
    0,
    0,
    0,
    1552,
    0,
    0,
    0,
    0,
    0,
    1552,
    0,
    0,
    0,
    0,
    0,
    0,
    0,
    0,
    0,
    0,
    0,
    0,
    0,
    0,
    0,
    0,
    0,
    1552,
    1552,
    1552,
    1552,
    0,
    0,
    0,
    0,
    0,
    0,
    0,
    0,
    0,
    0,
    0,
    0,
    0,
    0,
    0,
    0,
    0,
    0,
    0,
    0,
    0,
    1552,
    1552,
    1552,
    1552,
    0,
    0,
    0,
    0,
    0,
    0,
    0,
    0,
    0,
    0,
    0,
    0,
    0,
    0,
    0,
    0,
    0,
    0,
    0,
    0,
    0,
    0,
    0,
    0,
    0,
    0,
    0,
    0,
    0,
    1552,
    1552,
    0,
    0,
    0,
    0,
    0,
    0,
    0,
    0,
    0,
    0,
    0,
    0,
    0,
    0,
    0,
    0,
    0,
    0,
    0,
    0,
    1552,
    1552,
    1552,
    1552,
    1552,
    1552,
    0,
    0,
    0,
    1552,
    1552,
    0,
    0,
    0,
    0,
    0,
    0,
    0,
    0,
    0,
    0,
    0,
    0,
    0,
    1552,
    0,
    0,
    0,
    1552,
    1552,
    0,
    0,
    0,
    0,
    0,
    0,
    0,
    0,
    0,
    0,
    0,
    0,
    0,
    0,
    0,
    0,
    1552,
    0,
    1552,
    1552,
    1552,
    0,
    1552,
    1552,
    1552,
    1552,
    1552,
    1552,
    1552,
    0,
    0,
    0,
    0,
    0,
    1552,
    0,
    0,
    1552,
    0,
    0,
    0,
    0,
    0,
    0,
    1552,
    0,
    1552,
    1552,
    0,
    1552,
    0,
    0,
    0,
    0,
    0,
    0,
    0,
    0,
    0,
    0,
    0,
    0,
    0,
    0,
    0,
    0,
    0,
    0,
    0,
    0,
    0,
    0,
    0,
    0,
    0,
    0,
    1552,
    1552,
    0,
    0,
    0,
    1552,
    1552,
    1552,
    1552,
    0,
    0,
    0,
    0,
    0,
    0,
    0,
    0,
    0,
    0,
    0,
    0,
    1552,
    1552,
    1552,
    1552,
    1552,
    1552,
    1552,
    0,
    0,
    1552,
    1552,
    1552,
    0,
    0,
    0,
    0,
    0,
    0,
    0,
    0,
    0,
    0,
    0,
    0,
    0,
    0,
    0,
    0,
    1552,
    1552,
    1552,
    0,
    0,
    0,
    0,
    0,
    0,
    0,
    0,
    0,
    0,
    0,
    0,
    0,
    0,
    0,
    0,
    0,
    0,
    1552,
    0,
    0,
    1552,
    0,
    0,
    0,
    0,
    0,
    0,
    1552,
    1552,
    0,
    0,
    0,
    0,
    0,
    1552,
    1552,
    1552,
    1552,
    0,
    0,
    0,
    0,
    0,
    0,
    0,
    1552,
    1552,
    0,
    0,
    0,
    0,
    0,
    0,
    0,
    0,
    0,
    0,
    0,
    0,
    0,
    0,
    0,
    0,
    0,
    0,
    0,
    0,
    0,
    0,
    0,
    0,
    0,
    0,
    0,
    0,
    0,
    1552,
    0,
    0,
    0,
    1552,
    1552,
    1552,
    1552,
    0,
    0,
    0,
    0,
    0,
    0,
    0,
    0,
    0,
    0,
    0,
    1552,
    1552,
    1552,
    1552,
    1552,
    1552,
    1552,
    1552,
    0,
    0,
    1552,
    1552,
    1552,
    0,
    0,
    0,
    0,
    0,
    0,
    0,
    0,
    0,
    0,
    1552,
    0,
    0,
    0,
    0,
    0,
    0,
    0,
    0,
    0,
    0,
    0,
    0,
    0,
    0,
    0,
    0,
    0,
    0,
    0,
    0,
    0,
    0,
    0,
    0,
    0,
    0,
    0,
    1552,
    1552,
    0,
    0,
    0,
    1552,
    1552,
    0,
    0,
    1552,
    1552,
    0,
    0,
    0,
    0,
    0,
    1552,
    1552,
    1552,
    1552,
    1552,
    0,
    0,
    0,
    0,
    0,
    1552,
    1552,
    0,
    1552,
    0,
    0,
    0,
    0,
    0,
    0,
    0,
    0,
    0,
    0,
    0,
    0,
    0,
    0,
    0,
    0,
    0,
    0,
    0,
    0,
    0,
    0,
    0,
    0,
    0,
    0,
    0,
    0,
    0,
    1552,
    1552,
    0,
    0,
    1552,
    1552,
    0,
    0,
    0,
    0,
    0,
    0,
    0,
    0,
    0,
    0,
    0,
    1552,
    1552,
    1552,
    1552,
    1552,
    1552,
    1552,
    1552,
    0,
    0,
    1552,
    1552,
    1552,
    0,
    0,
    0,
    0,
    0,
    0,
    0,
    0,
    0,
    0,
    1552,
    1552,
    0,
    0,
    0,
    0,
    0,
    0,
    0,
    0,
    0,
    0,
    0,
    0,
    0,
    0,
    0,
    0,
    0,
    0,
    0,
    0,
    0,
    0,
    0,
    0,
    0,
    0,
    0,
    0,
    0,
    0,
    0,
    1552,
    1552,
    1552,
    0,
    0,
    1552,
    1552,
    0,
    0,
    0,
    0,
    0,
    0,
    0,
    0,
    0,
    0,
    0,
    0,
    0,
    0,
    0,
    1552,
    1552,
    0,
    1552,
    1552,
    1552,
    0,
    0,
    0,
    0,
    0,
    0,
    0,
    0,
    0,
    0,
    0,
    0,
    0,
    0,
    0,
    0,
    0,
    0,
    0,
    0,
    0,
    0,
    0,
    0,
    1552,
    0,
    0,
    0,
    1552,
    1552,
    0,
    1552,
    1552,
    1552,
    0,
    0,
    0,
    0,
    0,
    0,
    0,
    0,
    0,
    0,
    1552,
    1552,
    1552,
    1552,
    1552,
    1552,
    1552,
    0,
    0,
    1552,
    1552,
    1552,
    0,
    0,
    0,
    0,
    0,
    0,
    0,
    0,
    1552,
    1552,
    0,
    1552,
    1552,
    0,
    0,
    0,
    0,
    0,
    0,
    0,
    0,
    0,
    0,
    0,
    0,
    0,
    0,
    0,
    0,
    0,
    0,
    0,
    1552,
    1552,
    1552,
    1552,
    1552,
    1552,
    1552,
    0,
    0,
    0,
    0,
    0,
    1552,
    1552,
    0,
    0,
    0,
    1552,
    1552,
    0,
    0,
    0,
    0,
    0,
    0,
    0,
    0,
    1552,
    0,
    0,
    0,
    0,
    0,
    0,
    0,
    0,
    1552,
    0,
    1552,
    1552,
    0,
    0,
    0,
    0,
    0,
    0,
    0,
    0,
    0,
    0,
    0,
    0,
    0,
    0,
    0,
    0,
    0,
    0,
    0,
    0,
    0,
    0,
    0,
    0,
    1552,
    1552,
    0,
    0,
    1552,
    1552,
    0,
    0,
    0,
    0,
    0,
    0,
    0,
    0,
    0,
    0,
    0,
    0,
    0,
    0,
    1552,
    1552,
    1552,
    1552,
    1552,
    1552,
    0,
    0,
    0,
    0,
    0,
    0,
    0,
    0,
    0,
    0,
    0,
    0,
    0,
    0,
    1552,
    1552,
    0,
    1552,
    1552,
    0,
    0,
    0,
    0,
    0,
    0,
    0,
    0,
    0,
    0,
    0,
    0,
    0,
    0,
    0,
    0,
    0,
    0,
    1552,
    0,
    0,
    0,
    0,
    0,
    0,
    0,
    0,
    0,
    1552,
    1552,
    1552,
    1552,
    1552,
    1552,
    0,
    0,
    1552,
    1552,
    0,
    0,
    0,
    0,
    0,
    0,
    1552,
    1552,
    0,
    1552,
    0,
    0,
    0,
    0,
    0,
    1552,
    1552,
    0,
    1552,
    1552,
    1552,
    1552,
    0,
    0,
    0,
    0,
    0,
    0,
    0,
    0,
    0,
    0,
    0,
    0,
    0,
    0,
    0,
    0,
    0,
    0,
    0,
    0,
    0,
    0,
    0,
    1552,
    1552,
    0,
    0,
    1552,
    1552,
    0,
    0,
    1552,
    0,
    0,
    0,
    0,
    0,
    0,
    0,
    0,
    0,
    0,
    0,
    1552,
    1552,
    1552,
    1552,
    1552,
    1552,
    0,
    0,
    0,
    0,
    0,
    0,
    0,
    0,
    0,
    0,
    0,
    0,
    0,
    0,
    0,
    1552,
    0,
    0,
    1552,
    1552,
    0,
    0,
    0,
    0,
    0,
    0,
    0,
    0,
    0,
    0,
    0,
    0,
    0,
    0,
    0,
    1552,
    1552,
    0,
    0,
    0,
    0,
    0,
    0,
    0,
    0,
    0,
    1552,
    1552,
    1552,
    1552,
    1552,
    1552,
    0,
    0,
    0,
    1552,
    1552,
    0,
    0,
    0,
    0,
    0,
    1552,
    1552,
    1552,
    1552,
    1552,
    1552,
    0,
    0,
    0,
    0,
    1552,
    1552,
    1552,
    1552,
    1552,
    0,
    0,
    0,
    0,
    0,
    0,
    0,
    0,
    0,
    0,
    0,
    0,
    0,
    0,
    0,
    0,
    0,
    0,
    0,
    0,
    0,
    0,
    0,
    0,
    0,
    0,
    0,
    0,
    0,
    1552,
    1552,
    0,
    0,
    0,
    0,
    0,
    0,
    0,
    0,
    0,
    0,
    0,
    0,
    0,
    0,
    1552,
    1552,
    1552,
    1552,
    1552,
    1552,
    0,
    0,
    0,
    0,
    1552,
    1552,
    1552,
    0,
    0,
    0,
    0,
    0,
    0,
    0,
    0,
    0,
    1552,
    0,
    1552,
    1552,
    1552,
    0,
    0,
    0,
    0,
    0,
    0,
    0,
    0,
    0,
    0,
    0,
    0,
    0,
    0,
    1552,
    0,
    0,
    0,
    0,
    0,
    0,
    0,
    0,
    0,
    0,
    1552,
    1552,
    0,
    1552,
    1552,
    1552,
    0,
    0,
    0,
    1552,
    1552,
    0,
    0,
    0,
    0,
    0,
    1552,
    1552,
    1552,
    1552,
    1552,
    1552,
    0,
    1552,
    0,
    0,
    0,
    1552,
    1552,
    1552,
    0,
    0,
    0,
    0,
    1552,
    0,
    0,
    0,
    0,
    0,
    0,
    0,
    0,
    0,
    0,
    0,
    0,
    0,
    0,
    0,
    0,
    0,
    0,
    0,
    0,
    1552,
    1552,
    1552,
    0,
    0,
    1552,
    1552,
    0,
    0,
    0,
    0,
    0,
    0,
    0,
    0,
    0,
    0,
    0,
    0,
    0,
    0,
    1552,
    1552,
    1552,
    1552,
    1552,
    1552,
    0,
    0,
    0,
    0,
    1552,
    1552,
    1552,
    1552,
    1552,
    0,
    0,
    0,
    0,
    0,
    0,
    0,
    0,
    0,
    0,
    1552,
    1552,
    0,
    0,
    0,
    0,
    0,
    0,
    0,
    0,
    0,
    0,
    0,
    0,
    1552,
    0,
    0,
    0,
    0,
    0,
    0,
    0,
    0,
    0,
    0,
    0,
    0,
    0,
    0,
    1552,
    1552,
    0,
    0,
    0,
    0,
    0,
    0,
    1552,
    0,
    0,
    0,
    0,
    1552,
    1552,
    1552,
    1552,
    1552,
    1552,
    1552,
    0,
    0,
    0,
    0,
    1552,
    1552,
    1552,
    1552,
    1552,
    1552,
    1552,
    0,
    0,
    0,
    0,
    0,
    0,
    0,
    0,
    0,
    0,
    0,
    0,
    0,
    1552,
    1552,
    0,
    0,
    0,
    0,
    0,
    0,
    0,
    1552,
    1552,
    1552,
    0,
    0,
    1552,
    1552,
    0,
    0,
    0,
    0,
    0,
    0,
    0,
    0,
    0,
    0,
    0,
    0,
    0,
    0,
    1552,
    1552,
    1552,
    1552,
    1552,
    1552,
    1552,
    0,
    0,
    0,
    1552,
    1552,
    1552,
    1552,
    1552,
    1552,
    0,
    0,
    0,
    0,
    0,
    0,
    0,
    0,
    0,
    1552,
    1552,
    0,
    0,
    0,
    0,
    0,
    0,
    0,
    0,
    0,
    0,
    0,
    1552,
    0,
    0,
    0,
    0,
    0,
    0,
    0,
    0,
    0,
    0,
    0,
    0,
    0,
    1552,
    0,
    0,
    1552,
    0,
    1552,
    0,
    0,
    0,
    0,
    1552,
    1552,
    0,
    0,
    0,
    0,
    1552,
    0,
    1552,
    1552,
    1552,
    0,
    1552,
    0,
    0,
    0,
    1552,
    1552,
    0,
    1552,
    1552,
    1552,
    1552,
    1552,
    0,
    0,
    0,
    0,
    0,
    0,
    0,
    0,
    0,
    0,
    0,
    0,
    0,
    0,
    1552,
    0,
    0,
    0,
    0,
    0,
    1552,
    1552,
    0,
    0,
    0,
    0,
    1552,
    1552,
    0,
    0,
    0,
    0,
    0,
    0,
    0,
    0,
    0,
    0,
    0,
    0,
    0,
    0,
    0,
    1552,
    1552,
    1552,
    1552,
    1552,
    1552,
    0,
    0,
    0,
    1552,
    1552,
    1552,
    1552,
    1552,
    1552,
    0,
    0,
    0,
    0,
    0,
    0,
    0,
    0,
    0,
    1552,
    1552,
    0,
    0,
    0,
    0,
    0,
    0,
    0,
    0,
    0,
    0,
    1552,
    1552,
    0,
    0,
    0,
    0,
    0,
    0,
    0,
    0,
    0,
    0,
    0,
    0,
    0,
    0,
    0,
    0,
    0,
    0,
    0,
    0,
    0,
    0,
    0,
    1552,
    1552,
    0,
    0,
    0,
    0,
    0,
    0,
    1552,
    1552,
    1552,
    0,
    0,
    0,
    0,
    0,
    1552,
    1552,
    1552,
    1552,
    1552,
    1552,
    1552,
    0,
    0,
    0,
    0,
    0,
    0,
    0,
    0,
    0,
    0,
    0,
    0,
    0,
    0,
    0,
    0,
    0,
    0,
    1552,
    0,
    1552,
    1552,
    1552,
    0,
    0,
    0,
    0,
    0,
    1552,
    0,
    0,
    0,
    1552,
    1552,
    0,
    0,
    0,
    0,
    0,
    0,
    0,
    0,
    0,
    0,
    0,
    1552,
    1552,
    1552,
    1552,
    1552,
    1552,
    0,
    0,
    0,
    0,
    1552,
    1552,
    0,
    0,
    0,
    0,
    0,
    0,
    0,
    0,
    0,
    0,
    0,
    1552,
    1552,
    0,
    0,
    0,
    0,
    0,
    0,
    0,
    0,
    0,
    0,
    1552,
    1552,
    0,
    0,
    0,
    0,
    0,
    0,
    0,
    0,
    0,
    0,
    0,
    0,
    0,
    0,
    0,
    0,
    0,
    0,
    0,
    0,
    0,
    0,
    0,
    1552,
    0,
    0,
    0,
    0,
    0,
    0,
    0,
    0,
    0,
    0,
    1552,
    0,
    0,
    0,
    0,
    0,
    1552,
    1552,
    1552,
    1552,
    0,
    0,
    0,
    0,
    0,
    0,
    0,
    0,
    0,
    0,
    1552,
    0,
    0,
    0,
    1552,
    0,
    0,
    0,
    0,
    0,
    0,
    1552,
    1552,
    1552,
    1552,
    1552,
    0,
    0,
    0,
    0,
    1552,
    1552,
    0,
    0,
    1552,
    1552,
    0,
    0,
    0,
    0,
    0,
    0,
    0,
    0,
    0,
    0,
    0,
    0,
    1552,
    1552,
    1552,
    1552,
    1552,
    0,
    0,
    0,
    1552,
    1552,
    1552,
    1552,
    1552,
    1552,
    0,
    0,
    0,
    0,
    0,
    0,
    0,
    0,
    1552,
    1552,
    0,
    0,
    0,
    0,
    0,
    0,
    0,
    0,
    0,
    0,
    1552,
    1552,
    0,
    0,
    0,
    0,
    0,
    0,
    0,
    0,
    0,
    0,
    0,
    0,
    0,
    0,
    0,
    0,
    0,
    0,
    0,
    0,
    0,
    0,
    1552,
    1552,
    0,
    0,
    0,
    0,
    0,
    0,
    0,
    0,
    0,
    0,
    0,
    0,
    0,
    0,
    0,
    0,
    1552,
    1552,
    0,
    0,
    0,
    0,
    1552,
    0,
    0,
    0,
    0,
    0,
    1552,
    1552,
    0,
    1552,
    1552,
    0,
    0,
    0,
    0,
    0,
    0,
    0,
    0,
    1552,
    1552,
    0,
    1552,
    1552,
    0,
    0,
    0,
    0,
    1552,
    1552,
    0,
    0,
    0,
    0,
    0,
    0,
    0,
    0,
    0,
    0,
    0,
    0,
    0,
    0,
    0,
    0,
    1552,
    1552,
    1552,
    1552,
    1552,
    0,
    0,
    0,
    1552,
    1552,
    0,
    1552,
    1552,
    1552,
    0,
    0,
    0,
    0,
    0,
    0,
    0,
    0,
    1552,
    1552,
    0,
    0,
    0,
    0,
    0,
    0,
    0,
    0,
    0,
    0,
    1552,
    1552,
    0,
    0,
    0,
    0,
    0,
    0,
    0,
    0,
    0,
    0,
    0,
    0,
    0,
    0,
    0,
    0,
    0,
    0,
    0,
    0,
    0,
    0,
    0,
    0,
    0,
    0,
    0,
    0,
    0,
    0,
    0,
    0,
    0,
    0,
    0,
    0,
    0,
    0,
    0,
    1552,
    1552,
    0,
    1552,
    1552,
    1552,
    1552,
    1552,
    1552,
    0,
    0,
    0,
    0,
    1552,
    1552,
    0,
    1552,
    1552,
    0,
    0,
    0,
    0,
    0,
    0,
    1552,
    1552,
    1552,
    1552,
    1552,
    1552,
    1552,
    1552,
    0,
    0,
    0,
    1552,
    0,
    0,
    0,
    0,
    0,
    0,
    0,
    0,
    0,
    0,
    0,
    0,
    0,
    0,
    0,
    0,
    0,
    1552,
    1552,
    1552,
    1552,
    1552,
    0,
    0,
    0,
    0,
    0,
    1552,
    0,
    1552,
    1552,
    1552,
    0,
    0,
    0,
    0,
    0,
    0,
    0,
    1552,
    1552,
    0,
    0,
    0,
    0,
    0,
    0,
    0,
    0,
    0,
    0,
    1552,
    1552,
    0,
    0,
    0,
    0,
    0,
    0,
    0,
    0,
    0,
    0,
    0,
    0,
    0,
    0,
    0,
    0,
    0,
    0,
    0,
    0,
    0,
    0,
    0,
    1552,
    0,
    1552,
    0,
    0,
    0,
    0,
    0,
    0,
    0,
    0,
    0,
    0,
    0,
    0,
    0,
    1552,
    1552,
    0,
    1552,
    1552,
    1552,
    1552,
    1552,
    1552,
    1552,
    0,
    1552,
    1552,
    0,
    1552,
    1552,
    0,
    1552,
    1552,
    1552,
    0,
    0,
    1552,
    0,
    0,
    1552,
    1552,
    1552,
    1552,
    0,
    1552,
    1552,
    0,
    0,
    1552,
    1552,
    0,
    0,
    0,
    0,
    0,
    0,
    0,
    0,
    0,
    0,
    0,
    0,
    0,
    0,
    0,
    0,
    0,
    1552,
    1552,
    1552,
    1552,
    1552,
    1552,
    0,
    0,
    0,
    0,
    0,
    1552,
    1552,
    1552,
    1552,
    0,
    0,
    0,
    0,
    0,
    0,
    0,
    1552,
    1552,
    0,
    0,
    0,
    0,
    0,
    0,
    0,
    0,
    0,
    0,
    1552,
    1552,
    0,
    0,
    0,
    0,
    0,
    0,
    0,
    0,
    0,
    0,
    0,
    0,
    0,
    0,
    0,
    0,
    0,
    0,
    0,
    0,
    0,
    0,
    0,
    0,
    1552,
    1552,
    0,
    0,
    0,
    0,
    0,
    0,
    0,
    0,
    0,
    0,
    0,
    0,
    0,
    1552,
    1552,
    1552,
    1552,
    0,
    1552,
    1552,
    1552,
    1552,
    0,
    0,
    1552,
    1552,
    0,
    1552,
    1552,
    0,
    1552,
    1552,
    1552,
    1552,
    0,
    0,
    0,
    0,
    1552,
    1552,
    0,
    1552,
    1552,
    1552,
    0,
    0,
    0,
    0,
    0,
    0,
    0,
    0,
    0,
    0,
    0,
    0,
    0,
    0,
    0,
    0,
    0,
    0,
    0,
    0,
    0,
    0,
    0,
    1552,
    1552,
    1552,
    1552,
    1552,
    0,
    0,
    0,
    0,
    0,
    1552,
    1552,
    0,
    1552,
    0,
    0,
    0,
    0,
    0,
    0,
    0,
    1552,
    1552,
    0,
    0,
    0,
    0,
    0,
    0,
    0,
    0,
    0,
    0,
    0,
    1552,
    1552,
    0,
    0,
    0,
    0,
    0,
    0,
    0,
    0,
    0,
    0,
    0,
    0,
    0,
    0,
    0,
    0,
    0,
    0,
    0,
    0,
    0,
    0,
    1552,
    1552,
    0,
    0,
    0,
    0,
    0,
    0,
    0,
    0,
    0,
    0,
    0,
    0,
    0,
    0,
    1552,
    1552,
    1552,
    1552,
    1552,
    1552,
    1552,
    1552,
    1552,
    0,
    0,
    0,
    1552,
    1552,
    0,
    1552,
    1552,
    0,
    1552,
    1552,
    1552,
    1552,
    1552,
    1552,
    1552,
    1552,
    1552,
    1552,
    1552,
    1552,
    0,
    0,
    0,
    0,
    0,
    0,
    0,
    0,
    0,
    0,
    0,
    0,
    0,
    0,
    0,
    0,
    0,
    0,
    0,
    0,
    0,
    0,
    0,
    0,
    1552,
    1552,
    1552,
    1552,
    1552,
    1552,
    0,
    0,
    0,
    0,
    1552,
    1552,
    1552,
    0,
    0,
    0,
    0,
    0,
    0,
    0,
    0,
    0,
    1552,
    1552,
    0,
    0,
    0,
    0,
    0,
    0,
    0,
    0,
    0,
    0,
    1552,
    1552,
    1552,
    0,
    0,
    0,
    0,
    0,
    0,
    0,
    0,
    0,
    0,
    0,
    0,
    0,
    0,
    0,
    0,
    0,
    0,
    0,
    0,
    1552,
    1552,
    0,
    1552,
    0,
    0,
    0,
    0,
    0,
    0,
    0,
    0,
    0,
    0,
    0,
    0,
    0,
    0,
    1552,
    1552,
    0,
    1552,
    1552,
    1552,
    1552,
    0,
    0,
    0,
    0,
    1552,
    1552,
    1552,
    1552,
    1552,
    1552,
    1552,
    1552,
    1552,
    1552,
    1552,
    1552,
    1552,
    1552,
    1552,
    1552,
    1552,
    0,
    0,
    0,
    0,
    0,
    0,
    0,
    0,
    0,
    0,
    0,
    0,
    0,
    0,
    0,
    0,
    0,
    0,
    0,
    0,
    0,
    0,
    0,
    0,
    0,
    1552,
    1552,
    1552,
    1552,
    1552,
    1552,
    0,
    0,
    0,
    1552,
    1552,
    1552,
    1552,
    0,
    0,
    0,
    0,
    0,
    0,
    0,
    0,
    0,
    1552,
    1552,
    1552,
    0,
    0,
    0,
    0,
    0,
    0,
    0,
    0,
    0,
    0,
    1552,
    1552,
    0,
    0,
    0,
    0,
    0,
    0,
    0,
    0,
    0,
    0,
    0,
    0,
    0,
    0,
    0,
    1552,
    0,
    0,
    0,
    0,
    0,
    1552,
    0,
    0,
    0,
    0,
    0,
    0,
    0,
    0,
    0,
    0,
    0,
    0,
    0,
    0,
    0,
    0,
    1552,
    1552,
    1552,
    1552,
    0,
    1552,
    1552,
    1552,
    1552,
    0,
    1552,
    1552,
    1552,
    1552,
    1552,
    0,
    1552,
    1552,
    1552,
    1552,
    1552,
    1552,
    1552,
    1552,
    1552,
    1552,
    1552,
    1552,
    0,
    0,
    0,
    1552,
    0,
    0,
    0,
    0,
    0,
    0,
    0,
    0,
    0,
    0,
    0,
    0,
    0,
    0,
    0,
    0,
    0,
    0,
    0,
    0,
    0,
    1552,
    1552,
    1552,
    1552,
    1552,
    1552,
    0,
    0,
    0,
    1552,
    1552,
    0,
    0,
    0,
    0,
    0,
    0,
    0,
    0,
    0,
    0,
    0,
    0,
    1552,
    1552,
    0,
    0,
    0,
    0,
    0,
    0,
    0,
    0,
    0,
    0,
    1552,
    1552,
    0,
    0,
    0,
    0,
    0,
    0,
    0,
    0,
    0,
    0,
    0,
    0,
    0,
    0,
    0,
    0,
    0,
    0,
    0,
    0,
    0,
    0,
    1552,
    1552,
    0,
    0,
    0,
    0,
    0,
    0,
    0,
    0,
    0,
    0,
    0,
    0,
    0,
    1552,
    1552,
    1552,
    1552,
    1552,
    1552,
    1552,
    1552,
    1552,
    1552,
    0,
    1552,
    1552,
    1552,
    1552,
    1552,
    1552,
    1552,
    1552,
    1552,
    1552,
    1552,
    1552,
    1552,
    1552,
    1552,
    1552,
    1552,
    1552,
    0,
    0,
    1552,
    1552,
    0,
    0,
    0,
    0,
    0,
    0,
    0,
    0,
    0,
    0,
    0,
    0,
    0,
    0,
    0,
    0,
    0,
    0,
    0,
    0,
    0,
    1552,
    1552,
    1552,
    1552,
    1552,
    1552,
    0,
    0,
    0,
    0,
    1552,
    1552,
    0,
    0,
    0,
    0,
    0,
    0,
    0,
    0,
    0,
    0,
    0,
    0,
    1552,
    1552,
    0,
    0,
    0,
    0,
    0,
    0,
    0,
    0,
    0,
    1552,
    1552,
    0,
    0,
    0,
    0,
    0,
    0,
    0,
    0,
    0,
    0,
    0,
    1552,
    0,
    1552,
    1552,
    1552,
    1552,
    1552,
    0,
    0,
    0,
    0,
    0,
    1552,
    1552,
    0,
    0,
    0,
    0,
    0,
    0,
    0,
    0,
    0,
    0,
    0,
    1552,
    1552,
    1552,
    1552,
    1552,
    1552,
    1552,
    1552,
    1552,
    1552,
    1552,
    0,
    0,
    1552,
    1552,
    1552,
    1552,
    1552,
    1552,
    1552,
    1552,
    1552,
    1552,
    1552,
    1552,
    1552,
    1552,
    1552,
    1552,
    1552,
    0,
    1552,
    1552,
    0,
    0,
    0,
    0,
    0,
    0,
    0,
    0,
    0,
    0,
    0,
    0,
    0,
    0,
    0,
    0,
    0,
    0,
    0,
    0,
    0,
    0,
    1552,
    1552,
    1552,
    1552,
    1552,
    1552,
    0,
    0,
    0,
    0,
    0,
    0,
    0,
    0,
    0,
    0,
    0,
    0,
    0,
    0,
    0,
    1552,
    1552,
    0,
    1552,
    1552,
    1552,
    0,
    0,
    0,
    0,
    0,
    0,
    0,
    0,
    1552,
    1552,
    0,
    0,
    0,
    0,
    0,
    0,
    0,
    0,
    0,
    1552,
    1552,
    0,
    1552,
    0,
    0,
    0,
    0,
    1552,
    1552,
    0,
    0,
    0,
    0,
    0,
    1552,
    0,
    0,
    0,
    0,
    0,
    0,
    0,
    0,
    0,
    0,
    0,
    0,
    1552,
    1552,
    1552,
    1552,
    1552,
    1552,
    1552,
    1552,
    1552,
    1552,
    0,
    0,
    1552,
    1552,
    1552,
    1552,
    1552,
    1552,
    1552,
    1552,
    1552,
    1552,
    1552,
    1552,
    1552,
    1552,
    1552,
    0,
    0,
    0,
    0,
    1552,
    0,
    0,
    0,
    0,
    0,
    0,
    0,
    0,
    0,
    0,
    0,
    0,
    0,
    1552,
    0,
    0,
    0,
    0,
    0,
    0,
    0,
    1552,
    1552,
    1552,
    1552,
    1552,
    1552,
    1552,
    0,
    0,
    0,
    0,
    0,
    0,
    0,
    0,
    0,
    0,
    0,
    0,
    0,
    1552,
    1552,
    1552,
    1552,
    0,
    0,
    1552,
    1552,
    0,
    0,
    0,
    0,
    0,
    0,
    0,
    0,
    1552,
    1552,
    0,
    0,
    0,
    0,
    0,
    0,
    0,
    1552,
    1552,
    1552,
    0,
    0,
    1552,
    0,
    0,
    0,
    0,
    0,
    1552,
    0,
    0,
    0,
    0,
    0,
    0,
    1552,
    1552,
    0,
    0,
    0,
    1552,
    1552,
    0,
    0,
    1552,
    1552,
    1552,
    1552,
    1552,
    1552,
    1552,
    1552,
    1552,
    1552,
    1552,
    1552,
    1552,
    1552,
    0,
    0,
    0,
    0,
    0,
    1552,
    1552,
    1552,
    1552,
    1552,
    1552,
    1552,
    1552,
    1552,
    1552,
    1552,
    0,
    1552,
    1552,
    0,
    0,
    1552,
    1552,
    0,
    0,
    0,
    0,
    0,
    0,
    0,
    0,
    0,
    0,
    0,
    0,
    0,
    0,
    0,
    0,
    0,
    0,
    1552,
    1552,
    1552,
    1552,
    1552,
    1552,
    1552,
    1552,
    0,
    0,
    0,
    0,
    0,
    0,
    0,
    0,
    0,
    0,
    0,
    0,
    0,
    1552,
    1552,
    0,
    1552,
    1552,
    0,
    1552,
    1552,
    0,
    0,
    0,
    0,
    0,
    0,
    0,
    0,
    1552,
    1552,
    0,
    0,
    0,
    0,
    0,
    0,
    1552,
    1552,
    1552,
    0,
    1552,
    1552,
    0,
    0,
    0,
    0,
    0,
    0,
    1552,
    1552,
    0,
    0,
    0,
    0,
    0,
    0,
    1552,
    1552,
    0,
    0,
    1552,
    1552,
    1552,
    1552,
    1552,
    1552,
    1552,
    0,
    1552,
    1552,
    1552,
    1552,
    1552,
    1552,
    1552,
    1552,
    1552,
    1552,
    0,
    0,
    1552,
    1552,
    0,
    0,
    0,
    0,
    1552,
    1552,
    1552,
    1552,
    1552,
    1552,
    1552,
    0,
    0,
    1552,
    1552,
    0,
    0,
    0,
    1552,
    1552,
    0,
    1552,
    0,
    0,
    0,
    0,
    0,
    0,
    0,
    0,
    0,
    0,
    0,
    0,
    0,
    0,
    1552,
    1552,
    1552,
    1552,
    1552,
    1552,
    1552,
    1552,
    0,
    0,
    0,
    0,
    0,
    0,
    0,
    0,
    0,
    0,
    0,
    0,
    0,
    0,
    0,
    1552,
    1552,
    1552,
    1552,
    0,
    1552,
    1552,
    0,
    0,
    0,
    0,
    0,
    0,
    0,
    0,
    1552,
    1552,
    0,
    0,
    0,
    0,
    0,
    0,
    0,
    1552,
    0,
    1552,
    1552,
    0,
    0,
    0,
    0,
    0,
    0,
    0,
    1552,
    1552,
    0,
    0,
    0,
    0,
    0,
    0,
    1552,
    1552,
    0,
    0,
    0,
    1552,
    1552,
    1552,
    1552,
    1552,
    1552,
    0,
    1552,
    1552,
    0,
    0,
    1552,
    1552,
    1552,
    1552,
    0,
    0,
    0,
    0,
    1552,
    1552,
    1552,
    1552,
    1552,
    1552,
    0,
    0,
    1552,
    1552,
    1552,
    1552,
    0,
    0,
    1552,
    1552,
    1552,
    1552,
    1552,
    0,
    1552,
    1552,
    0,
    0,
    1552,
    1552,
    0,
    0,
    0,
    0,
    0,
    0,
    0,
    0,
    0,
    0,
    0,
    0,
    1552,
    1552,
    1552,
    1552,
    1552,
    1552,
    1552,
    0,
    0,
    0,
    1552,
    1552,
    0,
    0,
    0,
    0,
    0,
    0,
    0,
    0,
    0,
    0,
    0,
    1552,
    1552,
    0,
    1552,
    0,
    1552,
    1552,
    0,
    0,
    0,
    0,
    0,
    0,
    1552,
    0,
    0,
    1552,
    1552,
    0,
    0,
    0,
    0,
    0,
    0,
    0,
    0,
    1552,
    0,
    0,
    0,
    0,
    0,
    1552,
    0,
    0,
    1552,
    1552,
    0,
    0,
    0,
    1552,
    0,
    0,
    1552,
    1552,
    0,
    0,
    1552,
    1552,
    1552,
    1552,
    1552,
    1552,
    1552,
    1552,
    1552,
    0,
    0,
    0,
    0,
    0,
    0,
    0,
    0,
    1552,
    1552,
    0,
    0,
    1552,
    1552,
    1552,
    1552,
    1552,
    1552,
    0,
    0,
    1552,
    1552,
    1552,
    0,
    1552,
    1552,
    1552,
    1552,
    1552,
    1552,
    0,
    1552,
    1552,
    0,
    0,
    0,
    1552,
    1552,
    0,
    0,
    0,
    0,
    0,
    0,
    0,
    0,
    0,
    0,
    0,
    1552,
    1552,
    1552,
    1552,
    1552,
    1552,
    0,
    0,
    0,
    0,
    1552,
    1552,
    1552,
    0,
    0,
    0,
    0,
    0,
    0,
    0,
    0,
    0,
    0,
    0,
    0,
    0,
    0,
    0,
    0,
    0,
    0,
    0,
    0,
    0,
    0,
    0,
    1552,
    1552,
    0,
    1552,
    1552,
    1552,
    0,
    0,
    0,
    0,
    1552,
    0,
    0,
    0,
    0,
    0,
    0,
    1552,
    1552,
    1552,
    0,
    0,
    1552,
    1552,
    0,
    0,
    0,
    0,
    0,
    0,
    1552,
    1552,
    0,
    0,
    0,
    0,
    1552,
    1552,
    1552,
    1552,
    1552,
    1552,
    1552,
    0,
    1552,
    1552,
    0,
    0,
    1552,
    1552,
    0,
    1552,
    1552,
    0,
    0,
    1552,
    1552,
    1552,
    0,
    1552,
    1552,
    1552,
    1552,
    0,
    0,
    0,
    1552,
    1552,
    1552,
    1552,
    1552,
    0,
    0,
    0,
    1552,
    1552,
    0,
    0,
    1552,
    1552,
    1552,
    1552,
    0,
    0,
    0,
    0,
    0,
    0,
    0,
    0,
    0,
    0,
    1552,
    1552,
    1552,
    1552,
    1552,
    1552,
    0,
    0,
    0,
    0,
    0,
    0,
    0,
    0,
    0,
    0,
    0,
    0,
    0,
    0,
    0,
    0,
    0,
    0,
    0,
    0,
    0,
    0,
    0,
    0,
    0,
    0,
    0,
    0,
    0,
    0,
    0,
    1552,
    1552,
    0,
    1552,
    1552,
    0,
    0,
    0,
    0,
    0,
    0,
    0,
    0,
    0,
    0,
    0,
    0,
    1552,
    1552,
    0,
    0,
    0,
    1552,
    0,
    0,
    0,
    0,
    0,
    0,
    0,
    1552,
    0,
    0,
    0,
    1552,
    1552,
    1552,
    1552,
    1552,
    1552,
    1552,
    1552,
    1552,
    1552,
    1552,
    1552,
    1552,
    1552,
    1552,
    1552,
    1552,
    0,
    0,
    0,
    0,
    1552,
    1552,
    1552,
    1552,
    0,
    1552,
    1552,
    1552,
    1552,
    1552,
    1552,
    1552,
    1552,
    1552,
    1552,
    0,
    0,
    0,
    1552,
    1552,
    0,
    0,
    0,
    0,
    0,
    0,
    0,
    0,
    0,
    0,
    0,
    0,
    0,
    0,
    0,
    0,
    1552,
    1552,
    1552,
    1552,
    1552,
    1552,
    0,
    0,
    0,
    0,
    0,
    0,
    0,
    0,
    0,
    0,
    0,
    0,
    0,
    0,
    0,
    0,
    0,
    0,
    0,
    0,
    0,
    0,
    0,
    0,
    0,
    0,
    0,
    0,
    0,
    0,
    0,
    1552,
    1552,
    0,
    1552,
    1552,
    0,
    0,
    0,
    0,
    0,
    0,
    0,
    0,
    0,
    0,
    0,
    0,
    0,
    0,
    0,
    0,
    0,
    0,
    1552,
    0,
    0,
    0,
    0,
    0,
    0,
    0,
    1552,
    1552,
    0,
    0,
    1552,
    1552,
    1552,
    1552,
    1552,
    0,
    1552,
    1552,
    0,
    0,
    1552,
    1552,
    1552,
    1552,
    1552,
    1552,
    0,
    0,
    1552,
    1552,
    1552,
    1552,
    1552,
    1552,
    1552,
    1552,
    1552,
    1552,
    1552,
    1552,
    1552,
    1552,
    1552,
    0,
    0,
    0,
    0,
    0,
    1552,
    1552,
    0,
    0,
    0,
    0,
    1552,
    0,
    1552,
    0,
    0,
    0,
    0,
    0,
    0,
    0,
    0,
    0,
    1552,
    1552,
    1552,
    1552,
    1552,
    1552,
    0,
    0,
    0,
    0,
    0,
    1552,
    0,
    0,
    0,
    0,
    0,
    0,
    0,
    0,
    0,
    0,
    0,
    0,
    0,
    0,
    0,
    0,
    0,
    0,
    0,
    0,
    0,
    0,
    0,
    0,
    0,
    0,
    0,
    0,
    1552,
    1552,
    0,
    0,
    0,
    0,
    0,
    0,
    0,
    0,
    0,
    0,
    0,
    0,
    0,
    0,
    0,
    0,
    0,
    0,
    0,
    0,
    0,
    1552,
    0,
    0,
    0,
    0,
    0,
    1552,
    1552,
    0,
    0,
    1552,
    1552,
    1552,
    1552,
    1552,
    1552,
    1552,
    1552,
    1552,
    1552,
    1552,
    1552,
    1552,
    1552,
    1552,
    0,
    0,
    1552,
    1552,
    1552,
    1552,
    1552,
    1552,
    1552,
    1552,
    1552,
    1552,
    1552,
    1552,
    1552,
    1552,
    1552,
    0,
    0,
    1552,
    0,
    0,
    1552,
    1552,
    0,
    0,
    1552,
    1552,
    0,
    0,
    0,
    0,
    0,
    1552,
    0,
    0,
    0,
    0,
    0,
    0,
    1552,
    1552,
    1552,
    1552,
    1552,
    1552,
    1552,
    0,
    0,
    0,
    1552,
    1552,
    1552,
    1552,
    0,
    0,
    0,
    0,
    0,
    0,
    0,
    0,
    0,
    0,
    0,
    0,
    0,
    0,
    0,
    0,
    0,
    0,
    0,
    0,
    0,
    0,
    0,
    0,
    0,
    0,
    1552,
    1552,
    0,
    0,
    0,
    0,
    0,
    0,
    0,
    1552,
    0,
    0,
    0,
    0,
    0,
    0,
    0,
    0,
    0,
    0,
    0,
    0,
    0,
    1552,
    1552,
    0,
    0,
    0,
    0,
    0,
    1552,
    0,
    0,
    0,
    1552,
    1552,
    1552,
    1552,
    1552,
    1552,
    1552,
    1552,
    1552,
    1552,
    1552,
    1552,
    1552,
    1552,
    0,
    0,
    1552,
    1552,
    1552,
    1552,
    1552,
    1552,
    1552,
    1552,
    1552,
    1552,
    1552,
    1552,
    1552,
    1552,
    0,
    0,
    1552,
    1552,
    1552,
    0,
    0,
    1552,
    0,
    0,
    1552,
    1552,
    0,
    0,
    0,
    0,
    0,
    0,
    0,
    0,
    0,
    0,
    0,
    0,
    0,
    1552,
    1552,
    1552,
    1552,
    1552,
    1552,
    0,
    0,
    0,
    1552,
    1552,
    1552,
    1552,
    1552,
    1552,
    0,
    0,
    0,
    0,
    0,
    0,
    0,
    0,
    0,
    0,
    0,
    0,
    0,
    1552,
    0,
    0,
    0,
    0,
    0,
    0,
    0,
    0,
    0,
    0,
    1552,
    1552,
    0,
    0,
    0,
    0,
    0,
    0,
    1552,
    1552,
    0,
    0,
    0,
    0,
    0,
    0,
    0,
    0,
    0,
    0,
    0,
    0,
    0,
    1552,
    1552,
    0,
    0,
    0,
    0,
    0,
    0,
    1552,
    1552,
    0,
    0,
    0,
    1552,
    1552,
    1552,
    1552,
    1552,
    1552,
    1552,
    1552,
    1552,
    1552,
    1552,
    0,
    0,
    1552,
    1552,
    1552,
    1552,
    1552,
    1552,
    0,
    1552,
    1552,
    1552,
    1552,
    0,
    1552,
    1552,
    1552,
    0,
    0,
    1552,
    1552,
    1552,
    1552,
    0,
    0,
    1552,
    1552,
    0,
    1552,
    1552,
    1552,
    0,
    0,
    0,
    0,
    0,
    0,
    0,
    0,
    0,
    0,
    0,
    0,
    1552,
    1552,
    1552,
    1552,
    1552,
    1552,
    0,
    0,
    0,
    1552,
    1552,
    1552,
    1552,
    1552,
    1552,
    0,
    0,
    0,
    0,
    0,
    0,
    0,
    0,
    0,
    0,
    0,
    0,
    1552,
    1552,
    0,
    0,
    0,
    0,
    0,
    0,
    0,
    0,
    0,
    0,
    0,
    0,
    0,
    0,
    0,
    0,
    0,
    1552,
    1552,
    0,
    0,
    0,
    0,
    0,
    0,
    1552,
    1552,
    0,
    0,
    0,
    0,
    0,
    1552,
    1552,
    0,
    0,
    1552,
    0,
    0,
    0,
    0,
    1552,
    1552,
    0,
    0,
    1552,
    0,
    1552,
    1552,
    1552,
    1552,
    1552,
    1552,
    1552,
    1552,
    1552,
    0,
    0,
    1552,
    1552,
    1552,
    1552,
    1552,
    1552,
    1552,
    1552,
    0,
    1552,
    1552,
    1552,
    1552,
    1552,
    0,
    0,
    1552,
    1552,
    1552,
    1552,
    1552,
    1552,
    0,
    0,
    1552,
    1552,
    0,
    1552,
    1552,
    1552,
    0,
    0,
    0,
    0,
    0,
    0,
    0,
    0,
    0,
    0,
    0,
    0,
    1552,
    1552,
    1552,
    1552,
    1552,
    1552,
    1552,
    0,
    0,
    1552,
    1552,
    0,
    1552,
    1552,
    0,
    0,
    0,
    0,
    0,
    0,
    0,
    0,
    0,
    1552,
    1552,
    0,
    1552,
    1552,
    1552,
    0,
    0,
    0,
    0,
    0,
    0,
    0,
    0,
    0,
    0,
    0,
    0,
    0,
    0,
    0,
    0,
    1552,
    1552,
    0,
    0,
    0,
    0,
    0,
    1552,
    1552,
    1552,
    1552,
    0,
    0,
    0,
    0,
    1552,
    1552,
    0,
    0,
    0,
    1552,
    1552,
    0,
    0,
    1552,
    1552,
    0,
    0,
    0,
    0,
    1552,
    1552,
    0,
    0,
    1552,
    1552,
    1552,
    0,
    1552,
    0,
    0,
    1552,
    1552,
    1552,
    1552,
    1552,
    1552,
    1552,
    1552,
    0,
    1552,
    1552,
    1552,
    1552,
    1552,
    0,
    0,
    1552,
    1552,
    1552,
    1552,
    1552,
    1552,
    0,
    0,
    1552,
    1552,
    0,
    0,
    0,
    0,
    0,
    0,
    0,
    1552,
    1552,
    0,
    0,
    0,
    0,
    0,
    0,
    0,
    1552,
    1552,
    1552,
    1552,
    1552,
    1552,
    0,
    0,
    0,
    0,
    0,
    1552,
    1552,
    1552,
    0,
    0,
    0,
    0,
    0,
    1552,
    1552,
    1552,
    0,
    1552,
    1552,
    0,
    0,
    1552,
    1552,
    0,
    0,
    0,
    0,
    0,
    0,
    0,
    0,
    0,
    1552,
    0,
    0,
    0,
    0,
    0,
    0,
    0,
    1552,
    1552,
    0,
    0,
    0,
    1552,
    1552,
    1552,
    1552,
    1552,
    1552,
    0,
    0,
    0,
    0,
    1552,
    0,
    0,
    0,
    1552,
    1552,
    1552,
    0,
    1552,
    1552,
    0,
    0,
    0,
    0,
    1552,
    0,
    0,
    0,
    0,
    1552,
    0,
    0,
    0,
    0,
    0,
    0,
    1552,
    1552,
    0,
    1552,
    1552,
    1552,
    1552,
    1552,
    1552,
    1552,
    1552,
    1552,
    1552,
    1552,
    0,
    1552,
    1552,
    1552,
    1552,
    1552,
    1552,
    0,
    0,
    1552,
    1552,
    0,
    0,
    1552,
    1552,
    1552,
    0,
    0,
    1552,
    1552,
    0,
    0,
    0,
    0,
    0,
    0,
    0,
    1552,
    1552,
    1552,
    1552,
    1552,
    1552,
    1552,
    0,
    0,
    0,
    1552,
    0,
    0,
    0,
    0,
    0,
    0,
    0,
    0,
    1552,
    1552,
    1552,
    1552,
    0,
    1552,
    1552,
    0,
    1552,
    1552,
    0,
    0,
    0,
    0,
    0,
    0,
    0,
    0,
    0,
    1552,
    1552,
    0,
    0,
    0,
    0,
    0,
    0,
    1552,
    1552,
    1552,
    0,
    0,
    0,
    1552,
    1552,
    1552,
    1552,
    1552,
    1552,
    1552,
    0,
    0,
    0,
    1552,
    1552,
    0,
    0,
    1552,
    1552,
    0,
    1552,
    1552,
    0,
    0,
    0,
    0,
    0,
    0,
    0,
    0,
    0,
    0,
    0,
    0,
    0,
    0,
    0,
    1552,
    1552,
    1552,
    1552,
    1552,
    1552,
    1552,
    1552,
    1552,
    1552,
    1552,
    1552,
    1552,
    1552,
    1552,
    0,
    1552,
    1552,
    1552,
    1552,
    1552,
    1552,
    0,
    0,
    1552,
    1552,
    0,
    0,
    1552,
    1552,
    0,
    0,
    1552,
    1552,
    1552,
    1552,
    0,
    0,
    0,
    0,
    0,
    0,
    1552,
    1552,
    1552,
    1552,
    1552,
    1552,
    1552,
    0,
    0,
    0,
    0,
    0,
    0,
    0,
    0,
    0,
    0,
    1552,
    1552,
    0,
    0,
    1552,
    1552,
    0,
    1552,
    1552,
    0,
    1552,
    1552,
    0,
    0,
    0,
    0,
    0,
    0,
    0,
    0,
    0,
    1552,
    1552,
    1552,
    0,
    0,
    1552,
    0,
    0,
    0,
    1552,
    1552,
    0,
    0,
    0,
    1552,
    1552,
    0,
    1552,
    1552,
    1552,
    1552,
    0,
    0,
    0,
    0,
    1552,
    1552,
    0,
    1552,
    1552,
    0,
    0,
    1552,
    0,
    0,
    0,
    0,
    0,
    0,
    0,
    0,
    0,
    0,
    0,
    0,
    0,
    0,
    0,
    0,
    0,
    0,
    1552,
    1552,
    0,
    0,
    0,
    0,
    0,
    0,
    1552,
    1552,
    0,
    0,
    0,
    1552,
    1552,
    1552,
    1552,
    1552,
    1552,
    1552,
    0,
    1552,
    1552,
    0,
    0,
    0,
    1552,
    1552,
    0,
    1552,
    1552,
    1552,
    1552,
    0,
    1552,
    1552,
    1552,
    0,
    0,
    0,
    1552,
    1552,
    1552,
    1552,
    1552,
    1552,
    0,
    0,
    0,
    0,
    0,
    0,
    0,
    0,
    0,
    0,
    1552,
    1552,
    1552,
    1552,
    0,
    0,
    1552,
    1552,
    1552,
    0,
    1552,
    1552,
    0,
    0,
    0,
    0,
    0,
    0,
    0,
    0,
    0,
    0,
    1552,
    1552,
    0,
    0,
    0,
    1552,
    1552,
    0,
    1552,
    1552,
    0,
    0,
    0,
    1552,
    1552,
    1552,
    1552,
    1552,
    1552,
    1552,
    1552,
    0,
    0,
    0,
    1552,
    1552,
    0,
    0,
    0,
    0,
    0,
    0,
    1552,
    1552,
    0,
    0,
    0,
    0,
    0,
    0,
    0,
    0,
    0,
    0,
    0,
    0,
    0,
    0,
    0,
    0,
    0,
    0,
    0,
    0,
    0,
    1552,
    1552,
    0,
    0,
    0,
    0,
    1552,
    1552,
    1552,
    1552,
    1552,
    1552,
    1552,
    1552,
    1552,
    0,
    1552,
    1552,
    0,
    0,
    0,
    1552,
    1552,
    1552,
    1552,
    1552,
    1552,
    1552,
    1552,
    0,
    1552,
    1552,
    0,
    0,
    0,
    1552,
    1552,
    1552,
    1552,
    1552,
    1552,
    0,
    0,
    0,
    0,
    0,
    0,
    0,
    0,
    0,
    1552,
    1552,
    1552,
    1552,
    1552,
    1552,
    1552,
    1552,
    1552,
    0,
    0,
    1552,
    1552,
    0,
    0,
    0,
    0,
    0,
    0,
    0,
    0,
    0,
    0,
    1552,
    1552,
    0,
    1552,
    1552,
    1552,
    1552,
    0,
    1552,
    1552,
    0,
    0,
    1552,
    1552,
    1552,
    0,
    1552,
    1552,
    1552,
    1552,
    1552,
    0,
    0,
    0,
    1552,
    1552,
    0,
    0,
    0,
    0,
    0,
    0,
    0,
    1552,
    1552,
    0,
    0,
    0,
    0,
    0,
    0,
    0,
    0,
    0,
    0,
    0,
    0,
    0,
    0,
    0,
    1552,
    1552,
    0,
    1552,
    0,
    1552,
    1552,
    1552,
    1552,
    0,
    1552,
    1552,
    1552,
    1552,
    1552,
    1552,
    1552,
    1552,
    1552,
    1552,
    0,
    1552,
    1552,
    0,
    0,
    1552,
    1552,
    1552,
    1552,
    1552,
    1552,
    1552,
    1552,
    1552,
    1552,
    1552,
    1552,
    0,
    0,
    0,
    1552,
    1552,
    1552,
    1552,
    1552,
    1552,
    0,
    0,
    0,
    0,
    0,
    0,
    0,
    0,
    0,
    1552,
    1552,
    1552,
    1552,
    1552,
    1552,
    1552,
    1552,
    0,
    0,
    0,
    1552,
    1552,
    0,
    0,
    0,
    0,
    0,
    0,
    0,
    0,
    0,
    0,
    1552,
    1552,
    0,
    1552,
    1552,
    1552,
    1552,
    0,
    1552,
    1552,
    0,
    0,
    1552,
    1552,
    0,
    1552,
    1552,
    1552,
    1552,
    1552,
    0,
    1552,
    0,
    0,
    1552,
    1552,
    0,
    0,
    0,
    0,
    0,
    0,
    0,
    0,
    1552,
    0,
    0,
    0,
    0,
    0,
    0,
    0,
    0,
    0,
    0,
    0,
    0,
    0,
    0,
    0,
    1552,
    1552,
    1552,
    1552,
    1552,
    1552,
    1552,
    1552,
    1552,
    1552,
    1552,
    1552,
    1552,
    1552,
    1552,
    1552,
    1552,
    1552,
    1552,
    0,
    0,
    0,
    1552,
    0,
    0,
    1552,
    1552,
    1552,
    1552,
    1552,
    1552,
    1552,
    0,
    1552,
    1552,
    1552,
    0,
    1552,
    0,
    0,
    1552,
    1552,
    1552,
    1552,
    1552,
    1552,
    0,
    0,
    0,
    0,
    0,
    0,
    0,
    0,
    1552,
    1552,
    1552,
    1552,
    1552,
    1552,
    1552,
    0,
    1552,
    1552,
    0,
    0,
    1552,
    1552,
    0,
    0,
    0,
    0,
    0,
    0,
    0,
    0,
    0,
    0,
    1552,
    1552,
    0,
    0,
    1552,
    1552,
    1552,
    0,
    1552,
    1552,
    0,
    0,
    0,
    0,
    0,
    1552,
    1552,
    1552,
    1552,
    1552,
    1552,
    0,
    0,
    0,
    0,
    1552,
    0,
    0,
    0,
    0,
    0,
    0,
    0,
    0,
    0,
    0,
    0,
    0,
    0,
    0,
    0,
    0,
    0,
    0,
    0,
    0,
    0,
    0,
    0,
    1552,
    0,
    1552,
    1552,
    1552,
    1552,
    1552,
    1552,
    0,
    1552,
    1552,
    1552,
    1552,
    1552,
    1552,
    1552,
    0,
    1552,
    1552,
    0,
    1552,
    0,
    0,
    1552,
    1552,
    0,
    1552,
    0,
    1552,
    1552,
    1552,
    0,
    1552,
    1552,
    1552,
    1552,
    0,
    1552,
    0,
    0,
    0,
    1552,
    1552,
    1552,
    1552,
    1552,
    1552,
    0,
    0,
    0,
    0,
    0,
    0,
    0,
    1552,
    1552,
    1552,
    1552,
    1552,
    1552,
    1552,
    1552,
    1552,
    1552,
    1552,
    0,
    0,
    1552,
    1552,
    0,
    0,
    0,
    0,
    1552,
    0,
    0,
    0,
    0,
    0,
    1552,
    1552,
    0,
    0,
    0,
    1552,
    0,
    0,
    1552,
    1552,
    0,
    0,
    0,
    0,
    1552,
    0,
    1552,
    1552,
    1552,
    1552,
    1552,
    1552,
    0,
    0,
    0,
    1552,
    1552,
    0,
    0,
    0,
    0,
    0,
    0,
    0,
    0
   ]
  }
 ]
}
