{
 "type": "map",
 "version": 1.1,
 "tiledversion": "1.11.0",
 "orientation": "orthogonal",
 "renderorder": "right-down",
 "width": 128,
 "height": 128,
 "tilewidth": 40,
 "tileheight": 40,
 "infinite": false,
 "nextlayerid": 4,
 "nextobjectid": 3,
 "compressionlevel": -1,
 "properties": [],
 "tilesets": [
  {
   "firstgid": 1,
   "source": "terrain.tsx"
  }
 ],
 "layers": [
  {
   "id": 1,
   "name": "terrain",
   "type": "tilelayer",
   "x": 0,
   "y": 0,
   "width": 128,
   "height": 128,
   "opacity": 1,
   "visible": true,
   "data": [
    1386,
    1383,
    1387,
    1385,
    1386,
    1388,
    1383,
    1385,
    1386,
    1383,
    1387,
    1388,
    1384,
    1388,
    1387,
    1386,
    1386,
    1387,
    1386,
    1107,
    1124,
    5,
    1,
    3,
    4,
    5,
    4,
    4,
    1122,
    1386,
    1384,
    1388,
    1388,
    1386,
    731,
    732,
    1384,
    1384,
    731,
    732,
    1387,
    1182,
    11,
    731,
    732,
    1387,
    1386,
    1165,
    1383,
    1388,
    1092,
    980,
    981,
    982,
    1303,
    1047,
    1048,
    1049,
    1050,
    1,
    1,
    939,
    940,
    703,
    959,
    960,
    1090,
    1383,
    1387,
    1385,
    1384,
    1386,
    702,
    1388,
    1388,
    1383,
    1384,
    1383,
    1387,
    1385,
    1387,
    1385,
    1383,
    1386,
    1385,
    1383,
    1385,
    1387,
    1384,
    1386,
    1388,
    1383,
    1385,
    1386,
    1386,
    1384,
    1385,
    1383,
    1385,
    1383,
    1386,
    1383,
    1385,
    1387,
    1385,
    1383,
    1387,
    1182,
    731,
    732,
    1182,
    1385,
    1388,
    1387,
    1387,
    1385,
    1388,
    1383,
    1387,
    1388,
    1386,
    702,
    1385,
    1108,
    1109,
    8,
    929,
    930,
    1383,
    1386,
    1388,
    1388,
    1386,
    1165,
    1387,
    1388,
    1386,
    1383,
    1384,
    1384,
    1385,
    1387,
    1387,
    1386,
    1387,
    1107,
    1107,
    1124,
    1,
    2,
    31,
    32,
    5,
    6,
    2,
    2,
    1152,
    1122,
    1123,
    1163,
    731,
    732,
    747,
    748,
    731,
    732,
    747,
    748,
    731,
    732,
    1182,
    747,
    748,
    1385,
    1384,
    1388,
    1388,
    1150,
    1151,
    1092,
    997,
    998,
    983,
    984,
    992,
    1438,
    1439,
    1440,
    938,
    955,
    956,
    719,
    941,
    942,
    1106,
    1387,
    1387,
    1387,
    1386,
    1384,
    1383,
    1383,
    1388,
    1386,
    1387,
    1383,
    1385,
    1387,
    1385,
    1387,
    1386,
    1385,
    1388,
    1384,
    1385,
    1388,
    1384,
    1383,
    1383,
    1387,
    1386,
    1384,
    1388,
    1387,
    1386,
    1387,
    1384,
    1385,
    1387,
    1386,
    1385,
    1385,
    1385,
    1386,
    1182,
    1386,
    747,
    748,
    1150,
    1151,
    1182,
    1386,
    1385,
    1386,
    1383,
    1386,
    1386,
    1385,
    1384,
    1387,
    1387,
    1108,
    1109,
    4,
    945,
    946,
    1150,
    1151,
    1383,
    1385,
    1384,
    1387,
    1388,
    1384,
    1386,
    1385,
    1384,
    1384,
    1385,
    1386,
    1384,
    1383,
    1387,
    1107,
    1108,
    1109,
    4,
    6,
    6,
    4,
    3,
    6,
    3,
    6,
    4,
    6,
    5,
    1122,
    747,
    748,
    1386,
    1386,
    747,
    748,
    1384,
    1182,
    747,
    748,
    1388,
    1182,
    1150,
    1151,
    731,
    732,
    1147,
    1166,
    1167,
    1385,
    1091,
    1092,
    999,
    1000,
    1008,
    1454,
    1455,
    1456,
    954,
    971,
    1303,
    703,
    957,
    958,
    1122,
    1163,
    1384,
    1388,
    1385,
    1386,
    1386,
    1384,
    1383,
    1388,
    1387,
    1386,
    1386,
    1386,
    1388,
    1383,
    1384,
    1387,
    1165,
    1383,
    1386,
    1387,
    1387,
    1385,
    1383,
    1388,
    1388,
    1386,
    1385,
    1385,
    1385,
    1385,
    1388,
    1383,
    1388,
    1386,
    1388,
    1385,
    1384,
    1385,
    1386,
    1387,
    1383,
    1147,
    1166,
    1167,
    1388,
    1385,
    1388,
    1383,
    1383,
    1384,
    1383,
    1383,
    1388,
    1386,
    1386,
    1387,
    1092,
    2,
    961,
    962,
    1166,
    1167,
    1388,
    1387,
    1385,
    1383,
    1386,
    1387,
    1388,
    1386,
    1384,
    1383,
    1384,
    1384,
    1384,
    1384,
    1385,
    1182,
    1107,
    1092,
    2,
    3,
    1,
    1,
    4,
    3,
    6,
    3,
    1,
    6,
    1,
    1105,
    1106,
    1388,
    1386,
    1388,
    1388,
    1386,
    1386,
    1150,
    1151,
    1387,
    1147,
    1386,
    1166,
    1167,
    747,
    748,
    1182,
    1388,
    1383,
    1385,
    1385,
    1108,
    977,
    978,
    979,
    703,
    1471,
    1472,
    970,
    1304,
    703,
    719,
    973,
    974,
    3,
    1122,
    1383,
    1386,
    1383,
    1387,
    1387,
    1388,
    1387,
    1384,
    1386,
    1385,
    1388,
    1385,
    1388,
    1384,
    1384,
    1386,
    1384,
    1386,
    1388,
    1386,
    1386,
    1384,
    1385,
    1385,
    1385,
    1388,
    1387,
    1383,
    1384,
    1385,
    1387,
    1384,
    1388,
    1384,
    1385,
    1387,
    1383,
    1383,
    1386,
    1383,
    927,
    1385,
    1384,
    1383,
    1384,
    1385,
    1388,
    1383,
    1165,
    1388,
    1387,
    1388,
    1388,
    1384,
    1383,
    1164,
    1108,
    1109,
    929,
    930,
    1388,
    1387,
    1384,
    1383,
    1386,
    1385,
    1386,
    1387,
    1384,
    1387,
    1387,
    1384,
    1165,
    1384,
    1387,
    1386,
    1387,
    1383,
    1388,
    1124,
    6,
    1,
    4,
    1,
    5,
    2,
    2,
    2,
    2,
    13,
    3,
    6,
    1122,
    1123,
    1386,
    1386,
    1385,
    1388,
    1385,
    1166,
    1167,
    1182,
    1387,
    731,
    732,
    11,
    733,
    1182,
    731,
    732,
    1385,
    731,
    732,
    1165,
    1092,
    994,
    995,
    1319,
    1304,
    1304,
    703,
    1304,
    719,
    992,
    1015,
    1016,
    1017,
    1105,
    1106,
    1387,
    1386,
    1386,
    1387,
    1385,
    1386,
    1383,
    1383,
    1386,
    1383,
    1388,
    1388,
    1388,
    1383,
    1388,
    1383,
    1182,
    1386,
    1387,
    1385,
    1386,
    1387,
    1385,
    1383,
    1383,
    1387,
    1383,
    1385,
    1386,
    1383,
    1386,
    1385,
    1385,
    1388,
    1384,
    1388,
    1383,
    1385,
    1388,
    1387,
    1383,
    1383,
    1385,
    1383,
    1386,
    1385,
    1388,
    1384,
    1388,
    1385,
    1383,
    1387,
    1384,
    1384,
    1163,
    1108,
    1109,
    945,
    946,
    1384,
    1384,
    1384,
    1385,
    1387,
    1384,
    1385,
    1386,
    1386,
    1388,
    1388,
    1385,
    1385,
    1388,
    1387,
    1384,
    1384,
    1107,
    1124,
    2,
    3,
    3,
    3,
    5,
    4,
    6,
    3,
    4,
    3,
    5,
    4,
    4,
    4,
    6,
    1122,
    1164,
    1388,
    1387,
    1388,
    1384,
    731,
    732,
    1385,
    747,
    748,
    731,
    732,
    1387,
    747,
    748,
    1383,
    747,
    748,
    1385,
    1108,
    980,
    981,
    719,
    1319,
    1320,
    719,
    1319,
    1320,
    1008,
    1031,
    1032,
    1033,
    1034,
    1122,
    1165,
    1385,
    1385,
    1387,
    1383,
    1386,
    1386,
    1386,
    1386,
    1383,
    1385,
    1386,
    1384,
    1387,
    1388,
    1386,
    731,
    732,
    1385,
    1387,
    1383,
    1385,
    1384,
    1383,
    1383,
    1383,
    1383,
    1384,
    1386,
    1386,
    1387,
    1386,
    1385,
    1385,
    1388,
    1385,
    1385,
    1387,
    1387,
    1385,
    1386,
    1388,
    1388,
    1385,
    1385,
    1384,
    1384,
    1385,
    1385,
    1386,
    1388,
    1388,
    1387,
    1388,
    1384,
    1108,
    1109,
    961,
    962,
    1386,
    1385,
    1386,
    1164,
    1385,
    1387,
    1384,
    1383,
    1386,
    1384,
    1388,
    1387,
    1388,
    1386,
    1387,
    1387,
    1386,
    1108,
    1109,
    5,
    1,
    4,
    1,
    2,
    1,
    3,
    3,
    4,
    5,
    1,
    1,
    4,
    1,
    1,
    1105,
    1106,
    1386,
    1385,
    1387,
    1388,
    747,
    748,
    731,
    732,
    1182,
    747,
    748,
    1385,
    1147,
    731,
    732,
    1383,
    1182,
    1386,
    1384,
    1092,
    997,
    998,
    975,
    976,
    975,
    976,
    983,
    984,
    703,
    1048,
    1049,
    1050,
    1105,
    1106,
    1385,
    1386,
    1385,
    1383,
    1386,
    1387,
    1385,
    1386,
    1386,
    1384,
    1388,
    1388,
    1182,
    1383,
    1383,
    747,
    748,
    1182,
    1388,
    1384,
    1383,
    1387,
    1388,
    1385,
    1388,
    1385,
    1387,
    1386,
    1383,
    1388,
    1386,
    1384,
    1388,
    1384,
    1383,
    1386,
    1388,
    1387,
    1383,
    1383,
    1384,
    1385,
    1386,
    1385,
    1387,
    1383,
    1383,
    1383,
    1384,
    1385,
    1385,
    1388,
    1386,
    1123,
    1124,
    3,
    939,
    940,
    1386,
    1388,
    1386,
    1385,
    1383,
    1387,
    1383,
    1383,
    1387,
    1385,
    1384,
    1384,
    1383,
    1386,
    1387,
    1387,
    1383,
    1163,
    1092,
    3,
    6,
    3,
    2,
    6,
    6,
    1,
    6,
    2,
    5,
    5,
    3,
    31,
    32,
    1,
    1152,
    1122,
    1163,
    1386,
    1386,
    1386,
    1386,
    1387,
    747,
    748,
    1150,
    1151,
    1182,
    1388,
    1383,
    747,
    748,
    731,
    732,
    1182,
    1386,
    1164,
    1091,
    1091,
    1091,
    1092,
    1152,
    993,
    999,
    1000,
    719,
    703,
    1015,
    1016,
    1017,
    1122,
    1387,
    1388,
    1383,
    1387,
    1384,
    1385,
    1387,
    1387,
    1387,
    1384,
    1386,
    731,
    732,
    1386,
    1386,
    1388,
    1383,
    1383,
    1387,
    1386,
    1385,
    1383,
    1384,
    1386,
    1387,
    1387,
    1387,
    1388,
    1388,
    1387,
    1383,
    1385,
    1383,
    1384,
    1388,
    1383,
    1383,
    1388,
    1387,
    1388,
    1384,
    1383,
    1182,
    1388,
    1387,
    1182,
    1383,
    1387,
    1386,
    1384,
    1383,
    1387,
    1125,
    1074,
    932,
    933,
    955,
    956,
    1383,
    1385,
    1383,
    1388,
    1385,
    1387,
    1385,
    1387,
    1388,
    1388,
    1384,
    1385,
    1384,
    1383,
    1383,
    1385,
    1387,
    1383,
    1107,
    1092,
    1152,
    32,
    3,
    3,
    1,
    1,
    6,
    3,
    2,
    1,
    2,
    4,
    3,
    2,
    4,
    3,
    1122,
    1386,
    1387,
    1386,
    1386,
    1385,
    1387,
    1182,
    1166,
    1167,
    731,
    732,
    1388,
    1383,
    733,
    747,
    748,
    1386,
    1386,
    1385,
    1384,
    1383,
    1387,
    1388,
    1093,
    3,
    977,
    978,
    719,
    703,
    703,
    1032,
    1033,
    1034,
    1106,
    1384,
    1387,
    1388,
    1385,
    1388,
    1383,
    1385,
    1386,
    733,
    1182,
    747,
    748,
    1387,
    731,
    732,
    1384,
    1385,
    1387,
    1385,
    1384,
    1384,
    1386,
    1384,
    1386,
    1383,
    1383,
    1387,
    1388,
    1387,
    1383,
    1384,
    1386,
    1383,
    1383,
    1165,
    1386,
    1385,
    1385,
    1386,
    1388,
    1383,
    1385,
    10,
    1387,
    1388,
    1385,
    1384,
    1150,
    1151,
    1386,
    1124,
    1152,
    947,
    948,
    949,
    971,
    367,
    1383,
    1388,
    1386,
    1384,
    1388,
    1387,
    1384,
    1383,
    1383,
    1383,
    1387,
    1386,
    1384,
    1388,
    1386,
    1385,
    1385,
    1383,
    1107,
    1108,
    1,
    2,
    2,
    2,
    5,
    1,
    6,
    4,
    2,
    6,
    3,
    5,
    6,
    2,
    3,
    4,
    1105,
    1106,
    1388,
    1388,
    1383,
    1384,
    1387,
    731,
    732,
    1383,
    747,
    748,
    731,
    732,
    1383,
    1385,
    1383,
    1385,
    1383,
    1385,
    1388,
    1383,
    1383,
    1385,
    1165,
    1092,
    993,
    994,
    995,
    719,
    719,
    1048,
    1049,
    1050,
    1122,
    1164,
    1388,
    1387,
    1383,
    1388,
    1383,
    1386,
    731,
    732,
    1182,
    1388,
    1182,
    1147,
    747,
    748,
    1383,
    1383,
    1165,
    1384,
    1388,
    1383,
    1383,
    1388,
    10,
    1388,
    1384,
    1385,
    1383,
    1384,
    1387,
    1386,
    1386,
    1383,
    1387,
    1386,
    1384,
    1384,
    1386,
    1384,
    927,
    1388,
    1385,
    1386,
    11,
    1386,
    1182,
    733,
    1166,
    1167,
    1108,
    1109,
    8,
    963,
    964,
    965,
    703,
    383,
    1386,
    1388,
    1385,
    1384,
    1388,
    1386,
    1388,
    1388,
    1387,
    1383,
    1386,
    1386,
    1384,
    1383,
    1388,
    1387,
    1386,
    1388,
    1107,
    1107,
    1092,
    6,
    5,
    2,
    4,
    4,
    5,
    31,
    32,
    5,
    4,
    2,
    5,
    4,
    6,
    4,
    1105,
    1106,
    1385,
    1385,
    1387,
    1388,
    1386,
    747,
    748,
    1386,
    1182,
    1387,
    747,
    748,
    1388,
    1385,
    1386,
    1388,
    1388,
    1385,
    1386,
    1383,
    1385,
    1383,
    1388,
    1384,
    1092,
    929,
    930,
    719,
    719,
    703,
    941,
    942,
    1105,
    1106,
    1387,
    1383,
    1383,
    1384,
    1385,
    1182,
    747,
    748,
    1147,
    731,
    732,
    1150,
    1151,
    1182,
    733,
    1383,
    1386,
    1388,
    1387,
    1387,
    1386,
    1385,
    1387,
    1386,
    1385,
    1386,
    1386,
    1383,
    1386,
    1384,
    1388,
    1383,
    1387,
    1383,
    1383,
    1385,
    1387,
    1385,
    1384,
    1388,
    1386,
    1182,
    927,
    1383,
    1163,
    1182,
    927,
    1182,
    1388,
    1093,
    3,
    929,
    930,
    1304,
    719,
    399,
    1384,
    1387,
    1387,
    1386,
    1387,
    1386,
    1385,
    1388,
    1384,
    1387,
    1384,
    1387,
    1388,
    1385,
    1387,
    1388,
    1384,
    1386,
    1383,
    1107,
    1107,
    1091,
    1092,
    3,
    3,
    2,
    3,
    4,
    5,
    6,
    6,
    5,
    1,
    3,
    3,
    1,
    1090,
    1386,
    1387,
    1385,
    1387,
    1163,
    1388,
    1385,
    1385,
    1388,
    1383,
    1383,
    1388,
    1383,
    1387,
    1387,
    1386,
    1386,
    1383,
    1388,
    1384,
    1385,
    1388,
    1385,
    1383,
    1384,
    1108,
    945,
    946,
    992,
    703,
    719,
    957,
    958,
    1105,
    1106,
    1388,
    1386,
    1388,
    1385,
    1388,
    1384,
    1182,
    1150,
    1151,
    747,
    748,
    1166,
    1167,
    1385,
    1165,
    1386,
    1383,
    1387,
    1388,
    1388,
    1384,
    1384,
    1383,
    1384,
    1388,
    1388,
    1386,
    1386,
    1385,
    1387,
    1384,
    1387,
    1384,
    1383,
    1388,
    1388,
    1383,
    1384,
    733,
    1387,
    1383,
    1385,
    733,
    1182,
    1387,
    1388,
    733,
    731,
    732,
    1383,
    1092,
    945,
    946,
    367,
    368,
    703,
    1388,
    1385,
    1385,
    1387,
    1386,
    1387,
    1385,
    1383,
    1383,
    1384,
    1387,
    1385,
    1388,
    1384,
    1383,
    1385,
    1165,
    1385,
    1388,
    1387,
    1384,
    1386,
    1107,
    1092,
    5,
    6,
    5,
    4,
    1,
    4,
    4,
    1,
    2,
    1,
    6,
    1090,
    1385,
    1386,
    1387,
    1388,
    1384,
    1387,
    1387,
    1386,
    1386,
    1384,
    1388,
    1383,
    1387,
    1387,
    1383,
    1388,
    1386,
    1388,
    1386,
    1383,
    1386,
    1387,
    1387,
    1388,
    1384,
    1165,
    1124,
    961,
    962,
    1008,
    703,
    719,
    973,
    974,
    1152,
    1122,
    1388,
    1385,
    1384,
    1388,
    1388,
    1385,
    1388,
    1166,
    1167,
    1182,
    731,
    732,
    1182,
    733,
    1386,
    1384,
    1385,
    1384,
    1384,
    1383,
    1388,
    1388,
    1383,
    1384,
    1386,
    1384,
    1386,
    1383,
    1383,
    1388,
    1384,
    1384,
    1387,
    1384,
    1383,
    1385,
    1385,
    1383,
    1385,
    1383,
    1388,
    1383,
    1384,
    1388,
    1385,
    1387,
    1182,
    747,
    748,
    1163,
    1108,
    961,
    962,
    383,
    384,
    719,
    1385,
    1386,
    1388,
    1386,
    1383,
    1386,
    1384,
    1388,
    1384,
    1386,
    1386,
    1387,
    1386,
    1385,
    1385,
    1384,
    1386,
    1388,
    1388,
    1386,
    1384,
    1383,
    1386,
    1108,
    4,
    1,
    1,
    4,
    5,
    1,
    2,
    1,
    2,
    2,
    1105,
    1106,
    1165,
    1386,
    1386,
    1386,
    927,
    1386,
    1182,
    731,
    732,
    1386,
    1386,
    1387,
    1388,
    1388,
    1163,
    1384,
    1388,
    1388,
    1383,
    1383,
    1385,
    1386,
    1383,
    1386,
    1383,
    1125,
    8,
    977,
    978,
    1319,
    719,
    1320,
    1015,
    1016,
    1017,
    4,
    1122,
    1388,
    1387,
    1383,
    1384,
    1388,
    1385,
    1383,
    1388,
    1387,
    747,
    748,
    1384,
    1384,
    1386,
    1384,
    1388,
    1388,
    1386,
    1386,
    1383,
    1387,
    1383,
    1385,
    1388,
    1387,
    1385,
    1387,
    1384,
    1388,
    1387,
    1383,
    1385,
    1386,
    1384,
    1387,
    1385,
    1385,
    1386,
    1387,
    1388,
    1384,
    927,
    1383,
    1388,
    1383,
    1385,
    1182,
    1385,
    1123,
    1124,
    939,
    940,
    399,
    400,
    703,
    1383,
    1384,
    1386,
    1388,
    1383,
    1388,
    1384,
    1385,
    1386,
    1386,
    1383,
    1383,
    1387,
    1388,
    1383,
    1387,
    1384,
    1383,
    1387,
    1388,
    1385,
    1384,
    1107,
    1124,
    3,
    3,
    4,
    2,
    3,
    4,
    5,
    6,
    6,
    4,
    1105,
    1106,
    1387,
    1384,
    1384,
    1386,
    731,
    732,
    10,
    747,
    748,
    1182,
    1150,
    1151,
    731,
    732,
    1388,
    1386,
    1384,
    1386,
    1383,
    1386,
    1387,
    1386,
    1384,
    1387,
    1108,
    1109,
    15,
    16,
    994,
    995,
    1319,
    703,
    703,
    1032,
    1033,
    1034,
    1105,
    1106,
    1383,
    1387,
    1385,
    1385,
    1385,
    1386,
    1182,
    1388,
    1384,
    1387,
    1387,
    1387,
    1383,
    1385,
    1387,
    1386,
    1388,
    1385,
    1383,
    1388,
    1386,
    1386,
    1383,
    1385,
    1383,
    1387,
    1383,
    1384,
    1383,
    1385,
    1386,
    1385,
    1384,
    1385,
    1383,
    1387,
    1385,
    1386,
    1165,
    1386,
    1388,
    1384,
    1385,
    1386,
    1387,
    1387,
    1124,
    932,
    933,
    955,
    956,
    703,
    703,
    703,
    1383,
    1383,
    1385,
    1388,
    1383,
    1385,
    1388,
    1388,
    1165,
    1384,
    1385,
    1383,
    1384,
    1387,
    1385,
    1385,
    1388,
    1387,
    1388,
    1383,
    1383,
    1165,
    1108,
    1152,
    3,
    5,
    2,
    6,
    3,
    2,
    4,
    1,
    5,
    5,
    5,
    1122,
    1384,
    1383,
    1388,
    1182,
    747,
    748,
    733,
    1182,
    731,
    732,
    1166,
    1167,
    747,
    748,
    1386,
    1388,
    1387,
    1385,
    1385,
    1387,
    1383,
    1386,
    1383,
    1387,
    1383,
    1093,
    31,
    32,
    977,
    978,
    1319,
    719,
    719,
    703,
    1049,
    1050,
    4,
    1122,
    1165,
    1383,
    1383,
    1386,
    1384,
    731,
    732,
    1383,
    1385,
    1165,
    1384,
    1384,
    1388,
    1386,
    1384,
    1385,
    1384,
    1386,
    1387,
    1383,
    1385,
    1387,
    1383,
    1385,
    1384,
    1383,
    1386,
    1385,
    1384,
    1388,
    1384,
    1383,
    1384,
    1383,
    1383,
    1386,
    1384,
    1388,
    1385,
    1383,
    1384,
    1388,
    1386,
    1385,
    1388,
    1125,
    947,
    948,
    949,
    971,
    367,
    719,
    368,
    719,
    1385,
    1384,
    1383,
    1386,
    1383,
    1386,
    1383,
    1383,
    1385,
    1385,
    1383,
    1388,
    1385,
    1384,
    1383,
    1383,
    1385,
    1387,
    1387,
    1107,
    1107,
    1123,
    1124,
    3,
    1,
    1,
    2,
    2,
    3,
    2,
    6,
    3,
    1,
    3,
    3,
    1152,
    1122,
    1385,
    733,
    1386,
    1182,
    731,
    732,
    1388,
    747,
    748,
    731,
    732,
    1386,
    1387,
    1386,
    1386,
    1386,
    1386,
    1383,
    1386,
    1385,
    1383,
    1386,
    1387,
    1384,
    1164,
    1091,
    1092,
    993,
    994,
    995,
    383,
    719,
    719,
    1015,
    1016,
    1017,
    1105,
    1106,
    1383,
    1385,
    1388,
    1182,
    747,
    748,
    1387,
    1387,
    1388,
    1383,
    1384,
    1386,
    1387,
    1387,
    1165,
    1387,
    1385,
    1387,
    1388,
    1384,
    1386,
    1388,
    1387,
    1383,
    1383,
    1385,
    1388,
    1384,
    1388,
    1386,
    1388,
    1387,
    1385,
    1385,
    1383,
    1386,
    1385,
    1385,
    1388,
    1385,
    1384,
    1384,
    1386,
    1124,
    1152,
    963,
    964,
    965,
    703,
    703,
    703,
    384,
    703,
    1384,
    1385,
    1387,
    1383,
    1384,
    1385,
    1386,
    1387,
    1385,
    1388,
    1386,
    1386,
    1388,
    1385,
    1387,
    1388,
    1388,
    1384,
    1163,
    1107,
    1124,
    1,
    4,
    31,
    32,
    5,
    6,
    1,
    3,
    2,
    6,
    6,
    4,
    4,
    2,
    2,
    1105,
    1106,
    1163,
    731,
    732,
    747,
    748,
    11,
    1150,
    1151,
    747,
    748,
    1384,
    1385,
    1387,
    1386,
    1385,
    1387,
    1385,
    1385,
    1383,
    1386,
    1385,
    1384,
    1383,
    1388,
    1386,
    1386,
    1092,
    977,
    978,
    1319,
    1320,
    703,
    1320,
    1032,
    1033,
    1034,
    1122,
    1386,
    1388,
    1165,
    1387,
    1387,
    1388,
    1123,
    1385,
    1388,
    1384,
    1386,
    1387,
    1386,
    1384,
    1383,
    1383,
    1388,
    1383,
    1384,
    1385,
    1383,
    1386,
    1387,
    1385,
    1385,
    1384,
    1388,
    1384,
    1387,
    1387,
    1388,
    1384,
    1388,
    1387,
    1384,
    1384,
    1385,
    1386,
    1386,
    1388,
    1384,
    1182,
    1165,
    1093,
    3,
    929,
    930,
    1304,
    719,
    719,
    719,
    400,
    719,
    1387,
    1165,
    1388,
    1383,
    1383,
    1386,
    1384,
    1385,
    1388,
    1388,
    1384,
    1388,
    1388,
    1107,
    1107,
    1107,
    1107,
    1123,
    1123,
    1124,
    4,
    4,
    1,
    3,
    4,
    6,
    1,
    5,
    5,
    3,
    1,
    2,
    6,
    2,
    2,
    5,
    1105,
    1106,
    1182,
    747,
    748,
    733,
    731,
    732,
    1166,
    1167,
    1385,
    1385,
    1386,
    1383,
    1384,
    1383,
    1383,
    1387,
    1385,
    1383,
    1385,
    1387,
    1384,
    1386,
    1383,
    1387,
    1383,
    1384,
    1163,
    1092,
    994,
    995,
    703,
    719,
    703,
    1048,
    1049,
    1050,
    1152,
    1122,
    1123,
    1123,
    1123,
    1123,
    1124,
    1074,
    1121,
    1386,
    1386,
    1387,
    1388,
    1386,
    1386,
    1388,
    1385,
    1164,
    1386,
    1385,
    1388,
    1384,
    1387,
    1388,
    1385,
    1386,
    1384,
    1387,
    1385,
    1385,
    1385,
    1388,
    1385,
    1386,
    1387,
    1385,
    1387,
    1385,
    1385,
    1385,
    1384,
    1147,
    1384,
    731,
    732,
    1092,
    945,
    946,
    367,
    703,
    703,
    703,
    368,
    367,
    1182,
    1385,
    1182,
    1388,
    1163,
    1387,
    1383,
    1385,
    1383,
    1386,
    1386,
    1385,
    1388,
    1107,
    1107,
    1107,
    1125,
    5,
    6,
    5,
    1,
    1,
    6,
    5,
    13,
    3,
    6,
    1,
    3,
    4,
    3,
    3,
    1,
    1,
    4,
    6,
    2,
    1122,
    1383,
    1383,
    1386,
    1387,
    747,
    748,
    1182,
    1387,
    1387,
    1388,
    1383,
    1384,
    1388,
    1383,
    1385,
    1386,
    1386,
    1385,
    1387,
    1387,
    1384,
    1384,
    1383,
    1383,
    1386,
    1383,
    1384,
    1108,
    977,
    978,
    719,
    1319,
    719,
    703,
    1438,
    1439,
    1440,
    936,
    937,
    936,
    937,
    1019,
    1020,
    1021,
    1152,
    1122,
    1388,
    1383,
    1387,
    1387,
    1386,
    1385,
    1163,
    1386,
    1384,
    1388,
    1384,
    1388,
    1383,
    1385,
    1383,
    1387,
    1384,
    1388,
    1385,
    1388,
    1383,
    1384,
    1388,
    1386,
    1386,
    1387,
    1388,
    1388,
    1385,
    1383,
    1386,
    1165,
    1387,
    747,
    748,
    1108,
    961,
    962,
    383,
    719,
    719,
    703,
    703,
    703,
    1385,
    731,
    732,
    1147,
    1387,
    1384,
    1385,
    1384,
    1386,
    1386,
    1384,
    1387,
    1384,
    1107,
    1107,
    1124,
    6,
    6,
    3,
    2,
    1,
    5,
    4,
    1,
    5,
    5,
    3,
    3,
    4,
    1,
    4,
    5,
    3,
    4,
    31,
    32,
    47,
    1105,
    1106,
    1385,
    1386,
    1385,
    1385,
    1384,
    733,
    1384,
    1383,
    1387,
    1383,
    1383,
    1385,
    1385,
    1386,
    1385,
    1386,
    1386,
    1384,
    1387,
    1383,
    1385,
    1383,
    1383,
    1388,
    1388,
    1384,
    1383,
    1092,
    994,
    995,
    1303,
    1304,
    703,
    1454,
    1455,
    1456,
    952,
    953,
    952,
    953,
    1035,
    1036,
    1037,
    1038,
    2,
    1121,
    1386,
    1384,
    1387,
    1383,
    1387,
    1182,
    1385,
    1386,
    1147,
    1387,
    1385,
    1384,
    1385,
    1388,
    1386,
    1388,
    1387,
    1384,
    1386,
    1383,
    1385,
    1385,
    1385,
    1386,
    1388,
    1387,
    1387,
    1383,
    1388,
    1384,
    1386,
    1387,
    1182,
    1123,
    1124,
    939,
    940,
    399,
    703,
    703,
    719,
    703,
    719,
    1147,
    747,
    748,
    1383,
    1386,
    1386,
    1386,
    1388,
    1384,
    1385,
    1385,
    1383,
    1383,
    1107,
    1125,
    4,
    4,
    3,
    2,
    5,
    5,
    6,
    3,
    3,
    1,
    2,
    5,
    5,
    3,
    4,
    5,
    1,
    2,
    5,
    2,
    1152,
    5,
    1105,
    1106,
    1165,
    1386,
    1388,
    1386,
    1386,
    1386,
    1386,
    1383,
    1386,
    1386,
    1383,
    1383,
    1387,
    1387,
    1386,
    1388,
    1385,
    1387,
    1387,
    1388,
    1386,
    1388,
    1388,
    1384,
    1383,
    1386,
    1385,
    1108,
    977,
    978,
    1319,
    1320,
    719,
    1304,
    1471,
    1472,
    968,
    969,
    968,
    969,
    1051,
    1052,
    1053,
    1054,
    15,
    16,
    1106,
    1385,
    733,
    1148,
    1182,
    1384,
    1182,
    10,
    1165,
    1388,
    1387,
    1387,
    1385,
    1387,
    1386,
    1384,
    1383,
    1385,
    1388,
    1383,
    1386,
    1385,
    1387,
    1388,
    1386,
    1385,
    1388,
    1384,
    1385,
    1386,
    1182,
    1163,
    1124,
    1010,
    1011,
    955,
    956,
    1319,
    719,
    719,
    719,
    719,
    368,
    731,
    732,
    1386,
    1384,
    1383,
    1164,
    1386,
    1384,
    1386,
    1383,
    1387,
    1387,
    1182,
    1124,
    6,
    5,
    2,
    6,
    4,
    3,
    5,
    5,
    6,
    4,
    2,
    4,
    3,
    2,
    6,
    5,
    5,
    5,
    2,
    4,
    3,
    5,
    1,
    2,
    1122,
    1388,
    1386,
    1386,
    1387,
    1385,
    1384,
    1384,
    1384,
    1383,
    1384,
    1387,
    1387,
    1388,
    1385,
    1165,
    1388,
    1385,
    1387,
    1384,
    1388,
    1385,
    1386,
    1385,
    1383,
    1386,
    1385,
    1387,
    1165,
    1092,
    994,
    995,
    703,
    1320,
    703,
    1303,
    703,
    703,
    703,
    703,
    367,
    368,
    1068,
    1069,
    1070,
    31,
    32,
    1106,
    1165,
    1383,
    1182,
    11,
    927,
    1147,
    1164,
    1147,
    1182,
    1385,
    1385,
    1383,
    1385,
    1384,
    1385,
    1388,
    1387,
    1385,
    1383,
    1387,
    1384,
    1383,
    1385,
    1388,
    1388,
    1385,
    1384,
    1385,
    1383,
    1123,
    1124,
    1025,
    1026,
    1027,
    971,
    367,
    368,
    703,
    368,
    719,
    703,
    384,
    747,
    748,
    1384,
    1182,
    1388,
    1387,
    1182,
    1388,
    1388,
    1165,
    1385,
    1107,
    1108,
    1,
    6,
    1,
    1,
    4,
    4,
    4,
    1,
    4,
    2,
    1,
    2,
    5,
    5,
    5,
    2,
    5,
    1,
    6,
    2,
    6,
    2,
    2,
    13,
    2,
    1,
    1122,
    1385,
    1386,
    1385,
    1386,
    1383,
    1386,
    1386,
    1384,
    1384,
    1385,
    1383,
    1387,
    1384,
    1386,
    1385,
    1386,
    1387,
    1387,
    1384,
    1385,
    1385,
    1387,
    1384,
    1383,
    1384,
    1386,
    1383,
    1108,
    980,
    981,
    719,
    1304,
    719,
    1319,
    719,
    719,
    719,
    719,
    383,
    703,
    703,
    1015,
    1016,
    1017,
    4,
    1122,
    1384,
    1385,
    1384,
    1147,
    10,
    1165,
    927,
    1182,
    1386,
    1384,
    1383,
    1386,
    1388,
    1388,
    1387,
    1388,
    1388,
    1388,
    1385,
    1383,
    1388,
    1386,
    1384,
    1383,
    1385,
    1388,
    1387,
    1383,
    1124,
    932,
    933,
    1041,
    1042,
    1043,
    703,
    383,
    384,
    719,
    384,
    703,
    719,
    400,
    1387,
    1147,
    1182,
    731,
    732,
    1150,
    1151,
    1384,
    1385,
    1388,
    1384,
    1107,
    1124,
    4,
    6,
    5,
    1,
    5,
    5,
    2,
    2,
    1,
    3,
    6,
    4,
    4,
    6,
    4,
    1,
    6,
    3,
    4,
    6,
    4,
    5,
    6,
    3,
    5,
    5,
    1105,
    1106,
    1386,
    1388,
    1386,
    1388,
    1385,
    1384,
    1385,
    1383,
    1386,
    1388,
    1385,
    1383,
    1383,
    1385,
    1383,
    1387,
    1384,
    1387,
    1386,
    1385,
    1385,
    1387,
    1384,
    1386,
    1386,
    1383,
    1386,
    1092,
    997,
    998,
    975,
    976,
    975,
    976,
    975,
    976,
    983,
    399,
    719,
    719,
    703,
    1032,
    1033,
    1034,
    4,
    1121,
    1386,
    1182,
    1165,
    927,
    11,
    1182,
    11,
    1182,
    1385,
    1384,
    1383,
    1383,
    1384,
    1384,
    1384,
    1385,
    1387,
    1387,
    1383,
    1386,
    1387,
    1385,
    1384,
    1386,
    1165,
    1388,
    1125,
    947,
    948,
    949,
    1057,
    703,
    703,
    719,
    399,
    400,
    399,
    400,
    719,
    719,
    368,
    1147,
    731,
    732,
    747,
    748,
    1166,
    1167,
    1385,
    1182,
    1387,
    1182,
    1125,
    5,
    5,
    1,
    3,
    1,
    3,
    5,
    2,
    6,
    5,
    4,
    5,
    3,
    2,
    3,
    4,
    3,
    6,
    3,
    2,
    3,
    1,
    5,
    1,
    5,
    5,
    6,
    47,
    1106,
    1165,
    1386,
    1386,
    1386,
    1387,
    1387,
    1385,
    1383,
    1385,
    1388,
    1384,
    1385,
    1387,
    1388,
    1387,
    1384,
    1383,
    1387,
    1383,
    1383,
    1383,
    1383,
    1385,
    1387,
    1387,
    1385,
    1387,
    1386,
    1093,
    1075,
    1075,
    1075,
    2,
    15,
    16,
    3,
    999,
    1000,
    383,
    703,
    719,
    1048,
    1049,
    1050,
    2,
    47,
    1122,
    1388,
    1182,
    1165,
    1385,
    1147,
    1150,
    1151,
    1383,
    1384,
    1387,
    1386,
    1385,
    1388,
    1385,
    1383,
    1387,
    1387,
    1388,
    1388,
    1387,
    1387,
    1388,
    1386,
    1386,
    1108,
    1109,
    963,
    964,
    965,
    703,
    719,
    719,
    367,
    703,
    703,
    367,
    703,
    703,
    383,
    384,
    1182,
    747,
    748,
    1147,
    1182,
    927,
    1182,
    1387,
    1147,
    11,
    1124,
    1,
    2,
    6,
    5,
    1,
    5,
    2,
    3,
    5,
    1,
    2,
    2,
    1,
    6,
    5,
    5,
    1,
    2,
    6,
    2,
    6,
    2,
    3,
    1,
    1,
    1,
    6,
    3,
    4,
    1122,
    1383,
    1383,
    1387,
    1386,
    1386,
    1386,
    1386,
    1384,
    1388,
    1387,
    1387,
    1383,
    1383,
    1388,
    1386,
    1383,
    1385,
    1385,
    1386,
    1385,
    1385,
    1383,
    1386,
    1387,
    1385,
    1386,
    1386,
    1385,
    1163,
    1091,
    1091,
    1091,
    1092,
    31,
    32,
    16,
    977,
    978,
    399,
    719,
    1304,
    992,
    1015,
    1016,
    1017,
    2,
    1105,
    1106,
    1383,
    1182,
    1383,
    1386,
    1166,
    1167,
    1386,
    1387,
    1386,
    1388,
    1385,
    1383,
    1384,
    1383,
    1387,
    1388,
    1383,
    1384,
    1387,
    1388,
    1385,
    1383,
    1386,
    1124,
    4,
    929,
    930,
    703,
    719,
    703,
    703,
    383,
    719,
    719,
    383,
    719,
    719,
    399,
    400,
    1387,
    1182,
    10,
    731,
    732,
    1147,
    731,
    732,
    1182,
    1108,
    1152,
    4,
    5,
    5,
    3,
    6,
    6,
    3,
    5,
    6,
    4,
    2,
    6,
    2,
    4,
    6,
    3,
    3,
    2,
    6,
    6,
    6,
    1,
    2,
    3,
    5,
    1,
    4,
    4,
    5,
    5,
    1122,
    1123,
    1388,
    1387,
    1388,
    1385,
    1386,
    1385,
    1387,
    1383,
    1385,
    1388,
    1388,
    1384,
    1387,
    1386,
    1384,
    1386,
    1387,
    1386,
    1385,
    1386,
    1384,
    1387,
    1384,
    1384,
    1385,
    1388,
    1383,
    1385,
    1384,
    1182,
    1388,
    1093,
    31,
    1152,
    993,
    994,
    995,
    703,
    1320,
    1008,
    703,
    1032,
    1033,
    1034,
    1105,
    1106,
    1387,
    1385,
    1385,
    1164,
    1182,
    1388,
    1388,
    1383,
    1388,
    1388,
    1384,
    1387,
    1383,
    1383,
    1387,
    1384,
    1387,
    1383,
    1384,
    1383,
    1384,
    1164,
    1125,
    1152,
    16,
    945,
    946,
    719,
    703,
    719,
    719,
    703,
    703,
    703,
    399,
    719,
    1320,
    1320,
    1304,
    1182,
    731,
    732,
    747,
    748,
    1387,
    747,
    748,
    1386,
    1124,
    6,
    3,
    5,
    1,
    6,
    4,
    3,
    3,
    3,
    1,
    4,
    3,
    1,
    5,
    2,
    2,
    5,
    1,
    3,
    1,
    1,
    6,
    4,
    2,
    1,
    3,
    3,
    1,
    1,
    1,
    5,
    3,
    1,
    1122,
    1384,
    1388,
    1383,
    1386,
    1386,
    1384,
    1385,
    1384,
    1384,
    1386,
    1388,
    1387,
    1388,
    1387,
    1388,
    1388,
    1386,
    1388,
    1388,
    1384,
    1385,
    1384,
    1388,
    1387,
    1386,
    1388,
    1387,
    1387,
    1383,
    1387,
    1163,
    1092,
    2,
    4,
    980,
    981,
    719,
    1319,
    703,
    703,
    1048,
    1049,
    1050,
    4,
    1122,
    1388,
    1383,
    1385,
    1383,
    1385,
    1386,
    1384,
    1387,
    1386,
    1385,
    1383,
    1388,
    1383,
    1386,
    1386,
    1388,
    1383,
    1384,
    1383,
    1386,
    1385,
    1108,
    1109,
    31,
    32,
    961,
    962,
    703,
    719,
    703,
    703,
    703,
    719,
    703,
    1303,
    1304,
    367,
    368,
    367,
    1107,
    747,
    748,
    1150,
    1151,
    1182,
    1107,
    1123,
    1125,
    3,
    4,
    5,
    6,
    6,
    2,
    3,
    2,
    2,
    5,
    2,
    1,
    5,
    1,
    4,
    4,
    2,
    4,
    5,
    3,
    1,
    4,
    3,
    5,
    6,
    4,
    1,
    2,
    6,
    6,
    3,
    6,
    6,
    13,
    1105,
    1106,
    1387,
    1384,
    1386,
    1386,
    1385,
    1384,
    1386,
    1386,
    1387,
    1385,
    1385,
    1385,
    1383,
    1386,
    1386,
    1385,
    1387,
    1383,
    1388,
    1383,
    1387,
    1383,
    1384,
    1386,
    1386,
    1386,
    1385,
    1383,
    1388,
    1383,
    1384,
    1091,
    1091,
    1092,
    997,
    998,
    983,
    719,
    719,
    1304,
    1015,
    1016,
    1017,
    1105,
    1106,
    1165,
    1383,
    1383,
    1385,
    1125,
    1121,
    1383,
    1383,
    1164,
    1388,
    1384,
    1383,
    1388,
    1384,
    1385,
    1386,
    1387,
    1387,
    1385,
    1386,
    1385,
    1092,
    3,
    2,
    929,
    930,
    719,
    703,
    719,
    719,
    719,
    384,
    719,
    368,
    703,
    703,
    384,
    383,
    1122,
    1383,
    1386,
    1166,
    1167,
    1386,
    1124,
    4,
    4,
    4,
    4,
    5,
    2,
    5,
    4,
    1,
    5,
    2,
    5,
    3,
    5,
    5,
    3,
    5,
    3,
    4,
    2,
    3,
    1,
    1,
    1,
    1,
    2,
    2,
    2,
    1,
    6,
    2,
    4,
    3,
    5,
    3,
    3,
    1,
    1122,
    1165,
    1387,
    1388,
    1386,
    1386,
    1386,
    1387,
    1387,
    1387,
    1385,
    1383,
    1386,
    1388,
    1387,
    1384,
    1385,
    1387,
    1385,
    1383,
    1384,
    1383,
    1387,
    1385,
    1386,
    1387,
    1386,
    1385,
    1387,
    1383,
    1386,
    1383,
    1387,
    1164,
    1386,
    1091,
    1092,
    999,
    1000,
    703,
    1319,
    703,
    1032,
    1033,
    1034,
    1122,
    1123,
    1123,
    1123,
    1124,
    15,
    16,
    1122,
    1123,
    1384,
    1388,
    1384,
    1388,
    1387,
    1388,
    1385,
    1384,
    1388,
    1383,
    1383,
    1384,
    1163,
    1108,
    15,
    16,
    945,
    946,
    703,
    719,
    1319,
    719,
    703,
    703,
    703,
    384,
    719,
    719,
    703,
    399,
    6,
    1122,
    1123,
    1123,
    1123,
    1124,
    6,
    3,
    6,
    3,
    4,
    3,
    2,
    1,
    1,
    4,
    4,
    1,
    6,
    3,
    2,
    1,
    6,
    31,
    32,
    1,
    1,
    1,
    5,
    13,
    2,
    5,
    3,
    5,
    2,
    5,
    2,
    5,
    2,
    5,
    6,
    6,
    6,
    4,
    4,
    1122,
    1384,
    1387,
    1384,
    1386,
    1385,
    1383,
    1384,
    1384,
    1383,
    1387,
    1387,
    1384,
    1384,
    1384,
    1386,
    1387,
    1386,
    1387,
    1387,
    1386,
    1383,
    1383,
    1385,
    1385,
    1387,
    1385,
    1383,
    1386,
    1383,
    1384,
    1385,
    1388,
    1182,
    1384,
    1108,
    977,
    978,
    719,
    1179,
    719,
    1048,
    1049,
    1050,
    4,
    1,
    1074,
    1074,
    4,
    31,
    32,
    1088,
    1074,
    1122,
    1386,
    1387,
    1384,
    1386,
    1388,
    1386,
    1387,
    1164,
    1388,
    1386,
    1383,
    1386,
    1108,
    31,
    32,
    961,
    962,
    719,
    368,
    703,
    367,
    703,
    719,
    703,
    703,
    367,
    1319,
    1320,
    368,
    3,
    6,
    1152,
    4,
    6,
    3,
    1,
    6,
    13,
    1,
    2,
    3,
    5,
    4,
    1,
    5,
    47,
    4,
    5,
    3,
    5,
    5,
    6,
    1,
    3,
    3,
    6,
    4,
    3,
    1,
    5,
    2,
    3,
    1,
    5,
    4,
    5,
    5,
    1,
    1,
    1,
    1,
    2,
    4,
    3,
    5,
    1106,
    1387,
    1383,
    1386,
    1388,
    1387,
    1388,
    1387,
    1383,
    1387,
    1383,
    1384,
    1383,
    1383,
    1386,
    1388,
    1383,
    1383,
    1385,
    1385,
    1388,
    1388,
    1385,
    1383,
    1388,
    1388,
    1383,
    1383,
    1384,
    1385,
    1386,
    1385,
    1386,
    1385,
    1383,
    1092,
    994,
    995,
    703,
    1320,
    1304,
    1438,
    1439,
    1440,
    936,
    937,
    936,
    937,
    936,
    937,
    1019,
    1020,
    1021,
    1121,
    1386,
    1383,
    1387,
    1383,
    1384,
    1388,
    1384,
    1386,
    1388,
    1385,
    1383,
    1388,
    1092,
    4,
    929,
    930,
    383,
    384,
    719,
    383,
    703,
    719,
    719,
    703,
    383,
    703,
    367,
    703,
    6,
    3,
    5,
    4,
    5,
    5,
    6,
    1,
    1,
    6,
    1,
    1,
    1,
    2,
    6,
    1,
    1,
    3,
    15,
    16,
    2,
    2,
    4,
    6,
    5,
    2,
    2,
    6,
    5,
    5,
    4,
    3,
    5,
    2,
    4,
    2,
    2,
    2,
    4,
    1,
    4,
    1,
    3,
    3,
    5,
    6,
    1121,
    1165,
    1384,
    1386,
    1383,
    1387,
    1388,
    1388,
    1383,
    1384,
    1383,
    1386,
    1386,
    1385,
    1387,
    1387,
    1384,
    1385,
    1383,
    1386,
    1386,
    1387,
    1387,
    1385,
    1384,
    1385,
    1387,
    1387,
    1383,
    1385,
    1387,
    1388,
    1387,
    1387,
    1388,
    1108,
    977,
    978,
    719,
    703,
    703,
    1454,
    1455,
    1456,
    952,
    953,
    952,
    953,
    952,
    953,
    1035,
    1036,
    1037,
    1038,
    1122,
    1147,
    1388,
    1387,
    1384,
    1384,
    1385,
    1387,
    1384,
    1388,
    1383,
    1385,
    1108,
    1109,
    945,
    946,
    399,
    703,
    719,
    399,
    719,
    703,
    703,
    367,
    368,
    719,
    383,
    719,
    6,
    2,
    6,
    1,
    4,
    6,
    2,
    2,
    5,
    6,
    2,
    4,
    5,
    15,
    16,
    6,
    6,
    3,
    31,
    32,
    6,
    2,
    5,
    2,
    3,
    5,
    2,
    4,
    2,
    1,
    4,
    6,
    1,
    3,
    3,
    2,
    4,
    1,
    5,
    6,
    4,
    1,
    6,
    4,
    6,
    6,
    2,
    1122,
    1385,
    1386,
    1385,
    1386,
    1383,
    1385,
    1385,
    1388,
    1384,
    1384,
    1386,
    1388,
    1387,
    1387,
    1388,
    1384,
    1384,
    1387,
    1388,
    1385,
    1384,
    1384,
    1383,
    1387,
    1384,
    1388,
    1388,
    1387,
    1383,
    1383,
    1384,
    1387,
    1163,
    1388,
    1092,
    994,
    995,
    719,
    719,
    703,
    1471,
    1472,
    968,
    969,
    968,
    969,
    968,
    969,
    1051,
    1052,
    1053,
    1054,
    1105,
    1106,
    1388,
    1385,
    1385,
    1385,
    1383,
    1388,
    1383,
    1384,
    1386,
    1165,
    1108,
    1109,
    961,
    962,
    703,
    719,
    367,
    368,
    703,
    719,
    719,
    383,
    384,
    719,
    703,
    383,
    6,
    3,
    2,
    6,
    3,
    2,
    4,
    2,
    4,
    1,
    4,
    6,
    3,
    31,
    32,
    6,
    2,
    4,
    2,
    3,
    5,
    3,
    6,
    3,
    1,
    1,
    5,
    1,
    6,
    3,
    2,
    3,
    2,
    5,
    3,
    1,
    1,
    6,
    2,
    1,
    1,
    5,
    6,
    5,
    1,
    1,
    3,
    1104,
    1122,
    1182,
    1386,
    1388,
    1387,
    1384,
    1386,
    1386,
    1385,
    1388,
    1383,
    1383,
    1388,
    1383,
    1386,
    1388,
    1388,
    1386,
    1388,
    1385,
    1385,
    1386,
    1388,
    1387,
    1383,
    1384,
    1383,
    1385,
    1383,
    1386,
    1387,
    1385,
    1387,
    1385,
    1108,
    980,
    981,
    982,
    1319,
    719,
    719,
    1319,
    1320,
    1304,
    719,
    1319,
    1320,
    703,
    703,
    1068,
    1069,
    1070,
    4,
    1122,
    1182,
    1387,
    1147,
    1387,
    1386,
    1388,
    1182,
    1387,
    1385,
    1384,
    1124,
    3,
    939,
    940,
    719,
    719,
    703,
    703,
    719,
    399,
    719,
    399,
    400,
    384,
    367,
    368,
    4,
    4,
    5,
    3,
    3,
    1,
    6,
    1,
    6,
    2,
    6,
    1,
    2,
    1,
    4,
    4,
    6,
    3,
    6,
    1,
    3,
    3,
    1,
    2,
    3,
    3,
    3,
    5,
    6,
    4,
    1,
    5,
    5,
    2,
    4,
    2,
    3,
    4,
    6,
    6,
    6,
    1,
    6,
    3,
    5,
    4,
    6,
    6,
    1105,
    1106,
    1386,
    1386,
    1384,
    1388,
    1388,
    1388,
    1387,
    1384,
    1387,
    1385,
    1383,
    1387,
    1387,
    1387,
    1384,
    1387,
    1386,
    1383,
    1385,
    1386,
    1388,
    1388,
    1383,
    1386,
    1383,
    1386,
    1388,
    1387,
    1383,
    1388,
    1388,
    1383,
    1385,
    1092,
    997,
    998,
    975,
    976,
    985,
    986,
    987,
    988,
    975,
    976,
    983,
    719,
    719,
    1304,
    1015,
    1016,
    1017,
    4,
    1122,
    1383,
    731,
    732,
    1182,
    1388,
    1150,
    1151,
    1182,
    1125,
    932,
    933,
    955,
    956,
    1319,
    1320,
    719,
    703,
    703,
    367,
    368,
    703,
    703,
    400,
    383,
    384,
    5,
    1,
    3,
    2,
    5,
    13,
    3,
    6,
    4,
    6,
    1,
    3,
    3,
    3,
    4,
    3,
    3,
    5,
    4,
    1,
    6,
    6,
    1,
    4,
    4,
    5,
    5,
    4,
    4,
    1,
    1,
    2,
    4,
    2,
    3,
    4,
    2,
    5,
    3,
    3,
    928,
    6,
    4,
    1,
    3,
    3,
    6,
    5,
    1105,
    1106,
    1384,
    1386,
    1385,
    1387,
    1383,
    1387,
    1383,
    1385,
    1383,
    1385,
    1384,
    1384,
    1388,
    1384,
    1385,
    1387,
    1385,
    1386,
    1387,
    1386,
    1383,
    1385,
    1386,
    1384,
    1388,
    1384,
    1386,
    1383,
    1385,
    1383,
    1384,
    1383,
    1385,
    1165,
    1092,
    1075,
    1075,
    1,
    1001,
    1002,
    1003,
    1004,
    1,
    7,
    999,
    1000,
    1304,
    703,
    1031,
    1032,
    1033,
    1034,
    1105,
    1106,
    747,
    748,
    1385,
    1147,
    1166,
    1167,
    1124,
    947,
    948,
    949,
    971,
    703,
    368,
    1304,
    703,
    719,
    719,
    383,
    384,
    719,
    703,
    368,
    399,
    400,
    3,
    5,
    1,
    1,
    2,
    3,
    6,
    2,
    2,
    3,
    6,
    2,
    6,
    2,
    3,
    4,
    6,
    2,
    3,
    2,
    5,
    5,
    13,
    4,
    6,
    2,
    3,
    1,
    1,
    1,
    6,
    6,
    5,
    2,
    4,
    3,
    1,
    15,
    16,
    717,
    2,
    1,
    3,
    5,
    6,
    1,
    4,
    4,
    1090,
    1164,
    1386,
    1386,
    1387,
    1383,
    1383,
    1384,
    1386,
    1385,
    1386,
    1384,
    1387,
    1387,
    1386,
    1387,
    1384,
    1387,
    1386,
    1384,
    1385,
    1386,
    1383,
    1384,
    1385,
    1384,
    1386,
    1383,
    1387,
    1385,
    1385,
    1387,
    1385,
    1385,
    1383,
    1384,
    1383,
    1091,
    1091,
    1092,
    1,
    3,
    1090,
    1091,
    1091,
    1092,
    977,
    978,
    979,
    719,
    1047,
    1048,
    1049,
    1050,
    1105,
    1106,
    1164,
    1147,
    1182,
    731,
    732,
    1108,
    1109,
    963,
    964,
    965,
    703,
    719,
    703,
    703,
    719,
    703,
    1320,
    703,
    400,
    367,
    368,
    703,
    703,
    384,
    6,
    4,
    6,
    2,
    4,
    5,
    1,
    3,
    6,
    2,
    3,
    2,
    6,
    6,
    5,
    6,
    6,
    5,
    5,
    4,
    6,
    6,
    3,
    5,
    6,
    6,
    3,
    6,
    2,
    1,
    1,
    1,
    1,
    1,
    4,
    3,
    2,
    31,
    32,
    3,
    928,
    4,
    4,
    2,
    3,
    6,
    4,
    6,
    1122,
    1383,
    1383,
    1147,
    1385,
    1384,
    1387,
    1387,
    1385,
    1383,
    1384,
    1388,
    1384,
    1384,
    1384,
    1385,
    1384,
    1387,
    1385,
    1385,
    1385,
    1384,
    1388,
    1385,
    1388,
    1386,
    1164,
    1384,
    1385,
    1388,
    1386,
    1387,
    1388,
    1385,
    1386,
    1387,
    1386,
    1386,
    1182,
    1163,
    1092,
    1089,
    1150,
    1151,
    1387,
    1124,
    993,
    994,
    995,
    1304,
    1319,
    1320,
    941,
    942,
    1105,
    1106,
    1150,
    1151,
    1384,
    747,
    748,
    1124,
    4,
    929,
    930,
    703,
    719,
    1319,
    1320,
    703,
    399,
    367,
    368,
    703,
    367,
    383,
    384,
    719,
    719,
    400,
    1,
    1,
    1,
    2,
    5,
    1,
    6,
    2,
    5,
    1152,
    1,
    4,
    4,
    1,
    2,
    6,
    1,
    4,
    1,
    2,
    3,
    1,
    5,
    6,
    5,
    5,
    3,
    2,
    2,
    1,
    3,
    6,
    2,
    5,
    5,
    3,
    3,
    4,
    2,
    2,
    2,
    4,
    5,
    4,
    3,
    1,
    6,
    5,
    1152,
    1121,
    1386,
    1385,
    1387,
    1388,
    1384,
    1386,
    1388,
    1383,
    1386,
    1386,
    1383,
    1388,
    1388,
    1387,
    1385,
    1387,
    1385,
    1383,
    1384,
    1384,
    1383,
    1387,
    1385,
    1388,
    1163,
    1385,
    1386,
    1386,
    1386,
    1387,
    1384,
    1386,
    1384,
    1388,
    1383,
    1385,
    1387,
    1387,
    1385,
    1383,
    1166,
    1167,
    1384,
    1093,
    7,
    929,
    930,
    1303,
    1304,
    703,
    957,
    958,
    4,
    1122,
    1166,
    1167,
    1182,
    1147,
    1108,
    1109,
    4,
    945,
    946,
    367,
    703,
    719,
    703,
    719,
    368,
    383,
    384,
    719,
    368,
    399,
    400,
    719,
    719,
    368,
    734,
    1,
    6,
    5,
    6,
    5,
    1,
    5,
    4,
    4,
    2,
    5,
    4,
    3,
    6,
    3,
    2,
    4,
    2,
    6,
    4,
    3,
    1,
    1,
    2,
    3,
    2,
    3,
    4,
    5,
    4,
    5,
    1,
    6,
    4,
    4,
    1,
    1,
    4,
    5,
    5,
    6,
    5,
    1,
    3,
    4,
    2,
    5,
    1,
    1089,
    1384,
    1386,
    1388,
    1163,
    1385,
    1388,
    1147,
    1182,
    1385,
    1383,
    1386,
    1387,
    1387,
    1385,
    1383,
    1387,
    1387,
    1386,
    1385,
    1388,
    1386,
    1387,
    1384,
    1387,
    1387,
    1388,
    1385,
    1385,
    1383,
    1384,
    1384,
    1388,
    1383,
    1387,
    1388,
    1388,
    1388,
    1383,
    1385,
    1182,
    1384,
    1182,
    1147,
    1108,
    1109,
    945,
    946,
    367,
    368,
    703,
    973,
    974,
    3,
    1105,
    1106,
    731,
    732,
    1182,
    1108,
    1109,
    2,
    961,
    962,
    383,
    719,
    719,
    703,
    383,
    384,
    399,
    400,
    703,
    384,
    400,
    383,
    703,
    367,
    368,
    4,
    6,
    2,
    5,
    2,
    3,
    3,
    1,
    4,
    1,
    6,
    2,
    4,
    5,
    1,
    1,
    4,
    6,
    5,
    2,
    4,
    5,
    2,
    5,
    2,
    1,
    1,
    5,
    6,
    1,
    6,
    2,
    5,
    2,
    5,
    5,
    2,
    5,
    5,
    5,
    6,
    3,
    2,
    2,
    15,
    16,
    5,
    1,
    1090,
    1147,
    1384,
    1182,
    1147,
    1387,
    1150,
    1151,
    1384,
    1384,
    1388,
    1383,
    1385,
    1384,
    1385,
    1384,
    1385,
    1384,
    1387,
    1385,
    1387,
    1387,
    1388,
    1387,
    1387,
    1388,
    1384,
    1383,
    1386,
    1388,
    1387,
    1386,
    1387,
    1385,
    1387,
    1384,
    1386,
    1386,
    1386,
    1387,
    1383,
    1386,
    1388,
    1385,
    1384,
    1125,
    1,
    961,
    962,
    383,
    384,
    719,
    941,
    942,
    15,
    2,
    1122,
    747,
    748,
    1387,
    1124,
    2,
    4,
    929,
    930,
    399,
    719,
    1319,
    719,
    703,
    1320,
    719,
    703,
    719,
    400,
    1304,
    399,
    703,
    383,
    384,
    5,
    6,
    3,
    2,
    3,
    4,
    5,
    6,
    6,
    3,
    2,
    6,
    2,
    1,
    4,
    2,
    3,
    3,
    3,
    4,
    6,
    5,
    3,
    5,
    2,
    4,
    3,
    3,
    5,
    4,
    3,
    1,
    5,
    3,
    2,
    3,
    6,
    1,
    6,
    4,
    4,
    5,
    4,
    1,
    31,
    32,
    4,
    1105,
    1106,
    1386,
    731,
    732,
    1388,
    1182,
    1166,
    1167,
    1147,
    731,
    732,
    1182,
    1384,
    1384,
    1384,
    1383,
    1387,
    1384,
    1387,
    1388,
    1386,
    1383,
    1388,
    1388,
    1387,
    1384,
    1383,
    1383,
    1388,
    1386,
    1383,
    1383,
    1387,
    1383,
    1387,
    1387,
    1385,
    1384,
    1385,
    1386,
    1385,
    1388,
    1384,
    1386,
    1383,
    1093,
    3,
    977,
    978,
    399,
    400,
    1304,
    957,
    958,
    31,
    32,
    4,
    1122,
    1123,
    1124,
    15,
    16,
    4,
    945,
    946,
    367,
    368,
    703,
    1319,
    719,
    703,
    703,
    703,
    703,
    367,
    368,
    703,
    719,
    367,
    703,
    2,
    1,
    6,
    6,
    2,
    1,
    31,
    32,
    5,
    4,
    3,
    2,
    3,
    1,
    1,
    4,
    6,
    3,
    5,
    2,
    1,
    1,
    2,
    6,
    1,
    13,
    4,
    2,
    3,
    5,
    1,
    1,
    3,
    1,
    5,
    5,
    4,
    5,
    4,
    4,
    5,
    1,
    1,
    3,
    13,
    5,
    4,
    1105,
    1106,
    1182,
    747,
    748,
    1182,
    731,
    732,
    1182,
    1384,
    747,
    748,
    1386,
    1385,
    1387,
    1385,
    1385,
    1384,
    1387,
    1386,
    1387,
    1386,
    1384,
    1385,
    1386,
    1388,
    1386,
    1387,
    1384,
    1387,
    1388,
    1388,
    1388,
    1385,
    1387,
    1386,
    1384,
    1384,
    1383,
    1165,
    1383,
    1384,
    1384,
    1384,
    1383,
    1385,
    1163,
    1092,
    993,
    994,
    995,
    1319,
    1320,
    973,
    974,
    3,
    2,
    4,
    928,
    15,
    2,
    717,
    32,
    2,
    961,
    962,
    383,
    703,
    719,
    703,
    368,
    719,
    719,
    719,
    719,
    383,
    384,
    703,
    703,
    383,
    719,
    1,
    2,
    1,
    5,
    1,
    4,
    6,
    5,
    6,
    3,
    1,
    5,
    4,
    13,
    4,
    4,
    4,
    2,
    2,
    3,
    1,
    5,
    6,
    5,
    4,
    5,
    2,
    2,
    4,
    1,
    3,
    6,
    5,
    3,
    5,
    6,
    5,
    6,
    1,
    5,
    6,
    5,
    6,
    6,
    1,
    1,
    5,
    1090,
    731,
    732,
    1147,
    1182,
    1384,
    747,
    748,
    1383,
    1386,
    1385,
    1388,
    1182,
    1385,
    1386,
    1388,
    1388,
    1386,
    1385,
    1387,
    1387,
    1387,
    1386,
    1388,
    1384,
    1383,
    1386,
    1388,
    1386,
    1384,
    1388,
    1387,
    1384,
    1383,
    1384,
    1383,
    1385,
    1386,
    1386,
    1387,
    1385,
    1387,
    1385,
    1383,
    1385,
    1388,
    1387,
    1386,
    1093,
    977,
    978,
    979,
    1303,
    1015,
    1016,
    1017,
    4,
    3,
    2,
    31,
    32,
    3,
    4,
    3,
    939,
    940,
    703,
    719,
    703,
    1319,
    1320,
    703,
    703,
    703,
    703,
    399,
    703,
    719,
    719,
    703,
    400,
    2,
    2,
    1,
    5,
    3,
    1,
    1,
    5,
    4,
    3,
    4,
    1,
    5,
    5,
    3,
    1,
    2,
    3,
    5,
    1,
    2,
    5,
    2,
    1,
    3,
    1,
    5,
    4,
    2,
    2,
    2,
    4,
    2,
    1,
    1,
    1,
    6,
    3,
    5,
    3,
    6,
    5,
    1,
    6,
    1,
    2,
    1105,
    1106,
    747,
    748,
    1150,
    1151,
    1182,
    1384,
    1182,
    1147,
    1386,
    1165,
    1386,
    1384,
    1386,
    1383,
    1383,
    1385,
    1385,
    1385,
    1387,
    1388,
    1383,
    1384,
    1388,
    1384,
    1387,
    1384,
    1388,
    1388,
    1384,
    1384,
    1383,
    1383,
    1164,
    1383,
    1388,
    1387,
    1387,
    1388,
    1385,
    1384,
    1385,
    1387,
    1384,
    1388,
    1383,
    1385,
    1147,
    1388,
    1092,
    994,
    995,
    1319,
    1031,
    1032,
    1033,
    1034,
    15,
    16,
    4,
    2,
    4,
    1010,
    1011,
    955,
    956,
    719,
    703,
    719,
    703,
    719,
    719,
    719,
    719,
    703,
    703,
    719,
    703,
    384,
    719,
    384,
    4,
    3,
    5,
    1,
    1,
    3,
    3,
    5,
    3,
    3,
    4,
    1,
    4,
    2,
    5,
    4,
    1,
    5,
    6,
    3,
    4,
    1,
    6,
    3,
    4,
    5,
    1,
    2,
    3,
    3,
    2,
    3,
    6,
    4,
    2,
    6,
    6,
    5,
    3,
    1,
    4,
    1,
    5,
    1,
    4,
    6,
    6,
    1122,
    1386,
    1164,
    1166,
    1167,
    731,
    732,
    1386,
    1386,
    1125,
    1121,
    1164,
    1384,
    1386,
    1385,
    1387,
    1385,
    1386,
    1387,
    1385,
    1387,
    1386,
    1385,
    1388,
    1385,
    1383,
    1384,
    1385,
    1388,
    1386,
    1387,
    1388,
    1384,
    1385,
    1384,
    1388,
    1384,
    1386,
    1384,
    1385,
    1385,
    1386,
    1384,
    1385,
    1182,
    1383,
    1197,
    1198,
    1165,
    1124,
    929,
    930,
    1303,
    1047,
    1048,
    1049,
    1050,
    31,
    32,
    3,
    4,
    1025,
    1026,
    1027,
    971,
    703,
    703,
    719,
    368,
    719,
    719,
    703,
    1320,
    703,
    719,
    719,
    703,
    719,
    400,
    399,
    400,
    6,
    4,
    3,
    5,
    2,
    3,
    5,
    6,
    6,
    6,
    5,
    5,
    6,
    6,
    3,
    2,
    2,
    5,
    4,
    2,
    5,
    2,
    6,
    4,
    5,
    4,
    2,
    1,
    4,
    3,
    3,
    1,
    5,
    6,
    5,
    5,
    4,
    1,
    13,
    5,
    2,
    4,
    4,
    4,
    5,
    3,
    2,
    1105,
    1106,
    1387,
    1182,
    1165,
    747,
    748,
    1123,
    1124,
    2,
    2,
    1122,
    1123,
    1123,
    1386,
    1386,
    1383,
    1182,
    1387,
    1386,
    1383,
    1384,
    1164,
    1385,
    1387,
    1384,
    1386,
    1388,
    1383,
    1384,
    1385,
    1387,
    1386,
    1386,
    1386,
    1388,
    1384,
    1384,
    1388,
    1385,
    1387,
    1386,
    1386,
    1388,
    1385,
    1385,
    1213,
    1214,
    1108,
    1109,
    945,
    946,
    1319,
    1320,
    719,
    1438,
    1439,
    1440,
    936,
    937,
    938,
    1041,
    1042,
    1043,
    992,
    1303,
    1319,
    1320,
    703,
    719,
    703,
    719,
    1320,
    1319,
    1319,
    1320,
    368,
    719,
    1319,
    1320,
    368,
    5,
    3,
    2,
    2,
    3,
    1,
    6,
    4,
    2,
    3,
    1,
    3,
    5,
    6,
    1,
    4,
    15,
    16,
    4,
    6,
    3,
    1,
    2,
    4,
    5,
    3,
    1,
    4,
    1,
    1,
    4,
    6,
    5,
    5,
    4,
    6,
    3,
    3,
    6,
    6,
    4,
    6,
    4,
    1,
    3,
    6,
    3,
    1152,
    1122,
    1165,
    1386,
    1123,
    1123,
    1124,
    47,
    3,
    2,
    1,
    5,
    2,
    1152,
    1122,
    1163,
    1386,
    1386,
    1387,
    1386,
    1384,
    1384,
    1387,
    1385,
    1388,
    1387,
    1386,
    1386,
    1384,
    1386,
    1384,
    1383,
    1386,
    1387,
    1383,
    1386,
    1386,
    1386,
    1386,
    1385,
    1163,
    1385,
    1388,
    1383,
    1387,
    1384,
    1182,
    11,
    1163,
    1092,
    961,
    962,
    703,
    367,
    368,
    1454,
    1455,
    1456,
    952,
    953,
    954,
    1057,
    1058,
    1303,
    1008,
    1319,
    1320,
    719,
    719,
    703,
    703,
    703,
    703,
    703,
    703,
    703,
    703,
    367,
    1319,
    1320,
    368,
    3,
    5,
    3,
    1,
    6,
    6,
    6,
    2,
    2,
    6,
    4,
    2,
    2,
    4,
    2,
    2,
    31,
    32,
    1,
    2,
    3,
    4,
    1,
    3,
    6,
    5,
    4,
    3,
    2,
    13,
    6,
    5,
    4,
    6,
    1,
    2,
    3,
    3,
    5,
    4,
    3,
    4,
    1,
    3,
    4,
    2,
    1,
    6,
    3,
    1122,
    1124,
    2,
    3,
    3,
    2,
    2,
    4,
    4,
    6,
    4,
    1,
    1104,
    1122,
    1182,
    1383,
    1384,
    1385,
    1387,
    1384,
    1388,
    1386,
    1386,
    1123,
    1163,
    1386,
    1386,
    1384,
    1385,
    1383,
    1388,
    1384,
    1386,
    1386,
    1383,
    1384,
    1386,
    1386,
    1386,
    1387,
    1388,
    1388,
    1182,
    1388,
    1386,
    1383,
    1386,
    1124,
    977,
    978,
    719,
    383,
    703,
    703,
    1471,
    1472,
    968,
    969,
    970,
    703,
    703,
    1319,
    1320,
    719,
    703,
    719,
    1319,
    1320,
    703,
    703,
    703,
    368,
    703,
    719,
    719,
    367,
    368,
    703,
    384,
    4,
    4,
    3,
    4,
    6,
    3,
    1,
    2,
    2,
    2,
    1,
    5,
    6,
    4,
    5,
    5,
    6,
    4,
    6,
    4,
    2,
    4,
    1,
    5,
    4,
    2,
    1,
    6,
    15,
    16,
    4,
    4,
    4,
    5,
    2,
    4,
    2,
    6,
    5,
    2,
    4,
    6,
    5,
    4,
    3,
    2,
    6,
    2,
    2,
    2,
    5,
    2,
    4,
    3,
    4,
    4,
    6,
    6,
    5,
    6,
    5,
    3,
    1105,
    1106,
    1386,
    1384,
    1384,
    731,
    732,
    1386,
    1123,
    1124,
    1152,
    1121,
    1384,
    1386,
    1383,
    1386,
    1386,
    1387,
    1388,
    1386,
    1385,
    1386,
    1388,
    1383,
    1384,
    1386,
    733,
    1385,
    1386,
    1385,
    1386,
    733,
    1383,
    1165,
    1092,
    928,
    994,
    995,
    399,
    719,
    719,
    1303,
    1304,
    703,
    1303,
    1304,
    992,
    719,
    703,
    703,
    719,
    719,
    719,
    1319,
    1320,
    719,
    719,
    719,
    703,
    703,
    383,
    384,
    703,
    368,
    703,
    400,
    1,
    5,
    2,
    13,
    15,
    16,
    1,
    5,
    1,
    1,
    2,
    5,
    3,
    1,
    1,
    6,
    5,
    5,
    4,
    6,
    1,
    6,
    2,
    2,
    4,
    3,
    6,
    4,
    31,
    32,
    4,
    3,
    4,
    4,
    6,
    3,
    4,
    4,
    1,
    4,
    5,
    15,
    16,
    5,
    2,
    1,
    1,
    1,
    5,
    1,
    4,
    4,
    4,
    6,
    2,
    5,
    5,
    6,
    3,
    6,
    4,
    3,
    5,
    1122,
    11,
    1386,
    1147,
    747,
    748,
    1124,
    1074,
    6,
    1,
    1105,
    1106,
    1386,
    1388,
    1383,
    1386,
    1386,
    1385,
    1386,
    1386,
    1385,
    1383,
    1385,
    731,
    732,
    1182,
    1386,
    1150,
    1151,
    1386,
    733,
    1182,
    1386,
    1387,
    1093,
    980,
    981,
    982,
    1319,
    1304,
    1319,
    1320,
    719,
    1319,
    1320,
    1008,
    703,
    719,
    719,
    383,
    383,
    367,
    368,
    719,
    703,
    368,
    1319,
    1320,
    703,
    399,
    1319,
    1320,
    1319,
    1320,
    368,
    3,
    4,
    1,
    1,
    31,
    32,
    5,
    4,
    5,
    6,
    3,
    1,
    5,
    1,
    3,
    5,
    6,
    3,
    6,
    4,
    4,
    1,
    4,
    4,
    4,
    6,
    6,
    2,
    1,
    3,
    4,
    2,
    2,
    2,
    4,
    2,
    1,
    2,
    1152,
    5,
    5,
    31,
    32,
    1,
    1,
    6,
    2,
    15,
    16,
    3,
    4,
    2,
    1,
    2,
    2,
    5,
    1,
    2,
    2,
    3,
    2,
    1,
    13,
    4,
    1122,
    1123,
    1123,
    1123,
    1124,
    4,
    6,
    3,
    6,
    1105,
    1106,
    1165,
    1383,
    1388,
    1384,
    1387,
    1388,
    1386,
    1386,
    1125,
    1121,
    1388,
    747,
    748,
    1384,
    1182,
    1166,
    1167,
    1386,
    731,
    732,
    1182,
    11,
    1387,
    1092,
    997,
    998,
    975,
    976,
    975,
    976,
    975,
    976,
    983,
    984,
    719,
    703,
    703,
    399,
    703,
    383,
    384,
    703,
    703,
    367,
    703,
    703,
    719,
    703,
    703,
    719,
    703,
    703,
    384,
    2,
    6,
    4,
    4,
    3,
    1,
    3,
    4,
    1,
    6,
    3,
    2,
    2,
    4,
    4,
    3,
    6,
    1,
    3,
    1,
    3,
    2,
    2,
    4,
    4,
    1,
    6,
    3,
    1,
    4,
    6,
    4,
    4,
    2,
    15,
    16,
    5,
    5,
    6,
    1,
    1104,
    1,
    3,
    4,
    1,
    4,
    2,
    31,
    32,
    6,
    3,
    3,
    3,
    13,
    5,
    4,
    2,
    3,
    5,
    2,
    6,
    5,
    1,
    2,
    3,
    1152,
    3,
    2,
    2,
    4,
    15,
    16,
    5,
    4,
    1122,
    1386,
    1386,
    1385,
    1387,
    1388,
    1384,
    1386,
    1108,
    1109,
    1104,
    1106,
    1385,
    1182,
    1385,
    731,
    732,
    733,
    1182,
    747,
    748,
    731,
    732,
    733,
    1108,
    1109,
    3,
    1,
    5,
    5,
    1152,
    15,
    16,
    999,
    1000,
    719,
    703,
    719,
    1320,
    719,
    399,
    703,
    703,
    719,
    703,
    719,
    719,
    703,
    1319,
    1320,
    719,
    719,
    703,
    703,
    5,
    4,
    3,
    3,
    5,
    4,
    6,
    5,
    2,
    5,
    6,
    5,
    6,
    1,
    4,
    2,
    4,
    5,
    1,
    5,
    3,
    6,
    1,
    6,
    2,
    6,
    4,
    1,
    4,
    4,
    3,
    4,
    4,
    3,
    31,
    32,
    2,
    8,
    4,
    2,
    3,
    3,
    4,
    3,
    4,
    1,
    1,
    2,
    2,
    5,
    4,
    5,
    3,
    1,
    4,
    3,
    6,
    6,
    2,
    3,
    3,
    2,
    5,
    5,
    3,
    5,
    5,
    3,
    2,
    3,
    31,
    32,
    5,
    2,
    1152,
    1122,
    1123,
    1163,
    1386,
    1386,
    1386,
    1386,
    1108,
    1109,
    47,
    1122,
    1387,
    1383,
    733,
    747,
    748,
    927,
    731,
    732,
    733,
    747,
    748,
    1386,
    1108,
    1109,
    5,
    6,
    1,
    6,
    6,
    31,
    32,
    929,
    930,
    719,
    719,
    703,
    703,
    703,
    703,
    719,
    703,
    719,
    1319,
    1319,
    1319,
    1320,
    719,
    703,
    703,
    367,
    719,
    368,
    3,
    2,
    3,
    2,
    4,
    3,
    6,
    5,
    1,
    1,
    2,
    4,
    6,
    4,
    1,
    6,
    3,
    2,
    2,
    4,
    2,
    1,
    5,
    2,
    1,
    15,
    16,
    4,
    2,
    3,
    4,
    4,
    4,
    3,
    4,
    6,
    3,
    4,
    4,
    1,
    3,
    3,
    1,
    6,
    3,
    1,
    2,
    1,
    6,
    6,
    2,
    6,
    2,
    4,
    6,
    3,
    5,
    3,
    2,
    1,
    6,
    3,
    4,
    3,
    6,
    4,
    1,
    5,
    5,
    1,
    2,
    2,
    1,
    3,
    5,
    4,
    717,
    1122,
    1385,
    1388,
    1385,
    1164,
    1124,
    2,
    5,
    2,
    1121,
    1384,
    1164,
    1387,
    1385,
    1182,
    747,
    748,
    1383,
    1182,
    1383,
    1386,
    1124,
    1088,
    1,
    4,
    1090,
    1091,
    1092,
    4,
    5,
    945,
    946,
    719,
    1319,
    1320,
    703,
    719,
    703,
    367,
    703,
    703,
    703,
    399,
    703,
    368,
    399,
    719,
    719,
    703,
    384,
    384,
    3,
    1,
    4,
    1,
    5,
    4,
    6,
    5,
    3,
    6,
    3,
    5,
    5,
    2,
    6,
    6,
    2,
    1,
    4,
    1,
    4,
    6,
    2,
    1,
    4,
    31,
    32,
    2,
    4,
    4,
    6,
    6,
    4,
    4,
    2,
    4,
    3,
    5,
    4,
    4,
    4,
    6,
    5,
    1,
    2,
    4,
    2,
    4,
    1,
    2,
    1,
    1,
    1,
    3,
    1,
    3,
    1,
    4,
    3,
    3,
    4,
    3,
    4,
    1,
    6,
    1,
    2,
    3,
    4,
    2,
    1,
    1,
    6,
    1,
    2,
    3,
    3,
    928,
    1122,
    1123,
    1123,
    1124,
    2,
    1,
    5,
    2,
    6,
    1122,
    1123,
    1123,
    1123,
    1385,
    1386,
    1163,
    1182,
    1388,
    1123,
    1124,
    6,
    3,
    3,
    1090,
    733,
    1150,
    1151,
    1092,
    3,
    961,
    962,
    719,
    719,
    719,
    719,
    368,
    719,
    703,
    719,
    719,
    719,
    383,
    719,
    703,
    703,
    703,
    384,
    719,
    368,
    400,
    6,
    3,
    3,
    2,
    5,
    5,
    3,
    5,
    4,
    1,
    4,
    5,
    6,
    1,
    6,
    1,
    6,
    4,
    1,
    5,
    4,
    13,
    3,
    4,
    4,
    3,
    6,
    5,
    5,
    1,
    4,
    4,
    2,
    2,
    3,
    5,
    4,
    1,
    3,
    4,
    5,
    2,
    6,
    3,
    1,
    1,
    3,
    1,
    2,
    6,
    3,
    5,
    4,
    4,
    3,
    1,
    6,
    2,
    1,
    1,
    3,
    1,
    5,
    5,
    5,
    6,
    6,
    5,
    4,
    2,
    5,
    5,
    3,
    6,
    1,
    4,
    1,
    4,
    5,
    3,
    1152,
    4,
    3,
    5,
    3,
    3,
    1,
    5,
    2,
    1,
    1152,
    1122,
    1384,
    1388,
    1123,
    1124,
    1,
    13,
    1,
    5,
    1105,
    1106,
    1388,
    1166,
    1167,
    1108,
    1109,
    929,
    930,
    703,
    1319,
    1320,
    703,
    384,
    719,
    367,
    368,
    703,
    703,
    399,
    703,
    703,
    703,
    719,
    400,
    719,
    367,
    368,
    1092,
    2,
    4,
    5,
    5,
    3,
    3,
    2,
    3,
    5,
    4,
    4,
    6,
    5,
    1,
    2,
    4,
    4,
    3,
    4,
    4,
    4,
    4,
    6,
    3,
    4,
    4,
    5,
    2,
    4,
    6,
    6,
    3,
    4,
    4,
    5,
    4,
    1,
    3,
    15,
    16,
    4,
    4,
    2,
    5,
    4,
    5,
    6,
    5,
    5,
    1,
    2,
    5,
    15,
    16,
    1,
    1,
    5,
    2,
    3,
    4,
    5,
    1,
    5,
    4,
    2,
    2,
    1,
    1,
    2,
    3,
    5,
    4,
    1,
    5,
    3,
    4,
    5,
    2,
    5,
    1,
    2,
    3,
    6,
    1,
    6,
    3,
    4,
    3,
    4,
    1,
    5,
    1122,
    1124,
    1,
    1104,
    1,
    3,
    5,
    5,
    1105,
    1106,
    1385,
    10,
    733,
    1108,
    1109,
    945,
    946,
    719,
    703,
    703,
    719,
    400,
    719,
    383,
    384,
    703,
    703,
    399,
    719,
    703,
    719,
    383,
    703,
    399,
    383,
    384,
    733,
    1092,
    928,
    3,
    4,
    6,
    6,
    1,
    5,
    6,
    2,
    3,
    2,
    1,
    2,
    2,
    1,
    2,
    1,
    5,
    3,
    6,
    3,
    1,
    3,
    4,
    3,
    3,
    6,
    4,
    4,
    4,
    5,
    4,
    2,
    5,
    4,
    2,
    2,
    31,
    32,
    6,
    6,
    3,
    3,
    1,
    5,
    6,
    2,
    1,
    4,
    3,
    6,
    31,
    32,
    5,
    6,
    2,
    3,
    6,
    3,
    6,
    4,
    6,
    1,
    4,
    4,
    3,
    13,
    5,
    4,
    2,
    1,
    6,
    6,
    5,
    1,
    4,
    5,
    1,
    3,
    2,
    1,
    2,
    4,
    6,
    2,
    3,
    1,
    1,
    5,
    4,
    5,
    4,
    4,
    5,
    6,
    4,
    5,
    3,
    1090,
    1385,
    1387,
    1385,
    1384,
    1124,
    3,
    961,
    962,
    719,
    703,
    703,
    719,
    703,
    719,
    367,
    703,
    719,
    719,
    703,
    703,
    367,
    368,
    368,
    719,
    367,
    399,
    400,
    1182,
    1387,
    1093,
    1104,
    1,
    2,
    6,
    13,
    2,
    3,
    1,
    6,
    5,
    4,
    3,
    4,
    1,
    1,
    6,
    2,
    2,
    4,
    1,
    5,
    6,
    4,
    6,
    3,
    4,
    4,
    5,
    6,
    4,
    4,
    1,
    4,
    3,
    6,
    6,
    5,
    2,
    5,
    1,
    2,
    1,
    3,
    1,
    1,
    2,
    6,
    4,
    5,
    3,
    5,
    5,
    1,
    5,
    3,
    3,
    4,
    2,
    5,
    6,
    6,
    1,
    5,
    5,
    4,
    4,
    2,
    4,
    4,
    3,
    1,
    15,
    16,
    1,
    3,
    4,
    3,
    2,
    4,
    1,
    3,
    3,
    15,
    16,
    5,
    6,
    3,
    3,
    3,
    6,
    3,
    2,
    3,
    1,
    6,
    5,
    1105,
    1106,
    1386,
    1383,
    1387,
    1124,
    1088,
    2,
    939,
    940,
    1319,
    703,
    719,
    703,
    719,
    1304,
    383,
    367,
    368,
    719,
    703,
    719,
    383,
    384,
    384,
    719,
    368,
    368,
    384,
    731,
    732,
    1386,
    1093,
    1,
    6,
    2,
    5,
    4,
    1,
    2,
    6,
    3,
    5,
    2,
    1,
    6,
    6,
    3,
    4,
    4,
    2,
    4,
    5,
    5,
    6,
    5,
    1,
    4,
    4,
    6,
    4,
    6,
    6,
    2,
    2,
    5,
    5,
    6,
    1,
    2,
    2,
    5,
    6,
    4,
    2,
    2,
    5,
    3,
    2,
    1,
    2,
    6,
    1,
    3,
    2,
    5,
    1,
    6,
    1,
    1,
    4,
    1,
    6,
    3,
    3,
    2,
    3,
    5,
    6,
    6,
    1,
    6,
    2,
    31,
    32,
    3,
    5,
    3,
    1,
    5,
    6,
    1,
    1,
    5,
    31,
    32,
    2,
    2,
    4,
    1,
    4,
    4,
    5,
    2,
    2,
    6,
    1,
    2,
    1,
    1122,
    1123,
    1123,
    1124,
    717,
    932,
    933,
    955,
    956,
    367,
    719,
    719,
    719,
    719,
    367,
    368,
    383,
    703,
    703,
    719,
    719,
    399,
    400,
    400,
    400,
    384,
    703,
    400,
    747,
    748,
    927,
    733,
    1092,
    4,
    2,
    6,
    6,
    4,
    1,
    4,
    4,
    1,
    2,
    2,
    3,
    3,
    6,
    4,
    1,
    1,
    4,
    1,
    4,
    6,
    2,
    6,
    2,
    5,
    2,
    1,
    4,
    2,
    2,
    2,
    5,
    4,
    5,
    3,
    4,
    4,
    1,
    3,
    6,
    3,
    1,
    15,
    16,
    4,
    6,
    5,
    4,
    6,
    2,
    5,
    4,
    2,
    2,
    4,
    6,
    13,
    4,
    1,
    5,
    5,
    4,
    5,
    1,
    5,
    6,
    5,
    4,
    4,
    5,
    2,
    5,
    4,
    2,
    4,
    1,
    2,
    2,
    6,
    3,
    2,
    1,
    3,
    6,
    4,
    13,
    1,
    3,
    4,
    2,
    6,
    2,
    4,
    1,
    2,
    1152,
    3,
    4,
    5,
    928,
    948,
    949,
    971,
    703,
    383,
    383,
    367,
    703,
    368,
    703,
    384,
    399,
    719,
    719,
    719,
    368,
    703,
    399,
    400,
    719,
    703,
    719,
    719,
    733,
    1182,
    1150,
    1151,
    1108,
    1109,
    3,
    2,
    1,
    1,
    3,
    1,
    2,
    6,
    5,
    6,
    5,
    1,
    6,
    5,
    1,
    5,
    3,
    5,
    5,
    5,
    3,
    5,
    6,
    1,
    6,
    2,
    4,
    3,
    3,
    3,
    3,
    3,
    3,
    6,
    5,
    3,
    6,
    5,
    1,
    5,
    1,
    31,
    32,
    5,
    6,
    5,
    3,
    4,
    4,
    3,
    2,
    3,
    2,
    4,
    2,
    6,
    1,
    1,
    3,
    4,
    1,
    6,
    2,
    3,
    5,
    1,
    2,
    3,
    5,
    6,
    1,
    6,
    6,
    2,
    2,
    2,
    2,
    1,
    4,
    4,
    5,
    6,
    2,
    1,
    4,
    3,
    1,
    1,
    5,
    8,
    1,
    4,
    3,
    5,
    4,
    3,
    3,
    5,
    963,
    964,
    965,
    1304,
    719,
    992,
    399,
    703,
    719,
    703,
    719,
    400,
    383,
    384,
    703,
    383,
    384,
    719,
    703,
    703,
    367,
    703,
    383,
    719,
    731,
    732,
    1166,
    1167,
    1108,
    1109,
    5,
    2,
    2,
    3,
    1152,
    1,
    4,
    4,
    6,
    2,
    4,
    5,
    5,
    6,
    1,
    6,
    4,
    5,
    6,
    6,
    6,
    6,
    5,
    1,
    5,
    2,
    2,
    6,
    1,
    5,
    2,
    6,
    4,
    3,
    5,
    5,
    3,
    3,
    6,
    6,
    1,
    4,
    5,
    4,
    3,
    5,
    4,
    1,
    2,
    3,
    4,
    6,
    6,
    2,
    5,
    1,
    3,
    4,
    3,
    3,
    1,
    4,
    1,
    3,
    1,
    2,
    4,
    6,
    2,
    2,
    1088,
    6,
    4,
    3,
    3,
    5,
    4,
    4,
    3,
    5,
    5,
    1,
    4,
    5,
    2,
    2,
    5,
    5,
    5,
    3,
    4,
    1,
    6,
    3,
    4,
    3,
    4,
    2,
    929,
    930,
    367,
    703,
    703,
    1008,
    368,
    703,
    703,
    719,
    719,
    399,
    703,
    400,
    703,
    703,
    703,
    399,
    719,
    719,
    383,
    719,
    368,
    400,
    747,
    748,
    733,
    1388,
    1385,
    1092,
    1,
    2,
    5,
    5,
    2,
    2,
    5,
    3,
    6,
    6,
    5,
    6,
    4,
    6,
    4,
    1,
    2,
    1,
    2,
    6,
    3,
    5,
    5,
    2,
    1,
    6,
    4,
    6,
    5,
    1,
    5,
    5,
    6,
    1,
    5,
    1,
    1,
    1,
    3,
    1,
    6,
    3,
    3,
    4,
    2,
    1,
    6,
    1,
    1,
    1,
    13,
    1,
    5,
    1,
    5,
    2,
    4,
    6,
    2,
    4,
    5,
    6,
    6,
    1,
    1,
    4,
    1,
    5,
    1,
    1,
    4,
    6,
    3,
    4,
    1,
    1,
    3,
    6,
    1,
    3,
    4,
    4,
    1,
    4,
    6,
    4,
    2,
    6,
    3,
    4,
    3,
    5,
    15,
    16,
    5,
    5,
    4,
    1088,
    945,
    946,
    383,
    719,
    719,
    383,
    703,
    719,
    719,
    703,
    703,
    703,
    719,
    719,
    719,
    719,
    719,
    719,
    719,
    703,
    399,
    383,
    703,
    384,
    927,
    731,
    732,
    1182,
    1386,
    1124,
    5,
    5,
    4,
    3,
    2,
    4,
    3,
    4,
    4,
    6,
    13,
    6,
    5,
    1,
    6,
    5,
    5,
    5,
    1,
    4,
    5,
    3,
    6,
    13,
    3,
    3,
    3,
    6,
    2,
    6,
    6,
    5,
    3,
    6,
    2,
    2,
    4,
    2,
    4,
    5,
    3,
    1,
    2,
    3,
    1,
    4,
    6,
    6,
    4,
    6,
    6,
    3,
    6,
    6,
    1,
    3,
    4,
    5,
    3,
    4,
    2,
    4,
    2,
    3,
    1,
    4,
    5,
    1,
    3,
    6,
    3,
    5,
    2,
    5,
    5,
    2,
    6,
    4,
    5,
    5,
    1,
    3,
    3,
    2,
    4,
    6,
    4,
    3,
    4,
    3,
    3,
    1,
    31,
    32,
    3,
    2,
    1,
    1152,
    961,
    962,
    399,
    719,
    703,
    703,
    719,
    719,
    383,
    719,
    703,
    1320,
    383,
    719,
    703,
    719,
    383,
    384,
    399,
    719,
    992,
    399,
    719,
    400,
    1388,
    747,
    748,
    1388,
    1124,
    1152,
    1,
    1,
    1,
    2,
    6,
    3,
    1,
    4,
    6,
    2,
    2,
    4,
    5,
    4,
    3,
    3,
    4,
    2,
    1,
    3,
    3,
    4,
    1,
    6,
    1,
    4,
    3,
    6,
    5,
    6,
    3,
    6,
    1,
    1,
    5,
    4,
    1,
    1,
    4,
    6,
    6,
    4,
    2,
    2,
    2,
    2,
    1,
    1,
    3,
    3,
    3,
    4,
    6,
    6,
    2,
    5,
    1,
    2,
    5,
    2,
    3,
    4,
    4,
    3,
    2,
    5,
    4,
    3,
    6,
    3,
    15,
    16,
    4,
    3,
    1,
    3,
    4,
    4,
    3,
    1,
    1,
    1,
    4,
    6,
    6,
    15,
    16,
    5,
    2,
    6,
    2,
    1085,
    1,
    5,
    3,
    1,
    4,
    4,
    939,
    940,
    1319,
    1320,
    719,
    719,
    1319,
    1320,
    399,
    703,
    703,
    703,
    399,
    703,
    719,
    703,
    703,
    400,
    1320,
    367,
    1008,
    703,
    1012,
    1013,
    1182,
    1385,
    733,
    1124,
    928,
    4,
    4,
    5,
    5,
    3,
    2,
    2,
    4,
    3,
    4,
    6,
    2,
    6,
    2,
    5,
    1,
    4,
    4,
    4,
    5,
    2,
    3,
    5,
    1,
    3,
    6,
    5,
    6,
    1,
    5,
    6,
    4,
    3,
    2,
    3,
    6,
    13,
    5,
    4,
    4,
    5,
    6,
    6,
    6,
    1,
    2,
    2,
    1,
    6,
    4,
    5,
    2,
    3,
    3,
    2,
    5,
    4,
    6,
    1,
    1,
    6,
    3,
    3,
    3,
    2,
    1,
    6,
    4,
    3,
    1,
    4,
    31,
    32,
    6,
    6,
    1,
    5,
    4,
    2,
    4,
    3,
    5,
    5,
    6,
    3,
    1,
    31,
    32,
    1,
    1,
    3,
    1099,
    1101,
    1102,
    2,
    2,
    4,
    932,
    933,
    955,
    956,
    367,
    703,
    703,
    384,
    703,
    703,
    367,
    719,
    719,
    703,
    368,
    719,
    367,
    719,
    719,
    719,
    1320,
    383,
    384,
    719,
    1028,
    1029,
    1384,
    1182,
    1108,
    1109,
    4,
    5,
    4,
    4,
    4,
    6,
    6,
    2,
    6,
    3,
    5,
    6,
    5,
    6,
    6,
    3,
    4,
    1,
    5,
    2,
    4,
    1,
    3,
    2,
    1,
    3,
    4,
    2,
    1,
    1,
    5,
    5,
    3,
    2,
    4,
    5,
    14,
    1,
    3,
    3,
    6,
    6,
    4,
    6,
    6,
    6,
    5,
    6,
    4,
    6,
    6,
    1,
    6,
    2,
    4,
    1,
    6,
    6,
    2,
    1,
    1,
    4,
    6,
    1152,
    3,
    4,
    3,
    4,
    1,
    6,
    1,
    6,
    1,
    6,
    2,
    4,
    4,
    5,
    1,
    3,
    6,
    6,
    1100,
    1101,
    1102,
    2,
    3,
    5,
    5,
    4,
    3,
    1115,
    1116,
    1117,
    1118,
    1119,
    1,
    928,
    948,
    949,
    971,
    367,
    703,
    719,
    719,
    703,
    719,
    719,
    703,
    399,
    400,
    1319,
    1320,
    719,
    383,
    1319,
    367,
    368,
    1304,
    399,
    400,
    944,
    1044,
    1045,
    1386,
    1123,
    1124,
    8,
    4,
    4,
    4,
    1,
    1,
    5,
    1,
    3,
    4,
    6,
    5,
    6,
    4,
    5,
    3,
    6,
    4,
    4,
    6,
    2,
    5,
    3,
    6,
    6,
    4,
    1,
    6,
    1,
    1,
    5,
    1,
    4,
    4,
    3,
    3,
    3,
    2,
    1,
    2,
    4,
    4,
    1,
    4,
    6,
    4,
    5,
    1,
    4,
    5,
    2,
    3,
    6,
    2,
    4,
    1,
    3,
    1,
    2,
    5,
    6,
    2,
    1,
    3,
    4,
    3,
    2,
    6,
    5,
    6,
    6,
    5,
    5,
    6,
    2,
    3,
    4,
    4,
    3,
    5,
    3,
    4,
    1100,
    1117,
    1086,
    1087,
    1102,
    1104,
    1099,
    1101,
    1102,
    1085,
    3,
    1132,
    1133,
    1134,
    1,
    1152,
    963,
    964,
    965,
    703,
    703,
    719,
    703,
    703,
    719,
    703,
    703,
    719,
    400,
    719,
    399,
    400,
    1319,
    1320,
    719,
    383,
    384,
    367,
    368,
    959,
    960,
    6,
    6,
    1124,
    6,
    6,
    2,
    2,
    3,
    3,
    2,
    5,
    5,
    1,
    1,
    6,
    3,
    3,
    1,
    2,
    5,
    6,
    5,
    3,
    6,
    4,
    4,
    3,
    6,
    4,
    1,
    1,
    4,
    5,
    1,
    4,
    1,
    5,
    5,
    6,
    4,
    3,
    5,
    3,
    4,
    4,
    3,
    5,
    6,
    1,
    4,
    2,
    1,
    3,
    4,
    6,
    3,
    3,
    3,
    3,
    5,
    1,
    6,
    1,
    5,
    6,
    3,
    3,
    1088,
    3,
    6,
    15,
    16,
    5,
    6,
    2,
    5,
    2,
    4,
    5,
    5,
    1,
    6,
    1,
    5,
    5,
    6,
    1100,
    1086,
    1087,
    1086,
    12,
    1117,
    1101,
    1117,
    1117,
    1117,
    1101,
    1102,
    2,
    1084,
    4,
    2,
    2,
    929,
    930,
    1319,
    719,
    719,
    703,
    719,
    1319,
    1320,
    719,
    719,
    368,
    703,
    367,
    368,
    1319,
    1320,
    1304,
    1319,
    399,
    1319,
    1319,
    1320,
    941,
    942,
    4,
    2,
    2,
    1,
    3,
    1,
    2,
    2,
    2,
    6,
    2,
    4,
    1,
    1,
    1,
    5,
    6,
    4,
    5,
    4,
    5,
    6,
    5,
    3,
    4,
    2,
    4,
    4,
    2,
    6,
    6,
    3,
    2,
    5,
    5,
    6,
    3,
    1,
    2,
    5,
    5,
    2,
    5,
    1,
    5,
    1,
    5,
    6,
    6,
    4,
    1,
    1,
    3,
    6,
    5,
    1,
    2,
    2,
    6,
    5,
    6,
    4,
    6,
    5,
    4,
    5,
    5,
    2,
    3,
    2,
    31,
    32,
    5,
    6,
    6,
    2,
    2,
    3,
    3,
    3,
    6,
    2,
    3,
    2,
    5,
    1115,
    1116,
    1086,
    1087,
    1117,
    1117,
    1117,
    1117,
    1086,
    1087,
    1117,
    1087,
    1086,
    1102,
    3,
    6,
    4,
    2,
    945,
    946,
    367,
    703,
    703,
    719,
    703,
    368,
    703,
    703,
    383,
    703,
    719,
    383,
    703,
    703,
    1319,
    1320,
    703,
    384,
    367,
    1319,
    1320,
    957,
    958,
    5,
    1100,
    5,
    1,
    6,
    2,
    1,
    3,
    5,
    5,
    6,
    6,
    6,
    5,
    4,
    13,
    3,
    6,
    3,
    3,
    5,
    4,
    1,
    5,
    5,
    3,
    1,
    3,
    6,
    6,
    5,
    2,
    1,
    2,
    6,
    6,
    4,
    4,
    2,
    4,
    5,
    2,
    2,
    3,
    1,
    5,
    4,
    1,
    2,
    4,
    6,
    4,
    5,
    6,
    3,
    5,
    1,
    3,
    1,
    6,
    4,
    2,
    1,
    2,
    4,
    4,
    2,
    4,
    1,
    5,
    3,
    2,
    5,
    5,
    2,
    6,
    2,
    5,
    2,
    6,
    1,
    2,
    1,
    4,
    3,
    1115,
    1116,
    1086,
    1086,
    1087,
    1117,
    1087,
    1086,
    1087,
    1117,
    1086,
    1087,
    1083,
    1118,
    1119,
    4,
    6,
    6,
    961,
    962,
    383,
    719,
    719,
    719,
    703,
    384,
    719,
    719,
    399,
    719,
    1179,
    399,
    719,
    719,
    1319,
    1319,
    1319,
    1320,
    1319,
    1320,
    719,
    973,
    974,
    1115,
    1180,
    3,
    1,
    15,
    16,
    4,
    1,
    6,
    2,
    4,
    4,
    6,
    4,
    6,
    1,
    1,
    2,
    6,
    3,
    3,
    4,
    2,
    5,
    4,
    3,
    3,
    2,
    6,
    3,
    6,
    1,
    4,
    4,
    5,
    2,
    3,
    2,
    3,
    1,
    3,
    1,
    6,
    1,
    1,
    4,
    1,
    4,
    47,
    1,
    4,
    1,
    5,
    4,
    6,
    1,
    6,
    3,
    4,
    1,
    1,
    6,
    2,
    4,
    15,
    16,
    3,
    2,
    6,
    4,
    6,
    3,
    6,
    4,
    4,
    4,
    3,
    2,
    2,
    2,
    6,
    1,
    5,
    2,
    2,
    1100,
    1116,
    1086,
    1086,
    1087,
    1117,
    1159,
    1160,
    1161,
    1195,
    1117,
    1087,
    1086,
    1118,
    1119,
    1,
    1,
    5,
    929,
    930,
    399,
    719,
    1303,
    703,
    703,
    703,
    703,
    703,
    703,
    367,
    368,
    703,
    367,
    703,
    703,
    367,
    719,
    703,
    399,
    400,
    368,
    941,
    942,
    1115,
    1116,
    2,
    3,
    31,
    32,
    3,
    3,
    2,
    6,
    6,
    6,
    4,
    1090,
    1092,
    2,
    1,
    6,
    6,
    4,
    4,
    1,
    4,
    5,
    5,
    3,
    3,
    1,
    3,
    3,
    3,
    1,
    6,
    1,
    3,
    4,
    5,
    6,
    6,
    1,
    3,
    4,
    5,
    6,
    6,
    6,
    928,
    8,
    3,
    2,
    6,
    6,
    2,
    1,
    1,
    1,
    1,
    2,
    6,
    5,
    4,
    5,
    6,
    3,
    31,
    32,
    4,
    6,
    4,
    3,
    5,
    1,
    5,
    4,
    4,
    1,
    4,
    5,
    1,
    2,
    6,
    1,
    3,
    4,
    1115,
    1116,
    1117,
    1087,
    1087,
    1117,
    1086,
    1191,
    1304,
    1176,
    1178,
    1086,
    1087,
    1083,
    1134,
    1,
    2,
    5,
    4,
    945,
    946,
    703,
    703,
    703,
    719,
    703,
    719,
    719,
    719,
    719,
    383,
    367,
    719,
    703,
    703,
    719,
    383,
    384,
    719,
    703,
    383,
    703,
    957,
    958,
    3,
    1132,
    3,
    3,
    1,
    4,
    6,
    1,
    1,
    5,
    5,
    1,
    1090,
    11,
    1077,
    1092,
    5,
    5,
    8,
    3,
    6,
    2,
    2,
    6,
    6,
    6,
    5,
    6,
    2,
    4,
    6,
    2,
    1,
    1,
    5,
    13,
    5,
    4,
    4,
    6,
    6,
    6,
    3,
    3,
    5,
    6,
    4,
    1152,
    6,
    4,
    4,
    5,
    6,
    1,
    4,
    5,
    5,
    1,
    4,
    1,
    6,
    5,
    5,
    1,
    1,
    6,
    6,
    3,
    2,
    1,
    4,
    2,
    2,
    2,
    3,
    1,
    5,
    6,
    4,
    4,
    1,
    4,
    2,
    4,
    1,
    1132,
    1117,
    1083,
    1083,
    1196,
    1180,
    1158,
    1303,
    1193,
    1117,
    1117,
    1117,
    1134,
    4,
    5,
    2,
    13,
    4,
    961,
    962,
    719,
    719,
    719,
    367,
    719,
    1319,
    703,
    367,
    1319,
    1320,
    703,
    384,
    719,
    719,
    719,
    703,
    703,
    367,
    719,
    399,
    719,
    973,
    974,
    1,
    1099,
    5,
    5,
    1,
    2,
    6,
    3,
    4,
    1,
    1,
    1090,
    1076,
    1077,
    1123,
    1124,
    4,
    3,
    1,
    3,
    1,
    5,
    2,
    1,
    5,
    2,
    1,
    4,
    3,
    1,
    3,
    3,
    6,
    2,
    5,
    1,
    6,
    4,
    3,
    5,
    6,
    2,
    2,
    1,
    2,
    3,
    1,
    6,
    2,
    1,
    1,
    1,
    2,
    4,
    3,
    5,
    5,
    2,
    3,
    4,
    4,
    1,
    1,
    5,
    4,
    1,
    3,
    4,
    5,
    5,
    2,
    6,
    3,
    4,
    5,
    1,
    4,
    2,
    3,
    1,
    6,
    5,
    1,
    3,
    6,
    1115,
    1116,
    1086,
    1086,
    1087,
    1159,
    1304,
    1194,
    1196,
    1087,
    1086,
    1118,
    1119,
    1104,
    6,
    3,
    2,
    2,
    939,
    940,
    399,
    703,
    703,
    383,
    703,
    703,
    719,
    367,
    368,
    703,
    719,
    703,
    719,
    367,
    367,
    719,
    703,
    383,
    384,
    719,
    989,
    990,
    991,
    1100,
    1086,
    3,
    5,
    5,
    2,
    3,
    4,
    4,
    1,
    4,
    1122,
    1123,
    1124,
    4,
    1090,
    1092,
    3,
    6,
    5,
    4,
    6,
    4,
    2,
    1,
    2,
    5,
    1,
    4,
    2,
    1,
    6,
    1,
    6,
    5,
    4,
    4,
    6,
    2,
    5,
    1,
    4,
    1,
    6,
    4,
    2,
    1,
    6,
    2,
    4,
    1,
    2,
    6,
    2,
    4,
    2,
    3,
    5,
    3,
    1,
    6,
    1,
    5,
    1,
    5,
    3,
    1,
    3,
    5,
    2,
    3,
    3,
    1,
    1,
    1,
    4,
    4,
    5,
    1,
    4,
    1,
    13,
    4,
    6,
    4,
    8,
    1132,
    1083,
    1087,
    1117,
    1191,
    1193,
    1117,
    1086,
    1087,
    1083,
    1118,
    1119,
    5,
    2,
    5,
    932,
    933,
    955,
    956,
    703,
    719,
    719,
    399,
    719,
    719,
    719,
    383,
    384,
    719,
    383,
    719,
    719,
    703,
    703,
    384,
    719,
    399,
    400,
    944,
    1005,
    1006,
    1115,
    1116,
    1087,
    4,
    3,
    1,
    6,
    2,
    13,
    5,
    1,
    2,
    1152,
    6,
    1090,
    1091,
    1123,
    1124,
    16,
    5,
    5,
    5,
    1,
    4,
    3,
    3,
    1,
    6,
    1,
    13,
    3,
    6,
    2,
    6,
    1152,
    6,
    4,
    3,
    2,
    4,
    6,
    5,
    3,
    6,
    1,
    3,
    6,
    1,
    1,
    3,
    5,
    4,
    1,
    3,
    1,
    6,
    4,
    4,
    3,
    3,
    3,
    1,
    6,
    2,
    4,
    2,
    3,
    1,
    15,
    16,
    6,
    6,
    2,
    1,
    4,
    1,
    6,
    5,
    3,
    3,
    1,
    1,
    1,
    3,
    3,
    4,
    3,
    1115,
    1116,
    1195,
    1117,
    1117,
    1083,
    1117,
    1117,
    1117,
    1180,
    1118,
    1119,
    1,
    3,
    947,
    948,
    949,
    971,
    703,
    719,
    703,
    367,
    368,
    1320,
    1320,
    1304,
    399,
    400,
    703,
    367,
    368,
    703,
    719,
    719,
    400,
    1320,
    992,
    959,
    960,
    1152,
    3,
    1100,
    1086,
    12,
    4,
    4,
    6,
    4,
    2,
    4,
    6,
    1,
    1090,
    1091,
    1091,
    1076,
    1108,
    1109,
    31,
    32,
    4,
    5,
    3,
    3,
    6,
    3,
    4,
    3,
    3,
    4,
    6,
    2,
    15,
    16,
    4,
    1,
    4,
    2,
    3,
    2,
    2,
    2,
    2,
    2,
    5,
    6,
    1,
    1,
    4,
    3,
    5,
    6,
    6,
    5,
    5,
    2,
    5,
    6,
    4,
    3,
    3,
    6,
    4,
    6,
    4,
    2,
    4,
    3,
    5,
    31,
    32,
    1,
    4,
    2,
    4,
    5,
    2,
    5,
    3,
    6,
    6,
    3,
    2,
    1,
    1,
    4,
    5,
    4,
    3,
    1132,
    1086,
    1087,
    1117,
    1086,
    1087,
    1117,
    1086,
    1083,
    1134,
    6,
    2,
    2,
    963,
    964,
    965,
    703,
    719,
    719,
    719,
    383,
    703,
    703,
    367,
    368,
    367,
    368,
    719,
    703,
    703,
    719,
    703,
    1320,
    1319,
    1320,
    1008,
    941,
    942,
    5,
    1100,
    1086,
    1087,
    1117,
    1,
    4,
    3,
    4,
    928,
    6,
    1090,
    1091,
    1383,
    1384,
    1385,
    1388,
    1383,
    1092,
    2,
    6,
    1,
    6,
    4,
    6,
    6,
    1090,
    1091,
    1091,
    1091,
    1092,
    4,
    1,
    31,
    32,
    2,
    1,
    5,
    4,
    1,
    3,
    2,
    4,
    1,
    5,
    6,
    6,
    5,
    5,
    4,
    4,
    3,
    4,
    1,
    5,
    1,
    4,
    6,
    4,
    3,
    4,
    2,
    1,
    5,
    3,
    4,
    4,
    6,
    3,
    3,
    3,
    5,
    2,
    6,
    3,
    5,
    3,
    2,
    2,
    6,
    5,
    4,
    2,
    3,
    1,
    1,
    2,
    3,
    4,
    1152,
    2,
    1132,
    1083,
    1086,
    1087,
    1086,
    1087,
    12,
    1135,
    5,
    4,
    1,
    1,
    929,
    930,
    1179,
    719,
    719,
    719,
    719,
    399,
    703,
    703,
    383,
    384,
    703,
    703,
    703,
    719,
    703,
    1304,
    367,
    368,
    368,
    367,
    368,
    957,
    958,
    1115,
    1116,
    1087,
    1083,
    1117,
    3,
    5,
    6,
    3,
    1090,
    1091,
    1384,
    1164,
    1385,
    1386,
    1385,
    1386,
    1385,
    1384,
    1092,
    2,
    6,
    1152,
    6,
    1090,
    1091,
    1385,
    1383,
    1387,
    1387,
    1386,
    1092,
    1104,
    1,
    1,
    1,
    6,
    4,
    1,
    5,
    2,
    1152,
    3,
    6,
    1090,
    1091,
    1091,
    1091,
    1092,
    1152,
    3,
    6,
    4,
    6,
    2,
    1,
    1,
    5,
    4,
    3,
    2,
    6,
    1,
    3,
    4,
    3,
    4,
    2,
    4,
    3,
    2,
    2,
    2,
    2,
    4,
    3,
    13,
    6,
    4,
    5,
    1,
    5,
    1,
    1,
    4,
    3,
    6,
    6,
    2,
    3,
    2,
    1115,
    1116,
    1086,
    1087,
    1083,
    1117,
    1118,
    1119,
    1152,
    2,
    3,
    2,
    945,
    946,
    703,
    368,
    992,
    367,
    368,
    703,
    703,
    719,
    703,
    400,
    719,
    719,
    367,
    368,
    719,
    703,
    703,
    703,
    384,
    703,
    384,
    973,
    974,
    1115,
    1195,
    1083,
    1086,
    1087,
    4,
    6,
    4,
    1090,
    1165,
    1384,
    1385,
    1387,
    1387,
    1386,
    1388,
    1387,
    1386,
    1388,
    1164,
    1091,
    1091,
    1091,
    1091,
    1163,
    1384,
    1387,
    1383,
    1387,
    1383,
    1164,
    1383,
    1093,
    3,
    1152,
    2,
    3,
    4,
    2,
    2,
    1090,
    1091,
    1091,
    1091,
    1388,
    1384,
    1384,
    1165,
    1386,
    1092,
    2,
    4,
    5,
    3,
    2,
    5,
    4,
    2,
    4,
    3,
    2,
    2,
    4,
    5,
    6,
    6,
    4,
    2,
    5,
    5,
    4,
    6,
    1,
    3,
    4,
    6,
    3,
    5,
    4,
    1,
    1,
    4,
    3,
    2,
    4,
    1,
    4,
    5,
    6,
    4,
    1,
    1115,
    1116,
    1083,
    1117,
    1086,
    1087,
    1118,
    1119,
    3,
    13,
    6,
    6,
    961,
    962,
    719,
    384,
    1008,
    383,
    703,
    703,
    703,
    719,
    719,
    1320,
    703,
    1303,
    383,
    703,
    719,
    703,
    719,
    719,
    1319,
    703,
    400,
    941,
    942,
    1115,
    1116,
    1086,
    1087,
    1117,
    3,
    6,
    1089,
    1383,
    1388,
    1388,
    1387,
    1383,
    1383,
    1384,
    1387,
    1387,
    1387,
    1387,
    1388,
    1387,
    1385,
    1383,
    1387,
    1387,
    1385,
    1387,
    1383,
    1384,
    1384,
    1385,
    1385,
    1388,
    1092,
    1090,
    1091,
    1091,
    1091,
    1092,
    1090,
    1386,
    1383,
    1385,
    1387,
    1385,
    1383,
    1385,
    1388,
    1388,
    1385,
    1091,
    1092,
    2,
    1,
    1,
    3,
    5,
    3,
    2,
    1,
    1,
    6,
    1,
    6,
    4,
    1,
    4,
    6,
    6,
    3,
    1,
    5,
    6,
    4,
    6,
    3,
    6,
    1,
    1,
    1,
    3,
    2,
    1,
    3,
    6,
    5,
    5,
    3,
    6,
    4,
    2,
    1100,
    1083,
    1086,
    1087,
    1083,
    1117,
    1134,
    1,
    5,
    5,
    5,
    4,
    939,
    940,
    703,
    703,
    703,
    399,
    719,
    719,
    719,
    368,
    703,
    367,
    719,
    703,
    399,
    719,
    703,
    703,
    719,
    1319,
    1320,
    719,
    368,
    957,
    958,
    2,
    1132,
    1086,
    1087,
    1087,
    4,
    1090,
    1387,
    1383,
    1384,
    1388,
    1388,
    1165,
    1387,
    1383,
    1383,
    1383,
    1385,
    1384,
    1387,
    1383,
    1384,
    1386,
    1385,
    1385,
    1383,
    1385,
    1384,
    1384,
    1388,
    1384,
    1387,
    1386,
    1387,
    1384,
    1386,
    1388,
    1388,
    1163,
    1385,
    1384,
    1384,
    1388,
    1383,
    1385,
    1386,
    1383,
    1383,
    1387,
    1388,
    1163,
    1383,
    1092,
    2,
    4,
    2,
    6,
    3,
    4,
    3,
    3,
    2,
    6,
    6,
    3,
    4,
    3,
    4,
    4,
    4,
    4,
    6,
    5,
    2,
    1,
    1,
    2,
    2,
    3,
    2,
    3,
    2,
    1,
    3,
    5,
    4,
    4,
    5,
    5,
    1,
    1115,
    1116,
    1086,
    1083,
    1117,
    1083,
    1134,
    5,
    3,
    3,
    6,
    1010,
    1011,
    955,
    956,
    367,
    719,
    719,
    368,
    703,
    703,
    383,
    703,
    719,
    383,
    703,
    703,
    703,
    703,
    719,
    719,
    1319,
    1320,
    719,
    383,
    703,
    973,
    974,
    2,
    1115,
    1116,
    1083,
    1117,
    1105,
    1106,
    1388,
    1386,
    1385,
    1385,
    1383,
    1386,
    1385,
    1387,
    1385,
    1384,
    1387,
    1386,
    1387,
    1387,
    1384,
    1386,
    1384,
    1383,
    1385,
    1387,
    1386,
    1384,
    1388,
    1387,
    1385,
    1386,
    1387,
    1387,
    1384,
    1388,
    1387,
    1384,
    1387,
    1386,
    1384,
    1383,
    1386,
    1387,
    1387,
    1383,
    1385,
    1387,
    1387,
    1384,
    1385,
    1108,
    1109,
    3,
    6,
    2,
    5,
    3,
    5,
    4,
    1,
    1,
    3,
    4,
    2,
    2,
    4,
    6,
    4,
    5,
    3,
    4,
    4,
    4,
    6,
    6,
    4,
    3,
    3,
    3,
    5,
    6,
    3,
    3,
    4,
    4,
    4,
    3,
    1,
    1115,
    1116,
    1083,
    1117,
    1083,
    1135,
    928,
    3,
    1,
    3,
    1025,
    1026,
    1027,
    971,
    703,
    383,
    384,
    383,
    384,
    719,
    719,
    703,
    719,
    719,
    703,
    719,
    719,
    719,
    1319,
    1320,
    1320,
    1319,
    1320,
    1320,
    399,
    719,
    944,
    2,
    7,
    1100,
    1086,
    1087,
    1180,
    1090,
    1388,
    733,
    1387,
    1182,
    1387,
    1386,
    1383,
    1385,
    1383,
    1384,
    1386,
    1383,
    1388,
    1388,
    1386,
    1386,
    1387,
    1385,
    1384,
    1386,
    1387,
    1387,
    1384,
    1385,
    1384,
    1384,
    1384,
    1388,
    1386,
    1386,
    1383,
    1384,
    1385,
    1388,
    1383,
    1163,
    1387,
    1383,
    1165,
    1385,
    1386,
    1388,
    1388,
    1385,
    1385,
    1387,
    1385,
    1092,
    1152,
    2,
    3,
    5,
    3,
    2,
    3,
    6,
    6,
    3,
    3,
    4,
    2,
    1,
    1,
    5,
    3,
    3,
    4,
    6,
    1,
    1,
    4,
    5,
    4,
    5,
    1,
    3,
    4,
    5,
    4,
    4,
    5,
    6,
    5,
    5,
    1104,
    1132,
    1133,
    1133,
    1134,
    5,
    5,
    4,
    932,
    933,
    1041,
    1042,
    1043,
    367,
    719,
    1320,
    703,
    399,
    400,
    703,
    1304,
    719,
    719,
    367,
    368,
    368,
    719,
    719,
    1319,
    1320,
    368,
    368,
    703,
    1319,
    719,
    959,
    960,
    1,
    1100,
    1083,
    1087,
    1117,
    1086,
    1106,
    1383,
    731,
    732,
    1386,
    1383,
    1388,
    1384,
    1386,
    1385,
    1383,
    1383,
    1386,
    1384,
    1385,
    1385,
    1385,
    1385,
    1387,
    1385,
    1387,
    1388,
    1388,
    1383,
    1386,
    1383,
    1385,
    1388,
    1384,
    1384,
    1384,
    1385,
    1387,
    1384,
    1385,
    1388,
    1384,
    1386,
    1387,
    1388,
    1387,
    1383,
    1386,
    1388,
    1387,
    1384,
    1387,
    1383,
    1165,
    1093,
    6,
    6,
    4,
    6,
    2,
    2,
    4,
    1,
    1,
    5,
    1,
    3,
    3,
    2,
    2,
    2,
    3,
    3,
    4,
    4,
    6,
    2,
    1,
    5,
    6,
    3,
    6,
    1,
    6,
    1,
    4,
    4,
    1,
    4,
    5,
    4,
    3,
    1084,
    1084,
    15,
    16,
    2,
    947,
    948,
    949,
    1057,
    703,
    703,
    383,
    384,
    384,
    719,
    1320,
    703,
    367,
    367,
    368,
    383,
    383,
    703,
    703,
    368,
    1319,
    1319,
    1320,
    703,
    703,
    703,
    367,
    368,
    941,
    942,
    1115,
    1116,
    1086,
    1087,
    1117,
    1117,
    1122,
    1182,
    747,
    748,
    1385,
    1165,
    1385,
    1388,
    1386,
    1387,
    1387,
    1385,
    1388,
    1386,
    1386,
    1384,
    1385,
    1387,
    1385,
    1385,
    1387,
    1385,
    1385,
    1383,
    1384,
    1383,
    1385,
    1383,
    1386,
    1384,
    1383,
    1386,
    1384,
    1385,
    1384,
    1387,
    1387,
    1384,
    1387,
    1386,
    1384,
    1387,
    1385,
    1387,
    1387,
    1383,
    1383,
    1386,
    1388,
    1387,
    1092,
    6,
    1,
    1,
    3,
    1,
    4,
    2,
    3,
    5,
    4,
    5,
    1,
    6,
    1,
    3,
    4,
    3,
    4,
    6,
    4,
    4,
    5,
    2,
    3,
    2,
    3,
    6,
    1,
    1,
    4,
    2,
    5,
    4,
    4,
    3,
    4,
    4,
    2,
    31,
    32,
    3,
    963,
    964,
    965,
    703,
    719,
    719,
    399,
    400,
    703,
    719,
    719,
    719,
    367,
    383,
    384,
    399,
    367,
    719,
    719,
    384,
    703,
    719,
    703,
    719,
    1319,
    1320,
    367,
    368,
    957,
    958,
    1115,
    1116,
    1083,
    1086,
    1087,
    1117,
    2,
    1122,
    1163,
    733,
    1182,
    1384,
    1384,
    1384,
    1385,
    1386,
    1387,
    1384,
    1384,
    1386,
    1383,
    1385,
    1383,
    1388,
    1384,
    1386,
    1388,
    1384,
    1384,
    1387,
    1386,
    1384,
    1384,
    1388,
    1386,
    1388,
    1386,
    1388,
    1387,
    1387,
    1388,
    1383,
    1388,
    1387,
    1386,
    1386,
    1388,
    1383,
    1384,
    1388,
    1384,
    1387,
    1383,
    1386,
    1388,
    1386,
    1164,
    1092,
    5,
    3,
    4,
    2,
    4,
    3,
    1,
    5,
    5,
    4,
    4,
    1,
    2,
    6,
    3,
    4,
    3,
    5,
    5,
    1,
    1,
    3,
    1,
    6,
    2,
    4,
    6,
    5,
    5,
    6,
    5,
    3,
    6,
    5,
    6,
    2,
    2,
    1,
    1,
    1,
    929,
    930,
    703,
    719,
    703,
    703,
    703,
    719,
    719,
    703,
    367,
    368,
    383,
    399,
    703,
    703,
    1303,
    703,
    703,
    703,
    703,
    703,
    719,
    719,
    719,
    719,
    383,
    703,
    973,
    974,
    1115,
    1116,
    1086,
    1087,
    1086,
    1087,
    6,
    1105,
    1106,
    1388,
    1388,
    1386,
    1384,
    1387,
    1386,
    1387,
    1386,
    1164,
    1385,
    1388,
    1388,
    1387,
    1384,
    1388,
    1384,
    1387,
    1388,
    1385,
    1385,
    1383,
    1386,
    1387,
    1384,
    1386,
    1385,
    1388,
    1387,
    1386,
    1388,
    1386,
    1386,
    1385,
    1386,
    1383,
    1387,
    1385,
    1387,
    1384,
    1388,
    1387,
    1384,
    1388,
    1387,
    1385,
    1388,
    1387,
    1386,
    1386,
    1093,
    2,
    3,
    5,
    3,
    1,
    6,
    4,
    3,
    4,
    6,
    1,
    4,
    1,
    4,
    4,
    1,
    3,
    5,
    5,
    2,
    4,
    6,
    2,
    6,
    4,
    4,
    5,
    4,
    6,
    5,
    5,
    4,
    1,
    4,
    5,
    2,
    1,
    4,
    1,
    945,
    946,
    719,
    703,
    719,
    719,
    719,
    719,
    719,
    719,
    703,
    703,
    1303,
    1304,
    719,
    703,
    703,
    703,
    719,
    719,
    703,
    719,
    703,
    1319,
    703,
    1304,
    399,
    719,
    944,
    3,
    1100,
    1086,
    1087,
    1117,
    1087,
    1086,
    7,
    1105,
    1106,
    1165,
    1386,
    1384,
    1384,
    1386,
    1385,
    1387,
    1383,
    1385,
    1385,
    1385,
    1385,
    1387,
    1387,
    1387,
    1386,
    1388,
    1384,
    1386,
    1388,
    1386,
    1387,
    1383,
    1383,
    1383,
    1386,
    1388,
    1387,
    1386,
    1384,
    1384,
    1388,
    1385,
    1388,
    1385,
    1386,
    1384,
    1386,
    1384,
    1388,
    1383,
    1387,
    1383,
    1384,
    1388,
    1387,
    1385,
    1384,
    1383,
    1384,
    1092,
    6,
    2,
    1,
    6,
    5,
    3,
    4,
    3,
    2,
    3,
    2,
    4,
    6,
    1,
    6,
    4,
    6,
    4,
    1,
    6,
    2,
    3,
    6,
    1,
    4,
    4,
    2,
    5,
    6,
    3,
    5,
    1,
    3,
    5,
    1085,
    2,
    1,
    6,
    961,
    962,
    703,
    719,
    719,
    399,
    703,
    703,
    703,
    368,
    703,
    719,
    1319,
    1320,
    703,
    719,
    703,
    703,
    1303,
    1304,
    719,
    703,
    719,
    703,
    719,
    703,
    368,
    959,
    960,
    1115,
    1116,
    1087,
    1117,
    1086,
    1087,
    1083,
    5,
    2,
    1122,
    1386,
    1388,
    1385,
    1386,
    1385,
    1384,
    1385,
    1387,
    1387,
    1383,
    1387,
    1385,
    1388,
    1388,
    1388,
    1388,
    1384,
    1384,
    1388,
    1388,
    1384,
    1384,
    1383,
    1385,
    1388,
    1385,
    1386,
    1387,
    1383,
    1386,
    1387,
    1387,
    1386,
    1386,
    1383,
    1383,
    1386,
    1386,
    1385,
    1387,
    1388,
    1387,
    1388,
    1385,
    1386,
    1385,
    1386,
    1388,
    1384,
    1385,
    1108,
    1109,
    4,
    1,
    1,
    6,
    6,
    1,
    5,
    5,
    2,
    2,
    1,
    1,
    5,
    1,
    2,
    5,
    4,
    1,
    5,
    5,
    3,
    4,
    3,
    4,
    2,
    4,
    5,
    1,
    4,
    5,
    4,
    13,
    1100,
    1101,
    1102,
    1,
    6,
    929,
    930,
    719,
    703,
    703,
    367,
    719,
    703,
    719,
    384,
    719,
    703,
    703,
    703,
    703,
    1304,
    719,
    703,
    703,
    1320,
    719,
    703,
    703,
    719,
    368,
    719,
    703,
    941,
    942,
    1115,
    1116,
    1083,
    1117,
    1117,
    1117,
    1117,
    7,
    3,
    5,
    1122,
    1384,
    1386,
    1383,
    1384,
    1384,
    1384,
    1383,
    1385,
    1383,
    1384,
    1384,
    1386,
    1383,
    1384,
    1383,
    1384,
    1387,
    1383,
    1384,
    1387,
    1386,
    1388,
    1385,
    1388,
    1386,
    1384,
    1387,
    1385,
    1384,
    1384,
    1384,
    1384,
    1386,
    1385,
    1384,
    1387,
    1386,
    1387,
    1384,
    1388,
    1384,
    1388,
    1383,
    1384,
    1383,
    1385,
    1388,
    1383,
    1165,
    1108,
    2,
    5,
    3,
    6,
    6,
    1,
    1152,
    1,
    2,
    3,
    1,
    1,
    6,
    1,
    3,
    3,
    3,
    6,
    4,
    2,
    4,
    4,
    6,
    2,
    5,
    4,
    6,
    4,
    4,
    4,
    4,
    3,
    1100,
    1195,
    1086,
    1196,
    1102,
    2,
    945,
    946,
    703,
    719,
    719,
    703,
    703,
    719,
    703,
    703,
    703,
    719,
    719,
    719,
    719,
    1320,
    1320,
    719,
    719,
    703,
    400,
    719,
    719,
    383,
    703,
    703,
    719,
    957,
    958,
    7,
    1132,
    1195,
    1087,
    1117,
    1086,
    1086,
    7,
    1,
    3,
    1105,
    1106,
    1164,
    1388,
    1383,
    1383,
    1386,
    1386,
    1387,
    1388,
    1383,
    1385,
    1384,
    1386,
    1384,
    1383,
    1386,
    1386,
    1386,
    1385,
    1384,
    1388,
    1384,
    1386,
    1387,
    1388,
    1385,
    1384,
    1385,
    1387,
    1384,
    1388,
    1385,
    1383,
    1385,
    1387,
    1385,
    1388,
    1383,
    1383,
    1385,
    1387,
    1383,
    1386,
    1383,
    1387,
    1387,
    1388,
    1387,
    1384,
    1108,
    5,
    6,
    3,
    5,
    4,
    1,
    3,
    4,
    3,
    5,
    4,
    6,
    5,
    1,
    2,
    4,
    1,
    1,
    3,
    4,
    2,
    4,
    6,
    3,
    3,
    3,
    1,
    3,
    5,
    3,
    3,
    1100,
    1086,
    1087,
    1083,
    1117,
    1196,
    1119,
    961,
    962,
    719,
    703,
    703,
    703,
    703,
    719,
    703,
    719,
    719,
    399,
    719,
    719,
    719,
    399,
    703,
    719,
    719,
    719,
    703,
    719,
    719,
    703,
    703,
    719,
    1304,
    973,
    974,
    7,
    1115,
    1116,
    1083,
    1086,
    1087,
    1083,
    6,
    5,
    4,
    1105,
    1106,
    1386,
    1386,
    1387,
    1384,
    1165,
    1385,
    1387,
    1388,
    1384,
    1388,
    1385,
    1388,
    1384,
    1387,
    1383,
    1182,
    1388,
    1384,
    1147,
    1388,
    1384,
    1385,
    1385,
    1386,
    1384,
    1385,
    1385,
    1385,
    1388,
    1386,
    1386,
    1387,
    1385,
    1385,
    1388,
    1385,
    1388,
    1388,
    1388,
    1388,
    1388,
    1385,
    1387,
    1385,
    1383,
    1386,
    1387,
    1164,
    1124,
    3,
    3,
    6,
    6,
    5,
    4,
    1,
    1,
    2,
    6,
    6,
    2,
    6,
    5,
    6,
    6,
    4,
    5,
    4,
    4,
    4,
    6,
    3,
    3,
    1,
    4,
    6,
    1,
    4,
    1104,
    1115,
    1116,
    1086,
    1087,
    1086,
    1087,
    1135,
    3,
    929,
    930,
    703,
    703,
    719,
    719,
    719,
    719,
    719,
    719,
    719,
    399,
    400,
    719,
    719,
    719,
    719,
    703,
    719,
    703,
    987,
    988,
    983,
    719,
    703,
    719,
    989,
    990,
    991,
    7,
    1100,
    1086,
    1087,
    1083,
    1117,
    1134,
    3,
    13,
    6,
    3,
    1122,
    1386,
    1388,
    1383,
    1388,
    1383,
    1387,
    1383,
    1384,
    1386,
    1386,
    1386,
    1385,
    1383,
    1388,
    1383,
    1384,
    1388,
    1386,
    1388,
    1386,
    1384,
    1385,
    1384,
    1383,
    1163,
    1387,
    1388,
    1385,
    1388,
    1385,
    1385,
    1383,
    1386,
    1384,
    1383,
    1387,
    1388,
    1384,
    1383,
    1385,
    1386,
    1387,
    1383,
    1386,
    1385,
    1387,
    1386,
    1108,
    1109,
    3,
    5,
    6,
    4,
    1,
    2,
    1,
    1,
    6,
    2,
    1,
    6,
    6,
    1,
    5,
    3,
    5,
    1,
    4,
    4,
    3,
    5,
    5,
    6,
    6,
    3,
    3,
    4,
    6,
    1,
    1115,
    1116,
    1086,
    1086,
    1083,
    1117,
    1119,
    3,
    945,
    946,
    719,
    719,
    399,
    719,
    703,
    383,
    987,
    988,
    975,
    976,
    983,
    984,
    992,
    383,
    703,
    719,
    719,
    944,
    1003,
    1004,
    999,
    1000,
    719,
    944,
    1005,
    1006,
    1085,
    1099,
    1083,
    1083,
    1117,
    1083,
    1135,
    1,
    4,
    6,
    1,
    1,
    1090,
    1386,
    1384,
    1385,
    1387,
    1383,
    1386,
    1386,
    1387,
    1387,
    1387,
    1386,
    1384,
    1383,
    731,
    732,
    1388,
    1383,
    1182,
    1182,
    1385,
    1386,
    1383,
    1385,
    1387,
    1385,
    1387,
    1383,
    1384,
    1387,
    1386,
    1388,
    1383,
    1384,
    1386,
    1386,
    1385,
    1388,
    1384,
    1384,
    1388,
    1385,
    1386,
    1383,
    1383,
    1387,
    1387,
    1165,
    1108,
    1109,
    4,
    5,
    1,
    5,
    3,
    2,
    3,
    5,
    5,
    5,
    2,
    2,
    4,
    2,
    5,
    3,
    5,
    3,
    6,
    1,
    4,
    1,
    1,
    1,
    4,
    13,
    6,
    1,
    4,
    5,
    1100,
    1116,
    1086,
    1086,
    1087,
    1118,
    1119,
    3,
    961,
    962,
    399,
    719,
    399,
    703,
    719,
    944,
    1003,
    1004,
    15,
    16,
    999,
    1000,
    1008,
    399,
    719,
    703,
    959,
    960,
    4,
    3,
    939,
    940,
    959,
    960,
    1,
    1100,
    1101,
    1086,
    1087,
    1117,
    1087,
    1086,
    1103,
    1085,
    5,
    2,
    2,
    1090,
    1387,
    1388,
    1386,
    1385,
    1385,
    1385,
    1386,
    1384,
    1388,
    1385,
    1387,
    1387,
    1388,
    1385,
    747,
    748,
    731,
    732,
    1387,
    731,
    732,
    1182,
    1385,
    1383,
    1386,
    1383,
    1385,
    1383,
    1385,
    1384,
    1386,
    1386,
    1385,
    1383,
    1388,
    1386,
    1384,
    1387,
    1388,
    1385,
    1386,
    1388,
    1385,
    1387,
    1386,
    1385,
    1387,
    1386,
    1108,
    1109,
    1,
    2,
    5,
    5,
    6,
    2,
    2,
    4,
    2,
    1,
    4,
    5,
    5,
    1,
    1,
    1,
    13,
    1,
    3,
    5,
    6,
    3,
    3,
    5,
    1,
    3,
    5,
    4,
    1,
    1100,
    1086,
    1087,
    1117,
    1083,
    1117,
    1134,
    6,
    3,
    939,
    940,
    703,
    1320,
    992,
    719,
    959,
    960,
    1152,
    2,
    31,
    32,
    980,
    981,
    982,
    1319,
    703,
    719,
    1438,
    1439,
    1440,
    938,
    955,
    956,
    941,
    942,
    1115,
    1116,
    12,
    1087,
    1117,
    1086,
    1087,
    1083,
    1083,
    1101,
    1,
    5,
    1105,
    1106,
    1163,
    1386,
    1383,
    1386,
    1385,
    1386,
    1384,
    1386,
    1384,
    1385,
    1384,
    1386,
    1386,
    1163,
    1385,
    1182,
    747,
    748,
    1387,
    747,
    748,
    1387,
    1147,
    1387,
    1388,
    1384,
    1386,
    1387,
    1383,
    1383,
    1384,
    1387,
    1387,
    1386,
    1383,
    1387,
    1387,
    1384,
    1383,
    1388,
    1386,
    1387,
    1385,
    1388,
    1385,
    1385,
    1387,
    1385,
    1124,
    5,
    5,
    2,
    4,
    4,
    2,
    2,
    6,
    6,
    4,
    4,
    3,
    2,
    4,
    5,
    2,
    4,
    2,
    5,
    4,
    6,
    5,
    4,
    3,
    2,
    1,
    4,
    4,
    1152,
    1100,
    1117,
    1083,
    1117,
    1086,
    1087,
    1118,
    1119,
    932,
    933,
    955,
    956,
    719,
    368,
    1008,
    368,
    941,
    942,
    6,
    4,
    6,
    5,
    996,
    997,
    998,
    983,
    719,
    719,
    703,
    1455,
    1456,
    954,
    971,
    972,
    957,
    958,
    2,
    1132,
    1083,
    1117,
    1117,
    1117,
    1086,
    1087,
    1117,
    1180,
    2,
    6,
    1090,
    1388,
    1386,
    1384,
    1388,
    1383,
    1387,
    1386,
    1385,
    1384,
    1385,
    1388,
    1386,
    1388,
    1383,
    1388,
    1385,
    1385,
    1182,
    731,
    732,
    1388,
    731,
    732,
    1385,
    1384,
    1386,
    1386,
    1388,
    1386,
    1384,
    1386,
    1384,
    1384,
    1388,
    1385,
    1388,
    1383,
    1383,
    1386,
    1386,
    1386,
    1386,
    1383,
    1383,
    1387,
    1383,
    1163,
    1386,
    1124,
    4,
    3,
    3,
    3,
    1,
    3,
    4,
    4,
    3,
    4,
    4,
    2,
    3,
    2,
    2,
    4,
    15,
    16,
    6,
    2,
    1,
    5,
    6,
    6,
    5,
    5,
    4,
    5,
    4,
    1100,
    1196,
    1087,
    1117,
    1087,
    1083,
    1117,
    1134,
    947,
    948,
    949,
    971,
    703,
    383,
    703,
    703,
    703,
    957,
    958,
    5,
    2,
    5,
    4,
    7,
    3,
    3,
    999,
    1000,
    703,
    703,
    1471,
    1472,
    970,
    703,
    703,
    1015,
    1016,
    1017,
    1152,
    1132,
    1195,
    1087,
    1117,
    1087,
    1117,
    1086,
    1087,
    1090,
    1091,
    1385,
    1388,
    1383,
    1383,
    1384,
    1383,
    1386,
    1385,
    1384,
    1387,
    1387,
    1388,
    1385,
    1383,
    1383,
    1384,
    1182,
    1386,
    733,
    747,
    748,
    1388,
    747,
    748,
    1383,
    1383,
    1388,
    1385,
    1384,
    1383,
    1384,
    1385,
    1386,
    1383,
    1386,
    1383,
    1383,
    1387,
    1385,
    1384,
    1388,
    1384,
    1387,
    1385,
    1384,
    1383,
    1388,
    1123,
    1124,
    3,
    6,
    5,
    6,
    1,
    1,
    1,
    3,
    6,
    3,
    3,
    1,
    3,
    1,
    4,
    1,
    6,
    31,
    32,
    6,
    1,
    5,
    4,
    5,
    15,
    16,
    1,
    4,
    6,
    1115,
    12,
    1087,
    1117,
    1086,
    1087,
    1083,
    1118,
    1119,
    963,
    964,
    965,
    703,
    719,
    399,
    719,
    719,
    719,
    973,
    974,
    6,
    15,
    16,
    4,
    7,
    1152,
    1,
    929,
    930,
    719,
    719,
    987,
    988,
    983,
    719,
    719,
    1031,
    1032,
    1033,
    1034,
    3,
    1132,
    1133,
    1083,
    1083,
    1117,
    1086,
    1087,
    1164,
    1383,
    1387,
    1383,
    1383,
    1385,
    1384,
    1385,
    1383,
    1387,
    1385,
    1388,
    1386,
    1386,
    1388,
    1387,
    1384,
    1388,
    1388,
    1150,
    1151,
    1182,
    1163,
    731,
    732,
    1182,
    1387,
    1147,
    1388,
    1384,
    1386,
    1387,
    1388,
    1383,
    1385,
    1386,
    1385,
    1383,
    1386,
    1387,
    1385,
    1386,
    1386,
    1384,
    1385,
    1386,
    1388,
    1388,
    1124,
    5,
    3,
    4,
    5,
    5,
    3,
    4,
    6,
    1,
    2,
    5,
    2,
    6,
    3,
    6,
    1,
    5,
    1,
    2,
    6,
    6,
    1,
    6,
    4,
    5,
    2,
    31,
    32,
    4,
    5,
    3,
    1115,
    1196,
    1180,
    1117,
    1117,
    1117,
    1117,
    1118,
    1119,
    929,
    930,
    367,
    719,
    703,
    1320,
    719,
    703,
    703,
    1015,
    1016,
    1017,
    31,
    32,
    3,
    2,
    4,
    2,
    945,
    946,
    719,
    944,
    1003,
    1004,
    999,
    1000,
    719,
    1047,
    703,
    1049,
    1050,
    5,
    1,
    1084,
    1132,
    1086,
    1180,
    1087,
    1117,
    1386,
    1383,
    1386,
    1385,
    1385,
    1388,
    1384,
    1388,
    1383,
    1385,
    1388,
    1387,
    1383,
    1383,
    1385,
    1383,
    1386,
    1182,
    1388,
    1166,
    1167,
    1385,
    1383,
    747,
    748,
    1384,
    733,
    1386,
    1385,
    1384,
    1384,
    1383,
    1387,
    1384,
    1384,
    1387,
    1388,
    1388,
    1386,
    1385,
    1385,
    1384,
    1384,
    1385,
    1385,
    1388,
    1388,
    1108,
    4,
    4,
    2,
    6,
    4,
    1,
    4,
    2,
    2,
    3,
    1,
    5,
    15,
    16,
    1,
    2,
    3,
    1,
    1,
    2,
    4,
    5,
    5,
    5,
    4,
    4,
    4,
    6,
    5,
    3,
    2,
    3,
    1100,
    1116,
    1086,
    1087,
    1117,
    1086,
    1083,
    1118,
    1119,
    945,
    946,
    383,
    703,
    703,
    703,
    383,
    719,
    719,
    703,
    1032,
    1033,
    1034,
    4,
    4,
    5,
    6,
    1,
    961,
    962,
    959,
    960,
    4,
    3,
    939,
    940,
    992,
    1304,
    719,
    1438,
    1439,
    1440,
    1019,
    1020,
    1021,
    1131,
    1083,
    1083,
    12,
    1387,
    1386,
    1383,
    1385,
    1383,
    1388,
    1387,
    1388,
    1385,
    1164,
    1383,
    1385,
    1386,
    1384,
    1384,
    1388,
    1385,
    1385,
    1387,
    1383,
    1383,
    1383,
    1147,
    1385,
    1182,
    1384,
    1383,
    1387,
    1388,
    1383,
    1383,
    1383,
    1383,
    1384,
    1386,
    1386,
    1387,
    1386,
    1385,
    1385,
    1388,
    1385,
    1385,
    1387,
    1387,
    1385,
    1165,
    1108,
    4,
    5,
    15,
    16,
    3,
    1,
    6,
    5,
    4,
    3,
    2,
    1,
    31,
    32,
    4,
    5,
    13,
    3,
    3,
    6,
    6,
    4,
    4,
    1,
    5,
    5,
    1,
    6,
    6,
    5,
    3,
    1115,
    1116,
    1086,
    1087,
    1117,
    1087,
    1086,
    1087,
    1134,
    3,
    961,
    962,
    399,
    719,
    719,
    703,
    399,
    703,
    1304,
    719,
    1048,
    1049,
    1050,
    4,
    1,
    3,
    3,
    3,
    939,
    940,
    1438,
    1439,
    1440,
    938,
    955,
    956,
    1008,
    1320,
    703,
    1454,
    1455,
    1456,
    1035,
    1036,
    1037,
    1038,
    1132,
    1086,
    1196,
    1383,
    1387,
    1383,
    1388,
    1383,
    1386,
    1386,
    1386,
    1383,
    1388,
    1384,
    1388,
    1387,
    1386,
    1386,
    1388,
    1383,
    1383,
    1387,
    1386,
    733,
    1383,
    1384,
    1386,
    1385,
    1388,
    1385,
    1387,
    1386,
    1383,
    1388,
    1386,
    1384,
    1388,
    1384,
    1383,
    1386,
    1388,
    1387,
    1383,
    1383,
    1384,
    1385,
    1386,
    1385,
    1387,
    1383,
    1108,
    3,
    6,
    31,
    32,
    5,
    6,
    5,
    6,
    5,
    1,
    1088,
    6,
    5,
    3,
    2,
    4,
    1,
    1,
    3,
    4,
    6,
    4,
    6,
    3,
    3,
    3,
    3,
    1,
    1,
    13,
    2,
    1115,
    1116,
    1087,
    1117,
    1086,
    1087,
    1083,
    1117,
    1119,
    6,
    929,
    930,
    703,
    719,
    719,
    703,
    703,
    719,
    703,
    368,
    1304,
    1438,
    1439,
    1440,
    937,
    936,
    937,
    938,
    955,
    956,
    1454,
    1455,
    1456,
    954,
    971,
    972,
    703,
    703,
    719,
    703,
    1471,
    1472,
    1051,
    1052,
    1053,
    1054,
    1,
    1132,
    1133,
    1384,
    1386,
    1384,
    1386,
    1387,
    1387,
    1387,
    1388,
    1388,
    1387,
    1383,
    1385,
    1383,
    1384,
    1388,
    1383,
    1383,
    1388,
    1387,
    1388,
    1384,
    1383,
    1386,
    1388,
    1387,
    1387,
    1383,
    1387,
    1386,
    1384,
    1383,
    1387,
    1385,
    1383,
    1385,
    1387,
    1388,
    1386,
    1385,
    1384,
    1388,
    1386,
    1388,
    1385,
    1385,
    1384,
    1383,
    1383,
    1092,
    1088,
    6,
    1,
    3,
    6,
    3,
    3,
    3,
    1,
    3,
    5,
    6,
    3,
    3,
    6,
    5,
    6,
    2,
    6,
    5,
    3,
    1,
    6,
    6,
    6,
    3,
    5,
    2,
    3,
    1,
    1115,
    1116,
    1083,
    1117,
    1117,
    1117,
    1086,
    1087,
    1119,
    3,
    945,
    946,
    719,
    368,
    1304,
    367,
    719,
    383,
    703,
    703,
    368,
    1454,
    1455,
    1456,
    953,
    952,
    953,
    954,
    971,
    703,
    703,
    1471,
    1472,
    970,
    703,
    703,
    703,
    719,
    703,
    719,
    703,
    703,
    368,
    1068,
    1069,
    1070,
    1152,
    1,
    6,
    1384,
    1385,
    1387,
    1385,
    1384,
    1384,
    1384,
    1384,
    1386,
    1387,
    1387,
    1387,
    1387,
    1387,
    1384,
    1387,
    1385,
    1384,
    1383,
    1388,
    1386,
    1388,
    1387,
    1384,
    1385,
    1384,
    1386,
    1388,
    1385,
    1384,
    1388,
    1385,
    1388,
    1384,
    1387,
    1385,
    1388,
    1387,
    1387,
    1385,
    1387,
    1384,
    1384,
    1383,
    1383,
    1383,
    1388,
    1163,
    1388,
    1092,
    5,
    1,
    2,
    4,
    5,
    3,
    5,
    1,
    4,
    5,
    6,
    6,
    2,
    2,
    1,
    4,
    4,
    2,
    1,
    4,
    1,
    4,
    5,
    4,
    4,
    6,
    2,
    6,
    1152,
    1100,
    1086,
    1087,
    1117,
    1087,
    1086,
    1083,
    1195,
    1102,
    1,
    961,
    962,
    703,
    703,
    703,
    703,
    703,
    703,
    703,
    703,
    368,
    703,
    1471,
    1472,
    969,
    968,
    969,
    970,
    703,
    703,
    719,
    1320,
    703,
    1319,
    703,
    719,
    719,
    703,
    719,
    703,
    719,
    719,
    703,
    703,
    1438,
    1439,
    1440,
    1019,
    1020,
    1384,
    1384,
    1386,
    1384,
    1386,
    1388,
    1385,
    1386,
    1384,
    1386,
    1387,
    1384,
    1385,
    1386,
    1384,
    1386,
    1386,
    1385,
    1383,
    1386,
    1387,
    1387,
    1384,
    1385,
    1388,
    1387,
    1387,
    1385,
    1383,
    1388,
    1386,
    1385,
    1385,
    1386,
    1387,
    1383,
    1383,
    1386,
    1384,
    1383,
    1387,
    1388,
    1387,
    1383,
    1383,
    1388,
    1383,
    1388,
    1383,
    1383,
    1091,
    1091,
    1092,
    1152,
    3,
    2,
    1,
    4,
    4,
    2,
    2,
    6,
    6,
    2,
    3,
    5,
    1,
    4,
    2,
    2,
    4,
    4,
    2,
    1,
    6,
    6,
    3,
    1,
    1115,
    1116,
    1087,
    1117,
    1086,
    1087,
    1083,
    1117,
    1087,
    1086,
    1102,
    977,
    978,
    719,
    703,
    1319,
    719,
    719,
    703,
    719,
    703,
    703,
    719,
    1304,
    1319,
    1320,
    1319,
    1320,
    1319,
    719,
    719,
    719,
    719,
    719,
    1320,
    719,
    719,
    719,
    719,
    367,
    719,
    703,
    703,
    703,
    719,
    1454,
    1455,
    1456,
    1035,
    1036,
    1386,
    1387,
    1383,
    1386,
    1386,
    1387,
    1384,
    1383,
    1385,
    1384,
    1385,
    1386,
    1387,
    1385,
    1386,
    1387,
    1387,
    1388,
    1386,
    1383,
    1387,
    1383,
    1385,
    1384,
    1387,
    1384,
    1383,
    1383,
    1388,
    1387,
    1388,
    1385,
    1388,
    1384,
    1383,
    1387,
    1388,
    1383,
    1384,
    1388,
    1387,
    1383,
    1387,
    1385,
    1385,
    1388,
    1385,
    1383,
    1388,
    1387,
    1383,
    1387,
    1164,
    1093,
    1,
    1,
    3,
    3,
    3,
    5,
    1152,
    5,
    4,
    6,
    5,
    1,
    2,
    3,
    3,
    2,
    5,
    5,
    3,
    4,
    6,
    5,
    3,
    2,
    1115,
    1116,
    1083,
    1117,
    1117,
    1117,
    1117,
    1086,
    1087,
    1083,
    1118,
    1119,
    994,
    995,
    719,
    703,
    1319,
    703,
    719,
    703,
    719,
    719,
    1320,
    987,
    988,
    975,
    976,
    975,
    976,
    975,
    976,
    975,
    976,
    985,
    986,
    987,
    988,
    975,
    976,
    983,
    719,
    719,
    703,
    703,
    367,
    368,
    1471,
    1472,
    1051,
    1052,
    1388,
    1387,
    1383,
    1385,
    1385,
    1385,
    1387,
    1388,
    1385,
    1388,
    1386,
    1383,
    1388,
    1386,
    1385,
    1388,
    1388,
    1386,
    1386,
    1385,
    1383,
    1383,
    1388,
    1386,
    1388,
    1384,
    1385,
    1387,
    1385,
    1383,
    1383,
    1387,
    1383,
    1388,
    1384,
    1386,
    1383,
    1386,
    1386,
    1388,
    1388,
    1384,
    1383,
    1384,
    1384,
    1388,
    1388,
    1387,
    1383,
    1386,
    1384,
    1386,
    1163,
    1384,
    1092,
    6,
    2,
    2,
    5,
    4,
    6,
    3,
    6,
    5,
    3,
    1,
    3,
    4,
    6,
    3,
    3,
    4,
    4,
    5,
    5,
    3,
    5,
    6,
    1,
    1132,
    1086,
    1087,
    1117,
    1086,
    1083,
    1117,
    1117,
    1117,
    1118,
    1119,
    929,
    930,
    367,
    719,
    1320,
    719,
    399,
    719,
    719,
    1320,
    944,
    1003,
    1004,
    5,
    4,
    1,
    1090,
    1091,
    1092,
    7,
    5,
    1001,
    1002,
    1003,
    1004,
    15,
    16,
    999,
    1000,
    703,
    719,
    703,
    368,
    703,
    703,
    367,
    368,
    1068,
    1384,
    1383,
    1388,
    1388,
    1383,
    1384,
    1387,
    1384,
    1387,
    1385,
    1386,
    1386,
    1386,
    1384,
    1386,
    1384,
    1383,
    1388,
    1388,
    1383,
    1384,
    1384,
    1385,
    1388,
    1384,
    1385,
    1383,
    1387,
    1387,
    1387,
    1384,
    1388,
    1388,
    1386,
    1385,
    1384,
    1386,
    1383,
    1383,
    1385,
    1388,
    1385,
    1384,
    1383,
    1385,
    1388,
    1383,
    1384,
    1388,
    1384,
    1383,
    1385,
    1383,
    1384,
    1165,
    1093,
    2,
    1,
    3,
    6,
    3,
    6,
    6,
    4,
    5,
    1,
    6,
    6,
    1,
    3,
    4,
    1,
    6,
    6,
    5,
    2,
    6,
    5,
    1,
    1104,
    1131,
    1086,
    1087,
    1086,
    1087,
    1117,
    1086,
    1083,
    1118,
    1119,
    945,
    946,
    383,
    703,
    703,
    703,
    368,
    719,
    1303,
    959,
    960,
    1090,
    1091,
    1091,
    1091,
    1091,
    1107,
    1076,
    1077,
    1091,
    1091,
    1092,
    15,
    16,
    1152,
    31,
    32,
    939,
    940,
    719,
    703,
    719,
    384,
    719,
    703,
    383,
    384,
    703,
    1383,
    1387,
    1387,
    1388,
    1385,
    1387,
    1387,
    1388,
    1383,
    1384,
    1386,
    1387,
    1387,
    1385,
    1385,
    1384,
    1388,
    1385,
    1383,
    1388,
    1386,
    1386,
    1383,
    1385,
    1383,
    1387,
    1383,
    1384,
    1383,
    1385,
    1386,
    1385,
    1386,
    1384,
    1387,
    1385,
    1383,
    1387,
    1388,
    1384,
    1387,
    1385,
    1387,
    1388,
    1385,
    1383,
    1387,
    1383,
    1386,
    1386,
    1388,
    1386,
    1387,
    1384,
    1386,
    1388,
    1092,
    5,
    4,
    5,
    3,
    4,
    1,
    2,
    1,
    5,
    5,
    1,
    2,
    1,
    5,
    3,
    3,
    3,
    5,
    5,
    4,
    5,
    4,
    5,
    1115,
    1086,
    1087,
    1117,
    1087,
    1086,
    1086,
    1087,
    1134,
    4,
    961,
    962,
    399,
    719,
    703,
    719,
    384,
    719,
    989,
    990,
    1090,
    1388,
    1164,
    1383,
    1387,
    1150,
    1151,
    1387,
    1383,
    1387,
    1182,
    1163,
    1093,
    32,
    2,
    932,
    933,
    955,
    956,
    703,
    719,
    399,
    703,
    703,
    719,
    703,
    703,
    719,
    1388,
    1386,
    1388,
    1383,
    1385,
    1386,
    1384,
    1385,
    1387,
    1387,
    1383,
    1385,
    1385,
    1388,
    1384,
    1386,
    1387,
    1386,
    1384,
    1383,
    1383,
    1387,
    1385,
    1386,
    1387,
    1383,
    1385,
    1387,
    1383,
    1385,
    1384,
    1383,
    1386,
    1385,
    1384,
    1388,
    1384,
    1383,
    1384,
    1384,
    1385,
    1383,
    1385,
    1385,
    1383,
    1385,
    1383,
    1388,
    1383,
    1383,
    1384,
    1388,
    1387,
    1386,
    1164,
    1387,
    1108,
    6,
    2,
    3,
    2,
    4,
    4,
    4,
    4,
    3,
    1,
    3,
    1,
    5,
    5,
    4,
    3,
    4,
    4,
    2,
    4,
    6,
    6,
    3,
    1115,
    1116,
    1117,
    1086,
    1087,
    1086,
    1087,
    1134,
    1104,
    7,
    939,
    940,
    1319,
    1319,
    719,
    703,
    1320,
    944,
    1005,
    1006,
    1122,
    1182,
    1388,
    1182,
    1386,
    1166,
    1167,
    1386,
    1387,
    1182,
    1387,
    1384,
    1385,
    1092,
    947,
    948,
    949,
    971,
    703,
    703,
    719,
    1320,
    719,
    703,
    383,
    719,
    719,
    368,
    1387,
    1387,
    1384,
    1388,
    1384,
    1385,
    1385,
    1387,
    1386,
    1383,
    1385,
    1384,
    1385,
    1386,
    1384,
    1386,
    1386,
    1385,
    1386,
    1387,
    1387,
    1383,
    1388,
    1385,
    1387,
    1386,
    1386,
    1386,
    1387,
    1388,
    1386,
    1386,
    1388,
    1385,
    1383,
    1388,
    1383,
    1387,
    1388,
    1384,
    1386,
    1388,
    1387,
    1383,
    1383,
    1385,
    1388,
    1384,
    1388,
    1386,
    1388,
    1387,
    1385,
    1383,
    1383,
    1386,
    1108,
    1109,
    4,
    2,
    5,
    2,
    4,
    3,
    3,
    1,
    3,
    6,
    6,
    5,
    1,
    1,
    6,
    3,
    4,
    4,
    6,
    5,
    5,
    3,
    1100,
    1083,
    1117,
    1117,
    1117,
    1117,
    1118,
    1119,
    932,
    933,
    955,
    956,
    367,
    1319,
    703,
    719,
    959,
    960,
    4,
    3,
    1090,
    1388,
    1386,
    11,
    1383,
    1383,
    1182,
    1383,
    731,
    732,
    1386,
    1387,
    1182,
    1108,
    963,
    964,
    965,
    703,
    703,
    719,
    703,
    703,
    719,
    719,
    703,
    703,
    367,
    368,
    1388,
    1384,
    1388,
    1387,
    1385,
    1383,
    1386,
    1384,
    1388,
    1386,
    1384,
    1386,
    1388,
    1384,
    1385,
    1386,
    1387,
    1388,
    1385,
    1386,
    1388,
    1384,
    1383,
    1385,
    1385,
    1385,
    1385,
    1384,
    1384,
    1385,
    1387,
    1386,
    1385,
    1388,
    1385,
    1385,
    1385,
    1387,
    1384,
    1386,
    1385,
    1388,
    1387,
    1384,
    1388,
    1384,
    1388,
    1383,
    1386,
    1385,
    1385,
    1387,
    1383,
    1387,
    1384,
    1386,
    1108,
    6,
    6,
    3,
    6,
    5,
    1,
    1,
    6,
    6,
    4,
    5,
    5,
    1,
    6,
    5,
    1,
    6,
    2,
    4,
    2,
    4,
    1152,
    1100,
    1117,
    1086,
    1087,
    1117,
    1086,
    1083,
    1135,
    947,
    948,
    949,
    971,
    703,
    703,
    384,
    703,
    719,
    941,
    942,
    7,
    1090,
    1385,
    1182,
    1387,
    1383,
    731,
    732,
    1165,
    1385,
    747,
    748,
    733,
    1386,
    1385,
    1124,
    929,
    930,
    384,
    719,
    719,
    399,
    719,
    719,
    367,
    368,
    719,
    703,
    383,
    703,
    1388,
    1387,
    1387,
    1388,
    1385,
    1383,
    1385,
    1384,
    1388,
    1384,
    1385,
    1383,
    1386,
    1386,
    1386,
    1384,
    1384,
    1385,
    1388,
    1386,
    1386,
    1385,
    1385,
    1387,
    1388,
    1387,
    1386,
    1386,
    1388,
    1384,
    1383,
    1388,
    1385,
    1388,
    1384,
    1387,
    1383,
    1385,
    1383,
    1388,
    1385,
    1387,
    1388,
    1387,
    1385,
    1386,
    1384,
    1388,
    1384,
    1385,
    1385,
    1383,
    1388,
    1383,
    1384,
    1383,
    1165,
    1092,
    1,
    6,
    2,
    4,
    3,
    1,
    3,
    6,
    4,
    4,
    4,
    6,
    1,
    5,
    5,
    4,
    2,
    4,
    5,
    1,
    1100,
    1086,
    1087,
    1086,
    1180,
    1086,
    1087,
    1118,
    1119,
    963,
    964,
    965,
    1304,
    703,
    703,
    703,
    703,
    703,
    957,
    958,
    1105,
    1106,
    1388,
    1383,
    1386,
    1182,
    747,
    748,
    1147,
    1150,
    1151,
    1182,
    1387,
    1164,
    1108,
    1109,
    945,
    946,
    992,
    703,
    719,
    1179,
    703,
    719,
    383,
    384,
    1320,
    719,
    399,
    719,
    1386,
    1385,
    1385,
    1385,
    1383,
    1386,
    1384,
    1387,
    1388,
    1386,
    1388,
    1385,
    1384,
    1387,
    1387,
    1385,
    1386,
    1387,
    1388,
    1384,
    1387,
    1386,
    1386,
    1383,
    1386,
    1383,
    1387,
    1388,
    1383,
    1384,
    1385,
    1384,
    1387,
    1384,
    1383,
    1388,
    1387,
    1386,
    1384,
    1383,
    1385,
    1383,
    1385,
    1387,
    1386,
    1384,
    1383,
    1385,
    1388,
    1383,
    1386,
    1385,
    1387,
    1388,
    1386,
    1385,
    1388,
    1384,
    1092,
    2,
    6,
    1,
    4,
    1,
    15,
    16,
    1,
    4,
    6,
    2,
    13,
    6,
    6,
    1,
    4,
    1,
    1,
    1115,
    1116,
    1086,
    1087,
    1086,
    1087,
    1083,
    1117,
    1118,
    1119,
    929,
    930,
    1179,
    703,
    703,
    719,
    719,
    703,
    719,
    973,
    974,
    1105,
    1106,
    1384,
    1387,
    927,
    733,
    10,
    731,
    732,
    1166,
    1167,
    1387,
    1182,
    1387,
    1108,
    1109,
    961,
    962,
    1008,
    719,
    367,
    368,
    703,
    367,
    399,
    703,
    703,
    368,
    703,
    368,
    1386,
    1385,
    1385,
    1383,
    1387,
    1388,
    1383,
    1386,
    1387,
    1384,
    1385,
    1385,
    1386,
    1387,
    1387,
    1384,
    1383,
    1386,
    1384,
    1383,
    1385,
    1384,
    1383,
    1386,
    1388,
    1385,
    1384,
    1385,
    1388,
    1387,
    1385,
    1383,
    1387,
    1384,
    1383,
    1385,
    1388,
    1388,
    1385,
    1384,
    1385,
    1385,
    1386,
    1385,
    1386,
    1387,
    1387,
    1385,
    1386,
    1386,
    1384,
    1384,
    1385,
    1387,
    1386,
    1384,
    1388,
    1383,
    1108,
    1109,
    2,
    1,
    3,
    6,
    31,
    32,
    4,
    1,
    6,
    6,
    3,
    1,
    5,
    4,
    3,
    5,
    2,
    1115,
    1116,
    1086,
    1086,
    1083,
    1117,
    1086,
    1196,
    1134,
    7,
    945,
    946,
    703,
    719,
    703,
    703,
    719,
    719,
    989,
    990,
    991,
    1090,
    1383,
    1388,
    733,
    1383,
    1150,
    1151,
    747,
    748,
    733,
    731,
    732,
    1383,
    1386,
    1108,
    1109,
    929,
    930,
    703,
    384,
    703,
    703,
    703,
    703,
    703,
    703,
    719,
    703,
    719,
    384,
    1387,
    1383,
    1384,
    1387,
    1386,
    1383,
    1384,
    1388,
    1387,
    1388,
    1388,
    1388,
    1385,
    1383,
    1388,
    1386,
    1384,
    1383,
    1385,
    1388,
    1387,
    1388,
    1383,
    1386,
    1384,
    1385,
    1387,
    1386,
    1383,
    1387,
    1387,
    1385,
    1384,
    1384,
    1388,
    1385,
    1385,
    1388,
    1386,
    1387,
    1386,
    1386,
    1385,
    1386,
    1383,
    1388,
    1383,
    1388,
    1386,
    1386,
    1385,
    1387,
    1387,
    1385,
    1163,
    1387,
    1385,
    1388,
    1388,
    1092,
    6,
    3,
    4,
    2,
    6,
    5,
    5,
    1,
    1,
    4,
    6,
    2,
    6,
    2,
    1,
    6,
    3,
    1100,
    1086,
    1087,
    1117,
    1087,
    1086,
    1196,
    1134,
    1152,
    5,
    961,
    962,
    703,
    703,
    719,
    703,
    368,
    944,
    1005,
    1006,
    1090,
    1383,
    733,
    1383,
    1386,
    1387,
    1166,
    1167,
    1387,
    11,
    1383,
    747,
    748,
    1182,
    1387,
    1108,
    1109,
    945,
    946,
    719,
    703,
    719,
    719,
    719,
    703,
    719,
    719,
    399,
    367,
    368,
    400,
    1384,
    1388,
    1387,
    1383,
    1383,
    1383,
    1385,
    1385,
    1383,
    1383,
    1386,
    1387,
    1386,
    1384,
    1388,
    1383,
    1385,
    1383,
    1385,
    1386,
    1384,
    1387,
    1386,
    1385,
    1383,
    1388,
    1383,
    1383,
    1383,
    1383,
    1387,
    1388,
    1383,
    1384,
    1387,
    1388,
    1385,
    1383,
    1386,
    1387,
    1388,
    1386,
    1386,
    1388,
    1387,
    1387,
    1388,
    1388,
    1387,
    1387,
    1383,
    1385,
    1384,
    1383,
    1387,
    1384,
    1388,
    1388,
    1164,
    1108,
    1109,
    4,
    4,
    1,
    4,
    1,
    4,
    3,
    4,
    2,
    3,
    6,
    4,
    1,
    3,
    4,
    1115,
    12,
    1087,
    1117,
    1195,
    1087,
    1083,
    1118,
    1119,
    1,
    3,
    929,
    930,
    719,
    719,
    703,
    719,
    959,
    960,
    4,
    1090,
    1385,
    1385,
    1383,
    1383,
    1386,
    1383,
    1182,
    733,
    1386,
    1164,
    927,
    1385,
    1383,
    1384,
    1387,
    1384,
    1092,
    961,
    962,
    1320,
    719,
    719,
    1319,
    1320,
    719,
    703,
    719,
    703,
    383,
    384,
    719,
    1383,
    1388,
    1386,
    1386,
    1387,
    1384,
    1387,
    1383,
    1384,
    1383,
    1384,
    1386,
    1385,
    1384,
    1387,
    1383,
    1383,
    1385,
    1386,
    1383,
    1384,
    1383,
    1388,
    1385,
    1384,
    1388,
    1387,
    1388,
    1384,
    1388,
    1384,
    1383,
    1384,
    1388,
    1385,
    1387,
    1384,
    1384,
    1387,
    1383,
    1383,
    1388,
    1384,
    1384,
    1387,
    1384,
    1383,
    1385,
    1385,
    1383,
    1385,
    1383,
    1388,
    1383,
    1384,
    1388,
    1385,
    1387,
    1384,
    1108,
    6,
    5,
    1,
    5,
    2,
    4,
    5,
    4,
    1,
    6,
    1,
    15,
    16,
    1,
    4,
    4,
    1115,
    1116,
    1083,
    1117,
    1117,
    1117,
    1117,
    1118,
    1119,
    7,
    5,
    945,
    946,
    703,
    384,
    719,
    719,
    941,
    942,
    1105,
    1106,
    1383,
    1384,
    1164,
    1388,
    73,
    1386,
    1387,
    1386,
    1385,
    1383,
    1386,
    1386,
    733,
    1386,
    1384,
    1163,
    1124,
    939,
    940,
    1179,
    987,
    988,
    975,
    976,
    983,
    719,
    719,
    719,
    703,
    400,
    703,
    1387,
    1386,
    1383,
    1386,
    1388,
    1386,
    1384,
    1385,
    1384,
    1384,
    1387,
    1388,
    1386,
    1387,
    1386,
    1383,
    1387,
    1383,
    1384,
    1388,
    1387,
    1385,
    1388,
    1383,
    1383,
    1384,
    1383,
    1385,
    1385,
    1385,
    1383,
    1385,
    1386,
    1385,
    1387,
    1387,
    1386,
    1384,
    1385,
    1386,
    1388,
    1386,
    1384,
    1387,
    1386,
    1388,
    1385,
    1385,
    1386,
    1387,
    1385,
    1384,
    1387,
    1388,
    1387,
    1388,
    1384,
    1388,
    1387,
    1124,
    5,
    6,
    4,
    3,
    4,
    4,
    1,
    1,
    5,
    1,
    1,
    31,
    32,
    4,
    1,
    1152,
    1100,
    1086,
    1087,
    1087,
    1117,
    1086,
    1083,
    1117,
    1102,
    3,
    1,
    961,
    962,
    1304,
    703,
    1304,
    1319,
    957,
    958,
    3,
    1122,
    1123,
    1123,
    1384,
    1384,
    1147,
    1384,
    1386,
    1385,
    1387,
    1386,
    1385,
    1387,
    1385,
    1165,
    1388,
    1124,
    933,
    955,
    956,
    944,
    1003,
    1004,
    15,
    16,
    999,
    1000,
    367,
    368,
    719,
    368,
    719,
    1384,
    1385,
    1388,
    1383,
    1385,
    1388,
    1384,
    1387,
    1388,
    1383,
    1385,
    1385,
    1385,
    1388,
    1385,
    1384,
    1386,
    1388,
    1384,
    1383,
    1387,
    1383,
    1387,
    1386,
    1388,
    1383,
    1383,
    1384,
    1388,
    1383,
    1385,
    1388,
    1384,
    1383,
    1386,
    1385,
    1387,
    1387,
    1384,
    1388,
    1387,
    1388,
    1388,
    1383,
    1387,
    1386,
    1383,
    1383,
    1385,
    1385,
    1383,
    1387,
    1388,
    1386,
    1386,
    1385,
    1384,
    1387,
    1124,
    3,
    3,
    5,
    1,
    4,
    1,
    5,
    1,
    3,
    6,
    4,
    1,
    4,
    4,
    3,
    2,
    1100,
    1086,
    1087,
    1117,
    1086,
    1087,
    1117,
    1087,
    1086,
    1118,
    1119,
    1,
    929,
    930,
    367,
    719,
    719,
    703,
    973,
    974,
    5,
    2,
    7,
    5,
    1122,
    1123,
    1388,
    1387,
    1387,
    1165,
    1384,
    1123,
    1123,
    1123,
    1385,
    1384,
    1125,
    948,
    949,
    971,
    959,
    960,
    1088,
    1,
    47,
    32,
    939,
    940,
    703,
    703,
    367,
    368,
    384,
    1383,
    1386,
    1384,
    1388,
    1383,
    1384,
    1386,
    1388,
    1384,
    1383,
    1384,
    1384,
    1386,
    1385,
    1384,
    1383,
    1386,
    1387,
    1387,
    1383,
    1383,
    1383,
    1383,
    1387,
    1387,
    1385,
    1386,
    1385,
    1387,
    1385,
    1385,
    1387,
    1387,
    1383,
    1383,
    1383,
    1383,
    1384,
    1387,
    1384,
    1386,
    1384,
    1385,
    1388,
    1384,
    1384,
    1386,
    1387,
    1388,
    1384,
    1385,
    1384,
    1387,
    1387,
    1386,
    1387,
    1383,
    1108,
    1109,
    6,
    5,
    6,
    6,
    4,
    4,
    2,
    13,
    1,
    6,
    2,
    3,
    5,
    1,
    4,
    1100,
    1086,
    1087,
    1117,
    1086,
    1087,
    1117,
    1086,
    1087,
    1180,
    1118,
    1119,
    3,
    945,
    946,
    703,
    703,
    703,
    719,
    1438,
    1439,
    1440,
    936,
    937,
    1019,
    1020,
    1021,
    1122,
    1123,
    1123,
    1123,
    1124,
    6,
    6,
    5,
    1122,
    1124,
    963,
    964,
    965,
    703,
    1438,
    1439,
    1440,
    936,
    937,
    938,
    955,
    956,
    719,
    719,
    383,
    384,
    367,
    1384,
    1387,
    1388,
    1386,
    1387,
    1388,
    1383,
    1384,
    1387,
    1387,
    1388,
    1387,
    1383,
    1385,
    1387,
    1388,
    1386,
    1386,
    1388,
    1385,
    1387,
    1383,
    1384,
    1387,
    1384,
    1388,
    1386,
    1388,
    1386,
    1387,
    1384,
    1386,
    1387,
    1387,
    1386,
    1387,
    1383,
    1386,
    1383,
    1386,
    1383,
    1383,
    1383,
    1387,
    1388,
    1385,
    1388,
    1387,
    1384,
    1388,
    1383,
    1385,
    1384,
    1387,
    1384,
    1385,
    1165,
    1124,
    5,
    1,
    5,
    1,
    4,
    3,
    4,
    1,
    4,
    5,
    4,
    3,
    5,
    3,
    3,
    1115,
    1116,
    1180,
    1195,
    1117,
    1117,
    1083,
    1117,
    1117,
    1117,
    1086,
    12,
    1102,
    6,
    961,
    962,
    719,
    719,
    719,
    1304,
    1454,
    1455,
    1456,
    952,
    953,
    1035,
    1036,
    1037,
    1038,
    2,
    4,
    934,
    935,
    936,
    937,
    936,
    937,
    936,
    939,
    940,
    703,
    719,
    1454,
    1455,
    1456,
    952,
    953,
    954,
    971,
    992,
    703,
    367,
    399,
    400,
    383
   ]
  },
  {
   "id": 2,
   "name": "spawns",
   "type": "objectgroup",
   "x": 0,
   "y": 0,
   "width": 0,
   "height": 0,
   "opacity": 1,
   "visible": true,
   "draworder": "topdown",
   "objects": [
    {
     "height": 0,
     "id": 1,
     "name": "edge-1",
     "point": true,
     "rotation": 0,
     "type": "",
     "visible": true,
     "width": 0,
     "x": 2900,
     "y": 60
    },
    {
     "height": 0,
     "id": 2,
     "name": "edge-2",
     "point": true,
     "rotation": 0,
     "type": "",
     "visible": true,
     "width": 0,
     "x": 4860,
     "y": 60
    }
   ]
  },
  {
   "id": 3,
   "name": "collision",
   "type": "tilelayer",
   "x": 0,
   "y": 0,
   "width": 128,
   "height": 128,
   "opacity": 1,
   "visible": false,
   "data": [
    0,
    0,
    0,
    0,
    0,
    0,
    0,
    0,
    0,
    0,
    0,
    0,
    0,
    0,
    0,
    0,
    0,
    0,
    0,
    0,
    0,
    0,
    0,
    0,
    0,
    0,
    0,
    0,
    0,
    0,
    0,
    0,
    0,
    0,
    1552,
    1552,
    0,
    0,
    1552,
    1552,
    0,
    1552,
    1552,
    1552,
    1552,
    0,
    0,
    0,
    0,
    0,
    0,
    0,
    1552,
    1552,
    1552,
    1552,
    1552,
    1552,
    1552,
    0,
    0,
    1552,
    1552,
    1552,
    1552,
    1552,
    0,
    0,
    0,
    0,
    0,
    0,
    1552,
    0,
    0,
    0,
    0,
    0,
    0,
    0,
    0,
    0,
    0,
    0,
    0,
    0,
    0,
    0,
    0,
    0,
    0,
    0,
    0,
    0,
    0,
    0,
    0,
    0,
    0,
    0,
    0,
    0,
    0,
    0,
    0,
    0,
    0,
    1552,
    1552,
    1552,
    1552,
    0,
    0,
    0,
    0,
    0,
    0,
    0,
    0,
    0,
    0,
    1552,
    0,
    0,
    0,
    1552,
    1552,
    1552,
    0,
    0,
    0,
    0,
    0,
    0,
    0,
    0,
    0,
    0,
    0,
    0,
    0,
    0,
    0,
    0,
    0,
    0,
    0,
    0,
    0,
    0,
    0,
    0,
    0,
    0,
    0,
    0,
    0,
    0,
    0,
    0,
    1552,
    1552,
    1552,
    1552,
    1552,
    1552,
    1552,
    1552,
    1552,
    1552,
    1552,
    1552,
    1552,
    0,
    0,
    0,
    0,
    1552,
    1552,
    0,
    0,
    1552,
    1552,
    1552,
    1552,
    1552,
    1552,
    1552,
    1552,
    1552,
    1552,
    1552,
    1552,
    1552,
    0,
    0,
    0,
    0,
    0,
    0,
    0,
    0,
    0,
    0,
    0,
    0,
    0,
    0,
    0,
    0,
    0,
    0,
    0,
    0,
    0,
    0,
    0,
    0,
    0,
    0,
    0,
    0,
    0,
    0,
    0,
    0,
    0,
    0,
    0,
    0,
    0,
    0,
    0,
    0,
    1552,
    0,
    1552,
    1552,
    1552,
    1552,
    1552,
    0,
    0,
    0,
    0,
    0,
    0,
    0,
    0,
    0,
    0,
    0,
    0,
    0,
    1552,
    1552,
    1552,
    1552,
    0,
    0,
    0,
    0,
    0,
    0,
    0,
    0,
    0,
    0,
    0,
    0,
    0,
    0,
    0,
    0,
    0,
    0,
    0,
    0,
    0,
    0,
    0,
    0,
    0,
    0,
    0,
    0,
    0,
    0,
    1552,
    1552,
    0,
    0,
    1552,
    1552,
    0,
    1552,
    1552,
    1552,
    0,
    1552,
    1552,
    1552,
    1552,
    1552,
    1552,
    1552,
    1552,
    0,
    0,
    0,
    1552,
    1552,
    1552,
    1552,
    1552,
    1552,
    1552,
    1552,
    1552,
    1552,
    1552,
    1552,
    0,
    0,
    0,
    0,
    0,
    0,
    0,
    0,
    0,
    0,
    0,
    0,
    0,
    0,
    0,
    0,
    0,
    0,
    0,
    0,
    0,
    0,
    0,
    0,
    0,
    0,
    0,
    0,
    0,
    0,
    0,
    0,
    0,
    0,
    0,
    0,
    0,
    0,
    0,
    0,
    0,
    0,
    0,
    1552,
    1552,
    1552,
    0,
    0,
    0,
    0,
    0,
    0,
    0,
    0,
    0,
    0,
    0,
    0,
    0,
    0,
    1552,
    1552,
    1552,
    1552,
    0,
    0,
    0,
    0,
    0,
    0,
    0,
    0,
    0,
    0,
    0,
    0,
    0,
    0,
    0,
    1552,
    0,
    0,
    0,
    0,
    0,
    0,
    0,
    0,
    0,
    0,
    0,
    0,
    0,
    0,
    0,
    0,
    0,
    0,
    0,
    0,
    0,
    1552,
    1552,
    0,
    1552,
    0,
    1552,
    1552,
    1552,
    1552,
    1552,
    0,
    0,
    0,
    0,
    0,
    0,
    1552,
    1552,
    1552,
    1552,
    1552,
    1552,
    1552,
    1552,
    1552,
    1552,
    1552,
    0,
    0,
    0,
    0,
    0,
    0,
    0,
    0,
    0,
    0,
    0,
    0,
    0,
    0,
    0,
    0,
    0,
    0,
    0,
    0,
    0,
    0,
    0,
    0,
    0,
    0,
    0,
    0,
    0,
    0,
    0,
    0,
    0,
    0,
    0,
    0,
    0,
    0,
    0,
    0,
    0,
    0,
    1552,
    0,
    0,
    0,
    0,
    0,
    0,
    0,
    0,
    0,
    0,
    0,
    0,
    0,
    0,
    0,
    0,
    0,
    1552,
    1552,
    0,
    0,
    0,
    0,
    0,
    0,
    0,
    0,
    0,
    0,
    0,
    0,
    0,
    0,
    0,
    0,
    0,
    0,
    0,
    0,
    0,
    0,
    0,
    0,
    0,
    0,
    0,
    0,
    0,
    0,
    0,
    0,
    0,
    0,
    0,
    0,
    0,
    0,
    0,
    1552,
    1552,
    1552,
    0,
    1552,
    1552,
    1552,
    1552,
    1552,
    1552,
    1552,
    0,
    1552,
    1552,
    0,
    0,
    1552,
    1552,
    1552,
    1552,
    1552,
    1552,
    1552,
    1552,
    1552,
    1552,
    1552,
    1552,
    0,
    0,
    0,
    0,
    0,
    0,
    0,
    0,
    0,
    0,
    0,
    0,
    0,
    0,
    0,
    0,
    0,
    0,
    1552,
    0,
    0,
    0,
    0,
    0,
    0,
    0,
    0,
    0,
    0,
    0,
    0,
    0,
    0,
    0,
    0,
    0,
    0,
    0,
    0,
    0,
    0,
    0,
    0,
    0,
    0,
    0,
    0,
    0,
    0,
    0,
    0,
    0,
    0,
    0,
    0,
    0,
    0,
    0,
    0,
    1552,
    1552,
    0,
    0,
    0,
    0,
    0,
    0,
    0,
    0,
    0,
    0,
    0,
    0,
    0,
    0,
    0,
    0,
    0,
    0,
    0,
    0,
    0,
    0,
    0,
    0,
    0,
    0,
    0,
    0,
    0,
    0,
    0,
    0,
    0,
    0,
    0,
    0,
    0,
    0,
    0,
    0,
    1552,
    1552,
    0,
    1552,
    1552,
    1552,
    1552,
    0,
    1552,
    1552,
    0,
    1552,
    1552,
    0,
    0,
    0,
    1552,
    1552,
    1552,
    1552,
    1552,
    1552,
    1552,
    1552,
    1552,
    1552,
    1552,
    0,
    0,
    0,
    0,
    0,
    0,
    0,
    0,
    0,
    0,
    0,
    0,
    0,
    0,
    0,
    0,
    0,
    0,
    1552,
    1552,
    0,
    0,
    0,
    0,
    0,
    0,
    0,
    0,
    0,
    0,
    0,
    0,
    0,
    0,
    0,
    0,
    0,
    0,
    0,
    0,
    0,
    0,
    0,
    0,
    0,
    0,
    0,
    0,
    0,
    0,
    0,
    0,
    0,
    0,
    0,
    0,
    0,
    0,
    0,
    1552,
    1552,
    0,
    0,
    0,
    0,
    0,
    0,
    0,
    0,
    0,
    0,
    0,
    0,
    0,
    0,
    0,
    0,
    0,
    0,
    0,
    0,
    0,
    0,
    0,
    0,
    0,
    0,
    0,
    0,
    0,
    0,
    0,
    0,
    0,
    0,
    0,
    0,
    0,
    0,
    0,
    0,
    1552,
    1552,
    1552,
    1552,
    1552,
    1552,
    1552,
    0,
    1552,
    1552,
    1552,
    0,
    1552,
    0,
    0,
    0,
    0,
    1552,
    1552,
    1552,
    1552,
    1552,
    1552,
    1552,
    1552,
    1552,
    1552,
    1552,
    0,
    0,
    0,
    0,
    0,
    0,
    0,
    0,
    0,
    0,
    0,
    0,
    0,
    0,
    1552,
    0,
    0,
    1552,
    1552,
    1552,
    0,
    0,
    0,
    0,
    0,
    0,
    0,
    0,
    0,
    0,
    0,
    0,
    0,
    0,
    0,
    0,
    0,
    0,
    0,
    0,
    0,
    0,
    0,
    0,
    0,
    0,
    0,
    0,
    0,
    0,
    0,
    0,
    0,
    0,
    0,
    0,
    0,
    0,
    1552,
    1552,
    0,
    0,
    0,
    0,
    0,
    0,
    0,
    0,
    0,
    0,
    0,
    0,
    0,
    0,
    0,
    0,
    0,
    0,
    0,
    0,
    0,
    0,
    0,
    0,
    0,
    0,
    0,
    0,
    0,
    0,
    0,
    0,
    0,
    0,
    0,
    0,
    0,
    0,
    0,
    0,
    0,
    0,
    1552,
    1552,
    1552,
    1552,
    1552,
    0,
    0,
    1552,
    1552,
    1552,
    1552,
    1552,
    0,
    0,
    0,
    0,
    0,
    0,
    0,
    0,
    1552,
    1552,
    1552,
    1552,
    1552,
    1552,
    1552,
    0,
    0,
    0,
    0,
    0,
    0,
    0,
    0,
    0,
    0,
    0,
    0,
    1552,
    1552,
    0,
    0,
    0,
    0,
    0,
    0,
    0,
    0,
    0,
    0,
    0,
    0,
    0,
    0,
    0,
    0,
    0,
    0,
    0,
    0,
    0,
    0,
    0,
    0,
    0,
    0,
    0,
    0,
    0,
    1552,
    0,
    0,
    1552,
    0,
    0,
    0,
    0,
    0,
    0,
    0,
    0,
    0,
    1552,
    1552,
    1552,
    0,
    0,
    0,
    0,
    0,
    0,
    0,
    0,
    0,
    0,
    0,
    0,
    0,
    0,
    0,
    0,
    0,
    0,
    0,
    0,
    0,
    0,
    0,
    0,
    0,
    0,
    0,
    0,
    0,
    0,
    0,
    0,
    0,
    0,
    0,
    0,
    0,
    0,
    0,
    0,
    0,
    0,
    0,
    1552,
    1552,
    1552,
    1552,
    1552,
    0,
    0,
    1552,
    1552,
    1552,
    0,
    0,
    0,
    0,
    0,
    0,
    0,
    0,
    0,
    0,
    1552,
    1552,
    1552,
    1552,
    1552,
    1552,
    0,
    0,
    0,
    0,
    0,
    0,
    0,
    0,
    0,
    0,
    1552,
    1552,
    1552,
    1552,
    0,
    1552,
    1552,
    0,
    0,
    0,
    0,
    0,
    0,
    0,
    0,
    0,
    0,
    0,
    0,
    0,
    0,
    0,
    0,
    0,
    0,
    0,
    0,
    0,
    0,
    0,
    0,
    0,
    0,
    0,
    1552,
    0,
    0,
    0,
    0,
    1552,
    1552,
    0,
    0,
    0,
    0,
    1552,
    1552,
    1552,
    1552,
    0,
    0,
    0,
    0,
    0,
    0,
    0,
    0,
    0,
    0,
    0,
    0,
    0,
    0,
    0,
    0,
    0,
    0,
    0,
    0,
    0,
    0,
    0,
    0,
    0,
    0,
    0,
    0,
    0,
    0,
    0,
    0,
    0,
    0,
    0,
    0,
    0,
    0,
    0,
    0,
    0,
    0,
    0,
    1552,
    1552,
    0,
    1552,
    1552,
    1552,
    1552,
    0,
    0,
    0,
    0,
    0,
    0,
    0,
    0,
    0,
    0,
    0,
    0,
    0,
    1552,
    1552,
    1552,
    1552,
    1552,
    1552,
    1552,
    0,
    0,
    0,
    0,
    0,
    0,
    0,
    0,
    1552,
    1552,
    1552,
    0,
    1552,
    1552,
    1552,
    1552,
    0,
    0,
    0,
    0,
    0,
    0,
    0,
    0,
    1552,
    0,
    0,
    0,
    0,
    0,
    0,
    0,
    0,
    0,
    0,
    0,
    0,
    0,
    0,
    0,
    1552,
    0,
    0,
    0,
    1552,
    0,
    1552,
    1552,
    1552,
    1552,
    0,
    0,
    1552,
    1552,
    1552,
    1552,
    1552,
    1552,
    0,
    0,
    0,
    0,
    0,
    0,
    0,
    0,
    0,
    0,
    0,
    0,
    0,
    0,
    0,
    0,
    0,
    0,
    0,
    0,
    0,
    0,
    0,
    0,
    0,
    0,
    0,
    0,
    0,
    0,
    0,
    0,
    0,
    0,
    0,
    0,
    0,
    0,
    0,
    0,
    0,
    0,
    0,
    1552,
    1552,
    0,
    1552,
    0,
    1552,
    1552,
    0,
    0,
    0,
    0,
    0,
    0,
    0,
    0,
    0,
    0,
    0,
    0,
    0,
    1552,
    1552,
    1552,
    1552,
    1552,
    1552,
    1552,
    0,
    0,
    0,
    0,
    0,
    0,
    0,
    1552,
    1552,
    1552,
    1552,
    1552,
    1552,
    1552,
    1552,
    1552,
    1552,
    0,
    0,
    0,
    0,
    0,
    0,
    0,
    0,
    0,
    0,
    0,
    0,
    0,
    0,
    0,
    0,
    0,
    0,
    0,
    0,
    0,
    0,
    0,
    0,
    0,
    0,
    1552,
    1552,
    0,
    0,
    1552,
    1552,
    1552,
    0,
    0,
    0,
    1552,
    1552,
    1552,
    1552,
    1552,
    0,
    0,
    0,
    0,
    0,
    0,
    0,
    0,
    0,
    0,
    0,
    0,
    0,
    0,
    0,
    0,
    0,
    0,
    0,
    0,
    0,
    0,
    0,
    0,
    0,
    0,
    0,
    0,
    0,
    0,
    0,
    0,
    0,
    0,
    0,
    0,
    0,
    0,
    0,
    0,
    0,
    0,
    0,
    0,
    0,
    0,
    0,
    0,
    0,
    0,
    0,
    0,
    0,
    0,
    0,
    0,
    0,
    0,
    0,
    0,
    0,
    0,
    0,
    1552,
    1552,
    1552,
    1552,
    1552,
    1552,
    1552,
    0,
    0,
    0,
    0,
    0,
    0,
    0,
    0,
    1552,
    1552,
    1552,
    1552,
    1552,
    1552,
    1552,
    0,
    0,
    0,
    0,
    0,
    0,
    0,
    0,
    0,
    0,
    0,
    0,
    0,
    0,
    0,
    0,
    0,
    0,
    0,
    0,
    0,
    0,
    0,
    0,
    0,
    1552,
    0,
    0,
    0,
    1552,
    1552,
    0,
    0,
    1552,
    1552,
    1552,
    0,
    0,
    1552,
    1552,
    1552,
    1552,
    1552,
    0,
    0,
    0,
    0,
    0,
    0,
    0,
    0,
    0,
    0,
    0,
    0,
    0,
    0,
    0,
    0,
    0,
    0,
    0,
    0,
    0,
    0,
    0,
    0,
    0,
    0,
    0,
    0,
    0,
    0,
    0,
    0,
    0,
    0,
    0,
    0,
    0,
    0,
    0,
    0,
    0,
    0,
    0,
    0,
    0,
    0,
    0,
    0,
    0,
    0,
    0,
    0,
    0,
    0,
    0,
    0,
    0,
    0,
    0,
    0,
    0,
    0,
    0,
    1552,
    1552,
    1552,
    1552,
    1552,
    1552,
    1552,
    0,
    0,
    0,
    0,
    0,
    0,
    0,
    0,
    0,
    1552,
    1552,
    1552,
    1552,
    1552,
    1552,
    1552,
    0,
    0,
    0,
    0,
    0,
    0,
    0,
    0,
    0,
    0,
    0,
    0,
    0,
    0,
    0,
    0,
    0,
    0,
    0,
    0,
    0,
    0,
    0,
    0,
    0,
    0,
    0,
    0,
    0,
    0,
    0,
    0,
    1552,
    1552,
    1552,
    0,
    0,
    1552,
    1552,
    1552,
    1552,
    1552,
    0,
    0,
    0,
    0,
    0,
    0,
    0,
    0,
    0,
    0,
    0,
    0,
    0,
    0,
    0,
    0,
    0,
    0,
    0,
    0,
    0,
    0,
    0,
    0,
    0,
    0,
    0,
    0,
    0,
    0,
    0,
    0,
    0,
    0,
    0,
    0,
    0,
    0,
    0,
    0,
    1552,
    0,
    1552,
    1552,
    1552,
    0,
    0,
    0,
    0,
    0,
    0,
    0,
    0,
    0,
    0,
    0,
    0,
    0,
    0,
    0,
    0,
    0,
    1552,
    0,
    1552,
    1552,
    1552,
    1552,
    1552,
    1552,
    1552,
    0,
    0,
    0,
    0,
    0,
    0,
    0,
    0,
    0,
    0,
    0,
    1552,
    1552,
    0,
    0,
    0,
    0,
    0,
    0,
    0,
    0,
    0,
    0,
    0,
    0,
    0,
    0,
    0,
    0,
    0,
    0,
    0,
    0,
    0,
    0,
    0,
    0,
    0,
    0,
    0,
    0,
    0,
    0,
    1552,
    0,
    0,
    0,
    0,
    1552,
    0,
    0,
    0,
    1552,
    1552,
    1552,
    1552,
    1552,
    0,
    0,
    0,
    0,
    0,
    0,
    0,
    0,
    0,
    0,
    0,
    0,
    0,
    0,
    0,
    0,
    0,
    0,
    0,
    0,
    0,
    0,
    0,
    0,
    0,
    0,
    0,
    0,
    0,
    0,
    0,
    0,
    0,
    0,
    0,
    0,
    0,
    0,
    0,
    0,
    1552,
    1552,
    1552,
    1552,
    1552,
    1552,
    1552,
    1552,
    1552,
    1552,
    0,
    0,
    0,
    0,
    0,
    0,
    0,
    0,
    0,
    0,
    0,
    0,
    0,
    0,
    1552,
    1552,
    1552,
    1552,
    1552,
    1552,
    1552,
    0,
    0,
    0,
    0,
    0,
    0,
    0,
    0,
    0,
    1552,
    0,
    0,
    0,
    0,
    0,
    0,
    0,
    0,
    0,
    0,
    0,
    0,
    0,
    0,
    0,
    0,
    0,
    0,
    0,
    0,
    0,
    0,
    0,
    0,
    0,
    0,
    0,
    0,
    0,
    0,
    0,
    0,
    0,
    0,
    0,
    0,
    0,
    0,
    0,
    0,
    0,
    1552,
    1552,
    1552,
    1552,
    1552,
    1552,
    0,
    0,
    0,
    0,
    0,
    0,
    0,
    0,
    0,
    0,
    0,
    0,
    0,
    0,
    0,
    0,
    0,
    0,
    0,
    0,
    0,
    0,
    0,
    0,
    0,
    0,
    0,
    0,
    0,
    0,
    0,
    0,
    0,
    0,
    0,
    0,
    0,
    0,
    0,
    1552,
    1552,
    1552,
    1552,
    1552,
    1552,
    1552,
    1552,
    1552,
    1552,
    1552,
    0,
    0,
    0,
    0,
    0,
    0,
    0,
    0,
    0,
    0,
    0,
    0,
    0,
    0,
    0,
    1552,
    1552,
    1552,
    1552,
    1552,
    1552,
    1552,
    0,
    0,
    0,
    0,
    0,
    0,
    0,
    1552,
    1552,
    0,
    0,
    0,
    0,
    0,
    0,
    0,
    0,
    0,
    0,
    0,
    0,
    0,
    0,
    0,
    0,
    0,
    0,
    0,
    0,
    0,
    0,
    0,
    0,
    0,
    0,
    0,
    0,
    0,
    0,
    0,
    0,
    0,
    0,
    0,
    0,
    0,
    0,
    0,
    0,
    1552,
    1552,
    1552,
    1552,
    1552,
    1552,
    1552,
    0,
    0,
    0,
    0,
    0,
    0,
    0,
    0,
    0,
    0,
    0,
    0,
    0,
    0,
    0,
    0,
    0,
    0,
    0,
    0,
    0,
    0,
    0,
    0,
    0,
    0,
    0,
    0,
    0,
    0,
    0,
    0,
    0,
    0,
    0,
    0,
    0,
    0,
    1552,
    0,
    1552,
    1552,
    1552,
    0,
    1552,
    1552,
    1552,
    1552,
    0,
    0,
    0,
    0,
    0,
    0,
    0,
    0,
    0,
    0,
    0,
    0,
    0,
    0,
    0,
    0,
    0,
    1552,
    1552,
    1552,
    1552,
    1552,
    1552,
    1552,
    1552,
    0,
    0,
    0,
    0,
    0,
    1552,
    1552,
    1552,
    0,
    0,
    0,
    0,
    0,
    0,
    0,
    0,
    0,
    0,
    0,
    0,
    0,
    0,
    0,
    0,
    0,
    0,
    0,
    0,
    0,
    0,
    0,
    0,
    0,
    0,
    0,
    0,
    0,
    0,
    0,
    0,
    0,
    0,
    0,
    0,
    0,
    0,
    0,
    1552,
    1552,
    1552,
    1552,
    1552,
    1552,
    1552,
    1552,
    0,
    0,
    0,
    0,
    0,
    0,
    0,
    0,
    0,
    0,
    0,
    0,
    0,
    0,
    0,
    0,
    0,
    0,
    0,
    0,
    0,
    0,
    0,
    0,
    0,
    0,
    0,
    0,
    0,
    0,
    0,
    0,
    0,
    0,
    0,
    0,
    0,
    0,
    0,
    1552,
    1552,
    1552,
    1552,
    1552,
    1552,
    1552,
    1552,
    1552,
    0,
    0,
    0,
    0,
    0,
    0,
    0,
    0,
    0,
    0,
    0,
    0,
    0,
    0,
    0,
    0,
    0,
    0,
    1552,
    1552,
    1552,
    1552,
    1552,
    1552,
    1552,
    0,
    0,
    0,
    0,
    0,
    0,
    0,
    0,
    0,
    0,
    0,
    0,
    0,
    0,
    0,
    0,
    0,
    0,
    0,
    0,
    0,
    0,
    0,
    0,
    0,
    0,
    0,
    0,
    0,
    0,
    0,
    0,
    0,
    0,
    0,
    0,
    0,
    0,
    0,
    0,
    0,
    0,
    0,
    1552,
    0,
    0,
    0,
    1552,
    1552,
    1552,
    1552,
    1552,
    1552,
    1552,
    1552,
    0,
    0,
    0,
    0,
    0,
    0,
    0,
    0,
    0,
    0,
    0,
    0,
    0,
    0,
    0,
    0,
    0,
    0,
    0,
    0,
    0,
    0,
    0,
    0,
    0,
    0,
    0,
    0,
    0,
    0,
    0,
    0,
    0,
    0,
    0,
    0,
    0,
    0,
    1552,
    1552,
    1552,
    1552,
    1552,
    1552,
    1552,
    1552,
    0,
    0,
    0,
    0,
    0,
    0,
    0,
    0,
    0,
    0,
    0,
    0,
    0,
    0,
    0,
    0,
    0,
    0,
    0,
    0,
    1552,
    1552,
    1552,
    1552,
    1552,
    1552,
    1552,
    1552,
    0,
    0,
    0,
    0,
    0,
    0,
    0,
    0,
    0,
    0,
    0,
    0,
    0,
    0,
    0,
    0,
    0,
    0,
    0,
    0,
    0,
    0,
    0,
    0,
    0,
    0,
    0,
    0,
    0,
    0,
    0,
    0,
    0,
    0,
    0,
    0,
    0,
    0,
    0,
    0,
    0,
    1552,
    0,
    1552,
    1552,
    0,
    1552,
    1552,
    1552,
    1552,
    1552,
    1552,
    1552,
    1552,
    1552,
    0,
    1552,
    0,
    0,
    0,
    0,
    0,
    0,
    0,
    0,
    0,
    0,
    0,
    0,
    0,
    0,
    0,
    0,
    0,
    0,
    0,
    0,
    0,
    0,
    0,
    0,
    0,
    0,
    0,
    0,
    0,
    0,
    0,
    0,
    0,
    0,
    0,
    0,
    0,
    0,
    0,
    1552,
    1552,
    1552,
    0,
    0,
    0,
    0,
    0,
    0,
    0,
    0,
    0,
    0,
    0,
    0,
    0,
    0,
    0,
    0,
    0,
    0,
    0,
    0,
    0,
    0,
    1552,
    1552,
    1552,
    1552,
    1552,
    1552,
    1552,
    1552,
    1552,
    1552,
    1552,
    1552,
    1552,
    0,
    0,
    0,
    0,
    0,
    0,
    0,
    0,
    0,
    0,
    0,
    0,
    0,
    0,
    0,
    0,
    0,
    0,
    0,
    0,
    0,
    0,
    0,
    0,
    0,
    0,
    0,
    0,
    0,
    0,
    0,
    0,
    0,
    0,
    0,
    0,
    0,
    1552,
    1552,
    0,
    1552,
    1552,
    1552,
    1552,
    1552,
    1552,
    1552,
    1552,
    0,
    1552,
    1552,
    1552,
    0,
    0,
    0,
    0,
    0,
    0,
    0,
    0,
    0,
    0,
    0,
    0,
    0,
    0,
    0,
    0,
    0,
    0,
    0,
    0,
    0,
    0,
    0,
    0,
    0,
    0,
    0,
    0,
    0,
    0,
    0,
    0,
    1552,
    0,
    0,
    0,
    0,
    0,
    0,
    0,
    1552,
    0,
    0,
    0,
    0,
    0,
    0,
    0,
    0,
    0,
    0,
    0,
    0,
    0,
    0,
    0,
    0,
    0,
    0,
    0,
    0,
    0,
    0,
    1552,
    1552,
    1552,
    1552,
    1552,
    1552,
    1552,
    1552,
    1552,
    1552,
    1552,
    1552,
    1552,
    1552,
    0,
    0,
    0,
    0,
    0,
    0,
    0,
    0,
    0,
    1552,
    0,
    0,
    1552,
    0,
    0,
    0,
    0,
    0,
    0,
    0,
    0,
    0,
    0,
    0,
    0,
    0,
    0,
    0,
    0,
    0,
    0,
    0,
    0,
    0,
    0,
    0,
    1552,
    0,
    0,
    1552,
    1552,
    1552,
    1552,
    1552,
    1552,
    1552,
    1552,
    1552,
    1552,
    1552,
    0,
    0,
    0,
    0,
    0,
    0,
    0,
    0,
    0,
    0,
    0,
    0,
    0,
    0,
    0,
    0,
    0,
    0,
    0,
    0,
    0,
    0,
    0,
    0,
    0,
    0,
    0,
    0,
    0,
    0,
    0,
    0,
    0,
    0,
    0,
    0,
    0,
    0,
    0,
    0,
    0,
    0,
    0,
    0,
    0,
    0,
    0,
    0,
    0,
    0,
    0,
    0,
    0,
    0,
    0,
    0,
    0,
    0,
    0,
    0,
    0,
    0,
    0,
    0,
    0,
    1552,
    1552,
    1552,
    1552,
    1552,
    1552,
    1552,
    1552,
    1552,
    1552,
    1552,
    1552,
    1552,
    1552,
    0,
    0,
    0,
    0,
    0,
    1552,
    1552,
    1552,
    0,
    1552,
    1552,
    0,
    0,
    0,
    0,
    0,
    0,
    0,
    0,
    0,
    0,
    0,
    0,
    0,
    0,
    0,
    0,
    0,
    0,
    0,
    0,
    0,
    0,
    1552,
    0,
    0,
    0,
    1552,
    1552,
    1552,
    1552,
    1552,
    1552,
    1552,
    1552,
    1552,
    1552,
    1552,
    0,
    0,
    0,
    0,
    0,
    0,
    0,
    0,
    0,
    0,
    1552,
    0,
    0,
    0,
    0,
    0,
    0,
    0,
    0,
    0,
    0,
    0,
    0,
    0,
    0,
    0,
    0,
    0,
    0,
    0,
    0,
    0,
    0,
    0,
    0,
    0,
    0,
    0,
    0,
    0,
    0,
    0,
    0,
    0,
    0,
    0,
    0,
    0,
    0,
    0,
    0,
    0,
    0,
    0,
    0,
    0,
    0,
    0,
    0,
    0,
    0,
    0,
    0,
    0,
    0,
    0,
    1552,
    1552,
    1552,
    1552,
    1552,
    1552,
    1552,
    1552,
    1552,
    1552,
    1552,
    1552,
    1552,
    1552,
    1552,
    0,
    0,
    0,
    0,
    0,
    1552,
    1552,
    1552,
    1552,
    0,
    1552,
    1552,
    0,
    0,
    0,
    0,
    0,
    0,
    0,
    0,
    0,
    0,
    0,
    0,
    0,
    0,
    0,
    0,
    0,
    0,
    0,
    0,
    0,
    0,
    1552,
    1552,
    1552,
    1552,
    1552,
    1552,
    1552,
    1552,
    1552,
    1552,
    1552,
    1552,
    1552,
    0,
    1552,
    0,
    0,
    1552,
    0,
    0,
    0,
    0,
    0,
    0,
    0,
    0,
    0,
    0,
    0,
    0,
    0,
    0,
    0,
    0,
    0,
    0,
    0,
    0,
    0,
    0,
    0,
    0,
    0,
    0,
    0,
    0,
    0,
    0,
    0,
    0,
    0,
    0,
    0,
    0,
    0,
    0,
    0,
    0,
    0,
    0,
    0,
    0,
    0,
    0,
    0,
    0,
    0,
    0,
    0,
    0,
    0,
    0,
    0,
    0,
    0,
    0,
    0,
    0,
    0,
    0,
    1552,
    1552,
    1552,
    1552,
    1552,
    1552,
    1552,
    1552,
    1552,
    1552,
    1552,
    1552,
    1552,
    1552,
    1552,
    0,
    0,
    0,
    0,
    0,
    1552,
    1552,
    0,
    1552,
    1552,
    0,
    0,
    0,
    0,
    0,
    0,
    0,
    0,
    0,
    0,
    0,
    0,
    0,
    0,
    0,
    0,
    0,
    0,
    0,
    0,
    0,
    0,
    1552,
    1552,
    1552,
    1552,
    1552,
    1552,
    1552,
    1552,
    1552,
    1552,
    1552,
    1552,
    0,
    1552,
    1552,
    1552,
    1552,
    1552,
    1552,
    0,
    0,
    0,
    0,
    0,
    0,
    0,
    0,
    0,
    0,
    0,
    0,
    0,
    0,
    0,
    0,
    0,
    0,
    0,
    0,
    0,
    0,
    0,
    0,
    0,
    0,
    0,
    0,
    0,
    0,
    0,
    0,
    0,
    0,
    0,
    0,
    0,
    0,
    0,
    0,
    0,
    0,
    0,
    0,
    0,
    0,
    0,
    0,
    0,
    0,
    0,
    0,
    0,
    0,
    0,
    0,
    0,
    0,
    0,
    0,
    0,
    0,
    0,
    1552,
    1552,
    1552,
    1552,
    1552,
    1552,
    1552,
    1552,
    1552,
    1552,
    1552,
    1552,
    1552,
    1552,
    0,
    0,
    0,
    0,
    1552,
    0,
    1552,
    1552,
    1552,
    1552,
    1552,
    0,
    0,
    0,
    0,
    0,
    0,
    0,
    0,
    0,
    0,
    0,
    0,
    0,
    0,
    0,
    0,
    0,
    0,
    0,
    0,
    1552,
    1552,
    1552,
    1552,
    1552,
    1552,
    1552,
    1552,
    1552,
    1552,
    1552,
    1552,
    1552,
    1552,
    1552,
    1552,
    1552,
    1552,
    1552,
    1552,
    0,
    1552,
    0,
    1552,
    0,
    0,
    0,
    0,
    0,
    0,
    0,
    0,
    0,
    0,
    0,
    0,
    0,
    0,
    0,
    0,
    0,
    0,
    0,
    0,
    0,
    0,
    0,
    0,
    0,
    0,
    0,
    0,
    1552,
    0,
    0,
    0,
    0,
    0,
    0,
    0,
    0,
    0,
    0,
    0,
    0,
    0,
    0,
    0,
    0,
    0,
    0,
    0,
    0,
    0,
    0,
    0,
    0,
    0,
    0,
    0,
    0,
    0,
    0,
    0,
    0,
    0,
    0,
    0,
    0,
    0,
    1552,
    1552,
    1552,
    1552,
    1552,
    1552,
    1552,
    1552,
    0,
    1552,
    0,
    0,
    1552,
    0,
    0,
    1552,
    1552,
    1552,
    0,
    0,
    0,
    0,
    0,
    0,
    0,
    0,
    0,
    0,
    0,
    0,
    0,
    0,
    0,
    0,
    0,
    0,
    0,
    1552,
    1552,
    1552,
    1552,
    1552,
    1552,
    1552,
    1552,
    1552,
    1552,
    1552,
    1552,
    1552,
    1552,
    1552,
    1552,
    1552,
    1552,
    1552,
    1552,
    1552,
    0,
    1552,
    1552,
    0,
    0,
    0,
    0,
    0,
    0,
    0,
    0,
    0,
    0,
    0,
    0,
    0,
    0,
    0,
    0,
    0,
    0,
    0,
    0,
    0,
    0,
    0,
    0,
    0,
    0,
    0,
    0,
    0,
    0,
    0,
    0,
    0,
    0,
    0,
    0,
    0,
    0,
    0,
    0,
    0,
    0,
    0,
    0,
    0,
    0,
    0,
    0,
    0,
    0,
    0,
    0,
    0,
    0,
    0,
    0,
    0,
    0,
    0,
    0,
    0,
    0,
    0,
    0,
    0,
    0,
    0,
    0,
    1552,
    1552,
    1552,
    1552,
    1552,
    1552,
    1552,
    1552,
    0,
    0,
    0,
    0,
    1552,
    0,
    0,
    1552,
    1552,
    0,
    0,
    0,
    0,
    0,
    0,
    0,
    0,
    0,
    0,
    0,
    0,
    0,
    0,
    0,
    0,
    0,
    0,
    0,
    1552,
    1552,
    1552,
    1552,
    1552,
    1552,
    1552,
    1552,
    1552,
    1552,
    1552,
    1552,
    1552,
    1552,
    0,
    1552,
    1552,
    1552,
    1552,
    1552,
    1552,
    1552,
    1552,
    0,
    0,
    0,
    0,
    0,
    0,
    0,
    0,
    0,
    0,
    0,
    0,
    0,
    0,
    0,
    0,
    0,
    0,
    0,
    0,
    0,
    0,
    0,
    0,
    0,
    0,
    0,
    0,
    0,
    0,
    0,
    0,
    0,
    0,
    0,
    0,
    0,
    0,
    0,
    0,
    0,
    0,
    0,
    0,
    0,
    0,
    0,
    0,
    0,
    0,
    0,
    0,
    0,
    0,
    0,
    0,
    0,
    0,
    0,
    0,
    0,
    0,
    0,
    1552,
    0,
    0,
    0,
    0,
    0,
    1552,
    1552,
    1552,
    1552,
    1552,
    1552,
    1552,
    1552,
    0,
    0,
    0,
    0,
    0,
    0,
    0,
    1552,
    0,
    0,
    0,
    0,
    0,
    0,
    0,
    0,
    0,
    0,
    0,
    0,
    0,
    0,
    0,
    0,
    0,
    0,
    0,
    0,
    1552,
    1552,
    1552,
    1552,
    1552,
    1552,
    1552,
    1552,
    1552,
    1552,
    1552,
    1552,
    1552,
    1552,
    1552,
    1552,
    1552,
    1552,
    1552,
    0,
    1552,
    1552,
    0,
    0,
    0,
    0,
    0,
    0,
    0,
    0,
    0,
    0,
    0,
    0,
    0,
    0,
    0,
    0,
    0,
    0,
    0,
    0,
    0,
    0,
    0,
    0,
    0,
    0,
    0,
    0,
    0,
    0,
    0,
    0,
    0,
    0,
    0,
    0,
    0,
    0,
    0,
    0,
    0,
    0,
    0,
    0,
    0,
    0,
    0,
    0,
    0,
    0,
    0,
    0,
    0,
    0,
    0,
    0,
    0,
    0,
    0,
    0,
    0,
    0,
    0,
    0,
    0,
    0,
    0,
    0,
    0,
    0,
    0,
    1552,
    1552,
    1552,
    1552,
    1552,
    1552,
    1552,
    1552,
    0,
    0,
    0,
    0,
    0,
    0,
    0,
    0,
    0,
    0,
    0,
    0,
    0,
    0,
    0,
    0,
    0,
    0,
    0,
    0,
    0,
    0,
    0,
    0,
    0,
    0,
    0,
    1552,
    1552,
    1552,
    1552,
    1552,
    1552,
    1552,
    1552,
    1552,
    1552,
    1552,
    1552,
    1552,
    1552,
    0,
    1552,
    1552,
    1552,
    1552,
    1552,
    0,
    0,
    0,
    0,
    0,
    0,
    0,
    0,
    0,
    0,
    0,
    0,
    0,
    0,
    0,
    0,
    0,
    0,
    0,
    0,
    0,
    0,
    0,
    0,
    0,
    0,
    0,
    0,
    0,
    0,
    0,
    0,
    0,
    0,
    0,
    0,
    0,
    0,
    0,
    0,
    0,
    0,
    0,
    0,
    0,
    0,
    0,
    0,
    0,
    0,
    0,
    0,
    0,
    0,
    0,
    0,
    0,
    0,
    0,
    0,
    0,
    0,
    0,
    0,
    0,
    0,
    0,
    0,
    0,
    0,
    0,
    0,
    0,
    0,
    1552,
    1552,
    1552,
    1552,
    1552,
    1552,
    1552,
    1552,
    0,
    0,
    0,
    0,
    0,
    0,
    0,
    0,
    0,
    0,
    0,
    0,
    0,
    0,
    0,
    0,
    0,
    0,
    0,
    0,
    0,
    0,
    0,
    0,
    0,
    0,
    1552,
    1552,
    1552,
    1552,
    1552,
    1552,
    1552,
    1552,
    1552,
    1552,
    1552,
    1552,
    1552,
    1552,
    0,
    0,
    0,
    1552,
    1552,
    0,
    0,
    0,
    0,
    0,
    0,
    0,
    0,
    0,
    0,
    0,
    0,
    0,
    0,
    0,
    0,
    0,
    0,
    0,
    0,
    0,
    0,
    0,
    0,
    0,
    0,
    0,
    0,
    0,
    0,
    0,
    0,
    0,
    0,
    0,
    0,
    0,
    0,
    0,
    0,
    0,
    0,
    0,
    0,
    0,
    0,
    0,
    0,
    0,
    0,
    0,
    0,
    0,
    0,
    0,
    0,
    0,
    0,
    0,
    0,
    0,
    0,
    0,
    0,
    0,
    0,
    0,
    0,
    0,
    0,
    0,
    0,
    0,
    0,
    0,
    0,
    1552,
    1552,
    1552,
    1552,
    1552,
    1552,
    1552,
    0,
    0,
    0,
    0,
    0,
    0,
    0,
    0,
    0,
    0,
    0,
    0,
    0,
    0,
    0,
    0,
    0,
    0,
    0,
    0,
    0,
    0,
    0,
    0,
    0,
    0,
    1552,
    1552,
    1552,
    1552,
    1552,
    1552,
    1552,
    1552,
    1552,
    1552,
    1552,
    1552,
    1552,
    1552,
    0,
    0,
    0,
    0,
    0,
    0,
    0,
    0,
    0,
    0,
    0,
    0,
    0,
    0,
    0,
    0,
    0,
    0,
    0,
    0,
    0,
    0,
    0,
    0,
    0,
    0,
    0,
    0,
    0,
    0,
    0,
    0,
    0,
    0,
    0,
    0,
    0,
    0,
    0,
    0,
    0,
    0,
    0,
    0,
    0,
    0,
    0,
    0,
    0,
    0,
    0,
    0,
    0,
    0,
    0,
    0,
    0,
    0,
    0,
    0,
    0,
    0,
    0,
    0,
    0,
    0,
    0,
    0,
    0,
    0,
    0,
    0,
    0,
    0,
    0,
    0,
    0,
    0,
    1552,
    0,
    0,
    0,
    1552,
    1552,
    1552,
    1552,
    1552,
    1552,
    1552,
    0,
    0,
    0,
    0,
    0,
    0,
    0,
    0,
    0,
    0,
    0,
    0,
    0,
    0,
    0,
    0,
    0,
    0,
    0,
    0,
    0,
    0,
    0,
    0,
    0,
    1552,
    1552,
    1552,
    1552,
    1552,
    1552,
    1552,
    1552,
    1552,
    1552,
    1552,
    1552,
    1552,
    1552,
    0,
    0,
    0,
    0,
    0,
    0,
    0,
    0,
    0,
    0,
    0,
    0,
    0,
    0,
    0,
    0,
    1552,
    0,
    0,
    0,
    0,
    0,
    0,
    0,
    0,
    0,
    0,
    0,
    0,
    0,
    0,
    0,
    0,
    0,
    0,
    0,
    0,
    0,
    0,
    0,
    0,
    0,
    0,
    0,
    0,
    0,
    0,
    0,
    0,
    0,
    0,
    0,
    0,
    0,
    0,
    0,
    0,
    0,
    0,
    0,
    0,
    0,
    0,
    0,
    0,
    0,
    0,
    0,
    0,
    0,
    0,
    0,
    0,
    0,
    0,
    0,
    0,
    0,
    0,
    0,
    0,
    0,
    1552,
    1552,
    1552,
    1552,
    1552,
    1552,
    1552,
    1552,
    1552,
    1552,
    1552,
    1552,
    1552,
    1552,
    1552,
    0,
    0,
    0,
    0,
    0,
    0,
    0,
    0,
    0,
    0,
    0,
    0,
    0,
    0,
    0,
    0,
    0,
    1552,
    1552,
    1552,
    1552,
    1552,
    1552,
    1552,
    1552,
    1552,
    1552,
    1552,
    1552,
    1552,
    1552,
    0,
    0,
    0,
    0,
    0,
    0,
    0,
    0,
    0,
    0,
    0,
    0,
    0,
    0,
    0,
    0,
    0,
    0,
    0,
    0,
    0,
    0,
    0,
    0,
    0,
    0,
    0,
    0,
    0,
    0,
    0,
    0,
    0,
    0,
    0,
    0,
    0,
    0,
    0,
    0,
    0,
    0,
    0,
    0,
    0,
    0,
    0,
    0,
    0,
    0,
    0,
    0,
    0,
    0,
    0,
    0,
    0,
    0,
    0,
    0,
    0,
    0,
    0,
    0,
    0,
    0,
    0,
    0,
    0,
    0,
    0,
    0,
    0,
    0,
    0,
    0,
    0,
    0,
    0,
    0,
    0,
    0,
    0,
    1552,
    1552,
    1552,
    1552,
    1552,
    1552,
    1552,
    1552,
    1552,
    1552,
    1552,
    1552,
    1552,
    1552,
    1552,
    0,
    0,
    0,
    1552,
    0,
    0,
    0,
    0,
    0,
    0,
    0,
    0,
    0,
    0,
    0,
    0,
    1552,
    1552,
    1552,
    1552,
    1552,
    1552,
    1552,
    1552,
    1552,
    1552,
    1552,
    1552,
    1552,
    1552,
    0,
    0,
    0,
    0,
    0,
    0,
    0,
    0,
    0,
    0,
    0,
    0,
    0,
    0,
    0,
    0,
    0,
    0,
    0,
    0,
    0,
    0,
    0,
    0,
    0,
    0,
    0,
    0,
    0,
    0,
    0,
    0,
    0,
    0,
    0,
    0,
    0,
    0,
    0,
    0,
    0,
    0,
    0,
    0,
    0,
    0,
    0,
    0,
    0,
    0,
    0,
    0,
    0,
    0,
    0,
    0,
    0,
    0,
    0,
    0,
    0,
    0,
    0,
    0,
    0,
    0,
    0,
    0,
    0,
    0,
    0,
    0,
    0,
    0,
    0,
    0,
    0,
    0,
    0,
    0,
    0,
    0,
    0,
    1552,
    1552,
    1552,
    1552,
    1552,
    1552,
    1552,
    1552,
    1552,
    1552,
    1552,
    1552,
    1552,
    1552,
    1552,
    1552,
    0,
    0,
    0,
    0,
    0,
    0,
    0,
    0,
    0,
    0,
    0,
    0,
    0,
    0,
    0,
    1552,
    1552,
    1552,
    1552,
    1552,
    1552,
    1552,
    1552,
    1552,
    1552,
    1552,
    1552,
    1552,
    1552,
    0,
    0,
    0,
    0,
    0,
    0,
    0,
    0,
    0,
    0,
    0,
    0,
    0,
    0,
    0,
    0,
    0,
    0,
    0,
    0,
    0,
    0,
    0,
    0,
    0,
    0,
    0,
    0,
    0,
    0,
    0,
    0,
    0,
    0,
    0,
    0,
    0,
    0,
    0,
    0,
    0,
    0,
    0,
    0,
    0,
    0,
    0,
    0,
    0,
    1552,
    0,
    0,
    0,
    0,
    0,
    0,
    0,
    0,
    0,
    0,
    0,
    0,
    0,
    0,
    0,
    0,
    0,
    0,
    0,
    0,
    0,
    0,
    0,
    0,
    0,
    0,
    0,
    0,
    0,
    0,
    0,
    0,
    0,
    0,
    1552,
    1552,
    1552,
    1552,
    1552,
    1552,
    1552,
    1552,
    1552,
    1552,
    1552,
    1552,
    1552,
    1552,
    1552,
    1552,
    0,
    0,
    1552,
    0,
    1552,
    0,
    0,
    0,
    1552,
    0,
    0,
    0,
    0,
    0,
    1552,
    1552,
    1552,
    1552,
    1552,
    1552,
    1552,
    1552,
    1552,
    1552,
    1552,
    1552,
    1552,
    1552,
    0,
    0,
    0,
    0,
    0,
    0,
    0,
    0,
    0,
    0,
    0,
    0,
    0,
    0,
    0,
    0,
    0,
    0,
    0,
    0,
    0,
    0,
    0,
    0,
    0,
    0,
    0,
    0,
    0,
    0,
    0,
    0,
    0,
    0,
    0,
    0,
    0,
    0,
    0,
    0,
    0,
    0,
    0,
    0,
    0,
    0,
    0,
    0,
    0,
    0,
    0,
    0,
    0,
    0,
    0,
    0,
    0,
    0,
    0,
    0,
    0,
    0,
    0,
    0,
    0,
    0,
    0,
    0,
    0,
    0,
    0,
    0,
    0,
    0,
    0,
    0,
    0,
    0,
    0,
    0,
    0,
    0,
    0,
    0,
    0,
    1552,
    1552,
    1552,
    1552,
    1552,
    1552,
    1552,
    1552,
    1552,
    1552,
    1552,
    1552,
    1552,
    1552,
    1552,
    1552,
    0,
    0,
    0,
    1552,
    1552,
    1552,
    0,
    1552,
    1552,
    1552,
    0,
    0,
    1552,
    1552,
    1552,
    1552,
    1552,
    1552,
    1552,
    1552,
    1552,
    1552,
    1552,
    1552,
    1552,
    1552,
    1552,
    0,
    0,
    0,
    0,
    0,
    0,
    0,
    0,
    0,
    0,
    0,
    0,
    0,
    0,
    0,
    0,
    0,
    0,
    0,
    0,
    0,
    0,
    0,
    0,
    0,
    0,
    0,
    0,
    0,
    0,
    0,
    0,
    0,
    0,
    0,
    0,
    0,
    0,
    0,
    0,
    1552,
    0,
    0,
    0,
    0,
    0,
    0,
    0,
    0,
    0,
    0,
    0,
    0,
    0,
    0,
    0,
    0,
    0,
    0,
    0,
    0,
    0,
    0,
    0,
    0,
    0,
    0,
    0,
    0,
    0,
    0,
    0,
    0,
    0,
    0,
    0,
    0,
    0,
    0,
    0,
    0,
    0,
    0,
    0,
    0,
    0,
    0,
    0,
    0,
    1552,
    1552,
    0,
    0,
    0,
    1552,
    1552,
    1552,
    1552,
    1552,
    1552,
    1552,
    0,
    0,
    0,
    1552,
    1552,
    0,
    1552,
    1552,
    1552,
    0,
    0,
    1552,
    1552,
    1552,
    1552,
    1552,
    1552,
    1552,
    1552,
    1552,
    1552,
    1552,
    1552,
    1552,
    1552,
    1552,
    1552,
    0,
    0,
    0,
    0,
    0,
    0,
    0,
    0,
    0,
    0,
    0,
    0,
    0,
    0,
    0,
    0,
    0,
    0,
    0,
    0,
    0,
    0,
    0,
    0,
    0,
    0,
    0,
    0,
    0,
    0,
    0,
    0,
    0,
    0,
    0,
    0,
    0,
    0,
    0,
    1552,
    0,
    0,
    0,
    0,
    0,
    0,
    0,
    0,
    0,
    0,
    0,
    0,
    0,
    0,
    0,
    0,
    0,
    0,
    0,
    0,
    0,
    0,
    0,
    0,
    0,
    0,
    0,
    0,
    0,
    0,
    0,
    0,
    0,
    0,
    0,
    0,
    0,
    0,
    0,
    0,
    0,
    0,
    0,
    0,
    0,
    0,
    0,
    0,
    0,
    0,
    0,
    0,
    0,
    0,
    0,
    1552,
    1552,
    1552,
    1552,
    1552,
    1552,
    1552,
    0,
    0,
    0,
    1552,
    1552,
    1552,
    1552,
    0,
    0,
    1552,
    1552,
    1552,
    1552,
    1552,
    1552,
    1552,
    1552,
    1552,
    1552,
    1552,
    1552,
    1552,
    1552,
    1552,
    1552,
    1552,
    0,
    0,
    0,
    0,
    0,
    0,
    0,
    0,
    0,
    0,
    0,
    0,
    0,
    0,
    0,
    0,
    0,
    0,
    0,
    0,
    0,
    0,
    0,
    0,
    0,
    0,
    0,
    0,
    0,
    0,
    0,
    0,
    0,
    0,
    0,
    0,
    0,
    0,
    0,
    0,
    1552,
    0,
    0,
    0,
    0,
    0,
    0,
    0,
    0,
    0,
    0,
    1552,
    0,
    0,
    0,
    0,
    0,
    0,
    0,
    0,
    0,
    0,
    0,
    0,
    0,
    0,
    0,
    0,
    0,
    0,
    0,
    0,
    0,
    0,
    0,
    0,
    0,
    0,
    0,
    0,
    0,
    0,
    0,
    0,
    0,
    0,
    1552,
    0,
    0,
    0,
    1552,
    1552,
    0,
    0,
    0,
    1552,
    1552,
    1552,
    1552,
    1552,
    1552,
    1552,
    0,
    0,
    1552,
    1552,
    0,
    1552,
    1552,
    0,
    0,
    1552,
    1552,
    1552,
    1552,
    1552,
    1552,
    1552,
    1552,
    1552,
    1552,
    1552,
    1552,
    1552,
    1552,
    1552,
    1552,
    1552,
    0,
    0,
    0,
    0,
    0,
    0,
    0,
    0,
    0,
    0,
    0,
    0,
    0,
    0,
    0,
    0,
    0,
    0,
    0,
    0,
    0,
    0,
    0,
    0,
    0,
    0,
    0,
    0,
    0,
    0,
    0,
    0,
    0,
    0,
    0,
    0,
    0,
    0,
    0,
    0,
    0,
    0,
    0,
    0,
    0,
    0,
    0,
    0,
    0,
    0,
    0,
    0,
    0,
    0,
    0,
    0,
    0,
    0,
    0,
    0,
    0,
    0,
    0,
    0,
    0,
    0,
    0,
    0,
    0,
    0,
    0,
    0,
    0,
    0,
    0,
    0,
    0,
    0,
    0,
    0,
    0,
    0,
    0,
    0,
    0,
    0,
    0,
    0,
    0,
    0,
    1552,
    1552,
    0,
    0,
    0,
    1552,
    1552,
    1552,
    1552,
    1552,
    1552,
    1552,
    0,
    0,
    1552,
    1552,
    1552,
    1552,
    0,
    0,
    0,
    1552,
    1552,
    1552,
    1552,
    1552,
    1552,
    1552,
    1552,
    1552,
    1552,
    1552,
    1552,
    1552,
    1552,
    1552,
    1552,
    1552,
    1552,
    0,
    0,
    0,
    0,
    0,
    0,
    0,
    0,
    0,
    0,
    0,
    0,
    0,
    0,
    0,
    0,
    0,
    0,
    0,
    0,
    0,
    0,
    0,
    0,
    0,
    0,
    0,
    0,
    0,
    0,
    0,
    0,
    0,
    0,
    0,
    0,
    0,
    0,
    0,
    0,
    0,
    0,
    0,
    0,
    0,
    0,
    0,
    0,
    0,
    0,
    0,
    0,
    0,
    0,
    0,
    1552,
    1552,
    0,
    0,
    0,
    0,
    0,
    0,
    0,
    0,
    0,
    0,
    0,
    0,
    0,
    0,
    0,
    0,
    0,
    0,
    0,
    0,
    0,
    0,
    0,
    0,
    0,
    0,
    0,
    0,
    0,
    0,
    0,
    1552,
    0,
    1552,
    1552,
    0,
    0,
    1552,
    1552,
    1552,
    1552,
    1552,
    1552,
    1552,
    0,
    0,
    0,
    1552,
    1552,
    1552,
    0,
    0,
    0,
    1552,
    1552,
    1552,
    1552,
    1552,
    1552,
    1552,
    1552,
    1552,
    1552,
    1552,
    1552,
    1552,
    1552,
    1552,
    1552,
    1552,
    0,
    0,
    0,
    0,
    0,
    0,
    0,
    0,
    0,
    0,
    0,
    0,
    0,
    0,
    0,
    0,
    0,
    0,
    0,
    0,
    0,
    0,
    0,
    0,
    0,
    0,
    0,
    0,
    0,
    0,
    0,
    0,
    0,
    0,
    0,
    0,
    0,
    0,
    0,
    0,
    0,
    0,
    0,
    0,
    0,
    0,
    0,
    0,
    0,
    1552,
    0,
    1552,
    1552,
    0,
    1552,
    1552,
    0,
    0,
    0,
    0,
    0,
    0,
    0,
    0,
    0,
    0,
    0,
    0,
    0,
    0,
    0,
    0,
    0,
    0,
    0,
    0,
    0,
    0,
    0,
    0,
    0,
    0,
    0,
    0,
    0,
    0,
    0,
    0,
    0,
    0,
    0,
    0,
    0,
    0,
    0,
    1552,
    1552,
    1552,
    1552,
    1552,
    1552,
    1552,
    0,
    0,
    0,
    1552,
    1552,
    0,
    0,
    0,
    0,
    1552,
    1552,
    1552,
    1552,
    1552,
    1552,
    1552,
    1552,
    1552,
    1552,
    1552,
    1552,
    1552,
    1552,
    1552,
    1552,
    1552,
    0,
    0,
    0,
    0,
    0,
    0,
    0,
    0,
    0,
    0,
    0,
    0,
    0,
    0,
    0,
    0,
    0,
    0,
    0,
    0,
    0,
    0,
    0,
    0,
    0,
    0,
    0,
    0,
    0,
    0,
    0,
    0,
    0,
    0,
    0,
    0,
    0,
    0,
    0,
    0,
    0,
    0,
    0,
    0,
    0,
    0,
    0,
    0,
    0,
    0,
    1552,
    1552,
    0,
    1552,
    1552,
    1552,
    1552,
    1552,
    1552,
    1552,
    0,
    0,
    0,
    0,
    0,
    0,
    0,
    0,
    0,
    0,
    0,
    0,
    0,
    0,
    0,
    0,
    0,
    0,
    0,
    0,
    0,
    0,
    0,
    0,
    0,
    0,
    0,
    0,
    0,
    0,
    0,
    0,
    0,
    0,
    0,
    0,
    1552,
    1552,
    1552,
    1552,
    1552,
    1552,
    0,
    0,
    0,
    0,
    0,
    0,
    0,
    0,
    0,
    1552,
    1552,
    1552,
    1552,
    1552,
    1552,
    1552,
    1552,
    1552,
    1552,
    1552,
    1552,
    1552,
    1552,
    1552,
    1552,
    1552,
    0,
    0,
    0,
    0,
    0,
    0,
    0,
    0,
    0,
    0,
    0,
    0,
    0,
    0,
    0,
    0,
    0,
    0,
    0,
    0,
    0,
    0,
    0,
    0,
    0,
    0,
    0,
    0,
    0,
    0,
    0,
    0,
    0,
    0,
    0,
    0,
    0,
    0,
    0,
    0,
    0,
    0,
    0,
    0,
    0,
    0,
    0,
    0,
    0,
    1552,
    1552,
    1552,
    1552,
    1552,
    1552,
    1552,
    0,
    1552,
    1552,
    0,
    0,
    0,
    0,
    0,
    0,
    0,
    0,
    0,
    0,
    0,
    0,
    0,
    0,
    0,
    0,
    0,
    0,
    0,
    0,
    0,
    0,
    0,
    0,
    0,
    0,
    0,
    0,
    0,
    0,
    0,
    0,
    0,
    0,
    0,
    0,
    0,
    1552,
    1552,
    1552,
    1552,
    1552,
    1552,
    0,
    0,
    0,
    1552,
    0,
    0,
    1552,
    0,
    0,
    1552,
    1552,
    1552,
    1552,
    1552,
    1552,
    1552,
    1552,
    1552,
    1552,
    1552,
    1552,
    1552,
    1552,
    1552,
    1552,
    1552,
    0,
    0,
    0,
    0,
    0,
    0,
    0,
    0,
    0,
    0,
    0,
    0,
    0,
    0,
    0,
    0,
    0,
    0,
    0,
    0,
    0,
    0,
    0,
    0,
    0,
    0,
    0,
    0,
    0,
    0,
    0,
    0,
    0,
    0,
    0,
    0,
    0,
    0,
    0,
    0,
    0,
    0,
    0,
    0,
    0,
    0,
    0,
    0,
    1552,
    1552,
    1552,
    1552,
    0,
    1552,
    1552,
    0,
    0,
    0,
    0,
    1552,
    0,
    0,
    0,
    0,
    0,
    0,
    0,
    0,
    0,
    0,
    0,
    0,
    0,
    0,
    0,
    0,
    0,
    0,
    0,
    0,
    0,
    0,
    0,
    0,
    0,
    0,
    0,
    0,
    0,
    0,
    0,
    0,
    0,
    0,
    0,
    0,
    0,
    1552,
    1552,
    1552,
    1552,
    1552,
    1552,
    0,
    0,
    0,
    0,
    0,
    0,
    0,
    0,
    1552,
    1552,
    1552,
    1552,
    1552,
    1552,
    1552,
    1552,
    1552,
    1552,
    1552,
    1552,
    1552,
    1552,
    1552,
    1552,
    1552,
    0,
    0,
    0,
    0,
    0,
    0,
    0,
    0,
    0,
    0,
    0,
    0,
    0,
    0,
    0,
    0,
    0,
    0,
    0,
    0,
    0,
    0,
    0,
    0,
    0,
    0,
    0,
    0,
    0,
    0,
    0,
    0,
    0,
    0,
    0,
    0,
    0,
    0,
    0,
    0,
    0,
    0,
    0,
    0,
    0,
    0,
    0,
    0,
    1552,
    1552,
    1552,
    1552,
    1552,
    0,
    1552,
    1552,
    0,
    0,
    0,
    0,
    0,
    0,
    0,
    0,
    0,
    0,
    0,
    0,
    0,
    0,
    0,
    0,
    0,
    0,
    0,
    0,
    0,
    0,
    0,
    0,
    0,
    0,
    0,
    0,
    0,
    0,
    0,
    0,
    0,
    0,
    0,
    0,
    0,
    0,
    1552,
    0,
    0,
    1552,
    1552,
    1552,
    1552,
    1552,
    1552,
    0,
    0,
    0,
    0,
    0,
    0,
    0,
    1552,
    1552,
    1552,
    1552,
    1552,
    1552,
    1552,
    1552,
    1552,
    1552,
    1552,
    1552,
    1552,
    1552,
    1552,
    1552,
    1552,
    1552,
    0,
    0,
    0,
    0,
    0,
    0,
    0,
    0,
    0,
    0,
    0,
    0,
    0,
    0,
    0,
    0,
    0,
    0,
    0,
    0,
    0,
    0,
    0,
    0,
    0,
    0,
    0,
    0,
    0,
    0,
    0,
    0,
    0,
    0,
    0,
    0,
    0,
    0,
    0,
    0,
    0,
    0,
    0,
    0,
    0,
    0,
    0,
    0,
    0,
    0,
    1552,
    1552,
    1552,
    1552,
    0,
    0,
    0,
    0,
    0,
    0,
    0,
    0,
    0,
    0,
    0,
    0,
    0,
    0,
    0,
    0,
    0,
    0,
    0,
    0,
    0,
    0,
    0,
    0,
    0,
    0,
    0,
    0,
    0,
    0,
    0,
    0,
    0,
    0,
    0,
    0,
    0,
    1552,
    0,
    1552,
    1552,
    0,
    0,
    1552,
    1552,
    1552,
    1552,
    1552,
    1552,
    1552,
    0,
    0,
    0,
    0,
    1552,
    1552,
    1552,
    1552,
    1552,
    1552,
    1552,
    1552,
    1552,
    1552,
    1552,
    1552,
    1552,
    1552,
    1552,
    1552,
    1552,
    1552,
    1552,
    1552,
    0,
    0,
    0,
    0,
    0,
    0,
    0,
    0,
    0,
    0,
    0,
    0,
    0,
    0,
    0,
    0,
    0,
    0,
    0,
    0,
    0,
    0,
    0,
    0,
    0,
    0,
    0,
    0,
    0,
    0,
    0,
    0,
    0,
    0,
    0,
    0,
    0,
    0,
    0,
    0,
    0,
    0,
    0,
    0,
    0,
    0,
    0,
    0,
    0,
    0,
    1552,
    0,
    1552,
    1552,
    0,
    0,
    0,
    0,
    0,
    0,
    0,
    0,
    0,
    0,
    1552,
    0,
    0,
    0,
    0,
    0,
    0,
    0,
    0,
    0,
    0,
    0,
    0,
    0,
    0,
    0,
    0,
    0,
    0,
    0,
    0,
    0,
    0,
    0,
    0,
    0,
    0,
    0,
    0,
    1552,
    1552,
    0,
    0,
    1552,
    1552,
    1552,
    1552,
    1552,
    1552,
    1552,
    1552,
    1552,
    1552,
    1552,
    1552,
    1552,
    1552,
    1552,
    1552,
    1552,
    1552,
    1552,
    1552,
    1552,
    1552,
    1552,
    1552,
    1552,
    1552,
    1552,
    1552,
    1552,
    1552,
    1552,
    0,
    0,
    0,
    0,
    0,
    0,
    0,
    0,
    0,
    0,
    0,
    0,
    0,
    0,
    0,
    0,
    0,
    0,
    0,
    0,
    0,
    0,
    0,
    0,
    0,
    0,
    0,
    0,
    0,
    0,
    0,
    0,
    0,
    0,
    0,
    0,
    0,
    0,
    0,
    0,
    0,
    0,
    0,
    0,
    0,
    0,
    0,
    0,
    0,
    0,
    0,
    0,
    0,
    0,
    1552,
    0,
    0,
    0,
    0,
    0,
    0,
    0,
    0,
    0,
    0,
    0,
    0,
    0,
    0,
    0,
    0,
    0,
    0,
    0,
    0,
    0,
    0,
    0,
    0,
    0,
    0,
    0,
    0,
    0,
    0,
    0,
    0,
    0,
    0,
    0,
    0,
    0,
    0,
    1552,
    1552,
    0,
    0,
    1552,
    1552,
    1552,
    1552,
    1552,
    1552,
    1552,
    1552,
    1552,
    1552,
    1552,
    1552,
    1552,
    1552,
    1552,
    1552,
    1552,
    1552,
    1552,
    1552,
    1552,
    1552,
    1552,
    1552,
    1552,
    1552,
    1552,
    1552,
    1552,
    1552,
    1552,
    0,
    0,
    0,
    0,
    0,
    0,
    0,
    0,
    0,
    0,
    0,
    0,
    0,
    0,
    0,
    0,
    0,
    0,
    0,
    0,
    0,
    0,
    0,
    0,
    0,
    0,
    0,
    0,
    0,
    0,
    0,
    0,
    0,
    0,
    0,
    0,
    0,
    0,
    0,
    0,
    0,
    0,
    0,
    0,
    0,
    0,
    0,
    0,
    0,
    0,
    0,
    0,
    0,
    0,
    0,
    0,
    0,
    0,
    0,
    0,
    0,
    0,
    0,
    1552,
    0,
    0,
    0,
    0,
    0,
    0,
    0,
    0,
    0,
    0,
    0,
    0,
    0,
    0,
    0,
    0,
    0,
    0,
    0,
    0,
    0,
    0,
    0,
    0,
    0,
    0,
    0,
    1552,
    0,
    0,
    0,
    0,
    0,
    0,
    1552,
    1552,
    1552,
    1552,
    1552,
    1552,
    1552,
    1552,
    1552,
    1552,
    1552,
    1552,
    1552,
    1552,
    1552,
    1552,
    1552,
    1552,
    1552,
    1552,
    1552,
    1552,
    1552,
    1552,
    1552,
    1552,
    1552,
    1552,
    1552,
    1552,
    0,
    0,
    0,
    0,
    0,
    0,
    0,
    0,
    0,
    0,
    0,
    0,
    0,
    0,
    0,
    0,
    0,
    0,
    0,
    0,
    0,
    0,
    0,
    0,
    0,
    0,
    0,
    0,
    0,
    0,
    0,
    0,
    0,
    0,
    0,
    0,
    0,
    0,
    0,
    0,
    0,
    0,
    0,
    0,
    0,
    0,
    0,
    0,
    0,
    0,
    0,
    0,
    0,
    0,
    0,
    0,
    0,
    0,
    0,
    0,
    0,
    0,
    0,
    0,
    0,
    0,
    0,
    1552,
    1552,
    0,
    0,
    0,
    0,
    0,
    0,
    0,
    0,
    0,
    0,
    0,
    0,
    0,
    0,
    0,
    0,
    0,
    0,
    0,
    1552,
    0,
    0,
    0,
    0,
    1552,
    0,
    0,
    0,
    1552,
    1552,
    1552,
    1552,
    1552,
    1552,
    1552,
    1552,
    1552,
    1552,
    1552,
    1552,
    1552,
    1552,
    1552,
    1552,
    1552,
    1552,
    1552,
    1552,
    1552,
    1552,
    1552,
    1552,
    1552,
    1552,
    1552,
    1552,
    1552,
    1552,
    1552,
    0,
    0,
    0,
    0,
    0,
    0,
    0,
    0,
    0,
    0,
    0,
    0,
    0,
    0,
    0,
    0,
    0,
    0,
    0,
    0,
    0,
    0,
    0,
    0,
    0,
    0,
    0,
    0,
    0,
    0,
    0,
    0,
    0,
    0,
    0,
    0,
    0,
    0,
    0,
    0,
    0,
    0,
    0,
    0,
    0,
    0,
    0,
    0,
    0,
    0,
    0,
    0,
    0,
    0,
    0,
    0,
    0,
    0,
    0,
    0,
    0,
    0,
    0,
    0,
    1552,
    0,
    1552,
    1552,
    1552,
    0,
    0,
    0,
    0,
    0,
    0,
    0,
    0,
    0,
    0,
    0,
    0,
    0,
    0,
    0,
    0,
    0,
    1552,
    1552,
    1552,
    0,
    1552,
    1552,
    0,
    1552,
    1552,
    0,
    0,
    0,
    0,
    1552,
    1552,
    1552,
    1552,
    1552,
    1552,
    1552,
    1552,
    1552,
    1552,
    1552,
    1552,
    1552,
    1552,
    1552,
    1552,
    1552,
    1552,
    1552,
    1552,
    1552,
    1552,
    1552,
    1552,
    1552,
    1552,
    1552,
    1552,
    1552,
    0,
    0,
    0,
    0,
    0,
    0,
    0,
    0,
    0,
    0,
    0,
    0,
    0,
    0,
    0,
    0,
    0,
    0,
    0,
    0,
    0,
    0,
    0,
    0,
    0,
    0,
    0,
    0,
    0,
    0,
    0,
    0,
    0,
    0,
    0,
    0,
    0,
    0,
    0,
    0,
    0,
    0,
    0,
    0,
    0,
    0,
    0,
    0,
    0,
    0,
    0,
    0,
    0,
    0,
    0,
    0,
    0,
    0,
    0,
    0,
    0,
    0,
    0,
    0,
    0,
    0,
    0,
    0,
    0,
    0,
    0,
    0,
    0,
    0,
    0,
    0,
    0,
    0,
    0,
    0,
    0,
    0,
    0,
    0,
    0,
    0,
    1552,
    1552,
    0,
    1552,
    1552,
    1552,
    0,
    1552,
    1552,
    1552,
    1552,
    0,
    0,
    0,
    1552,
    1552,
    1552,
    1552,
    1552,
    1552,
    1552,
    1552,
    1552,
    1552,
    1552,
    1552,
    1552,
    1552,
    1552,
    1552,
    1552,
    1552,
    1552,
    1552,
    1552,
    1552,
    1552,
    1552,
    1552,
    1552,
    1552,
    1552,
    0,
    0,
    0,
    0,
    0,
    0,
    0,
    0,
    0,
    0,
    0,
    0,
    0,
    0,
    0,
    0,
    0,
    0,
    0,
    0,
    0,
    0,
    0,
    0,
    0,
    0,
    0,
    0,
    0,
    0,
    0,
    0,
    0,
    0,
    0,
    0,
    0,
    0,
    0,
    0,
    0,
    0,
    0,
    0,
    0,
    0,
    0,
    0,
    0,
    0,
    0,
    0,
    0,
    0,
    0,
    0,
    0,
    0,
    0,
    0,
    0,
    0,
    0,
    0,
    0,
    0,
    0,
    0,
    0,
    0,
    0,
    0,
    0,
    0,
    0,
    0,
    0,
    0,
    0,
    0,
    0,
    0,
    0,
    0,
    0,
    0,
    0,
    1552,
    0,
    1552,
    1552,
    1552,
    1552,
    1552,
    1552,
    1552,
    1552,
    1552,
    0,
    0,
    0,
    0,
    0,
    0,
    0,
    0,
    0,
    1552,
    1552,
    1552,
    1552,
    1552,
    1552,
    1552,
    1552,
    1552,
    1552,
    1552,
    1552,
    1552,
    1552,
    1552,
    1552,
    1552,
    1552,
    1552,
    1552,
    1552,
    0,
    0,
    0,
    0,
    0,
    0,
    0,
    0,
    0,
    0,
    0,
    0,
    0,
    0,
    0,
    0,
    0,
    0,
    0,
    0,
    0,
    0,
    0,
    0,
    0,
    0,
    0,
    0,
    0,
    0,
    0,
    0,
    0,
    0,
    0,
    0,
    0,
    1552,
    0,
    0,
    0,
    0,
    0,
    0,
    0,
    0,
    0,
    0,
    0,
    0,
    0,
    0,
    0,
    0,
    0,
    0,
    0,
    0,
    0,
    0,
    0,
    0,
    0,
    0,
    0,
    0,
    0,
    0,
    0,
    0,
    0,
    0,
    0,
    0,
    0,
    0,
    0,
    0,
    0,
    0,
    0,
    0,
    0,
    0,
    1552,
    0,
    0,
    0,
    1552,
    1552,
    1552,
    1552,
    1552,
    1552,
    1552,
    1552,
    1552,
    0,
    0,
    0,
    0,
    0,
    0,
    0,
    0,
    0,
    0,
    1552,
    1552,
    1552,
    1552,
    1552,
    1552,
    1552,
    1552,
    1552,
    1552,
    1552,
    1552,
    1552,
    1552,
    1552,
    1552,
    1552,
    1552,
    1552,
    1552,
    1552,
    0,
    0,
    0,
    0,
    0,
    0,
    0,
    0,
    0,
    0,
    0,
    0,
    0,
    0,
    0,
    0,
    0,
    0,
    0,
    0,
    0,
    0,
    0,
    0,
    0,
    0,
    0,
    0,
    0,
    0,
    0,
    0,
    0,
    0,
    0,
    0,
    0,
    0,
    0,
    0,
    0,
    0,
    0,
    0,
    0,
    0,
    0,
    0,
    0,
    0,
    0,
    0,
    0,
    0,
    0,
    0,
    0,
    0,
    0,
    0,
    0,
    0,
    0,
    0,
    0,
    0,
    0,
    0,
    0,
    0,
    0,
    0,
    0,
    0,
    0,
    0,
    1552,
    0,
    0,
    0,
    0,
    0,
    0,
    0,
    0,
    0,
    0,
    0,
    0,
    0,
    0,
    1552,
    1552,
    1552,
    0,
    1552,
    0,
    0,
    0,
    0,
    0,
    0,
    0,
    0,
    0,
    0,
    0,
    1552,
    1552,
    1552,
    1552,
    1552,
    1552,
    1552,
    1552,
    1552,
    1552,
    1552,
    1552,
    1552,
    1552,
    1552,
    1552,
    1552,
    1552,
    1552,
    1552,
    1552,
    0,
    0,
    0,
    0,
    0,
    0,
    0,
    0,
    0,
    0,
    0,
    0,
    0,
    0,
    0,
    0,
    0,
    0,
    0,
    0,
    0,
    0,
    0,
    0,
    0,
    0,
    0,
    0,
    0,
    0,
    0,
    0,
    0,
    0,
    0,
    0,
    0,
    0,
    0,
    0,
    0,
    0,
    0,
    0,
    0,
    0,
    0,
    0,
    0,
    0,
    0,
    0,
    0,
    0,
    0,
    0,
    0,
    0,
    0,
    0,
    0,
    0,
    0,
    0,
    0,
    0,
    0,
    0,
    0,
    0,
    0,
    0,
    0,
    0,
    0,
    0,
    0,
    1552,
    0,
    0,
    0,
    0,
    0,
    0,
    0,
    0,
    0,
    0,
    0,
    0,
    0,
    0,
    0,
    0,
    1552,
    0,
    0,
    0,
    0,
    0,
    0,
    0,
    1552,
    1552,
    1552,
    0,
    0,
    1552,
    1552,
    1552,
    1552,
    1552,
    1552,
    1552,
    1552,
    1552,
    1552,
    1552,
    1552,
    1552,
    1552,
    1552,
    1552,
    1552,
    1552,
    1552,
    1552,
    1552,
    0,
    0,
    0,
    0,
    0,
    0,
    0,
    0,
    0,
    0,
    0,
    0,
    0,
    0,
    0,
    0,
    0,
    0,
    0,
    0,
    0,
    0,
    0,
    0,
    0,
    0,
    0,
    0,
    0,
    0,
    0,
    0,
    0,
    0,
    0,
    0,
    0,
    0,
    0,
    0,
    0,
    0,
    0,
    0,
    0,
    0,
    0,
    0,
    0,
    0,
    0,
    0,
    0,
    0,
    0,
    0,
    0,
    0,
    0,
    0,
    0,
    0,
    0,
    0,
    0,
    0,
    0,
    0,
    0,
    0,
    0,
    0,
    0,
    0,
    0,
    0,
    0,
    0,
    0,
    0,
    0,
    0,
    0,
    0,
    0,
    0,
    0,
    0,
    0,
    0,
    0,
    0,
    0,
    0,
    0,
    0,
    0,
    0,
    0,
    0,
    0,
    0,
    0,
    1552,
    1552,
    0,
    0,
    1552,
    1552,
    1552,
    1552,
    1552,
    1552,
    1552,
    1552,
    1552,
    1552,
    1552,
    1552,
    1552,
    1552,
    1552,
    1552,
    1552,
    1552,
    1552,
    1552,
    1552,
    0,
    0,
    0,
    0,
    0,
    0,
    0,
    0,
    0,
    0,
    0,
    0,
    0,
    0,
    0,
    0,
    0,
    0,
    0,
    0,
    0,
    0,
    0,
    0,
    0,
    0,
    0,
    0,
    0,
    0,
    0,
    0,
    0,
    0,
    0,
    0,
    0,
    0,
    0,
    0,
    0,
    0,
    0,
    0,
    0,
    0,
    0,
    0,
    0,
    0,
    0,
    0,
    0,
    0,
    0,
    0,
    0,
    0,
    0,
    0,
    0,
    0,
    0,
    0,
    0,
    0,
    0,
    0,
    0,
    0,
    0,
    0,
    0,
    0,
    0,
    0,
    0,
    0,
    0,
    0,
    0,
    0,
    0,
    0,
    0,
    0,
    0,
    0,
    0,
    0,
    0,
    0,
    0,
    0,
    0,
    0,
    0,
    0,
    0,
    0,
    0,
    0,
    0,
    1552,
    1552,
    0,
    0,
    1552,
    1552,
    1552,
    1552,
    1552,
    1552,
    1552,
    1552,
    1552,
    1552,
    1552,
    1552,
    1552,
    1552,
    1552,
    1552,
    1552,
    1552,
    1552,
    1552,
    1552,
    1552,
    0,
    1552,
    0,
    0,
    0,
    0,
    0,
    0,
    0,
    0,
    0,
    0,
    0,
    0,
    0,
    0,
    0,
    0,
    0,
    0,
    0,
    0,
    0,
    0,
    0,
    0,
    0,
    0,
    0,
    0,
    0,
    0,
    0,
    0,
    0,
    0,
    0,
    0,
    0,
    0,
    0,
    0,
    0,
    0,
    0,
    0,
    0,
    0,
    0,
    0,
    0,
    0,
    0,
    0,
    0,
    0,
    0,
    0,
    0,
    0,
    0,
    0,
    0,
    0,
    0,
    0,
    0,
    0,
    0,
    0,
    0,
    0,
    0,
    0,
    0,
    0,
    0,
    0,
    0,
    0,
    0,
    0,
    0,
    0,
    0,
    0,
    0,
    0,
    0,
    0,
    0,
    0,
    0,
    0,
    0,
    0,
    0,
    0,
    0,
    0,
    0,
    0,
    0,
    0,
    0,
    0,
    1552,
    1552,
    1552,
    1552,
    1552,
    1552,
    1552,
    1552,
    1552,
    1552,
    1552,
    1552,
    1552,
    1552,
    1552,
    1552,
    1552,
    1552,
    1552,
    1552,
    1552,
    1552,
    0,
    0,
    0,
    0,
    0,
    0,
    0,
    0,
    0,
    0,
    0,
    0,
    0,
    0,
    0,
    0,
    0,
    0,
    0,
    0,
    0,
    0,
    0,
    0,
    0,
    0,
    0,
    0,
    0,
    0,
    0,
    0,
    0,
    0,
    0,
    0,
    0,
    0,
    0,
    0,
    0,
    0,
    0,
    0,
    0,
    0,
    0,
    0,
    0,
    0,
    0,
    0,
    0,
    0,
    0,
    0,
    0,
    0,
    0,
    0,
    0,
    0,
    0,
    0,
    0,
    0,
    0,
    0,
    0,
    0,
    0,
    0,
    0,
    0,
    0,
    0,
    0,
    0,
    0,
    0,
    0,
    0,
    0,
    0,
    0,
    0,
    0,
    0,
    0,
    0,
    0,
    0,
    0,
    0,
    0,
    0,
    0,
    0,
    0,
    0,
    0,
    0,
    0,
    0,
    0,
    0,
    1552,
    1552,
    1552,
    1552,
    1552,
    1552,
    1552,
    1552,
    1552,
    1552,
    1552,
    1552,
    1552,
    1552,
    1552,
    1552,
    1552,
    1552,
    1552,
    1552,
    1552,
    1552,
    1552,
    0,
    0,
    0,
    0,
    0,
    0,
    0,
    0,
    0,
    0,
    0,
    0,
    0,
    0,
    0,
    0,
    0,
    0,
    0,
    0,
    0,
    0,
    0,
    0,
    0,
    0,
    0,
    0,
    0,
    0,
    0,
    0,
    0,
    0,
    0,
    0,
    0,
    0,
    0,
    0,
    0,
    0,
    0,
    0,
    0,
    0,
    0,
    0,
    0,
    0,
    0,
    0,
    0,
    0,
    0,
    0,
    0,
    0,
    0,
    0,
    0,
    0,
    0,
    0,
    0,
    0,
    0,
    0,
    0,
    0,
    0,
    0,
    0,
    0,
    0,
    0,
    0,
    0,
    0,
    0,
    0,
    0,
    0,
    0,
    0,
    0,
    0,
    0,
    0,
    0,
    0,
    0,
    0,
    0,
    0,
    0,
    0,
    0,
    0,
    0,
    0,
    0,
    1552,
    0,
    1552,
    1552,
    1552,
    1552,
    1552,
    1552,
    1552,
    1552,
    1552,
    1552,
    1552,
    1552,
    1552,
    1552,
    1552,
    1552,
    1552,
    1552,
    1552,
    1552,
    1552,
    1552,
    1552,
    1552,
    1552,
    1552,
    0,
    0,
    0,
    0,
    0,
    0,
    0,
    0,
    0,
    0,
    0,
    0,
    0,
    0,
    0,
    0,
    0,
    0,
    0,
    0,
    0,
    0,
    0,
    0,
    0,
    0,
    0,
    0,
    0,
    0,
    0,
    0,
    0,
    0,
    0,
    0,
    0,
    0,
    0,
    0,
    0,
    0,
    0,
    0,
    0,
    0,
    0,
    0,
    0,
    0,
    0,
    0,
    0,
    0,
    0,
    0,
    0,
    0,
    0,
    0,
    0,
    0,
    0,
    0,
    0,
    0,
    0,
    0,
    0,
    0,
    0,
    0,
    0,
    0,
    0,
    0,
    0,
    0,
    0,
    0,
    0,
    0,
    0,
    0,
    0,
    0,
    0,
    0,
    0,
    0,
    0,
    0,
    0,
    0,
    0,
    0,
    0,
    0,
    0,
    0,
    1552,
    1552,
    1552,
    1552,
    1552,
    1552,
    1552,
    1552,
    1552,
    1552,
    1552,
    1552,
    1552,
    1552,
    1552,
    1552,
    1552,
    1552,
    1552,
    1552,
    1552,
    1552,
    1552,
    1552,
    1552,
    1552,
    1552,
    1552,
    0,
    0,
    0,
    0,
    0,
    0,
    0,
    0,
    0,
    0,
    0,
    0,
    0,
    0,
    0,
    0,
    0,
    0,
    0,
    0,
    0,
    0,
    0,
    0,
    0,
    0,
    0,
    0,
    0,
    0,
    0,
    0,
    0,
    0,
    0,
    0,
    0,
    0,
    0,
    0,
    0,
    0,
    0,
    0,
    0,
    0,
    0,
    0,
    0,
    0,
    0,
    0,
    0,
    0,
    0,
    0,
    0,
    0,
    0,
    0,
    0,
    0,
    0,
    0,
    0,
    0,
    0,
    0,
    0,
    0,
    0,
    0,
    0,
    0,
    0,
    0,
    0,
    0,
    0,
    0,
    0,
    0,
    0,
    0,
    0,
    0,
    0,
    0,
    0,
    0,
    0,
    1552,
    0,
    0,
    0,
    0,
    0,
    0,
    0,
    0,
    1552,
    1552,
    1552,
    1552,
    1552,
    1552,
    1552,
    1552,
    1552,
    1552,
    1552,
    1552,
    1552,
    1552,
    1552,
    1552,
    1552,
    1552,
    1552,
    1552,
    1552,
    1552,
    1552,
    1552,
    1552,
    1552,
    1552,
    1552,
    0,
    0,
    0,
    0,
    0,
    0,
    0,
    0,
    0,
    0,
    0,
    0,
    0,
    0,
    0,
    0,
    0,
    0,
    0,
    0,
    0,
    0,
    0,
    0,
    0,
    0,
    0,
    0,
    0,
    0,
    0,
    0,
    0,
    0,
    0,
    0,
    0,
    0,
    0,
    0,
    0,
    0,
    0,
    0,
    0,
    0,
    0,
    0,
    0,
    0,
    0,
    0,
    0,
    0,
    0,
    0,
    0,
    0,
    0,
    0,
    0,
    0,
    0,
    0,
    0,
    0,
    0,
    0,
    0,
    0,
    0,
    0,
    0,
    0,
    0,
    0,
    0,
    0,
    0,
    0,
    0,
    0,
    0,
    0,
    0,
    0,
    0,
    0,
    0,
    0,
    0,
    0,
    0,
    0,
    0,
    0,
    0,
    0,
    0,
    0,
    1552,
    1552,
    1552,
    1552,
    1552,
    1552,
    1552,
    1552,
    1552,
    1552,
    1552,
    1552,
    1552,
    1552,
    1552,
    1552,
    1552,
    1552,
    1552,
    1552,
    1552,
    1552,
    1552,
    1552,
    1552,
    1552,
    1552,
    0,
    0,
    0,
    0,
    0,
    0,
    0,
    0,
    0,
    0,
    0,
    0,
    0,
    0,
    0,
    0,
    0,
    0,
    0,
    0,
    0,
    0,
    0,
    0,
    0,
    0,
    0,
    0,
    0,
    0,
    0,
    0,
    0,
    0,
    0,
    0,
    0,
    0,
    0,
    0,
    0,
    0,
    0,
    0,
    0,
    0,
    0,
    0,
    0,
    0,
    0,
    0,
    0,
    0,
    0,
    0,
    0,
    0,
    0,
    0,
    0,
    0,
    0,
    0,
    0,
    0,
    0,
    0,
    0,
    0,
    0,
    0,
    0,
    0,
    0,
    0,
    0,
    0,
    0,
    0,
    0,
    0,
    0,
    0,
    0,
    0,
    0,
    0,
    0,
    0,
    0,
    0,
    0,
    0,
    0,
    0,
    0,
    0,
    0,
    0,
    0,
    1552,
    1552,
    1552,
    1552,
    1552,
    1552,
    1552,
    1552,
    1552,
    1552,
    1552,
    1552,
    1552,
    1552,
    1552,
    1552,
    1552,
    1552,
    1552,
    1552,
    1552,
    1552,
    1552,
    1552,
    1552,
    1552,
    1552,
    1552,
    0,
    0,
    0,
    0,
    0,
    0,
    0,
    0,
    0,
    0,
    0,
    0,
    0,
    0,
    0,
    0,
    0,
    0,
    0,
    0,
    0,
    0,
    0,
    0,
    0,
    0,
    0,
    0,
    0,
    0,
    0,
    0,
    0,
    0,
    0,
    0,
    0,
    0,
    0,
    0,
    0,
    0,
    0,
    0,
    0,
    0,
    0,
    0,
    0,
    0,
    0,
    0,
    0,
    0,
    0,
    0,
    0,
    0,
    0,
    0,
    0,
    0,
    0,
    0,
    0,
    0,
    0,
    0,
    0,
    0,
    0,
    0,
    0,
    0,
    0,
    0,
    0,
    0,
    0,
    0,
    0,
    0,
    0,
    0,
    0,
    0,
    0,
    0,
    0,
    0,
    0,
    0,
    0,
    0,
    0,
    0,
    0,
    0,
    0,
    0,
    1552,
    1552,
    1552,
    1552,
    1552,
    1552,
    1552,
    1552,
    1552,
    1552,
    1552,
    1552,
    1552,
    1552,
    1552,
    1552,
    1552,
    1552,
    1552,
    1552,
    1552,
    1552,
    1552,
    1552,
    0,
    1552,
    1552,
    0,
    0,
    0,
    0,
    0,
    0,
    0,
    0,
    0,
    0,
    0,
    0,
    0,
    0,
    0,
    0,
    0,
    0,
    0,
    0,
    0,
    0,
    0,
    0,
    0,
    0,
    0,
    0,
    0,
    0,
    0,
    0,
    0,
    0,
    0,
    0,
    0,
    0,
    0,
    0,
    0,
    0,
    0,
    0,
    0,
    0,
    0,
    0,
    0,
    0,
    0,
    0,
    0,
    0,
    0,
    0,
    0,
    0,
    0,
    0,
    0,
    0,
    0,
    0,
    0,
    0,
    0,
    0,
    0,
    0,
    0,
    0,
    0,
    0,
    0,
    0,
    0,
    0,
    0,
    0,
    0,
    0,
    0,
    0,
    0,
    0,
    0,
    0,
    0,
    0,
    0,
    0,
    0,
    0,
    0,
    0,
    0,
    0,
    0,
    0,
    0,
    1552,
    1552,
    1552,
    1552,
    1552,
    1552,
    1552,
    1552,
    1552,
    1552,
    1552,
    1552,
    1552,
    1552,
    1552,
    1552,
    1552,
    1552,
    1552,
    1552,
    1552,
    1552,
    1552,
    1552,
    1552,
    0,
    1552,
    0,
    1552,
    0,
    0,
    0,
    0,
    0,
    0,
    0,
    0,
    0,
    0,
    0,
    0,
    0,
    0,
    0,
    0,
    0,
    0,
    0,
    0,
    0,
    0,
    0,
    0,
    0,
    0,
    0,
    0,
    0,
    0,
    0,
    0,
    0,
    0,
    0,
    0,
    0,
    0,
    0,
    0,
    0,
    0,
    0,
    0,
    0,
    0,
    0,
    0,
    0,
    0,
    0,
    0,
    0,
    0,
    0,
    0,
    0,
    0,
    0,
    0,
    0,
    0,
    0,
    0,
    0,
    0,
    0,
    0,
    0,
    0,
    0,
    0,
    0,
    0,
    0,
    0,
    0,
    0,
    0,
    0,
    0,
    0,
    0,
    0,
    0,
    0,
    0,
    0,
    0,
    0,
    0,
    0,
    0,
    0,
    0,
    0,
    0,
    0,
    1552,
    1552,
    1552,
    1552,
    1552,
    1552,
    1552,
    1552,
    1552,
    1552,
    1552,
    1552,
    1552,
    1552,
    1552,
    1552,
    1552,
    1552,
    1552,
    1552,
    1552,
    1552,
    1552,
    1552,
    1552,
    0,
    1552,
    0,
    0,
    0,
    0,
    0,
    0,
    0,
    0,
    0,
    0,
    0,
    0,
    0,
    0,
    0,
    0,
    0,
    0,
    0,
    0,
    0,
    0,
    0,
    0,
    0,
    0,
    0,
    0,
    0,
    0,
    0,
    0,
    0,
    0,
    0,
    0,
    0,
    0,
    0,
    0,
    0,
    0,
    0,
    0,
    0,
    0,
    0,
    0,
    0,
    0,
    0,
    0,
    0,
    0,
    0,
    0,
    0,
    0,
    0,
    0,
    0,
    0,
    0,
    0,
    0,
    0,
    0,
    0,
    0,
    0,
    0,
    0,
    0,
    0,
    0,
    0,
    0,
    0,
    0,
    0,
    0,
    0,
    0,
    0,
    0,
    0,
    0,
    0,
    0,
    0,
    0,
    0,
    0,
    0,
    0,
    0,
    0,
    0,
    0,
    1552,
    1552,
    1552,
    1552,
    1552,
    1552,
    1552,
    1552,
    1552,
    1552,
    1552,
    1552,
    1552,
    1552,
    1552,
    1552,
    1552,
    1552,
    1552,
    1552,
    1552,
    1552,
    1552,
    1552,
    1552,
    1552,
    0,
    0,
    0,
    0,
    1552,
    0,
    0,
    0,
    0,
    0,
    0,
    0,
    0,
    0,
    0,
    0,
    0,
    0,
    0,
    0,
    0,
    0,
    0,
    0,
    0,
    0,
    0,
    0,
    0,
    0,
    0,
    0,
    0,
    0,
    0,
    0,
    0,
    0,
    0,
    0,
    0,
    0,
    0,
    0,
    0,
    0,
    0,
    0,
    0,
    0,
    0,
    0,
    0,
    0,
    0,
    0,
    0,
    0,
    0,
    0,
    0,
    0,
    0,
    0,
    0,
    0,
    0,
    0,
    0,
    0,
    0,
    0,
    0,
    0,
    0,
    0,
    0,
    0,
    0,
    0,
    0,
    0,
    0,
    0,
    0,
    0,
    0,
    0,
    0,
    0,
    0,
    0,
    0,
    0,
    0,
    0,
    0,
    0,
    0,
    0,
    0,
    0,
    1552,
    1552,
    1552,
    1552,
    1552,
    1552,
    1552,
    1552,
    1552,
    1552,
    1552,
    1552,
    1552,
    1552,
    1552,
    1552,
    1552,
    1552,
    1552,
    1552,
    1552,
    1552,
    1552,
    1552,
    1552,
    0,
    0,
    0,
    0,
    0,
    0,
    0,
    0,
    0,
    0,
    0,
    0,
    0,
    0,
    0,
    0,
    0,
    0,
    0,
    0,
    0,
    0,
    0,
    0,
    0,
    0,
    0,
    0,
    0,
    0,
    0,
    0,
    0,
    0,
    0,
    0,
    0,
    0,
    0,
    0,
    0,
    0,
    0,
    0,
    0,
    0,
    0,
    0,
    0,
    0,
    0,
    0,
    0,
    0,
    0,
    0,
    0,
    0,
    0,
    0,
    0,
    0,
    0,
    0,
    0,
    0,
    0,
    0,
    0,
    0,
    0,
    0,
    0,
    0,
    0,
    0,
    0,
    0,
    0,
    0,
    0,
    0,
    0,
    0,
    0,
    0,
    0,
    0,
    0,
    0,
    1552,
    0,
    0,
    0,
    0,
    0,
    0,
    0,
    0,
    0,
    0,
    0,
    0,
    1552,
    1552,
    1552,
    1552,
    1552,
    1552,
    1552,
    1552,
    1552,
    1552,
    1552,
    1552,
    1552,
    1552,
    1552,
    1552,
    1552,
    1552,
    1552,
    1552,
    1552,
    1552,
    1552,
    1552,
    1552,
    0,
    0,
    0,
    0,
    0,
    0,
    0,
    0,
    0,
    0,
    0,
    0,
    0,
    0,
    0,
    0,
    0,
    0,
    0,
    0,
    0,
    0,
    0,
    0,
    0,
    0,
    0,
    0,
    0,
    0,
    0,
    0,
    0,
    0,
    0,
    0,
    0,
    0,
    0,
    0,
    0,
    0,
    0,
    0,
    0,
    0,
    0,
    0,
    0,
    0,
    0,
    0,
    0,
    0,
    0,
    0,
    0,
    0,
    0,
    0,
    0,
    0,
    0,
    0,
    0,
    0,
    0,
    0,
    0,
    0,
    0,
    0,
    0,
    0,
    0,
    0,
    0,
    0,
    0,
    0,
    0,
    0,
    0,
    0,
    0,
    0,
    0,
    0,
    0,
    0,
    0,
    0,
    0,
    0,
    0,
    0,
    0,
    0,
    0,
    0,
    0,
    0,
    0,
    1552,
    1552,
    1552,
    1552,
    1552,
    1552,
    1552,
    1552,
    1552,
    1552,
    1552,
    1552,
    1552,
    1552,
    1552,
    1552,
    1552,
    1552,
    1552,
    1552,
    1552,
    1552,
    1552,
    1552,
    1552,
    0,
    0,
    0,
    0,
    0,
    0,
    0,
    0,
    0,
    0,
    0,
    0,
    0,
    0,
    0,
    0,
    0,
    0,
    0,
    0,
    0,
    0,
    0,
    0,
    0,
    0,
    0,
    0,
    0,
    0,
    0,
    0,
    0,
    0,
    0,
    0,
    0,
    0,
    0,
    0,
    0,
    0,
    0,
    0,
    0,
    0,
    0,
    0,
    0,
    0,
    0,
    0,
    0,
    0,
    0,
    0,
    0,
    0,
    0,
    0,
    0,
    0,
    0,
    0,
    0,
    0,
    0,
    0,
    0,
    0,
    0,
    0,
    0,
    0,
    0,
    0,
    0,
    0,
    0,
    0,
    0,
    0,
    0,
    0,
    0,
    0,
    0,
    0,
    0,
    0,
    0,
    0,
    0,
    0,
    0,
    0,
    0,
    0,
    0,
    0,
    0,
    0,
    0,
    1552,
    1552,
    1552,
    1552,
    1552,
    1552,
    1552,
    1552,
    1552,
    1552,
    1552,
    1552,
    1552,
    1552,
    1552,
    1552,
    1552,
    1552,
    1552,
    1552,
    1552,
    1552,
    1552,
    1552,
    1552,
    0,
    0,
    0,
    0,
    0,
    0,
    0,
    0,
    0,
    0,
    0,
    0,
    0,
    0,
    0,
    0,
    0,
    0,
    0,
    0,
    0,
    0,
    0,
    0,
    0,
    0,
    0,
    0,
    0,
    0,
    0,
    0,
    0,
    0,
    0,
    0,
    0,
    0,
    0,
    0,
    0,
    0,
    0,
    0,
    0,
    0,
    0,
    0,
    1552,
    0,
    0,
    0,
    0,
    0,
    0,
    0,
    0,
    0,
    0,
    0,
    0,
    0,
    0,
    0,
    0,
    0,
    0,
    0,
    0,
    0,
    0,
    0,
    0,
    0,
    0,
    0,
    0,
    0,
    0,
    0,
    0,
    0,
    0,
    0,
    0,
    0,
    0,
    0,
    0,
    0,
    0,
    1552,
    1552,
    1552,
    0,
    0,
    0,
    0,
    0,
    0,
    0,
    0,
    0,
    1552,
    1552,
    1552,
    1552,
    1552,
    1552,
    1552,
    1552,
    1552,
    1552,
    1552,
    1552,
    1552,
    1552,
    1552,
    1552,
    1552,
    1552,
    1552,
    1552,
    1552,
    1552,
    1552,
    1552,
    1552,
    0,
    0,
    0,
    0,
    0,
    0,
    0,
    0,
    0,
    0,
    0,
    0,
    0,
    0,
    0,
    0,
    0,
    0,
    0,
    0,
    0,
    0,
    0,
    0,
    0,
    0,
    0,
    0,
    0,
    0,
    0,
    0,
    0,
    0,
    0,
    0,
    0,
    0,
    0,
    0,
    0,
    0,
    0,
    0,
    0,
    0,
    1552,
    1552,
    0,
    0,
    0,
    0,
    0,
    0,
    0,
    0,
    0,
    0,
    0,
    0,
    0,
    0,
    0,
    0,
    0,
    0,
    0,
    0,
    0,
    0,
    0,
    0,
    0,
    0,
    0,
    0,
    0,
    0,
    0,
    0,
    0,
    0,
    0,
    0,
    0,
    0,
    0,
    0,
    0,
    0,
    0,
    1552,
    1552,
    1552,
    1552,
    0,
    0,
    0,
    0,
    0,
    0,
    0,
    0,
    1552,
    1552,
    1552,
    1552,
    1552,
    1552,
    1552,
    1552,
    1552,
    1552,
    1552,
    1552,
    1552,
    1552,
    1552,
    1552,
    1552,
    1552,
    1552,
    1552,
    1552,
    1552,
    1552,
    1552,
    1552,
    0,
    0,
    0,
    0,
    0,
    0,
    0,
    0,
    0,
    0,
    0,
    0,
    0,
    1552,
    0,
    0,
    0,
    0,
    1552,
    0,
    0,
    0,
    0,
    0,
    0,
    0,
    0,
    0,
    0,
    0,
    0,
    0,
    0,
    0,
    0,
    0,
    0,
    0,
    0,
    0,
    0,
    0,
    0,
    0,
    0,
    0,
    0,
    0,
    0,
    0,
    0,
    0,
    0,
    0,
    0,
    0,
    0,
    0,
    0,
    0,
    0,
    0,
    0,
    0,
    0,
    0,
    0,
    0,
    0,
    0,
    0,
    0,
    0,
    0,
    0,
    0,
    0,
    0,
    0,
    0,
    0,
    0,
    0,
    0,
    0,
    0,
    0,
    0,
    0,
    1552,
    0,
    1552,
    1552,
    1552,
    0,
    0,
    0,
    0,
    0,
    0,
    0,
    0,
    0,
    1552,
    1552,
    1552,
    1552,
    1552,
    1552,
    1552,
    1552,
    1552,
    1552,
    1552,
    1552,
    1552,
    1552,
    1552,
    1552,
    1552,
    1552,
    1552,
    1552,
    1552,
    1552,
    1552,
    1552,
    1552,
    0,
    0,
    0,
    0,
    0,
    0,
    0,
    0,
    0,
    0,
    0,
    0,
    0,
    0,
    0,
    0,
    0,
    0,
    0,
    0,
    0,
    0,
    0,
    0,
    0,
    0,
    0,
    0,
    0,
    0,
    0,
    0,
    0,
    0,
    0,
    0,
    0,
    0,
    0,
    0,
    0,
    0,
    0,
    0,
    0,
    0,
    0,
    0,
    0,
    0,
    0,
    0,
    0,
    0,
    0,
    0,
    0,
    0,
    0,
    0,
    0,
    0,
    0,
    0,
    0,
    0,
    0,
    0,
    0,
    0,
    0,
    0,
    0,
    0,
    0,
    0,
    0,
    0,
    0,
    0,
    0,
    0,
    0,
    0,
    0,
    0,
    0,
    0,
    0,
    0,
    1552,
    1552,
    1552,
    1552,
    0,
    0,
    0,
    0,
    0,
    0,
    0,
    0,
    0,
    1552,
    1552,
    1552,
    1552,
    1552,
    1552,
    1552,
    1552,
    1552,
    1552,
    1552,
    1552,
    1552,
    1552,
    1552,
    1552,
    1552,
    1552,
    1552,
    1552,
    1552,
    1552,
    1552,
    1552,
    0,
    0,
    0,
    0,
    0,
    0,
    0,
    0,
    0,
    0,
    0,
    0,
    0,
    0,
    0,
    0,
    0,
    0,
    0,
    0,
    0,
    0,
    0,
    0,
    0,
    0,
    0,
    0,
    0,
    0,
    0,
    0,
    0,
    0,
    0,
    0,
    0,
    0,
    0,
    0,
    0,
    0,
    0,
    0,
    0,
    0,
    0,
    0,
    0,
    0,
    0,
    0,
    0,
    0,
    0,
    0,
    0,
    0,
    0,
    0,
    0,
    0,
    0,
    0,
    0,
    0,
    0,
    0,
    0,
    0,
    0,
    0,
    0,
    0,
    0,
    0,
    0,
    0,
    0,
    0,
    0,
    0,
    0,
    0,
    0,
    0,
    1552,
    0,
    0,
    0,
    0,
    1552,
    1552,
    0,
    0,
    0,
    0,
    0,
    0,
    0,
    0,
    0,
    0,
    1552,
    1552,
    1552,
    1552,
    1552,
    1552,
    1552,
    1552,
    1552,
    1552,
    1552,
    1552,
    1552,
    1552,
    1552,
    1552,
    1552,
    1552,
    1552,
    1552,
    1552,
    1552,
    1552,
    1552,
    0,
    0,
    0,
    0,
    0,
    0,
    0,
    0,
    0,
    0,
    0,
    0,
    0,
    0,
    0,
    0,
    0,
    0,
    0,
    0,
    0,
    0,
    0,
    0,
    0,
    0,
    0,
    0,
    0,
    0,
    0,
    0,
    0,
    0,
    0,
    0,
    0,
    0,
    0,
    0,
    0,
    0,
    0,
    0,
    0,
    0,
    0,
    0,
    0,
    0,
    0,
    0,
    0,
    0,
    0,
    0,
    0,
    0,
    0,
    0,
    0,
    0,
    0,
    0,
    0,
    0,
    0,
    0,
    0,
    0,
    0,
    0,
    0,
    0,
    0,
    0,
    0,
    0,
    0,
    0,
    0,
    0,
    0,
    0,
    0,
    0,
    0,
    0,
    0,
    0,
    0,
    0,
    0,
    0,
    0,
    0,
    0,
    0,
    0,
    0,
    0,
    0,
    0,
    1552,
    1552,
    1552,
    1552,
    1552,
    1552,
    1552,
    1552,
    1552,
    1552,
    1552,
    1552,
    1552,
    1552,
    1552,
    1552,
    1552,
    1552,
    1552,
    1552,
    1552,
    1552,
    1552,
    1552,
    0,
    0,
    0,
    0,
    1552,
    0,
    0,
    0,
    0,
    0,
    0,
    0,
    0,
    0,
    0,
    0,
    0,
    0,
    0,
    0,
    0,
    0,
    0,
    0,
    0,
    0,
    0,
    0,
    0,
    0,
    0,
    0,
    0,
    0,
    0,
    0,
    0,
    0,
    0,
    0,
    0,
    0,
    0,
    0,
    0,
    0,
    0,
    0,
    0,
    0,
    0,
    0,
    0,
    0,
    0,
    0,
    0,
    0,
    0,
    0,
    0,
    0,
    0,
    0,
    0,
    0,
    0,
    0,
    0,
    0,
    0,
    0,
    0,
    0,
    0,
    0,
    0,
    0,
    0,
    0,
    0,
    0,
    0,
    0,
    0,
    0,
    0,
    0,
    0,
    0,
    0,
    0,
    0,
    0,
    0,
    0,
    0,
    0,
    0,
    0,
    0,
    0,
    0,
    1552,
    1552,
    1552,
    1552,
    1552,
    1552,
    1552,
    1552,
    1552,
    1552,
    1552,
    1552,
    1552,
    1552,
    1552,
    1552,
    1552,
    1552,
    1552,
    1552,
    1552,
    1552,
    1552,
    1552,
    1552,
    0,
    0,
    0,
    0,
    0,
    0,
    0,
    0,
    0,
    1552,
    0,
    0,
    0,
    0,
    0,
    0,
    0,
    0,
    0,
    0,
    0,
    0,
    0,
    0,
    0,
    0,
    0,
    0,
    0,
    0,
    0,
    0,
    0,
    0,
    0,
    0,
    0,
    0,
    0,
    0,
    0,
    0,
    0,
    0,
    0,
    0,
    0,
    0,
    0,
    0,
    0,
    0,
    0,
    0,
    0,
    0,
    0,
    0,
    0,
    0,
    0,
    0,
    0,
    0,
    0,
    0,
    0,
    0,
    0,
    0,
    0,
    0,
    0,
    0,
    0,
    0,
    0,
    0,
    0,
    0,
    0,
    0,
    0,
    0,
    0,
    0,
    0,
    0,
    0,
    0,
    0,
    0,
    0,
    0,
    0,
    0,
    0,
    1552,
    0,
    0,
    0,
    0,
    0,
    1552,
    1552,
    1552,
    1552,
    1552,
    1552,
    1552,
    1552,
    1552,
    1552,
    1552,
    1552,
    1552,
    1552,
    1552,
    1552,
    1552,
    1552,
    1552,
    1552,
    1552,
    1552,
    1552,
    1552,
    1552,
    0,
    0,
    0,
    0,
    0,
    0,
    0,
    0,
    0,
    0,
    0,
    0,
    0,
    0,
    0,
    0,
    0,
    0,
    0,
    0,
    0,
    0,
    0,
    0,
    0,
    0,
    0,
    0,
    0,
    0,
    0,
    0,
    0,
    0,
    0,
    0,
    0,
    0,
    0,
    0,
    0,
    0,
    0,
    0,
    0,
    0,
    0,
    0,
    0,
    0,
    0,
    0,
    0,
    0,
    0,
    0,
    0,
    0,
    0,
    0,
    0,
    0,
    0,
    0,
    0,
    0,
    0,
    0,
    0,
    0,
    0,
    0,
    0,
    0,
    0,
    0,
    0,
    0,
    0,
    0,
    0,
    0,
    0,
    0,
    0,
    0,
    0,
    0,
    0,
    0,
    0,
    0,
    0,
    0,
    0,
    0,
    0,
    0,
    0,
    0,
    0,
    0,
    0,
    1552,
    1552,
    1552,
    1552,
    1552,
    1552,
    1552,
    1552,
    1552,
    1552,
    1552,
    1552,
    1552,
    1552,
    1552,
    1552,
    1552,
    1552,
    1552,
    1552,
    1552,
    1552,
    1552,
    1552,
    1552,
    0,
    0,
    0,
    0,
    0,
    0,
    0,
    0,
    0,
    0,
    0,
    0,
    0,
    0,
    0,
    0,
    0,
    0,
    0,
    0,
    0,
    0,
    0,
    0,
    0,
    0,
    0,
    0,
    0,
    0,
    0,
    0,
    0,
    0,
    0,
    0,
    0,
    0,
    0,
    0,
    0,
    0,
    0,
    0,
    0,
    0,
    0,
    0,
    0,
    0,
    0,
    0,
    0,
    0,
    0,
    0,
    0,
    0,
    0,
    0,
    0,
    0,
    0,
    0,
    0,
    0,
    0,
    0,
    0,
    0,
    0,
    0,
    0,
    0,
    0,
    0,
    0,
    0,
    0,
    0,
    0,
    0,
    0,
    0,
    0,
    0,
    0,
    0,
    0,
    0,
    0,
    0,
    0,
    0,
    0,
    0,
    0,
    0,
    0,
    0,
    0,
    0,
    0,
    1552,
    1552,
    1552,
    1552,
    1552,
    1552,
    1552,
    1552,
    1552,
    1552,
    1552,
    1552,
    1552,
    1552,
    1552,
    1552,
    1552,
    1552,
    1552,
    1552,
    1552,
    1552,
    1552,
    1552,
    1552,
    0,
    0,
    0,
    0,
    0,
    0,
    0,
    0,
    0,
    0,
    0,
    0,
    0,
    0,
    0,
    0,
    0,
    0,
    0,
    0,
    0,
    0,
    0,
    0,
    0,
    0,
    0,
    0,
    0,
    0,
    0,
    0,
    0,
    0,
    0,
    0,
    0,
    0,
    0,
    0,
    0,
    0,
    0,
    0,
    0,
    0,
    0,
    0,
    0,
    0,
    0,
    0,
    0,
    0,
    0,
    0,
    0,
    0,
    0,
    0,
    0,
    0,
    0,
    0,
    0,
    0,
    0,
    0,
    0,
    0,
    0,
    0,
    0,
    0,
    0,
    0,
    0,
    0,
    0,
    0,
    0,
    0,
    0,
    0,
    0,
    0,
    0,
    0,
    0,
    0,
    0,
    0,
    0,
    0,
    0,
    0,
    0,
    0,
    0,
    0,
    0,
    0,
    0,
    1552,
    1552,
    1552,
    1552,
    1552,
    1552,
    1552,
    1552,
    1552,
    1552,
    1552,
    1552,
    1552,
    1552,
    1552,
    1552,
    1552,
    1552,
    1552,
    1552,
    1552,
    1552,
    1552,
    1552,
    1552,
    0,
    0,
    0,
    0,
    0,
    0,
    0,
    0,
    0,
    0,
    0,
    0,
    0,
    0,
    0,
    0,
    0,
    0,
    0,
    0,
    0,
    0,
    0,
    0,
    0,
    0,
    0,
    0,
    0,
    0,
    0,
    0,
    0,
    0,
    0,
    0,
    0,
    0,
    0,
    0,
    0,
    0,
    0,
    0,
    0,
    0,
    0,
    0,
    0,
    0,
    0,
    0,
    0,
    0,
    0,
    0,
    0,
    0,
    0,
    0,
    0,
    0,
    0,
    0,
    0,
    0,
    0,
    0,
    0,
    0,
    0,
    0,
    0,
    0,
    0,
    0,
    0,
    0,
    0,
    0,
    0,
    0,
    0,
    0,
    0,
    0,
    0,
    0,
    0,
    0,
    0,
    0,
    0,
    0,
    0,
    0,
    0,
    0,
    0,
    0,
    0,
    0,
    1552,
    1552,
    1552,
    1552,
    1552,
    1552,
    1552,
    1552,
    1552,
    1552,
    1552,
    1552,
    1552,
    1552,
    1552,
    1552,
    1552,
    1552,
    1552,
    1552,
    1552,
    1552,
    1552,
    1552,
    1552,
    1552,
    0,
    0,
    0,
    0,
    0,
    0,
    0,
    0,
    0,
    0,
    0,
    0,
    0,
    0,
    0,
    0,
    0,
    0,
    0,
    0,
    0,
    0,
    0,
    0,
    0,
    0,
    0,
    0,
    0,
    0,
    0,
    0,
    0,
    0,
    0,
    0,
    0,
    0,
    0,
    0,
    0,
    0,
    0,
    0,
    0,
    0,
    0,
    0,
    0,
    0,
    0,
    0,
    0,
    0,
    0,
    0,
    0,
    0,
    0,
    0,
    0,
    0,
    0,
    0,
    0,
    0,
    0,
    0,
    0,
    0,
    0,
    0,
    0,
    0,
    0,
    0,
    0,
    0,
    0,
    0,
    0,
    0,
    0,
    0,
    0,
    0,
    0,
    0,
    0,
    0,
    0,
    0,
    0,
    0,
    0,
    0,
    1552,
    0,
    0,
    0,
    1552,
    1552,
    1552,
    1552,
    1552,
    1552,
    1552,
    1552,
    1552,
    1552,
    1552,
    1552,
    1552,
    1552,
    1552,
    1552,
    1552,
    1552,
    1552,
    1552,
    1552,
    1552,
    1552,
    1552,
    1552,
    1552,
    1552,
    0,
    0,
    0,
    0,
    0,
    0,
    0,
    0,
    1552,
    0,
    1552,
    0,
    0,
    0,
    0,
    0,
    0,
    0,
    0,
    0,
    0,
    0,
    0,
    0,
    0,
    0,
    0,
    0,
    0,
    0,
    0,
    0,
    0,
    0,
    0,
    0,
    0,
    0,
    0,
    0,
    0,
    0,
    0,
    0,
    0,
    0,
    0,
    0,
    0,
    0,
    0,
    0,
    0,
    0,
    0,
    0,
    0,
    0,
    0,
    0,
    0,
    0,
    0,
    0,
    0,
    0,
    0,
    0,
    0,
    0,
    0,
    0,
    0,
    0,
    0,
    0,
    0,
    0,
    0,
    0,
    0,
    0,
    0,
    0,
    0,
    0,
    0,
    0,
    0,
    0,
    0,
    0,
    0,
    0,
    0,
    0,
    0,
    0,
    0,
    0,
    1552,
    1552,
    1552,
    1552,
    1552,
    1552,
    1552,
    1552,
    1552,
    1552,
    1552,
    1552,
    1552,
    1552,
    1552,
    1552,
    1552,
    1552,
    1552,
    1552,
    1552,
    1552,
    1552,
    1552,
    1552,
    1552,
    1552,
    1552,
    0,
    0,
    0,
    0,
    0,
    0,
    0,
    0,
    1552,
    1552,
    0,
    0,
    0,
    0,
    0,
    0,
    0,
    0,
    0,
    0,
    0,
    0,
    0,
    0,
    0,
    0,
    0,
    0,
    0,
    0,
    0,
    0,
    0,
    0,
    0,
    0,
    0,
    0,
    0,
    0,
    0,
    0,
    0,
    0,
    0,
    0,
    0,
    0,
    0,
    0,
    0,
    0,
    0,
    0,
    0,
    0,
    0,
    0,
    0,
    0,
    0,
    0,
    0,
    0,
    0,
    0,
    0,
    0,
    0,
    0,
    0,
    0,
    0,
    0,
    0,
    0,
    0,
    0,
    0,
    0,
    0,
    0,
    0,
    0,
    0,
    0,
    0,
    0,
    0,
    0,
    0,
    0,
    0,
    0,
    0,
    0,
    0,
    0,
    0,
    1552,
    1552,
    1552,
    1552,
    1552,
    1552,
    1552,
    1552,
    1552,
    1552,
    1552,
    1552,
    1552,
    1552,
    1552,
    1552,
    1552,
    1552,
    1552,
    1552,
    1552,
    1552,
    1552,
    1552,
    1552,
    1552,
    1552,
    1552,
    1552,
    0,
    0,
    0,
    0,
    0,
    0,
    0,
    1552,
    1552,
    1552,
    0,
    0,
    0,
    0,
    0,
    0,
    0,
    0,
    0,
    0,
    0,
    0,
    0,
    0,
    0,
    0,
    0,
    0,
    0,
    0,
    0,
    0,
    0,
    0,
    0,
    0,
    0,
    0,
    0,
    0,
    0,
    0,
    0,
    0,
    0,
    0,
    0,
    0,
    0,
    0,
    0,
    0,
    0,
    0,
    0,
    0,
    0,
    0,
    0,
    0,
    0,
    0,
    0,
    0,
    0,
    0,
    0,
    0,
    0,
    0,
    0,
    0,
    0,
    0,
    0,
    0,
    0,
    0,
    0,
    0,
    0,
    0,
    0,
    0,
    0,
    0,
    0,
    0,
    0,
    0,
    0,
    0,
    0,
    0,
    0,
    0,
    0,
    0,
    1552,
    1552,
    1552,
    1552,
    1552,
    1552,
    1552,
    1552,
    1552,
    1552,
    1552,
    1552,
    1552,
    1552,
    1552,
    1552,
    1552,
    1552,
    1552,
    1552,
    1552,
    1552,
    1552,
    1552,
    1552,
    1552,
    1552,
    1552,
    1552,
    1552,
    0,
    0,
    0,
    0,
    0,
    0,
    0,
    0,
    0,
    1552,
    1552,
    0,
    0,
    0,
    0,
    0,
    0,
    0,
    0,
    0,
    0,
    0,
    0,
    0,
    0,
    0,
    0,
    0,
    0,
    0,
    0,
    0,
    0,
    0,
    0,
    0,
    0,
    0,
    0,
    0,
    0,
    0,
    0,
    0,
    0,
    0,
    0,
    0,
    0,
    0,
    0,
    0,
    0,
    0,
    0,
    0,
    0,
    0,
    0,
    0,
    0,
    0,
    0,
    0,
    0,
    0,
    0,
    0,
    0,
    0,
    0,
    0,
    0,
    0,
    0,
    0,
    0,
    0,
    0,
    0,
    0,
    0,
    0,
    0,
    0,
    0,
    0,
    0,
    0,
    0,
    0,
    0,
    0,
    0,
    0,
    0,
    0,
    0,
    1552,
    1552,
    1552,
    1552,
    1552,
    1552,
    1552,
    1552,
    1552,
    1552,
    1552,
    1552,
    1552,
    1552,
    1552,
    1552,
    1552,
    1552,
    1552,
    1552,
    1552,
    1552,
    1552,
    1552,
    1552,
    1552,
    1552,
    1552,
    1552,
    1552,
    0,
    0,
    0,
    0,
    0,
    0,
    0,
    0,
    0,
    0,
    0,
    0,
    0,
    0,
    0,
    0,
    0,
    0,
    0,
    0,
    0,
    0,
    0,
    0,
    0,
    0,
    0,
    0,
    0,
    0,
    0,
    0,
    0,
    0,
    0,
    0,
    0,
    0,
    0,
    0,
    0,
    0,
    0,
    0,
    0,
    0,
    0,
    0,
    0,
    0,
    0,
    0,
    0,
    0,
    0,
    0,
    0,
    0,
    0,
    0,
    0,
    0,
    0,
    0,
    0,
    0,
    0,
    0,
    0,
    0,
    0,
    0,
    0,
    0,
    0,
    0,
    0,
    0,
    0,
    0,
    0,
    0,
    0,
    0,
    0,
    0,
    0,
    0,
    0,
    0,
    0,
    0,
    0,
    0,
    0,
    0,
    0,
    0,
    1552,
    1552,
    1552,
    1552,
    1552,
    1552,
    1552,
    1552,
    1552,
    1552,
    1552,
    1552,
    1552,
    1552,
    1552,
    1552,
    1552,
    1552,
    1552,
    1552,
    1552,
    1552,
    1552,
    1552,
    1552,
    1552,
    1552,
    1552,
    1552,
    0,
    0,
    0,
    0,
    0,
    0,
    0,
    0,
    0,
    0,
    0,
    0,
    0,
    0,
    0,
    0,
    0,
    0,
    0,
    0,
    0,
    0,
    0,
    0,
    0,
    0,
    0,
    0,
    0,
    0,
    0,
    0,
    0,
    0,
    0,
    0,
    0,
    0,
    0,
    0,
    0,
    0,
    0,
    0,
    0,
    0,
    0,
    0,
    0,
    0,
    0,
    0,
    0,
    0,
    0,
    0,
    0,
    0,
    0,
    0,
    0,
    0,
    0,
    0,
    0,
    0,
    0,
    0,
    0,
    0,
    0,
    0,
    0,
    0,
    0,
    0,
    0,
    0,
    0,
    0,
    0,
    0,
    0,
    0,
    0,
    0,
    0,
    0,
    0,
    0,
    0,
    0,
    0,
    0,
    0,
    0,
    0,
    0,
    0,
    1552,
    1552,
    1552,
    1552,
    1552,
    1552,
    1552,
    1552,
    1552,
    1552,
    1552,
    1552,
    1552,
    1552,
    1552,
    1552,
    1552,
    1552,
    1552,
    1552,
    1552,
    1552,
    1552,
    1552,
    1552,
    1552,
    1552,
    1552,
    1552,
    0,
    0,
    0,
    0,
    0,
    0,
    0,
    0,
    0,
    0,
    0,
    0,
    0,
    0,
    0,
    0,
    0,
    0,
    0,
    0,
    0,
    0,
    0,
    0,
    0,
    0,
    0,
    0,
    0,
    0,
    0,
    0,
    0,
    0,
    0,
    0,
    0,
    0,
    0,
    0,
    0,
    0,
    0,
    0,
    0,
    0,
    0,
    0,
    0,
    0,
    0,
    0,
    0,
    0,
    0,
    0,
    0,
    0,
    0,
    0,
    0,
    0,
    0,
    0,
    0,
    0,
    0,
    0,
    0,
    0,
    0,
    0,
    0,
    0,
    0,
    0,
    0,
    0,
    0,
    0,
    0,
    0,
    0,
    0,
    0,
    0,
    0,
    0,
    0,
    0,
    0,
    0,
    0,
    0,
    0,
    0,
    0,
    0,
    0,
    1552,
    1552,
    1552,
    1552,
    1552,
    1552,
    1552,
    1552,
    1552,
    1552,
    1552,
    1552,
    1552,
    1552,
    1552,
    1552,
    1552,
    1552,
    1552,
    1552,
    1552,
    1552,
    1552,
    1552,
    1552,
    1552,
    1552,
    1552,
    1552,
    0,
    0,
    0,
    0,
    0,
    0,
    0,
    0,
    0,
    0,
    0,
    0,
    0,
    0,
    0,
    0,
    0,
    0,
    0,
    0,
    0,
    0,
    0,
    0,
    0,
    0,
    0,
    0,
    0,
    0,
    0,
    0,
    0,
    0,
    0,
    0,
    0,
    0,
    0,
    0,
    0,
    0,
    0,
    0,
    0,
    0,
    0,
    0,
    0,
    0,
    0,
    0,
    0,
    0,
    0,
    0,
    0,
    0,
    0,
    0,
    0,
    0,
    0,
    0,
    0,
    0,
    0,
    0,
    0,
    0,
    0,
    0,
    0,
    0,
    0,
    0,
    0,
    0,
    0,
    0,
    0,
    0,
    0,
    0,
    0,
    0,
    0,
    0,
    0,
    0,
    0,
    0,
    0,
    0,
    0,
    0,
    1552,
    0,
    0,
    1552,
    1552,
    1552,
    1552,
    1552,
    1552,
    1552,
    1552,
    1552,
    1552,
    1552,
    1552,
    1552,
    1552,
    1552,
    1552,
    1552,
    1552,
    1552,
    1552,
    1552,
    1552,
    1552,
    1552,
    1552,
    1552,
    1552,
    1552,
    1552,
    0,
    0,
    0,
    0,
    0,
    0,
    0,
    0,
    0,
    0,
    0,
    0,
    0,
    0,
    0,
    0,
    0,
    0,
    0,
    0,
    0,
    0,
    0,
    0,
    0,
    0,
    0,
    0,
    0,
    0,
    0,
    0,
    0,
    0,
    0,
    0,
    0,
    0,
    0,
    0,
    0,
    0,
    0,
    0,
    0,
    0,
    0,
    0,
    0,
    0,
    0,
    0,
    0,
    0,
    0,
    0,
    0,
    0,
    0,
    0,
    0,
    0,
    0,
    0,
    0,
    0,
    0,
    0,
    0,
    0,
    0,
    0,
    0,
    0,
    0,
    0,
    0,
    0,
    0,
    0,
    0,
    0,
    0,
    0,
    0,
    0,
    0,
    0,
    0,
    0,
    0,
    0,
    0,
    0,
    0,
    0,
    0,
    1552,
    0,
    1552,
    1552,
    1552,
    1552,
    1552,
    1552,
    1552,
    1552,
    1552,
    1552,
    1552,
    1552,
    1552,
    1552,
    1552,
    1552,
    1552,
    1552,
    1552,
    1552,
    1552,
    1552,
    1552,
    1552,
    1552,
    1552,
    1552,
    1552,
    1552,
    0,
    0,
    0,
    0,
    0,
    0,
    0,
    0,
    0,
    0,
    0,
    0,
    0,
    0,
    0,
    0,
    0,
    0,
    0,
    0,
    0,
    0,
    0,
    0,
    0,
    0,
    0,
    1552,
    0,
    0,
    1552,
    0,
    0,
    0,
    0,
    0,
    0,
    0,
    0,
    0,
    0,
    0,
    0,
    0,
    0,
    0,
    0,
    0,
    0,
    0,
    0,
    0,
    0,
    0,
    0,
    0,
    0,
    0,
    0,
    0,
    0,
    0,
    0,
    0,
    0,
    0,
    0,
    0,
    0,
    0,
    0,
    0,
    0,
    0,
    0,
    0,
    0,
    0,
    0,
    0,
    0,
    0,
    0,
    0,
    0,
    0,
    0,
    0,
    0,
    0,
    0,
    0,
    0,
    0,
    0,
    0,
    0,
    0,
    0,
    1552,
    1552,
    1552,
    1552,
    1552,
    1552,
    1552,
    1552,
    1552,
    1552,
    1552,
    1552,
    1552,
    1552,
    1552,
    1552,
    1552,
    1552,
    1552,
    1552,
    1552,
    1552,
    1552,
    1552,
    1552,
    1552,
    1552,
    1552,
    0,
    0,
    0,
    0,
    0,
    0,
    0,
    0,
    0,
    0,
    0,
    0,
    0,
    0,
    0,
    0,
    0,
    0,
    0,
    0,
    0,
    0,
    0,
    0,
    0,
    0,
    0,
    0,
    0,
    0,
    0,
    0,
    0,
    0,
    0,
    0,
    0,
    0,
    0,
    0,
    0,
    0,
    0,
    0,
    0,
    0,
    0,
    0,
    0,
    0,
    0,
    0,
    0,
    0,
    0,
    0,
    0,
    0,
    0,
    0,
    0,
    0,
    0,
    0,
    0,
    0,
    0,
    0,
    0,
    0,
    0,
    0,
    0,
    0,
    0,
    0,
    0,
    0,
    0,
    0,
    0,
    0,
    0,
    0,
    0,
    0,
    0,
    0,
    0,
    0,
    0,
    0,
    0,
    0,
    0,
    0,
    0,
    0,
    0,
    0,
    1552,
    1552,
    1552,
    1552,
    1552,
    1552,
    1552,
    1552,
    1552,
    1552,
    1552,
    1552,
    1552,
    1552,
    1552,
    1552,
    1552,
    1552,
    1552,
    1552,
    1552,
    0,
    1552,
    1552,
    1552,
    1552,
    1552,
    0,
    0,
    0,
    0,
    0,
    0,
    0,
    0,
    0,
    0,
    0,
    0,
    0,
    0,
    0,
    0,
    0,
    0,
    0,
    0,
    0,
    0,
    0,
    0,
    0,
    0,
    0,
    1552,
    1552,
    0,
    0,
    1552,
    1552,
    0,
    0,
    0,
    0,
    0,
    0,
    0,
    0,
    0,
    0,
    0,
    0,
    0,
    0,
    0,
    0,
    0,
    0,
    0,
    0,
    0,
    0,
    0,
    0,
    0,
    0,
    0,
    0,
    0,
    0,
    0,
    0,
    0,
    0,
    0,
    0,
    0,
    0,
    0,
    0,
    0,
    0,
    0,
    0,
    0,
    0,
    0,
    0,
    0,
    0,
    0,
    0,
    0,
    0,
    0,
    0,
    0,
    0,
    0,
    0,
    0,
    0,
    0,
    0,
    0,
    0,
    0,
    0,
    1552,
    1552,
    1552,
    1552,
    1552,
    1552,
    1552,
    1552,
    1552,
    0,
    0,
    0,
    1552,
    1552,
    1552,
    1552,
    1552,
    1552,
    1552,
    1552,
    0,
    0,
    1552,
    1552,
    1552,
    1552,
    0,
    0,
    0,
    0,
    0,
    0,
    0,
    0,
    0,
    0,
    0,
    0,
    0,
    0,
    0,
    0,
    0,
    0,
    0,
    0,
    0,
    0,
    0,
    0,
    0,
    0,
    0,
    0,
    1552,
    1552,
    1552,
    1552,
    0,
    1552,
    1552,
    1552,
    0,
    0,
    0,
    0,
    0,
    0,
    0,
    0,
    0,
    0,
    0,
    0,
    0,
    0,
    0,
    0,
    0,
    0,
    0,
    0,
    0,
    0,
    0,
    0,
    0,
    0,
    0,
    0,
    0,
    0,
    0,
    0,
    0,
    0,
    0,
    0,
    0,
    0,
    0,
    0,
    0,
    0,
    0,
    0,
    0,
    0,
    0,
    0,
    0,
    0,
    0,
    0,
    0,
    0,
    0,
    0,
    0,
    0,
    0,
    0,
    0,
    0,
    0,
    0,
    0,
    0,
    1552,
    1552,
    1552,
    1552,
    1552,
    1552,
    1552,
    1552,
    0,
    0,
    0,
    0,
    0,
    1552,
    1552,
    1552,
    1552,
    1552,
    1552,
    1552,
    1552,
    1552,
    1552,
    1552,
    1552,
    1552,
    0,
    0,
    1552,
    0,
    0,
    0,
    0,
    0,
    0,
    0,
    0,
    0,
    0,
    0,
    0,
    0,
    0,
    0,
    0,
    0,
    0,
    0,
    0,
    0,
    0,
    0,
    0,
    0,
    0,
    1552,
    1552,
    1552,
    0,
    1552,
    1552,
    0,
    1552,
    0,
    0,
    0,
    0,
    0,
    0,
    0,
    0,
    0,
    0,
    0,
    0,
    0,
    0,
    0,
    0,
    0,
    0,
    0,
    0,
    0,
    0,
    0,
    0,
    0,
    0,
    0,
    0,
    0,
    0,
    0,
    0,
    0,
    0,
    0,
    0,
    0,
    0,
    0,
    0,
    0,
    0,
    0,
    0,
    0,
    0,
    0,
    0,
    0,
    0,
    0,
    0,
    0,
    0,
    0,
    0,
    0,
    0,
    0,
    0,
    0,
    0,
    0,
    0,
    1552,
    1552,
    1552,
    1552,
    1552,
    1552,
    1552,
    1552,
    1552,
    0,
    0,
    0,
    0,
    0,
    0,
    1552,
    1552,
    1552,
    1552,
    1552,
    1552,
    1552,
    1552,
    1552,
    1552,
    1552,
    1552,
    0,
    0,
    0,
    0,
    0,
    0,
    0,
    0,
    0,
    0,
    0,
    0,
    0,
    0,
    0,
    0,
    0,
    0,
    0,
    0,
    0,
    0,
    0,
    0,
    0,
    0,
    0,
    0,
    0,
    0,
    1552,
    1552,
    1552,
    0,
    1552,
    1552,
    0,
    0,
    0,
    0,
    0,
    0,
    0,
    0,
    0,
    0,
    0,
    0,
    0,
    0,
    0,
    0,
    0,
    0,
    0,
    0,
    0,
    0,
    0,
    0,
    0,
    0,
    0,
    0,
    0,
    0,
    0,
    0,
    0,
    0,
    0,
    0,
    0,
    0,
    0,
    0,
    0,
    0,
    0,
    0,
    0,
    0,
    0,
    0,
    0,
    0,
    0,
    0,
    0,
    0,
    0,
    0,
    1552,
    0,
    0,
    0,
    0,
    0,
    0,
    0,
    1552,
    1552,
    1552,
    1552,
    1552,
    1552,
    1552,
    1552,
    1552,
    1552,
    0,
    0,
    0,
    0,
    0,
    0,
    0,
    1552,
    1552,
    1552,
    1552,
    1552,
    1552,
    1552,
    1552,
    1552,
    1552,
    1552,
    1552,
    0,
    0,
    0,
    0,
    0,
    0,
    0,
    0,
    0,
    0,
    0,
    0,
    0,
    0,
    0,
    0,
    0,
    0,
    0,
    0,
    0,
    0,
    0,
    0,
    0,
    0,
    0,
    1552,
    0,
    1552,
    1552,
    1552,
    0,
    1552,
    1552,
    0,
    0,
    0,
    0,
    0,
    0,
    0,
    0,
    0,
    0,
    0,
    0,
    0,
    0,
    0,
    0,
    0,
    0,
    0,
    0,
    0,
    0,
    0,
    0,
    0,
    0,
    0,
    0,
    0,
    0,
    0,
    0,
    0,
    0,
    0,
    0,
    0,
    0,
    0,
    0,
    0,
    0,
    0,
    0,
    0,
    0,
    0,
    0,
    0,
    0,
    0,
    0,
    0,
    0,
    0,
    1552,
    0,
    0,
    0,
    0,
    0,
    0,
    0,
    1552,
    1552,
    1552,
    1552,
    1552,
    1552,
    1552,
    1552,
    1552,
    1552,
    1552,
    0,
    0,
    0,
    0,
    0,
    0,
    0,
    1552,
    1552,
    1552,
    1552,
    1552,
    1552,
    1552,
    1552,
    1552,
    1552,
    1552,
    1552,
    0,
    0,
    0,
    0,
    0,
    0,
    0,
    0,
    0,
    0,
    0,
    0,
    0,
    0,
    0,
    0,
    0,
    0,
    0,
    0,
    0,
    0,
    0,
    0,
    0,
    0,
    0,
    0,
    1552,
    1552,
    1552,
    0,
    1552,
    1552,
    1552,
    0,
    1552,
    0,
    0,
    0,
    0,
    0,
    0,
    0,
    0,
    0,
    0,
    0,
    0,
    0,
    0,
    0,
    0,
    0,
    0,
    0,
    0,
    0,
    0,
    0,
    0,
    0,
    0,
    0,
    0,
    0,
    0,
    0,
    0,
    0,
    0,
    0,
    0,
    0,
    0,
    0,
    0,
    0,
    0,
    0,
    0,
    0,
    0,
    0,
    0,
    0,
    0,
    0,
    0,
    0,
    1552,
    0,
    0,
    0,
    0,
    0,
    0,
    0,
    1552,
    1552,
    1552,
    1552,
    1552,
    1552,
    1552,
    1552,
    1552,
    1552,
    1552,
    1552,
    0,
    0,
    0,
    0,
    0,
    0,
    1552,
    1552,
    1552,
    1552,
    1552,
    1552,
    1552,
    1552,
    1552,
    1552,
    1552,
    1552,
    1552,
    0,
    0,
    0,
    0,
    0,
    0,
    0,
    0,
    0,
    0,
    0,
    0,
    0,
    0,
    0,
    0,
    0,
    0,
    0,
    0,
    0,
    0,
    0,
    0,
    0,
    1552,
    0,
    1552,
    1552,
    0,
    0,
    1552,
    1552,
    0,
    1552,
    0,
    0,
    0,
    0,
    0,
    0,
    0,
    0,
    0,
    0,
    0,
    0,
    0,
    0,
    0,
    0,
    0,
    0,
    0,
    0,
    0,
    0,
    0,
    0,
    0,
    0,
    0,
    0,
    0,
    0,
    0,
    0,
    0,
    0,
    0,
    0,
    0,
    0,
    0,
    0,
    0,
    0,
    0,
    0,
    0,
    0,
    0,
    0,
    0,
    0,
    0,
    0,
    0,
    0,
    0,
    0,
    0,
    0,
    0,
    0,
    0,
    0,
    1552,
    1552,
    1552,
    1552,
    1552,
    1552,
    1552,
    1552,
    1552,
    1552,
    1552,
    1552,
    0,
    0,
    0,
    0,
    0,
    0,
    1552,
    1552,
    1552,
    1552,
    1552,
    1552,
    1552,
    1552,
    1552,
    1552,
    1552,
    1552,
    1552,
    1552,
    1552,
    0,
    0,
    0,
    0,
    0,
    1552,
    0,
    0,
    0,
    0,
    0,
    0,
    0,
    0,
    0,
    0,
    0,
    0,
    0,
    0,
    0,
    0,
    0,
    0,
    0,
    0,
    0,
    0,
    1552,
    0,
    1552,
    0,
    0,
    0,
    0,
    0,
    0,
    0,
    0,
    0,
    0,
    0,
    0,
    0,
    0,
    0,
    0,
    0,
    0,
    0,
    0,
    0,
    0,
    0,
    0,
    0,
    0,
    0,
    0,
    0,
    0,
    0,
    0,
    0,
    0,
    0,
    0,
    0,
    0,
    0,
    0,
    0,
    0,
    0,
    0,
    0,
    0,
    0,
    0,
    0,
    0,
    0,
    0,
    0,
    0,
    0,
    0,
    0,
    0,
    0,
    0,
    0,
    0,
    0,
    0,
    1552,
    1552,
    1552,
    1552,
    1552,
    1552,
    1552,
    1552,
    1552,
    1552,
    1552,
    1552,
    1552,
    0,
    0,
    0,
    0,
    0,
    1552,
    1552,
    1552,
    1552,
    1552,
    1552,
    1552,
    1552,
    1552,
    1552,
    1552,
    1552,
    1552,
    1552,
    1552,
    1552,
    0,
    0,
    0,
    0,
    1552,
    0,
    0,
    0,
    0,
    0,
    0,
    0,
    0,
    0,
    0,
    0,
    0,
    0,
    0,
    0,
    0,
    0,
    0,
    0,
    0,
    1552,
    0,
    0,
    0,
    0,
    0,
    0,
    0,
    0,
    0,
    0,
    0,
    0,
    0,
    0,
    0,
    0,
    0,
    0,
    0,
    0,
    0,
    0,
    0,
    0,
    0,
    0,
    0,
    0,
    0,
    0,
    0,
    0,
    0,
    0,
    0,
    0,
    0,
    0,
    0,
    0,
    0,
    0,
    0,
    0,
    0,
    0,
    0,
    0,
    0,
    0,
    0,
    0,
    0,
    0,
    0,
    0,
    0,
    0,
    0,
    0,
    0,
    0,
    0,
    0,
    0,
    0,
    0,
    0,
    1552,
    1552,
    1552,
    1552,
    1552,
    1552,
    1552,
    1552,
    1552,
    1552,
    1552,
    1552,
    1552,
    1552,
    1552,
    1552,
    1552,
    1552,
    1552,
    1552,
    1552,
    1552,
    1552,
    1552,
    1552,
    1552,
    1552,
    1552,
    1552,
    1552,
    1552,
    1552,
    1552,
    1552,
    1552,
    0,
    0,
    0,
    0,
    0,
    0,
    0,
    0,
    0,
    0,
    0,
    0,
    0,
    0,
    0,
    0,
    0,
    0,
    0,
    0,
    0,
    0,
    0,
    0,
    0,
    0,
    0,
    0,
    0,
    0,
    0,
    0,
    0,
    0,
    0,
    0,
    0,
    0,
    0,
    0,
    0,
    0,
    0,
    0,
    0,
    0,
    0,
    0,
    0,
    0,
    0,
    0,
    0,
    0,
    0,
    0,
    0,
    0,
    0,
    0,
    0,
    0,
    0,
    0,
    0,
    0,
    0,
    0,
    0,
    0,
    0,
    0,
    0,
    0,
    0,
    0,
    0,
    0,
    0,
    0,
    0,
    0,
    0,
    0,
    0,
    0,
    0,
    0,
    0,
    0,
    0,
    0,
    0,
    1552,
    1552,
    1552,
    1552,
    1552,
    1552,
    1552,
    1552,
    1552,
    1552,
    1552,
    1552,
    1552,
    1552,
    1552,
    1552,
    1552,
    1552,
    1552,
    1552,
    1552,
    1552,
    1552,
    1552,
    1552,
    1552,
    1552,
    1552,
    1552,
    1552,
    1552,
    1552,
    1552,
    1552,
    1552,
    1552,
    0,
    0,
    0,
    0,
    0,
    0,
    0,
    0,
    0,
    0,
    0,
    0,
    0,
    0,
    0,
    0,
    0,
    0,
    0,
    0,
    0,
    0,
    0,
    0,
    0,
    0,
    0,
    0,
    0,
    0,
    0,
    0,
    0,
    0,
    0,
    0,
    0,
    0,
    0,
    0,
    0,
    0,
    0,
    0,
    0,
    0,
    0,
    0,
    0,
    0,
    0,
    0,
    0,
    0,
    0,
    0,
    0,
    0,
    0,
    0,
    0,
    0,
    0,
    0,
    0,
    0,
    0,
    0,
    0,
    0,
    0,
    0,
    0,
    0,
    0,
    0,
    0,
    0,
    0,
    0,
    0,
    0,
    0,
    0,
    0,
    0,
    0,
    0,
    0,
    0,
    0,
    0,
    1552,
    1552,
    1552,
    1552,
    1552,
    1552,
    1552,
    1552,
    1552,
    1552,
    1552,
    1552,
    1552,
    1552,
    1552,
    1552,
    1552,
    1552,
    1552,
    1552,
    1552,
    1552,
    1552,
    1552,
    1552,
    1552,
    1552,
    1552,
    1552,
    1552,
    1552,
    1552,
    1552,
    1552,
    1552,
    1552,
    1552,
    1552,
    0,
    0,
    0,
    0,
    0,
    0,
    0,
    0,
    0,
    0,
    0,
    0,
    0,
    0,
    0,
    0,
    0,
    0,
    0,
    0,
    0,
    0,
    0,
    0,
    0,
    0,
    0,
    0,
    0,
    0,
    0,
    0,
    0,
    0,
    0,
    0,
    0,
    0,
    0,
    0,
    0,
    0,
    0,
    0,
    0,
    0,
    0,
    0,
    0,
    0,
    0,
    0,
    0,
    0,
    0,
    0,
    0,
    0,
    0,
    0,
    0,
    0,
    0,
    0,
    0,
    0,
    0,
    0,
    0,
    0,
    0,
    0,
    0,
    0,
    0,
    0,
    0,
    0,
    0,
    0,
    0,
    0,
    0,
    0,
    0,
    0,
    0,
    0,
    0,
    0,
    0,
    1552,
    1552,
    1552,
    1552,
    1552,
    1552,
    1552,
    1552,
    1552,
    1552,
    1552,
    1552,
    1552,
    1552,
    1552,
    1552,
    1552,
    1552,
    1552,
    1552,
    1552,
    1552,
    1552,
    1552,
    1552,
    1552,
    1552,
    1552,
    1552,
    1552,
    1552,
    1552,
    1552,
    1552,
    1552,
    1552,
    1552,
    1552,
    0,
    0,
    0,
    0,
    0,
    0,
    0,
    0,
    0,
    0,
    0,
    0,
    0,
    0,
    0,
    0,
    0,
    0,
    0,
    0,
    0,
    0,
    0,
    0,
    0,
    0,
    0,
    0,
    0,
    0,
    0,
    0,
    0,
    0,
    0,
    0,
    0,
    0,
    0,
    0,
    0,
    0,
    0,
    0,
    0,
    0,
    0,
    0,
    0,
    0,
    0,
    0,
    0,
    0,
    0,
    0,
    0,
    0,
    0,
    0,
    0,
    0,
    0,
    0,
    0,
    0,
    0,
    0,
    0,
    0,
    0,
    0,
    0,
    0,
    0,
    0,
    0,
    0,
    0,
    0,
    0,
    0,
    0,
    0,
    0,
    0,
    0,
    0,
    0,
    0,
    1552,
    1552,
    1552,
    1552,
    1552,
    1552,
    1552,
    1552,
    1552,
    1552,
    1552,
    1552,
    1552,
    1552,
    1552,
    1552,
    1552,
    1552,
    1552,
    1552,
    1552,
    1552,
    1552,
    1552,
    1552,
    1552,
    1552,
    1552,
    1552,
    1552,
    1552,
    1552,
    1552,
    1552,
    1552,
    1552,
    1552,
    1552,
    0,
    0,
    0,
    0,
    0,
    0,
    0,
    0,
    0,
    0,
    0,
    0,
    0,
    0,
    0,
    0,
    0,
    0,
    0,
    0,
    0,
    0,
    0,
    0,
    0,
    0,
    0,
    0,
    0,
    0,
    0,
    0,
    0,
    0,
    0,
    0,
    0,
    0,
    0,
    0,
    0,
    0,
    0,
    0,
    0,
    0,
    0,
    0,
    0,
    0,
    0,
    0,
    0,
    0,
    0,
    0,
    0,
    0,
    0,
    0,
    0,
    0,
    0,
    0,
    0,
    0,
    0,
    0,
    0,
    0,
    0,
    0,
    0,
    0,
    0,
    0,
    0,
    0,
    0,
    0,
    0,
    0,
    0,
    0,
    0,
    0,
    0,
    0,
    0,
    0,
    1552,
    1552,
    1552,
    1552,
    1552,
    1552,
    1552,
    1552,
    1552,
    1552,
    1552,
    1552,
    0,
    0,
    0,
    0,
    0,
    0,
    0,
    0,
    0,
    0,
    1552,
    1552,
    0,
    0,
    0,
    1552,
    1552,
    1552,
    1552,
    1552,
    1552,
    1552,
    1552,
    1552,
    1552,
    1552,
    0,
    0,
    0,
    0,
    0,
    0,
    0,
    0,
    0,
    0,
    0,
    0,
    0,
    0,
    0,
    0,
    0,
    0,
    0,
    0,
    0,
    0,
    0,
    0,
    0,
    0,
    0,
    0,
    0,
    0,
    0,
    0,
    0,
    0,
    0,
    0,
    0,
    0,
    0,
    0,
    0,
    0,
    0,
    0,
    0,
    0,
    0,
    0,
    0,
    0,
    0,
    0,
    0,
    0,
    0,
    0,
    0,
    0,
    0,
    0,
    0,
    0,
    0,
    0,
    0,
    0,
    0,
    0,
    0,
    0,
    0,
    0,
    0,
    0,
    0,
    0,
    0,
    0,
    0,
    0,
    0,
    0,
    0,
    0,
    0,
    0,
    0,
    0,
    0,
    0,
    1552,
    1552,
    1552,
    1552,
    1552,
    1552,
    1552,
    1552,
    1552,
    1552,
    1552,
    0,
    0,
    0,
    0,
    0,
    0,
    0,
    0,
    0,
    0,
    0,
    0,
    0,
    0,
    0,
    0,
    1552,
    1552,
    1552,
    1552,
    1552,
    1552,
    1552,
    1552,
    1552,
    1552,
    1552,
    0,
    0,
    0,
    0,
    0,
    0,
    0,
    0,
    0,
    0,
    0,
    0,
    0,
    0,
    0,
    0,
    0,
    0,
    0,
    0,
    0,
    0,
    0,
    0,
    0,
    0,
    0,
    0,
    0,
    0,
    0,
    0,
    0,
    0,
    0,
    0,
    0,
    0,
    0,
    0,
    0,
    0,
    0,
    0,
    0,
    0,
    0,
    0,
    0,
    0,
    0,
    0,
    0,
    0,
    0,
    0,
    0,
    0,
    0,
    0,
    0,
    0,
    0,
    0,
    0,
    0,
    0,
    0,
    0,
    0,
    0,
    0,
    0,
    0,
    0,
    0,
    0,
    0,
    0,
    0,
    0,
    0,
    0,
    0,
    0,
    0,
    0,
    0,
    0,
    0,
    1552,
    1552,
    1552,
    1552,
    1552,
    1552,
    1552,
    1552,
    1552,
    1552,
    0,
    0,
    0,
    0,
    0,
    1552,
    1552,
    0,
    0,
    0,
    1552,
    0,
    0,
    0,
    0,
    0,
    1552,
    1552,
    1552,
    1552,
    1552,
    1552,
    1552,
    1552,
    1552,
    1552,
    1552,
    1552,
    0,
    0,
    0,
    0,
    0,
    0,
    0,
    0,
    0,
    0,
    0,
    0,
    0,
    0,
    0,
    0,
    0,
    0,
    0,
    0,
    0,
    0,
    0,
    0,
    0,
    0,
    0,
    0,
    0,
    0,
    0,
    0,
    0,
    0,
    0,
    0,
    0,
    0,
    0,
    0,
    0,
    0,
    0,
    0,
    0,
    0,
    0,
    0,
    0,
    0,
    0,
    0,
    0,
    0,
    0,
    0,
    0,
    0,
    0,
    0,
    0,
    0,
    0,
    0,
    0,
    0,
    0,
    0,
    0,
    0,
    0,
    0,
    0,
    0,
    0,
    0,
    0,
    0,
    0,
    0,
    0,
    0,
    0,
    0,
    0,
    0,
    0,
    0,
    0,
    0,
    1552,
    1552,
    1552,
    1552,
    1552,
    1552,
    1552,
    1552,
    1552,
    0,
    0,
    1552,
    0,
    1552,
    0,
    1552,
    1552,
    0,
    0,
    1552,
    0,
    0,
    0,
    0,
    0,
    1552,
    1552,
    1552,
    1552,
    1552,
    1552,
    1552,
    1552,
    1552,
    1552,
    1552,
    1552,
    1552,
    0,
    0,
    0,
    0,
    0,
    0,
    0,
    0,
    0,
    0,
    0,
    0,
    0,
    0,
    0,
    0,
    0,
    0,
    0,
    0,
    0,
    0,
    0,
    0,
    0,
    0,
    0,
    0,
    0,
    0,
    0,
    0,
    0,
    0,
    0,
    0,
    0,
    0,
    0,
    0,
    0,
    0,
    0,
    0,
    0,
    0,
    0,
    0,
    0,
    0,
    0,
    0,
    0,
    0,
    0,
    0,
    0,
    0,
    0,
    0,
    0,
    0,
    0,
    0,
    0,
    0,
    0,
    0,
    0,
    0,
    0,
    0,
    0,
    0,
    0,
    0,
    0,
    0,
    0,
    0,
    0,
    0,
    0,
    0,
    0,
    0,
    0,
    0,
    0,
    1552,
    1552,
    1552,
    1552,
    1552,
    1552,
    1552,
    1552,
    1552,
    0,
    0,
    0,
    0,
    0,
    1552,
    0,
    0,
    1552,
    0,
    1552,
    1552,
    0,
    0,
    1552,
    0,
    1552,
    1552,
    1552,
    1552,
    1552,
    1552,
    1552,
    1552,
    1552,
    1552,
    1552,
    1552,
    1552,
    1552,
    0,
    0,
    0,
    0,
    0,
    0,
    0,
    0,
    0,
    0,
    0,
    0,
    0,
    0,
    0,
    0,
    0,
    0,
    0,
    0,
    0,
    0,
    0,
    0,
    0,
    0,
    0,
    0,
    0,
    0,
    0,
    0,
    0,
    0,
    0,
    0,
    0,
    0,
    0,
    0,
    0,
    0,
    0,
    0,
    0,
    0,
    0,
    0,
    0,
    0,
    0,
    0,
    0,
    0,
    0,
    0,
    0,
    0,
    0,
    0,
    0,
    0,
    0,
    0,
    0,
    0,
    0,
    0,
    0,
    0,
    0,
    0,
    0,
    0,
    0,
    0,
    0,
    0,
    0,
    0,
    0,
    0,
    0,
    0,
    0,
    0,
    0,
    0,
    1552,
    1552,
    1552,
    1552,
    1552,
    1552,
    1552,
    1552,
    1552,
    1552,
    0,
    0,
    0,
    1552,
    0,
    0,
    1552,
    1552,
    0,
    0,
    1552,
    1552,
    1552,
    0,
    0,
    0,
    1552,
    1552,
    1552,
    1552,
    1552,
    1552,
    1552,
    1552,
    1552,
    1552,
    1552,
    1552,
    1552,
    1552,
    0,
    0,
    0,
    0,
    0,
    0,
    0,
    0,
    0,
    0,
    0,
    0,
    0,
    0,
    0,
    0,
    0,
    0,
    0,
    0,
    0,
    0,
    0,
    0,
    0,
    0,
    0,
    0,
    0,
    0,
    0,
    0,
    0,
    0,
    0,
    0,
    0,
    0,
    0,
    0,
    0,
    0,
    0,
    0,
    0,
    0,
    0,
    0,
    0,
    0,
    0,
    0,
    0,
    0,
    0,
    0,
    0,
    0,
    0,
    0,
    0,
    0,
    0,
    0,
    0,
    0,
    0,
    0,
    0,
    0,
    0,
    0,
    0,
    0,
    0,
    0,
    0,
    0,
    0,
    0,
    0,
    0,
    0,
    0,
    0,
    0,
    0,
    1552,
    1552,
    1552,
    1552,
    1552,
    1552,
    1552,
    1552,
    1552,
    1552,
    1552,
    0,
    0,
    0,
    0,
    0,
    1552,
    1552,
    1552,
    1552,
    1552,
    1552,
    1552,
    0,
    0,
    0,
    0,
    1552,
    1552,
    1552,
    1552,
    1552,
    1552,
    1552,
    1552,
    1552,
    1552,
    1552,
    1552,
    1552,
    1552,
    0,
    0,
    0,
    0,
    0,
    0,
    0,
    0,
    0,
    0,
    0,
    0,
    0,
    0,
    0,
    0,
    0,
    0,
    0,
    0,
    0,
    0,
    0,
    0,
    0,
    0,
    0,
    0,
    0,
    0,
    0,
    0,
    0,
    0,
    0,
    0,
    0,
    0,
    0,
    0,
    0,
    0,
    0,
    0,
    0,
    0,
    0,
    0,
    0,
    0,
    0,
    0,
    0,
    0,
    0,
    0,
    0,
    0,
    0,
    0,
    0,
    0,
    0,
    0,
    0,
    0,
    0,
    0,
    0,
    0,
    0,
    0,
    0,
    0,
    0,
    0,
    0,
    0,
    0,
    0,
    0,
    0,
    0,
    0,
    0,
    0,
    0,
    1552,
    1552,
    1552,
    1552,
    1552,
    1552,
    1552,
    1552,
    1552,
    1552,
    1552,
    0,
    0,
    0,
    0,
    1552,
    1552,
    1552,
    1552,
    1552,
    1552,
    1552,
    0,
    1552,
    0,
    0,
    0,
    1552,
    1552,
    1552,
    1552,
    1552,
    1552,
    1552,
    1552,
    1552,
    1552,
    1552,
    1552,
    1552,
    1552,
    0,
    0,
    0,
    0,
    0,
    0,
    0,
    0,
    0,
    0,
    0,
    0,
    0,
    0,
    0,
    0,
    0,
    0,
    0,
    0,
    0,
    0,
    0,
    0,
    0,
    0,
    0,
    0,
    0,
    0,
    0,
    0,
    0,
    0,
    0,
    0,
    0,
    0,
    0,
    0,
    0,
    0,
    0,
    0,
    0,
    0,
    0,
    0,
    0,
    0,
    0,
    0,
    0,
    0,
    0,
    0,
    0,
    0,
    0,
    0,
    0,
    0,
    0,
    0,
    0,
    0,
    0,
    0,
    0,
    0,
    0,
    0,
    0,
    0,
    0,
    0,
    0,
    0,
    0,
    0,
    0,
    0,
    0,
    0,
    1552,
    0,
    0,
    1552,
    1552,
    1552,
    1552,
    1552,
    1552,
    1552,
    1552,
    1552,
    1552,
    0,
    0,
    0,
    0,
    1552,
    0,
    1552,
    1552,
    1552,
    1552,
    1552,
    1552,
    1552,
    0,
    0,
    0,
    0,
    1552,
    1552,
    1552,
    1552,
    1552,
    1552,
    1552,
    1552,
    1552,
    1552,
    1552,
    1552,
    1552,
    1552,
    0,
    0,
    0,
    0,
    0,
    0,
    0,
    0,
    0,
    0,
    0,
    0,
    0,
    0,
    0,
    0,
    0,
    0,
    0,
    0,
    0,
    0,
    0,
    0,
    0,
    0,
    0,
    0,
    0,
    0,
    0,
    0,
    0,
    0,
    0,
    0,
    0,
    0,
    0,
    0,
    0,
    0,
    0,
    0,
    0,
    0,
    0,
    0,
    0,
    0,
    0,
    0,
    0,
    0,
    0,
    0,
    0,
    0,
    0,
    0,
    0,
    0,
    0,
    0,
    0,
    0,
    0,
    0,
    0,
    0,
    0,
    0,
    0,
    0,
    0,
    0,
    0,
    0,
    0,
    0,
    0,
    0,
    0,
    1552,
    0,
    0,
    0,
    1552,
    1552,
    1552,
    1552,
    1552,
    1552,
    1552,
    1552,
    1552,
    0,
    0,
    0,
    1552,
    0,
    0,
    0,
    1552,
    1552,
    0,
    1552,
    0,
    1552,
    1552,
    1552,
    0,
    0,
    0,
    1552,
    1552,
    1552,
    1552,
    1552,
    1552,
    1552,
    1552,
    1552,
    1552,
    1552,
    1552,
    1552,
    1552,
    0,
    0,
    0,
    0,
    0,
    0,
    0,
    0,
    0,
    0,
    0,
    0,
    0,
    0,
    0,
    0,
    0,
    0,
    0,
    0,
    0,
    0,
    0,
    0,
    0,
    0,
    0,
    0,
    0,
    0,
    0,
    0,
    0,
    0,
    0,
    0,
    0,
    0,
    0,
    0,
    0,
    0,
    0,
    0,
    0,
    0,
    0,
    0,
    0,
    0,
    0,
    0,
    0,
    0,
    0,
    0,
    0,
    0,
    0,
    0,
    0,
    0,
    0,
    0,
    0,
    0,
    0,
    0,
    0,
    0,
    0,
    0,
    0,
    0,
    0,
    0,
    0,
    1552,
    0,
    0,
    0,
    0,
    0,
    0,
    0,
    0,
    0,
    1552,
    1552,
    1552,
    1552,
    1552,
    1552,
    1552,
    1552,
    0,
    0,
    0,
    0,
    0,
    0,
    0,
    0,
    1552,
    1552,
    0,
    0,
    1552,
    0,
    0,
    0,
    0,
    0,
    0,
    1552,
    1552,
    1552,
    1552,
    1552,
    1552,
    1552,
    1552,
    1552,
    1552,
    1552,
    1552,
    1552,
    1552,
    0,
    0,
    0,
    0,
    0,
    0,
    0,
    0,
    0,
    0,
    0,
    0,
    0,
    0,
    0,
    0,
    0,
    0,
    0,
    0,
    0,
    0,
    0,
    0,
    0,
    0,
    0,
    0,
    0,
    0,
    0,
    0,
    0,
    0,
    0,
    0,
    0,
    0,
    0,
    0,
    0,
    0,
    0,
    0,
    0,
    0,
    0,
    0,
    0,
    0,
    0,
    0,
    0,
    0,
    0,
    0,
    0,
    0,
    0,
    0,
    0,
    0,
    0,
    0,
    0,
    0,
    0,
    0,
    0,
    0,
    0,
    0,
    0,
    0,
    0,
    0,
    0,
    0,
    0,
    0,
    0,
    0,
    0,
    0,
    0,
    0,
    0,
    1552,
    1552,
    1552,
    1552,
    1552,
    1552,
    1552,
    1552,
    0,
    0,
    0,
    0,
    0,
    0,
    0,
    0,
    0,
    0,
    0,
    0,
    0,
    0,
    1552,
    0,
    0,
    0,
    0,
    1552,
    1552,
    1552,
    1552,
    1552,
    1552,
    1552,
    1552,
    1552,
    1552,
    1552,
    1552,
    1552,
    1552,
    0,
    0,
    0,
    0,
    0,
    0,
    0,
    0,
    0,
    0,
    0,
    0,
    0,
    0,
    0,
    0,
    0,
    0,
    0,
    0,
    0,
    0,
    0,
    0,
    0,
    0,
    0,
    0,
    0,
    0,
    0,
    0,
    0,
    0,
    0,
    0,
    0,
    0,
    0,
    0,
    0,
    0,
    0,
    0,
    0,
    0,
    0,
    0,
    0,
    0,
    0,
    0,
    0,
    0,
    0,
    0,
    0,
    0,
    0,
    0,
    0,
    0,
    0,
    0,
    0,
    0,
    0,
    0,
    0,
    0,
    0,
    0,
    0,
    0,
    0,
    0,
    0,
    0,
    0,
    0,
    0,
    0,
    0,
    0,
    0,
    0,
    0,
    1552,
    1552,
    1552,
    1552,
    1552,
    1552,
    1552,
    1552,
    0,
    0,
    0,
    0,
    0,
    0,
    1552,
    0,
    0,
    0,
    0,
    0,
    0,
    0,
    0,
    0,
    0,
    0,
    1552,
    1552,
    1552,
    1552,
    1552,
    1552,
    1552,
    1552,
    1552,
    1552,
    1552,
    1552,
    1552,
    1552,
    1552,
    0,
    0,
    0,
    0,
    0,
    0,
    0,
    0,
    0,
    0,
    0,
    0,
    0,
    0,
    0,
    0,
    0,
    0,
    0,
    0,
    0,
    0,
    0,
    0,
    0,
    0,
    0,
    0,
    0,
    0,
    0,
    0,
    0,
    0,
    0,
    0,
    0,
    0,
    0,
    0,
    0,
    0,
    0,
    0,
    0,
    0,
    0,
    0,
    0,
    0,
    0,
    0,
    0,
    0,
    0,
    0,
    0,
    0,
    0,
    0,
    0,
    0,
    0,
    0,
    0,
    0,
    0,
    0,
    0,
    0,
    0,
    0,
    0,
    0,
    0,
    0,
    0,
    0,
    0,
    0,
    0,
    0,
    0,
    0,
    0,
    0,
    0,
    1552,
    1552,
    1552,
    1552,
    1552,
    1552,
    1552,
    1552,
    0,
    0,
    0,
    0,
    0,
    0,
    0,
    0,
    0,
    0,
    0,
    0,
    0,
    0,
    0,
    0,
    0,
    1552,
    1552,
    1552,
    1552,
    1552,
    1552,
    1552,
    1552,
    1552,
    1552,
    1552,
    1552,
    1552,
    1552,
    1552,
    1552,
    0,
    0,
    0,
    0,
    0,
    0,
    0,
    0,
    0,
    0,
    0,
    0,
    0,
    0,
    0,
    0,
    0,
    0,
    0,
    0,
    0,
    0,
    0,
    0,
    0,
    0,
    0,
    0,
    0,
    0,
    0,
    0,
    0,
    0,
    0,
    0,
    0,
    0,
    0,
    0,
    0,
    0,
    0,
    0,
    0,
    0,
    0,
    0,
    0,
    0,
    0,
    0,
    0,
    0,
    0,
    0,
    0,
    0,
    0,
    0,
    0,
    0,
    0,
    0,
    0,
    0,
    0,
    0,
    0,
    0,
    0,
    0,
    0,
    0,
    0,
    0,
    0,
    0,
    0,
    0,
    0,
    0,
    0,
    0,
    0,
    0,
    0,
    1552,
    1552,
    1552,
    1552,
    1552,
    1552,
    1552,
    1552,
    1552,
    1552,
    1552,
    1552,
    0,
    0,
    0,
    0,
    0,
    0,
    0,
    0,
    0,
    0,
    0,
    0,
    1552,
    1552,
    1552,
    1552,
    1552,
    1552,
    1552,
    1552,
    1552,
    1552,
    1552,
    1552,
    1552,
    1552,
    1552,
    1552,
    1552,
    0,
    0,
    0,
    0,
    0,
    0,
    0,
    0,
    0,
    0,
    0,
    0,
    0,
    0,
    0,
    0,
    0,
    0,
    0,
    0,
    0,
    0,
    0,
    0,
    0,
    0,
    0,
    0,
    0,
    0,
    0,
    0,
    0,
    0,
    0,
    0,
    0,
    0,
    0,
    0,
    0,
    0,
    0,
    0,
    0,
    0,
    0,
    0,
    0,
    0,
    0,
    0,
    0,
    0,
    0,
    0,
    0,
    0,
    0,
    0,
    0,
    0,
    0,
    0,
    0,
    0,
    0,
    0,
    0,
    0,
    0,
    0,
    0,
    0,
    0,
    0,
    0,
    0,
    0,
    0,
    0,
    0,
    0,
    0,
    1552,
    0,
    0,
    1552,
    1552,
    1552,
    1552,
    1552,
    1552,
    1552,
    1552,
    1552,
    1552,
    1552,
    1552,
    1552,
    0,
    0,
    0,
    0,
    1552,
    1552,
    1552,
    1552,
    1552,
    1552,
    1552,
    1552,
    1552,
    1552,
    1552,
    1552,
    1552,
    1552,
    1552,
    1552,
    1552,
    1552,
    1552,
    1552,
    1552,
    1552,
    1552,
    1552
   ]
  }
 ]
}
