{
 "type": "map",
 "version": 1.1,
 "tiledversion": "1.11.0",
 "orientation": "orthogonal",
 "renderorder": "right-down",
 "width": 128,
 "height": 128,
 "tilewidth": 40,
 "tileheight": 40,
 "infinite": false,
 "nextlayerid": 4,
 "nextobjectid": 1,
 "compressionlevel": -1,
 "properties": [],
 "tilesets": [
  {
   "firstgid": 1,
   "source": "terrain.tsx"
  }
 ],
 "layers": [
  {
   "id": 1,
   "name": "terrain",
   "type": "tilelayer",
   "x": 0,
   "y": 0,
   "width": 128,
   "height": 128,
   "opacity": 1,
   "visible": true,
   "data": [
    1385,
    1385,
    1387,
    1388,
    1384,
    1384,
    1383,
    1386,
    1385,
    1387,
    1388,
    1165,
    1108,
    836,
    837,
    838,
    1106,
    1385,
    1383,
    1384,
    1387,
    1383,
    1383,
    1384,
    1165,
    1092,
    833,
    834,
    835,
    7,
    837,
    838,
    1,
    855,
    856,
    1105,
    1106,
    731,
    732,
    1147,
    731,
    732,
    1092,
    980,
    981,
    982,
    1319,
    1320,
    1304,
    1319,
    1320,
    1304,
    1319,
    1320,
    1051,
    1052,
    1053,
    1054,
    1106,
    1386,
    1182,
    731,
    732,
    1384,
    731,
    732,
    1383,
    1388,
    1385,
    1386,
    1384,
    1383,
    1385,
    1384,
    1387,
    1385,
    1384,
    702,
    1384,
    1386,
    1388,
    1387,
    1386,
    1384,
    1388,
    1386,
    1385,
    1386,
    1386,
    1387,
    1383,
    1387,
    1387,
    1388,
    731,
    732,
    1182,
    1147,
    1199,
    1200,
    1182,
    1385,
    1147,
    1384,
    1388,
    1388,
    1386,
    1385,
    1387,
    1388,
    1388,
    1386,
    1386,
    1387,
    1386,
    1384,
    1386,
    1385,
    1387,
    1388,
    1385,
    1386,
    1387,
    1388,
    1383,
    1385,
    1384,
    1385,
    1388,
    1388,
    1384,
    1386,
    1385,
    1386,
    1384,
    1388,
    1387,
    1384,
    1383,
    1385,
    1108,
    1109,
    853,
    854,
    1122,
    1123,
    1383,
    1387,
    1385,
    1388,
    1383,
    1386,
    1386,
    1386,
    1092,
    850,
    851,
    1,
    853,
    854,
    839,
    836,
    837,
    838,
    1122,
    747,
    748,
    11,
    747,
    748,
    1383,
    1092,
    997,
    998,
    975,
    976,
    983,
    984,
    367,
    367,
    368,
    1304,
    992,
    1068,
    1069,
    1070,
    1122,
    1388,
    1387,
    747,
    748,
    1147,
    747,
    748,
    1147,
    1387,
    1386,
    1383,
    1383,
    1386,
    1385,
    1384,
    1387,
    1385,
    1383,
    1388,
    1383,
    1383,
    1388,
    1385,
    1387,
    1387,
    1387,
    1383,
    1385,
    1388,
    1164,
    1383,
    1387,
    1388,
    1148,
    1384,
    747,
    748,
    731,
    732,
    1215,
    1216,
    1147,
    731,
    732,
    1385,
    1182,
    1385,
    1387,
    1387,
    1387,
    1387,
    1388,
    1388,
    1383,
    1384,
    1386,
    1384,
    1387,
    1386,
    1387,
    1384,
    1386,
    1385,
    1386,
    1385,
    1383,
    1384,
    1385,
    1388,
    702,
    1385,
    1387,
    1386,
    1165,
    1388,
    1387,
    1384,
    1384,
    1385,
    1387,
    1383,
    1384,
    1092,
    4,
    15,
    16,
    7,
    1122,
    1164,
    1384,
    1387,
    1383,
    1387,
    1388,
    1383,
    1108,
    836,
    837,
    838,
    840,
    13,
    855,
    856,
    853,
    854,
    839,
    1122,
    1383,
    1165,
    1182,
    1147,
    731,
    732,
    1091,
    1091,
    1092,
    14,
    999,
    1000,
    383,
    383,
    384,
    703,
    1008,
    703,
    1015,
    1016,
    1017,
    1122,
    1388,
    1147,
    731,
    732,
    1182,
    11,
    731,
    732,
    1385,
    1165,
    1383,
    1384,
    1383,
    1383,
    1383,
    1386,
    1383,
    1387,
    1386,
    1384,
    1384,
    1386,
    1385,
    1386,
    1388,
    1387,
    1387,
    1388,
    1386,
    1386,
    1383,
    1388,
    1388,
    1388,
    1150,
    1151,
    747,
    748,
    1147,
    1182,
    1147,
    747,
    748,
    1383,
    1147,
    1386,
    1385,
    1147,
    1388,
    1388,
    1385,
    1386,
    1388,
    1387,
    1386,
    1386,
    1385,
    1387,
    1387,
    1387,
    1387,
    1383,
    1387,
    1387,
    1384,
    1388,
    1386,
    1386,
    1387,
    1388,
    1387,
    1384,
    1385,
    1387,
    1387,
    1385,
    1385,
    1164,
    1385,
    1387,
    1388,
    1385,
    1093,
    31,
    32,
    4,
    16,
    1121,
    1388,
    1387,
    1385,
    1385,
    1387,
    1387,
    1388,
    1092,
    853,
    854,
    839,
    840,
    833,
    834,
    835,
    1,
    855,
    856,
    1121,
    1383,
    731,
    732,
    747,
    748,
    1182,
    1385,
    1147,
    1093,
    980,
    981,
    399,
    399,
    400,
    719,
    1304,
    719,
    1031,
    1032,
    1033,
    1034,
    1106,
    1383,
    747,
    748,
    1150,
    1151,
    747,
    748,
    1383,
    1147,
    1387,
    1385,
    1384,
    1383,
    1384,
    1383,
    1383,
    1384,
    1384,
    1384,
    1386,
    1383,
    1386,
    1163,
    1385,
    1383,
    1386,
    1385,
    1387,
    1388,
    1383,
    1384,
    1385,
    1182,
    1166,
    1167,
    1182,
    1147,
    731,
    732,
    11,
    1388,
    1383,
    1182,
    1388,
    1385,
    1388,
    1385,
    1383,
    1386,
    1385,
    1386,
    1383,
    1387,
    1384,
    1388,
    1384,
    1386,
    1384,
    1383,
    1388,
    1387,
    1385,
    1384,
    1385,
    1383,
    1384,
    1383,
    1123,
    1387,
    1387,
    1385,
    1384,
    1387,
    1385,
    1388,
    1384,
    1163,
    1387,
    1388,
    1385,
    1386,
    1387,
    1092,
    1,
    15,
    1,
    1089,
    1165,
    1383,
    1384,
    1385,
    1388,
    1165,
    1384,
    1383,
    1091,
    1092,
    855,
    856,
    849,
    850,
    851,
    1,
    785,
    786,
    787,
    1106,
    747,
    748,
    1182,
    10,
    1147,
    731,
    732,
    1386,
    1092,
    997,
    998,
    975,
    976,
    983,
    984,
    1303,
    1304,
    1048,
    1049,
    1050,
    1122,
    1123,
    1123,
    1384,
    1166,
    1167,
    1384,
    731,
    732,
    1387,
    1388,
    1383,
    1384,
    1387,
    1388,
    1383,
    1384,
    1165,
    1388,
    1387,
    1384,
    1387,
    1384,
    1385,
    1388,
    1383,
    1388,
    1383,
    1386,
    1385,
    1385,
    1388,
    731,
    732,
    1383,
    1182,
    1149,
    1182,
    747,
    748,
    731,
    732,
    1386,
    1385,
    1385,
    1384,
    1388,
    1383,
    1386,
    1386,
    1388,
    1384,
    1385,
    1387,
    1385,
    1385,
    1386,
    1388,
    1383,
    1387,
    1383,
    1383,
    1383,
    1386,
    1387,
    1387,
    1388,
    1383,
    873,
    1122,
    1385,
    1388,
    1383,
    1384,
    1386,
    1387,
    1388,
    1164,
    1387,
    1384,
    1383,
    1385,
    1123,
    1124,
    7,
    31,
    32,
    1106,
    1384,
    1388,
    1385,
    1387,
    1384,
    1387,
    1388,
    1387,
    1164,
    1108,
    785,
    786,
    787,
    785,
    786,
    787,
    801,
    802,
    803,
    1106,
    1387,
    1165,
    1385,
    1150,
    1151,
    747,
    748,
    1386,
    1165,
    1091,
    1091,
    1092,
    1,
    999,
    1000,
    1319,
    1320,
    703,
    1438,
    1439,
    1440,
    1019,
    1020,
    1122,
    1384,
    1383,
    11,
    747,
    748,
    1147,
    731,
    732,
    1387,
    1385,
    1383,
    1387,
    1388,
    1387,
    1387,
    1384,
    1383,
    1388,
    1387,
    1386,
    1388,
    1387,
    1384,
    1383,
    1386,
    1384,
    1388,
    927,
    747,
    748,
    1388,
    1147,
    731,
    732,
    1384,
    1147,
    747,
    748,
    1383,
    1386,
    1387,
    1387,
    1383,
    1383,
    1383,
    1383,
    1387,
    1387,
    1385,
    1386,
    1385,
    1165,
    1385,
    1385,
    1387,
    1387,
    1383,
    1383,
    1383,
    1383,
    1384,
    1387,
    1384,
    1386,
    889,
    890,
    1106,
    1387,
    1385,
    1388,
    1387,
    1387,
    1385,
    1385,
    1386,
    1385,
    1386,
    1124,
    1074,
    789,
    1023,
    1024,
    1,
    1106,
    1387,
    1388,
    1387,
    1386,
    1388,
    1383,
    1387,
    1386,
    1385,
    1108,
    801,
    802,
    803,
    801,
    802,
    803,
    817,
    818,
    819,
    1122,
    1387,
    1386,
    1387,
    1166,
    1167,
    1383,
    1388,
    1383,
    1384,
    1385,
    1387,
    1165,
    1092,
    977,
    978,
    979,
    703,
    719,
    1454,
    1455,
    1456,
    1035,
    1036,
    1037,
    1122,
    1385,
    1147,
    1388,
    731,
    732,
    747,
    748,
    1385,
    1388,
    1385,
    1386,
    1387,
    1387,
    1386,
    1384,
    1384,
    1387,
    1387,
    1384,
    1384,
    1386,
    1388,
    1388,
    1385,
    1388,
    1386,
    1387,
    1384,
    1383,
    1383,
    1384,
    747,
    748,
    1182,
    1387,
    1387,
    1386,
    1388,
    1388,
    1386,
    1385,
    1385,
    1383,
    1384,
    1387,
    1383,
    1387,
    1388,
    1386,
    1385,
    1386,
    1383,
    1387,
    1384,
    1388,
    1383,
    1387,
    1388,
    1387,
    1387,
    1387,
    1384,
    1163,
    905,
    906,
    1122,
    1387,
    1385,
    1384,
    1384,
    1384,
    1387,
    1387,
    1384,
    1386,
    1125,
    1,
    804,
    805,
    1039,
    1040,
    1090,
    1386,
    1383,
    1383,
    1383,
    1386,
    1388,
    1383,
    1385,
    1386,
    1384,
    1124,
    817,
    818,
    819,
    817,
    818,
    819,
    785,
    786,
    787,
    13,
    1121,
    1384,
    733,
    1384,
    1385,
    1383,
    1383,
    1384,
    1388,
    1387,
    1387,
    1384,
    1388,
    1092,
    994,
    995,
    719,
    703,
    703,
    1471,
    1472,
    1051,
    1052,
    1053,
    1054,
    1122,
    1384,
    1384,
    747,
    748,
    1147,
    1383,
    1384,
    1165,
    1387,
    1383,
    1387,
    1384,
    1386,
    1385,
    1385,
    1388,
    1383,
    1385,
    1383,
    1383,
    1384,
    1384,
    1383,
    1385,
    1383,
    1165,
    1385,
    1387,
    1385,
    1387,
    1383,
    1384,
    1388,
    1385,
    1383,
    1383,
    1387,
    1164,
    1387,
    1383,
    1388,
    1387,
    1387,
    1385,
    1386,
    1388,
    1388,
    1388,
    1388,
    1386,
    1387,
    1383,
    1386,
    1388,
    1388,
    1385,
    1385,
    1387,
    1385,
    1383,
    1385,
    1385,
    871,
    872,
    873,
    1122,
    1388,
    1384,
    1165,
    1387,
    1383,
    1387,
    1383,
    1182,
    1093,
    13,
    820,
    821,
    1055,
    1090,
    1163,
    1383,
    1388,
    1387,
    1387,
    1387,
    1385,
    1385,
    1384,
    1388,
    1108,
    1109,
    785,
    786,
    787,
    785,
    786,
    787,
    801,
    802,
    803,
    3,
    1089,
    1386,
    1385,
    1385,
    1384,
    1384,
    1387,
    1388,
    1387,
    1385,
    1388,
    1386,
    1388,
    1108,
    980,
    981,
    982,
    719,
    719,
    703,
    367,
    368,
    1068,
    1069,
    1070,
    2,
    1121,
    1387,
    1386,
    1383,
    1386,
    1386,
    1387,
    1385,
    1387,
    1388,
    1385,
    1388,
    1387,
    1388,
    1384,
    1165,
    1383,
    1383,
    1383,
    1383,
    1388,
    1383,
    1383,
    1386,
    1385,
    1385,
    1387,
    1385,
    1388,
    1385,
    1164,
    1384,
    1386,
    1386,
    1384,
    1387,
    1383,
    1388,
    1383,
    1383,
    1385,
    1385,
    1383,
    1383,
    1383,
    1385,
    1386,
    1388,
    1388,
    1383,
    1386,
    1388,
    1386,
    1387,
    1385,
    1387,
    1388,
    1386,
    1383,
    1388,
    1383,
    1388,
    1092,
    888,
    889,
    890,
    1106,
    1384,
    1383,
    1385,
    1385,
    1388,
    1387,
    1385,
    1383,
    1092,
    833,
    834,
    835,
    1106,
    1385,
    1387,
    1388,
    1383,
    1384,
    1383,
    1386,
    1387,
    1384,
    1163,
    1108,
    1109,
    801,
    802,
    803,
    801,
    802,
    803,
    817,
    818,
    819,
    1090,
    1386,
    1386,
    1383,
    1383,
    1388,
    1164,
    1388,
    1387,
    1384,
    1383,
    1383,
    1385,
    1386,
    1384,
    1092,
    997,
    998,
    983,
    984,
    719,
    383,
    384,
    1304,
    941,
    942,
    13,
    7,
    1122,
    1387,
    1388,
    1386,
    1387,
    1385,
    1147,
    1385,
    1383,
    1386,
    1387,
    1384,
    1387,
    1384,
    1182,
    1386,
    1388,
    1384,
    1383,
    1386,
    1387,
    1388,
    1182,
    1386,
    1182,
    731,
    732,
    1386,
    1388,
    1385,
    1387,
    1388,
    1385,
    1385,
    1386,
    1388,
    1387,
    1383,
    1383,
    1385,
    1383,
    1385,
    1388,
    1387,
    1386,
    1383,
    1385,
    1182,
    1388,
    1387,
    1384,
    1384,
    1383,
    1385,
    1383,
    1165,
    1386,
    1386,
    1383,
    1383,
    1384,
    1388,
    1092,
    905,
    906,
    1106,
    1150,
    1151,
    1383,
    1388,
    1387,
    1385,
    1385,
    1164,
    1108,
    1109,
    850,
    851,
    1122,
    1165,
    1384,
    1383,
    1386,
    1164,
    1384,
    1388,
    1384,
    1384,
    1386,
    1386,
    1092,
    817,
    818,
    819,
    817,
    818,
    819,
    833,
    834,
    835,
    1106,
    1165,
    1388,
    1388,
    1386,
    1387,
    1387,
    1385,
    1388,
    1384,
    1386,
    1388,
    1387,
    1383,
    1388,
    1388,
    1092,
    13,
    999,
    1000,
    1304,
    399,
    400,
    703,
    941,
    942,
    2,
    1,
    1105,
    1106,
    1386,
    1383,
    1150,
    1151,
    1387,
    1383,
    1385,
    731,
    732,
    1388,
    1182,
    1384,
    1383,
    1182,
    10,
    731,
    732,
    1385,
    1164,
    1147,
    1385,
    731,
    732,
    747,
    748,
    1385,
    1388,
    1388,
    1383,
    1387,
    1386,
    1388,
    1383,
    1386,
    1386,
    1385,
    1383,
    1165,
    1388,
    1388,
    1384,
    1388,
    1384,
    1388,
    1384,
    11,
    733,
    1387,
    1388,
    1384,
    1383,
    1387,
    1383,
    1387,
    1388,
    1386,
    1386,
    1388,
    1384,
    1387,
    1108,
    798,
    799,
    1122,
    1166,
    1167,
    1387,
    1385,
    1384,
    1182,
    1388,
    731,
    732,
    1092,
    785,
    786,
    787,
    1106,
    1385,
    1384,
    1387,
    1383,
    1386,
    1388,
    1385,
    1383,
    1386,
    1383,
    1108,
    833,
    834,
    835,
    833,
    834,
    835,
    849,
    850,
    851,
    1122,
    1386,
    1387,
    1388,
    1386,
    1383,
    1387,
    1388,
    1384,
    1163,
    1383,
    1384,
    1385,
    1387,
    1164,
    1387,
    1108,
    1,
    929,
    930,
    367,
    368,
    703,
    719,
    957,
    958,
    15,
    15,
    16,
    1122,
    1383,
    1387,
    1166,
    1167,
    1387,
    1383,
    1384,
    747,
    748,
    1387,
    1384,
    11,
    731,
    732,
    1147,
    747,
    748,
    1182,
    731,
    732,
    10,
    747,
    748,
    11,
    1384,
    1147,
    731,
    732,
    1387,
    1387,
    1384,
    1387,
    1384,
    1388,
    1388,
    1388,
    1387,
    1388,
    1387,
    1383,
    1163,
    1388,
    1383,
    1385,
    1182,
    733,
    1383,
    1386,
    1386,
    1384,
    1385,
    1386,
    1386,
    1385,
    1386,
    1388,
    1383,
    1388,
    1386,
    1384,
    1108,
    814,
    815,
    1105,
    1106,
    1385,
    1163,
    1388,
    1386,
    1388,
    1387,
    747,
    748,
    1108,
    801,
    802,
    803,
    1106,
    1383,
    1387,
    1385,
    1388,
    1384,
    1385,
    1388,
    1387,
    1387,
    1165,
    1387,
    1092,
    850,
    851,
    849,
    850,
    851,
    1,
    785,
    786,
    787,
    1106,
    1384,
    1385,
    1384,
    1383,
    1387,
    1386,
    1383,
    1385,
    1388,
    1387,
    1385,
    1383,
    1387,
    1384,
    1108,
    7,
    945,
    946,
    383,
    384,
    719,
    1179,
    973,
    974,
    31,
    31,
    32,
    1074,
    1122,
    1123,
    1123,
    1384,
    1388,
    1383,
    1182,
    1147,
    731,
    732,
    1147,
    1387,
    747,
    748,
    1386,
    1123,
    1123,
    1387,
    747,
    748,
    1182,
    1182,
    1147,
    731,
    732,
    1384,
    747,
    748,
    1386,
    1147,
    1386,
    1383,
    1386,
    1386,
    1384,
    1387,
    1385,
    1387,
    1388,
    1384,
    1385,
    1385,
    1388,
    1387,
    1383,
    1387,
    1387,
    10,
    1182,
    1387,
    1385,
    1385,
    1386,
    1383,
    1163,
    1388,
    1384,
    1387,
    1387,
    1386,
    1124,
    830,
    831,
    1105,
    1106,
    1387,
    1386,
    1386,
    1385,
    1383,
    1385,
    1387,
    1182,
    1108,
    817,
    818,
    819,
    1106,
    1387,
    1386,
    1383,
    1387,
    1385,
    1384,
    1383,
    1384,
    1388,
    1123,
    1123,
    1124,
    796,
    797,
    1,
    785,
    786,
    787,
    801,
    802,
    803,
    1122,
    1163,
    1384,
    1386,
    1383,
    1385,
    1388,
    1386,
    1386,
    1388,
    1385,
    1386,
    1388,
    1384,
    1388,
    1124,
    4,
    961,
    962,
    399,
    400,
    1319,
    1320,
    1438,
    1439,
    1440,
    1019,
    1020,
    1021,
    2,
    15,
    16,
    1122,
    1385,
    1385,
    1384,
    1384,
    747,
    748,
    731,
    732,
    1182,
    1385,
    1125,
    1074,
    1074,
    1122,
    1123,
    1387,
    1147,
    731,
    732,
    747,
    748,
    1147,
    1387,
    731,
    732,
    1386,
    1383,
    1387,
    1387,
    1386,
    1387,
    1387,
    1387,
    1384,
    1384,
    1387,
    1388,
    1388,
    1385,
    1388,
    1386,
    1387,
    1182,
    1383,
    733,
    1384,
    1386,
    1384,
    1385,
    1384,
    1386,
    1386,
    1387,
    1387,
    1388,
    1108,
    1109,
    871,
    872,
    873,
    1122,
    1387,
    1385,
    1383,
    1163,
    1386,
    1182,
    1384,
    1123,
    1124,
    796,
    797,
    1090,
    1383,
    1163,
    1385,
    1387,
    1386,
    1383,
    1383,
    1384,
    1123,
    1124,
    791,
    792,
    795,
    812,
    813,
    2,
    801,
    802,
    803,
    817,
    818,
    819,
    3,
    1122,
    1383,
    1383,
    1384,
    1385,
    1384,
    1387,
    1165,
    1388,
    1384,
    1386,
    1386,
    1386,
    1108,
    1109,
    2,
    980,
    981,
    982,
    1319,
    1320,
    1304,
    1454,
    1455,
    1456,
    1035,
    1036,
    1037,
    1038,
    31,
    32,
    1074,
    1122,
    1123,
    1123,
    1123,
    1385,
    1147,
    747,
    748,
    1123,
    1124,
    3,
    13,
    3,
    4,
    1074,
    1122,
    1386,
    747,
    748,
    1388,
    1182,
    1388,
    1387,
    747,
    748,
    1388,
    1182,
    1388,
    1147,
    1384,
    1386,
    1383,
    1387,
    1384,
    1386,
    1386,
    1386,
    1384,
    1164,
    1388,
    1387,
    1383,
    1384,
    1384,
    1385,
    1385,
    1383,
    1387,
    1383,
    1386,
    1383,
    1387,
    1387,
    1386,
    1384,
    1388,
    1092,
    1075,
    888,
    889,
    890,
    1106,
    1388,
    1388,
    1385,
    1388,
    1123,
    1124,
    866,
    867,
    812,
    813,
    1106,
    1387,
    1384,
    1388,
    1385,
    1387,
    1385,
    1388,
    1125,
    866,
    867,
    807,
    808,
    811,
    828,
    4,
    3,
    817,
    818,
    819,
    801,
    802,
    803,
    2,
    1089,
    1384,
    1388,
    1385,
    1384,
    1384,
    1388,
    1386,
    1384,
    1386,
    1387,
    1386,
    1383,
    733,
    1093,
    3,
    996,
    997,
    998,
    983,
    1304,
    1319,
    1320,
    1471,
    1472,
    1051,
    1052,
    1053,
    1054,
    31,
    2,
    15,
    16,
    1074,
    1074,
    1074,
    1122,
    1123,
    1123,
    1124,
    934,
    935,
    936,
    937,
    936,
    937,
    1019,
    1020,
    1122,
    1123,
    1387,
    1182,
    731,
    732,
    927,
    11,
    1150,
    1151,
    1383,
    1386,
    1386,
    1383,
    1386,
    1384,
    1386,
    1386,
    1384,
    1388,
    1386,
    1388,
    1388,
    1387,
    1385,
    1384,
    1383,
    1387,
    1384,
    1386,
    1383,
    1384,
    1383,
    1384,
    1385,
    1383,
    1388,
    1384,
    1385,
    1384,
    1165,
    1091,
    1092,
    905,
    906,
    1122,
    1123,
    1123,
    1123,
    1124,
    1,
    881,
    882,
    883,
    828,
    1090,
    1387,
    1383,
    1387,
    1386,
    1385,
    1385,
    1123,
    1124,
    881,
    882,
    883,
    823,
    824,
    827,
    15,
    16,
    1,
    796,
    797,
    1,
    817,
    818,
    819,
    1090,
    1384,
    1385,
    1385,
    1384,
    1384,
    1388,
    1387,
    1385,
    1386,
    1386,
    1383,
    1387,
    1165,
    11,
    1386,
    1092,
    3,
    7,
    2,
    999,
    1000,
    1304,
    1303,
    1304,
    1319,
    1320,
    1068,
    1069,
    1070,
    2,
    1152,
    31,
    32,
    2,
    3,
    934,
    935,
    936,
    937,
    938,
    950,
    951,
    952,
    953,
    952,
    953,
    1035,
    1036,
    1037,
    1038,
    1121,
    1383,
    747,
    748,
    1199,
    1200,
    1166,
    1167,
    1384,
    1165,
    1385,
    1383,
    1386,
    1383,
    1386,
    1387,
    1388,
    1385,
    1385,
    1386,
    1387,
    1386,
    1385,
    1386,
    1386,
    1383,
    1386,
    1383,
    1387,
    1387,
    1387,
    1386,
    1383,
    1384,
    1383,
    1383,
    1384,
    1182,
    1386,
    1163,
    1108,
    1390,
    1391,
    1392,
    793,
    794,
    793,
    794,
    795,
    897,
    898,
    899,
    1090,
    1384,
    1165,
    1384,
    1386,
    1385,
    1383,
    1124,
    789,
    790,
    897,
    898,
    899,
    1090,
    1091,
    1091,
    1092,
    32,
    1389,
    812,
    813,
    1,
    796,
    797,
    1105,
    1106,
    1164,
    1387,
    1383,
    1385,
    1383,
    1164,
    1386,
    1386,
    1383,
    1384,
    1388,
    1386,
    1384,
    1388,
    1182,
    1388,
    1091,
    1091,
    1092,
    980,
    981,
    982,
    1319,
    1320,
    703,
    367,
    368,
    1438,
    1439,
    1440,
    936,
    937,
    936,
    937,
    938,
    950,
    951,
    952,
    953,
    954,
    966,
    967,
    968,
    969,
    968,
    969,
    1051,
    1052,
    1053,
    1054,
    2,
    1122,
    1388,
    11,
    1215,
    1216,
    731,
    732,
    927,
    1384,
    1387,
    1386,
    1383,
    1385,
    1387,
    1384,
    1387,
    1388,
    1387,
    1383,
    1383,
    1384,
    1388,
    1388,
    1387,
    1384,
    1386,
    1386,
    1388,
    1388,
    1388,
    1386,
    1386,
    1387,
    1388,
    1384,
    1387,
    1148,
    1147,
    1387,
    1108,
    1406,
    1407,
    1408,
    809,
    810,
    809,
    810,
    811,
    913,
    914,
    1090,
    1383,
    1387,
    1385,
    1386,
    1383,
    1383,
    1125,
    804,
    805,
    806,
    913,
    914,
    1090,
    1387,
    1385,
    1165,
    1108,
    1109,
    1405,
    828,
    866,
    867,
    812,
    813,
    1090,
    1163,
    1386,
    1384,
    1384,
    1383,
    1387,
    1383,
    1383,
    1388,
    1388,
    1388,
    1385,
    1385,
    1384,
    731,
    732,
    1384,
    1386,
    731,
    732,
    1092,
    997,
    998,
    983,
    984,
    719,
    383,
    384,
    1454,
    1455,
    1456,
    952,
    953,
    952,
    953,
    954,
    966,
    967,
    968,
    969,
    970,
    703,
    703,
    987,
    988,
    983,
    984,
    1304,
    1068,
    1069,
    1070,
    13,
    1088,
    1122,
    1123,
    1123,
    1383,
    747,
    748,
    1383,
    1383,
    1386,
    1385,
    1387,
    1385,
    1385,
    1383,
    1385,
    1383,
    1383,
    1387,
    1388,
    1388,
    1386,
    1387,
    1388,
    1385,
    1384,
    1385,
    1383,
    1386,
    1383,
    1386,
    1383,
    1387,
    1383,
    1385,
    1387,
    1199,
    1200,
    1386,
    1388,
    1092,
    1423,
    1424,
    825,
    826,
    825,
    826,
    827,
    1090,
    1091,
    1383,
    1386,
    1388,
    1385,
    1383,
    1387,
    1108,
    1109,
    820,
    821,
    822,
    1090,
    1091,
    1385,
    1388,
    1387,
    1384,
    1108,
    1109,
    1421,
    881,
    882,
    883,
    828,
    1090,
    1386,
    1383,
    1385,
    1388,
    1386,
    1383,
    1384,
    1385,
    1385,
    1388,
    1385,
    1383,
    1385,
    1388,
    733,
    747,
    748,
    1386,
    1182,
    747,
    748,
    1384,
    1092,
    14,
    999,
    1000,
    1179,
    399,
    400,
    1304,
    1471,
    1472,
    968,
    969,
    968,
    969,
    970,
    1304,
    1304,
    703,
    1303,
    1304,
    719,
    944,
    1003,
    1004,
    999,
    1000,
    992,
    1304,
    1438,
    1439,
    1440,
    936,
    937,
    1019,
    1020,
    1122,
    1386,
    1388,
    1182,
    1383,
    1384,
    1383,
    1383,
    1387,
    1385,
    1384,
    1387,
    1384,
    1383,
    1384,
    1386,
    1386,
    1384,
    1384,
    1386,
    1385,
    1383,
    1386,
    1385,
    1385,
    1388,
    1387,
    1385,
    1386,
    1383,
    1384,
    1386,
    1215,
    1216,
    1199,
    1200,
    1182,
    1091,
    1091,
    1092,
    15,
    16,
    13,
    1089,
    1163,
    1387,
    1388,
    1385,
    1387,
    1383,
    1388,
    1165,
    1108,
    1109,
    785,
    786,
    787,
    1106,
    1163,
    1388,
    1383,
    1386,
    1164,
    1108,
    1109,
    1389,
    897,
    898,
    899,
    1089,
    1386,
    1388,
    1388,
    1388,
    1386,
    1384,
    1386,
    1383,
    1387,
    1384,
    1383,
    1387,
    1385,
    1385,
    1388,
    1386,
    1383,
    1182,
    731,
    732,
    11,
    1384,
    1182,
    1108,
    1109,
    980,
    981,
    982,
    1304,
    1319,
    1320,
    1304,
    1304,
    1319,
    1320,
    1304,
    1319,
    1320,
    1304,
    1319,
    719,
    1319,
    1304,
    959,
    960,
    13,
    3,
    939,
    940,
    1008,
    1320,
    1454,
    1455,
    1456,
    952,
    953,
    1035,
    1036,
    1037,
    1122,
    1386,
    1386,
    1388,
    1383,
    1387,
    1387,
    1383,
    1163,
    1386,
    1384,
    1383,
    1388,
    1386,
    1387,
    1386,
    1385,
    1388,
    1385,
    1384,
    1385,
    1388,
    1386,
    1386,
    1387,
    1388,
    1386,
    1387,
    1387,
    1384,
    1387,
    731,
    732,
    1215,
    1216,
    1384,
    1386,
    1387,
    1385,
    1092,
    32,
    1090,
    1383,
    1384,
    1384,
    1383,
    1384,
    1383,
    1386,
    1384,
    1388,
    1124,
    1,
    801,
    802,
    803,
    1122,
    1385,
    1387,
    1384,
    1383,
    1383,
    1124,
    16,
    1405,
    913,
    914,
    1090,
    1388,
    1385,
    1384,
    1385,
    1388,
    1388,
    1386,
    1386,
    1384,
    1383,
    1384,
    1386,
    1385,
    1386,
    1386,
    1383,
    1384,
    1182,
    1388,
    747,
    748,
    1150,
    1151,
    1388,
    1163,
    1093,
    996,
    997,
    998,
    975,
    976,
    975,
    976,
    975,
    976,
    985,
    986,
    987,
    988,
    975,
    976,
    983,
    984,
    703,
    1438,
    1439,
    1440,
    938,
    955,
    956,
    703,
    1303,
    1304,
    1471,
    1472,
    968,
    969,
    1051,
    1052,
    1053,
    1054,
    1121,
    1388,
    1385,
    1388,
    1386,
    1386,
    1383,
    1384,
    1383,
    1386,
    1388,
    1388,
    1385,
    1383,
    1385,
    1384,
    1386,
    1387,
    1385,
    1388,
    1384,
    1384,
    1388,
    1383,
    1383,
    1384,
    1385,
    1385,
    1388,
    1385,
    747,
    748,
    1148,
    1385,
    1147,
    1383,
    1164,
    1386,
    1385,
    1091,
    1386,
    1383,
    1388,
    1388,
    1387,
    1386,
    1388,
    1387,
    1388,
    1108,
    1109,
    7,
    817,
    818,
    819,
    1105,
    1106,
    1165,
    1383,
    1384,
    1124,
    31,
    32,
    1421,
    1090,
    1091,
    1384,
    1383,
    1383,
    1385,
    1163,
    1388,
    1384,
    1386,
    1384,
    1388,
    1383,
    1387,
    1387,
    1388,
    1383,
    1165,
    1384,
    1384,
    1388,
    1388,
    1383,
    1182,
    1166,
    1167,
    733,
    1383,
    1387,
    1091,
    1092,
    1075,
    1075,
    1090,
    1091,
    1092,
    7,
    7,
    1001,
    1002,
    1003,
    1004,
    7,
    1,
    999,
    1000,
    719,
    1454,
    1455,
    1456,
    954,
    971,
    972,
    719,
    1319,
    1319,
    1320,
    1304,
    1320,
    1319,
    1320,
    1068,
    1069,
    1070,
    2,
    1122,
    1383,
    1385,
    1384,
    1383,
    1387,
    1383,
    1386,
    1385,
    1383,
    1388,
    1385,
    1388,
    1383,
    1386,
    1383,
    1386,
    1383,
    1383,
    1388,
    1385,
    1384,
    1384,
    1387,
    1386,
    1386,
    1385,
    1385,
    1386,
    1147,
    1199,
    1200,
    1147,
    1385,
    1182,
    1199,
    1200,
    1386,
    1163,
    1383,
    1388,
    1385,
    1383,
    1384,
    1385,
    1385,
    1384,
    1387,
    1386,
    1092,
    7,
    796,
    797,
    1090,
    1091,
    1388,
    1123,
    1123,
    1124,
    1023,
    1024,
    1090,
    1091,
    1163,
    1384,
    1383,
    1388,
    1385,
    1388,
    1386,
    1388,
    1383,
    1388,
    1388,
    1165,
    1386,
    1386,
    1385,
    1383,
    1386,
    1384,
    1386,
    1388,
    1384,
    1150,
    1151,
    1388,
    1182,
    731,
    732,
    1182,
    1386,
    1164,
    1387,
    1091,
    1091,
    1384,
    1386,
    1163,
    1093,
    13,
    15,
    16,
    14,
    1090,
    1091,
    1092,
    980,
    981,
    982,
    1320,
    1471,
    1472,
    970,
    719,
    719,
    1319,
    1320,
    1304,
    719,
    1319,
    1320,
    1304,
    703,
    703,
    941,
    942,
    13,
    1105,
    1106,
    1385,
    1388,
    1383,
    1384,
    1386,
    1386,
    1388,
    1386,
    1383,
    1384,
    1386,
    1388,
    1388,
    1387,
    1387,
    1383,
    1388,
    1385,
    1385,
    1385,
    1384,
    1386,
    1387,
    1387,
    1386,
    1386,
    1386,
    1148,
    1215,
    1216,
    731,
    732,
    1384,
    1215,
    1216,
    1386,
    1383,
    1383,
    1385,
    1384,
    1388,
    1383,
    1383,
    1387,
    1386,
    1386,
    1163,
    1124,
    1389,
    812,
    813,
    1122,
    1123,
    1124,
    791,
    792,
    795,
    1039,
    1040,
    1106,
    1384,
    1383,
    1387,
    1384,
    1165,
    1387,
    1388,
    1383,
    1386,
    1388,
    1385,
    1387,
    1387,
    1388,
    1383,
    1388,
    1384,
    1388,
    1388,
    1387,
    1385,
    1182,
    1166,
    1167,
    1165,
    733,
    747,
    748,
    927,
    1385,
    1386,
    1182,
    1387,
    1386,
    1383,
    1384,
    1386,
    1384,
    1092,
    31,
    32,
    1089,
    1383,
    1387,
    1384,
    1092,
    997,
    998,
    975,
    976,
    983,
    984,
    703,
    1179,
    1303,
    1179,
    987,
    988,
    975,
    976,
    983,
    719,
    719,
    957,
    958,
    2,
    1105,
    1106,
    1386,
    1386,
    1388,
    1383,
    1386,
    1386,
    1385,
    1387,
    1387,
    1383,
    1386,
    1388,
    1388,
    1383,
    1383,
    1386,
    1387,
    1388,
    1387,
    1385,
    1388,
    1385,
    1388,
    1383,
    1388,
    1386,
    1388,
    1199,
    1200,
    1147,
    747,
    748,
    1165,
    1388,
    1385,
    1388,
    1383,
    1387,
    1388,
    1387,
    1388,
    1385,
    1384,
    1383,
    1383,
    1123,
    1125,
    1,
    1405,
    828,
    7,
    1,
    866,
    867,
    807,
    808,
    811,
    1055,
    1090,
    1386,
    1388,
    1387,
    1386,
    1387,
    1387,
    1386,
    1383,
    1385,
    1387,
    1388,
    1387,
    1383,
    1385,
    1387,
    1387,
    1386,
    1388,
    1163,
    1385,
    1388,
    1385,
    1384,
    1384,
    1388,
    1385,
    1386,
    1182,
    10,
    1383,
    1385,
    1387,
    11,
    1388,
    1385,
    1383,
    1383,
    1385,
    1387,
    1385,
    1091,
    1091,
    1386,
    1387,
    731,
    732,
    1383,
    1091,
    1091,
    1092,
    7,
    999,
    1000,
    719,
    703,
    1319,
    944,
    1003,
    1004,
    15,
    16,
    999,
    1000,
    703,
    973,
    974,
    4,
    1090,
    1383,
    1384,
    1385,
    1384,
    1383,
    1387,
    1384,
    1387,
    1384,
    1388,
    1385,
    1388,
    1387,
    1383,
    1388,
    1384,
    1388,
    1386,
    1385,
    1383,
    1386,
    1384,
    1383,
    1387,
    1383,
    1386,
    1385,
    1387,
    1215,
    1216,
    1197,
    1198,
    11,
    733,
    1384,
    1387,
    1387,
    1386,
    1384,
    1383,
    1383,
    1384,
    1388,
    1123,
    1123,
    1124,
    1,
    4,
    7,
    1421,
    1,
    1,
    881,
    882,
    883,
    823,
    824,
    827,
    1090,
    1387,
    1384,
    1386,
    1383,
    1386,
    1385,
    1383,
    1388,
    1386,
    1388,
    1384,
    1387,
    1387,
    1388,
    1387,
    1388,
    1387,
    1387,
    1386,
    1383,
    1383,
    1388,
    1387,
    1385,
    1386,
    1383,
    1386,
    1384,
    733,
    1384,
    1385,
    1386,
    1388,
    1385,
    1385,
    1383,
    1383,
    1388,
    1384,
    1385,
    1388,
    1164,
    1384,
    1147,
    1182,
    747,
    748,
    1387,
    1150,
    1151,
    1108,
    1109,
    977,
    978,
    979,
    719,
    959,
    960,
    1088,
    1,
    47,
    32,
    939,
    940,
    719,
    941,
    942,
    1105,
    1106,
    1163,
    1385,
    1385,
    1384,
    1385,
    1387,
    1386,
    1386,
    1384,
    1386,
    1384,
    1383,
    1386,
    1384,
    1383,
    1383,
    1383,
    1386,
    1384,
    1387,
    1387,
    1388,
    1384,
    1386,
    1383,
    1387,
    1387,
    1383,
    731,
    732,
    1213,
    1214,
    1148,
    1199,
    1200,
    1388,
    1383,
    1385,
    1388,
    1386,
    1164,
    1123,
    1124,
    1023,
    1024,
    4,
    2,
    1,
    15,
    16,
    789,
    790,
    897,
    898,
    899,
    1090,
    1091,
    1091,
    1386,
    1385,
    1164,
    1388,
    1385,
    1388,
    1386,
    1386,
    1387,
    1388,
    1387,
    1387,
    1383,
    1384,
    1386,
    1386,
    1383,
    1384,
    1385,
    1386,
    1383,
    1385,
    1383,
    1383,
    1165,
    1383,
    1387,
    1385,
    1383,
    1385,
    1388,
    1388,
    1385,
    1386,
    1384,
    1388,
    1385,
    1383,
    1388,
    1386,
    1383,
    1386,
    1386,
    1388,
    1182,
    1383,
    1147,
    11,
    1182,
    1166,
    1167,
    1386,
    1092,
    47,
    994,
    995,
    1179,
    1438,
    1439,
    1440,
    936,
    937,
    938,
    955,
    956,
    703,
    957,
    958,
    1105,
    1106,
    1387,
    1386,
    1387,
    1387,
    1385,
    1384,
    1384,
    1383,
    1386,
    1388,
    1387,
    1388,
    1386,
    1388,
    1388,
    1386,
    1383,
    1388,
    1384,
    1383,
    1385,
    1384,
    1387,
    1388,
    1384,
    1386,
    1385,
    1385,
    747,
    748,
    733,
    1147,
    1182,
    1215,
    1216,
    1387,
    1386,
    1384,
    1165,
    1386,
    1125,
    866,
    867,
    1039,
    1040,
    2,
    3,
    3,
    31,
    32,
    805,
    806,
    913,
    914,
    1090,
    1387,
    1165,
    1388,
    1148,
    1385,
    10,
    1386,
    1388,
    1386,
    1385,
    1383,
    1387,
    1383,
    1383,
    1387,
    1385,
    1384,
    1384,
    1383,
    1386,
    1387,
    1387,
    1383,
    1386,
    1387,
    1387,
    1386,
    1388,
    1387,
    1388,
    1384,
    1386,
    1383,
    1384,
    1387,
    1385,
    1383,
    1386,
    1385,
    1386,
    1384,
    1384,
    1384,
    1385,
    1387,
    1182,
    1385,
    731,
    732,
    1150,
    1151,
    731,
    732,
    1182,
    1387,
    1384,
    1092,
    977,
    978,
    979,
    1454,
    1455,
    1456,
    952,
    953,
    954,
    971,
    992,
    719,
    973,
    974,
    1090,
    1182,
    1384,
    1387,
    1388,
    1388,
    1387,
    1388,
    1387,
    1385,
    1383,
    1386,
    1387,
    1388,
    1386,
    1384,
    1383,
    1384,
    1384,
    1384,
    1384,
    1385,
    1387,
    1383,
    1384,
    1386,
    1385,
    1384,
    1384,
    1385,
    1148,
    1197,
    1198,
    733,
    1199,
    1200,
    1182,
    1388,
    1386,
    1388,
    1123,
    1124,
    881,
    882,
    883,
    1055,
    4,
    1,
    1090,
    1091,
    1092,
    820,
    821,
    822,
    1090,
    1091,
    1385,
    1388,
    1387,
    1384,
    1387,
    1182,
    1388,
    1385,
    1386,
    1387,
    1386,
    1387,
    1387,
    1384,
    1388,
    1385,
    1385,
    1387,
    1386,
    1387,
    1385,
    1388,
    1384,
    1386,
    1383,
    1386,
    1388,
    1386,
    1385,
    1383,
    1384,
    1386,
    1388,
    1383,
    1388,
    1384,
    1385,
    1386,
    1384,
    1386,
    1386,
    1387,
    1386,
    1385,
    1385,
    731,
    732,
    11,
    747,
    748,
    1166,
    1167,
    747,
    748,
    1150,
    1151,
    1165,
    1108,
    1109,
    994,
    995,
    703,
    1471,
    1472,
    968,
    969,
    970,
    1304,
    1008,
    989,
    990,
    991,
    1106,
    1387,
    1384,
    1385,
    1384,
    1383,
    1386,
    1383,
    1386,
    1383,
    1383,
    1385,
    1385,
    1383,
    1385,
    1383,
    1384,
    1387,
    1385,
    1385,
    1388,
    1387,
    1387,
    1385,
    1383,
    1383,
    1384,
    1385,
    1388,
    1383,
    1182,
    1213,
    1214,
    1148,
    1215,
    1216,
    1387,
    1385,
    1384,
    1124,
    789,
    790,
    897,
    898,
    899,
    1090,
    1091,
    1091,
    1163,
    1165,
    1108,
    785,
    786,
    787,
    1106,
    1384,
    1388,
    1383,
    1182,
    1147,
    1388,
    1386,
    1385,
    1385,
    1165,
    1385,
    1386,
    1384,
    1385,
    1388,
    1385,
    1384,
    1385,
    1388,
    1165,
    1383,
    1386,
    1384,
    1388,
    1387,
    1384,
    1385,
    1388,
    1388,
    1385,
    1385,
    1387,
    1388,
    1383,
    1384,
    1383,
    1388,
    1387,
    1386,
    1386,
    1386,
    1388,
    1384,
    1385,
    1385,
    1383,
    747,
    748,
    731,
    732,
    1384,
    1385,
    1147,
    10,
    1147,
    1166,
    1167,
    1182,
    1384,
    1092,
    980,
    981,
    719,
    1319,
    1320,
    367,
    368,
    703,
    1320,
    944,
    1005,
    1006,
    1090,
    1385,
    1388,
    1384,
    1388,
    1388,
    1385,
    1384,
    1386,
    1383,
    1383,
    1388,
    1388,
    1386,
    1386,
    1385,
    1386,
    1385,
    1384,
    1388,
    1387,
    1383,
    1384,
    1385,
    1386,
    1387,
    1385,
    1388,
    1386,
    1386,
    1383,
    1197,
    1198,
    11,
    1182,
    1388,
    733,
    1387,
    1387,
    1124,
    804,
    805,
    806,
    913,
    914,
    1090,
    731,
    732,
    1147,
    1383,
    1385,
    1108,
    801,
    802,
    803,
    1122,
    1164,
    1387,
    1197,
    1198,
    1383,
    731,
    732,
    1388,
    1385,
    1385,
    1388,
    1385,
    1386,
    1387,
    1383,
    1387,
    1385,
    1385,
    1388,
    1384,
    1385,
    1386,
    1383,
    1385,
    1385,
    1385,
    1388,
    1386,
    1386,
    1384,
    1386,
    1386,
    1388,
    1383,
    1384,
    1388,
    1383,
    1383,
    1388,
    1386,
    1388,
    1388,
    1385,
    1387,
    1384,
    1385,
    1383,
    1383,
    747,
    748,
    1182,
    731,
    732,
    1182,
    731,
    732,
    1182,
    1388,
    733,
    1108,
    1109,
    997,
    998,
    983,
    984,
    383,
    384,
    719,
    959,
    960,
    1090,
    1091,
    1384,
    1385,
    1384,
    1385,
    1384,
    1387,
    1386,
    1383,
    1383,
    1384,
    1385,
    1388,
    1385,
    1384,
    1384,
    1386,
    1383,
    1388,
    1387,
    1385,
    1385,
    1387,
    1383,
    1383,
    1385,
    1386,
    1383,
    1387,
    1387,
    1388,
    1386,
    1213,
    1214,
    1197,
    1198,
    1388,
    1386,
    1388,
    1108,
    1109,
    820,
    821,
    822,
    1090,
    1091,
    1147,
    747,
    748,
    1384,
    1387,
    1384,
    1108,
    817,
    818,
    819,
    1105,
    1106,
    1147,
    1213,
    1214,
    1147,
    747,
    748,
    1182,
    1147,
    1387,
    1197,
    1198,
    1384,
    1385,
    1384,
    1386,
    1387,
    1386,
    1383,
    1384,
    1387,
    1388,
    1385,
    1387,
    1388,
    1387,
    1165,
    1387,
    1384,
    1388,
    1387,
    1388,
    1386,
    1385,
    1384,
    1385,
    1387,
    1385,
    1385,
    1386,
    1384,
    1387,
    1383,
    1388,
    1384,
    1385,
    1386,
    1386,
    1386,
    1150,
    1151,
    747,
    748,
    1386,
    747,
    748,
    1387,
    1383,
    1383,
    1388,
    1092,
    1,
    13,
    999,
    1000,
    399,
    400,
    719,
    941,
    942,
    1106,
    1388,
    1383,
    1388,
    1387,
    1383,
    1385,
    1388,
    1387,
    1385,
    1388,
    1385,
    1386,
    1383,
    1388,
    1385,
    1387,
    1384,
    1383,
    1384,
    1386,
    1383,
    1384,
    1387,
    1385,
    1385,
    1386,
    1387,
    1386,
    1386,
    1385,
    1385,
    1387,
    1182,
    1147,
    1213,
    1214,
    1182,
    1384,
    1383,
    1108,
    1109,
    785,
    786,
    787,
    1106,
    731,
    732,
    1147,
    11,
    1387,
    1388,
    1123,
    1124,
    785,
    786,
    787,
    1090,
    1383,
    731,
    732,
    1182,
    1182,
    1386,
    1150,
    1151,
    1182,
    1147,
    1213,
    1214,
    1383,
    1387,
    1387,
    1386,
    1384,
    1385,
    1387,
    1387,
    1388,
    1385,
    1384,
    1387,
    1388,
    1386,
    1383,
    1384,
    1385,
    1384,
    1385,
    1388,
    1387,
    1385,
    1386,
    1387,
    1385,
    1387,
    1385,
    1384,
    1383,
    1383,
    1385,
    1388,
    1383,
    1386,
    1384,
    1384,
    1387,
    1166,
    1167,
    1384,
    1387,
    11,
    1182,
    1386,
    1385,
    1384,
    1387,
    1383,
    1108,
    1109,
    1,
    929,
    930,
    703,
    367,
    368,
    957,
    958,
    1122,
    1163,
    1384,
    1384,
    1387,
    1164,
    1388,
    1384,
    1383,
    1383,
    1386,
    1386,
    1383,
    1383,
    1383,
    1386,
    1385,
    1383,
    1387,
    1384,
    1386,
    1387,
    1383,
    1383,
    1386,
    1385,
    1386,
    1388,
    1388,
    1385,
    1383,
    1383,
    1383,
    1199,
    1200,
    1150,
    1151,
    1147,
    1385,
    1387,
    1388,
    1092,
    801,
    802,
    803,
    1122,
    747,
    748,
    1384,
    1164,
    1383,
    1386,
    1093,
    1,
    801,
    802,
    803,
    1106,
    1388,
    747,
    748,
    10,
    1197,
    1198,
    1166,
    1167,
    731,
    732,
    11,
    1387,
    1388,
    1383,
    1384,
    1383,
    1182,
    1386,
    1387,
    1384,
    1385,
    1383,
    1384,
    1386,
    1387,
    1387,
    1387,
    1386,
    1388,
    1386,
    1387,
    1388,
    1387,
    1384,
    1388,
    1383,
    1385,
    1387,
    1383,
    1387,
    1383,
    1385,
    1384,
    1385,
    1383,
    1383,
    1388,
    1383,
    1385,
    1385,
    1384,
    1388,
    1182,
    1385,
    1385,
    1384,
    733,
    1182,
    1384,
    1385,
    1108,
    1109,
    1,
    945,
    946,
    719,
    383,
    384,
    973,
    974,
    14,
    1122,
    1387,
    1388,
    1388,
    1388,
    1384,
    1385,
    1383,
    1385,
    1387,
    1388,
    1385,
    1383,
    1387,
    1386,
    1386,
    1386,
    1385,
    1388,
    1383,
    1387,
    1385,
    1383,
    1383,
    1383,
    1388,
    1384,
    1386,
    1383,
    1383,
    1387,
    1388,
    1215,
    1216,
    1166,
    1167,
    1386,
    1385,
    1383,
    1165,
    1108,
    817,
    818,
    819,
    1105,
    1106,
    1383,
    1383,
    1384,
    1386,
    1385,
    1385,
    1092,
    817,
    818,
    819,
    1106,
    1384,
    1384,
    1182,
    1147,
    1213,
    1214,
    1387,
    1182,
    747,
    748,
    1385,
    1386,
    1388,
    1388,
    1384,
    1387,
    1385,
    1386,
    1387,
    1388,
    1388,
    1387,
    1385,
    1387,
    1384,
    1386,
    1385,
    1383,
    1386,
    1388,
    1386,
    1388,
    1383,
    1385,
    1385,
    1384,
    1388,
    1386,
    1384,
    1386,
    1387,
    1388,
    1387,
    1383,
    1388,
    1387,
    1383,
    1385,
    1384,
    1388,
    1384,
    1388,
    1385,
    1386,
    1386,
    1386,
    927,
    11,
    1384,
    1387,
    1387,
    1093,
    7,
    961,
    962,
    1304,
    399,
    400,
    1015,
    1016,
    1017,
    1105,
    1106,
    1383,
    1386,
    1387,
    1386,
    1383,
    733,
    1385,
    1388,
    1387,
    1386,
    1387,
    1384,
    1388,
    1386,
    1386,
    1387,
    1384,
    1383,
    1386,
    1384,
    1386,
    1387,
    1385,
    1383,
    1383,
    1386,
    1385,
    1388,
    1388,
    1388,
    10,
    1199,
    1200,
    11,
    1383,
    1385,
    1387,
    1386,
    1124,
    785,
    786,
    787,
    1090,
    11,
    1388,
    1386,
    1387,
    1385,
    1163,
    1123,
    1124,
    796,
    797,
    1090,
    1385,
    1147,
    1199,
    1200,
    731,
    732,
    1147,
    1387,
    731,
    732,
    1147,
    1387,
    1384,
    1387,
    1383,
    1384,
    1385,
    1384,
    1383,
    1383,
    1383,
    1384,
    1387,
    1384,
    1388,
    1383,
    1383,
    1384,
    1387,
    1163,
    1383,
    1388,
    1384,
    1383,
    1383,
    1384,
    1385,
    1387,
    1386,
    1383,
    1385,
    1387,
    1386,
    1387,
    1385,
    1385,
    1384,
    1383,
    1383,
    1385,
    1387,
    1385,
    1384,
    1386,
    1383,
    1384,
    1385,
    1387,
    1386,
    1383,
    1387,
    1384,
    1386,
    1092,
    977,
    978,
    979,
    367,
    368,
    1031,
    1032,
    1033,
    1034,
    1122,
    1123,
    1123,
    1384,
    1386,
    1385,
    1386,
    1182,
    733,
    10,
    1182,
    1385,
    1383,
    1384,
    1387,
    1383,
    1383,
    1387,
    1385,
    1386,
    1383,
    1385,
    1388,
    1386,
    1386,
    1386,
    1384,
    1388,
    1386,
    1384,
    1387,
    1147,
    1215,
    1216,
    1147,
    1384,
    1385,
    1384,
    1108,
    1109,
    801,
    802,
    803,
    1106,
    733,
    1386,
    1385,
    1387,
    1388,
    1124,
    1,
    1389,
    812,
    813,
    1106,
    1384,
    1388,
    1215,
    1216,
    747,
    748,
    11,
    1182,
    747,
    748,
    1385,
    1147,
    1182,
    1387,
    1383,
    1388,
    1388,
    1387,
    1385,
    1384,
    1385,
    1386,
    1385,
    1383,
    1163,
    1387,
    1386,
    1383,
    1387,
    1388,
    1383,
    1388,
    1385,
    1386,
    1387,
    1383,
    1385,
    1388,
    1383,
    1386,
    1384,
    1384,
    1385,
    1388,
    1386,
    1385,
    1386,
    1163,
    1383,
    1387,
    1383,
    1385,
    1388,
    1385,
    1384,
    1384,
    1387,
    1383,
    733,
    1386,
    1387,
    1384,
    1385,
    1108,
    1109,
    994,
    995,
    383,
    384,
    1047,
    1048,
    1049,
    1050,
    2,
    8,
    4,
    1122,
    1165,
    1383,
    1386,
    11,
    927,
    1182,
    1147,
    733,
    1387,
    1385,
    1388,
    1383,
    1383,
    1164,
    1383,
    1385,
    1388,
    1386,
    1384,
    1388,
    1387,
    1163,
    1387,
    1384,
    1383,
    1387,
    1388,
    1199,
    1200,
    1388,
    1385,
    1385,
    1383,
    1384,
    1108,
    1109,
    817,
    818,
    819,
    1106,
    1383,
    1388,
    1386,
    1387,
    1125,
    15,
    16,
    1405,
    828,
    1090,
    1387,
    1384,
    731,
    732,
    1388,
    1182,
    1387,
    731,
    732,
    1150,
    1151,
    1197,
    1198,
    1383,
    1386,
    1387,
    1385,
    1387,
    1384,
    1385,
    1385,
    1386,
    1384,
    1385,
    1383,
    1386,
    1383,
    1385,
    1386,
    1388,
    1385,
    1388,
    1385,
    1387,
    1385,
    1384,
    1386,
    1387,
    1386,
    1387,
    1386,
    1384,
    1388,
    1387,
    1383,
    1386,
    1384,
    1385,
    1385,
    1384,
    1383,
    1385,
    1383,
    1384,
    1384,
    1388,
    1387,
    1388,
    1387,
    1383,
    1386,
    1384,
    1388,
    1387,
    1108,
    1109,
    929,
    930,
    399,
    400,
    1303,
    1304,
    941,
    942,
    15,
    16,
    7,
    1,
    1122,
    1385,
    1384,
    1385,
    1386,
    733,
    1385,
    1384,
    1384,
    1386,
    1388,
    1388,
    1387,
    1388,
    1385,
    1383,
    1385,
    1385,
    1384,
    1385,
    1384,
    1383,
    1383,
    1385,
    1386,
    1385,
    1384,
    1215,
    1216,
    1386,
    1385,
    1383,
    1383,
    1385,
    1124,
    1,
    796,
    797,
    1090,
    1387,
    1386,
    1165,
    1123,
    1124,
    5,
    31,
    32,
    1421,
    1089,
    1386,
    1164,
    1383,
    747,
    748,
    1383,
    1197,
    1198,
    747,
    748,
    1166,
    1167,
    1213,
    1214,
    1383,
    1384,
    1386,
    1385,
    1388,
    1385,
    1386,
    1388,
    1387,
    1388,
    1385,
    1384,
    1387,
    1388,
    1384,
    1385,
    1387,
    1387,
    1387,
    1386,
    1386,
    1387,
    1383,
    1165,
    1387,
    1385,
    1383,
    1385,
    1387,
    1386,
    1383,
    1386,
    1384,
    1387,
    1388,
    1384,
    1388,
    1388,
    1386,
    1384,
    1387,
    1385,
    1387,
    1383,
    1387,
    1384,
    1383,
    1385,
    1387,
    1388,
    1388,
    1108,
    1109,
    945,
    946,
    1303,
    1304,
    1319,
    1320,
    957,
    958,
    31,
    32,
    4,
    15,
    16,
    1122,
    1123,
    1164,
    1386,
    1385,
    1386,
    1383,
    1384,
    1383,
    1387,
    1388,
    1385,
    1385,
    1388,
    1388,
    1384,
    1388,
    1385,
    1384,
    1384,
    1385,
    1386,
    1383,
    1385,
    1386,
    1387,
    11,
    1384,
    1147,
    1385,
    1385,
    1386,
    1124,
    789,
    790,
    812,
    813,
    1106,
    1385,
    1123,
    1124,
    1023,
    1024,
    1,
    1,
    1,
    1090,
    1386,
    1386,
    1182,
    1383,
    1383,
    1182,
    1147,
    1213,
    1214,
    1383,
    1147,
    1197,
    1198,
    1383,
    1388,
    1383,
    1388,
    1385,
    1384,
    1388,
    1385,
    1385,
    1385,
    1388,
    1383,
    1385,
    1383,
    1385,
    1386,
    1387,
    1386,
    1385,
    1387,
    1384,
    1386,
    1384,
    1386,
    1385,
    1385,
    1384,
    1383,
    1386,
    1385,
    1387,
    1383,
    1384,
    1384,
    1383,
    1385,
    1387,
    1388,
    1387,
    1388,
    1386,
    1387,
    1388,
    1384,
    1387,
    1383,
    1388,
    1386,
    1386,
    1387,
    1386,
    1387,
    1386,
    1108,
    1109,
    961,
    962,
    1319,
    1320,
    703,
    703,
    973,
    974,
    4,
    13,
    2,
    31,
    32,
    2,
    4,
    1122,
    1386,
    1384,
    1386,
    1383,
    1388,
    1386,
    733,
    1387,
    1384,
    1383,
    1387,
    1385,
    1388,
    1387,
    1386,
    1384,
    1386,
    1383,
    1383,
    1388,
    1387,
    1387,
    1387,
    1386,
    1385,
    1383,
    1383,
    1385,
    1125,
    804,
    805,
    806,
    828,
    1090,
    1383,
    1124,
    789,
    790,
    1039,
    1040,
    4,
    1090,
    1091,
    1386,
    1388,
    1388,
    1387,
    1197,
    1198,
    1385,
    1150,
    1151,
    1388,
    1387,
    1383,
    1213,
    1214,
    1384,
    1384,
    1386,
    1385,
    1386,
    1387,
    1388,
    1384,
    1385,
    1383,
    1385,
    1383,
    1387,
    1385,
    1384,
    1388,
    1383,
    1383,
    1383,
    1387,
    1386,
    1388,
    1383,
    1383,
    1385,
    1387,
    1385,
    1385,
    1383,
    1387,
    1385,
    1386,
    1386,
    1164,
    1388,
    1387,
    1384,
    1388,
    1385,
    1387,
    1387,
    1388,
    1386,
    1384,
    1385,
    1388,
    1388,
    1388,
    1164,
    1384,
    1385,
    1387,
    1182,
    1388,
    1092,
    980,
    981,
    982,
    1179,
    719,
    719,
    1438,
    1439,
    1440,
    936,
    937,
    936,
    937,
    1019,
    1020,
    1021,
    1122,
    1384,
    1385,
    1385,
    1385,
    733,
    11,
    1383,
    1385,
    1383,
    1383,
    1384,
    1384,
    1384,
    1385,
    1386,
    1387,
    1386,
    1383,
    1386,
    1385,
    1386,
    1385,
    1386,
    1164,
    1384,
    1385,
    1108,
    1109,
    820,
    821,
    822,
    1090,
    1384,
    1108,
    804,
    805,
    806,
    1055,
    1090,
    1091,
    1163,
    1387,
    1388,
    1383,
    1388,
    1386,
    1213,
    1214,
    1385,
    1166,
    1167,
    1387,
    1388,
    1388,
    1385,
    1387,
    1386,
    1384,
    1386,
    1387,
    1386,
    1385,
    1385,
    1384,
    1384,
    1388,
    1388,
    1387,
    1385,
    1386,
    1384,
    1384,
    1384,
    1386,
    1388,
    1383,
    1383,
    1387,
    1164,
    1387,
    1387,
    1383,
    1383,
    1387,
    1384,
    1385,
    1385,
    1387,
    1383,
    1386,
    1385,
    1386,
    1388,
    1385,
    1387,
    1384,
    1384,
    1384,
    1384,
    1386,
    1388,
    1384,
    1383,
    1385,
    1387,
    1388,
    1384,
    1388,
    731,
    732,
    1385,
    1092,
    997,
    998,
    983,
    984,
    703,
    1454,
    1455,
    1456,
    952,
    953,
    952,
    953,
    1035,
    1036,
    1037,
    1038,
    1106,
    1383,
    1383,
    1383,
    1383,
    1387,
    1182,
    1386,
    1385,
    1386,
    1383,
    1386,
    1388,
    1384,
    1385,
    1387,
    1386,
    1386,
    1385,
    1385,
    1388,
    1386,
    1388,
    1386,
    1388,
    1386,
    1108,
    1109,
    785,
    786,
    787,
    1106,
    1384,
    1108,
    820,
    821,
    822,
    7,
    1106,
    1387,
    1388,
    1386,
    1384,
    1383,
    1387,
    1388,
    1387,
    1388,
    1383,
    1385,
    1388,
    1384,
    1387,
    1387,
    1387,
    1388,
    1383,
    1388,
    1384,
    1386,
    1386,
    1384,
    1385,
    1387,
    1388,
    1383,
    1386,
    1383,
    1387,
    1386,
    1387,
    1386,
    1385,
    1383,
    1386,
    1385,
    1386,
    1388,
    1387,
    1385,
    1385,
    1385,
    1388,
    1383,
    1383,
    1387,
    1388,
    1383,
    1388,
    1385,
    1386,
    1385,
    1384,
    1388,
    1385,
    1386,
    1386,
    1383,
    1386,
    1384,
    1387,
    1386,
    1384,
    1383,
    1384,
    733,
    1384,
    1182,
    747,
    748,
    1388,
    1385,
    1091,
    1092,
    999,
    1000,
    719,
    703,
    1471,
    1472,
    968,
    969,
    968,
    969,
    1051,
    1052,
    1053,
    1054,
    1122,
    1163,
    1383,
    1387,
    1383,
    1384,
    1388,
    1385,
    1385,
    1386,
    1383,
    1383,
    1383,
    1387,
    1383,
    1388,
    1387,
    1385,
    1388,
    1385,
    1388,
    1383,
    1386,
    1385,
    1383,
    1387,
    1108,
    1109,
    801,
    802,
    803,
    1106,
    1165,
    1108,
    785,
    786,
    787,
    1,
    1106,
    1386,
    1182,
    1386,
    1383,
    1383,
    1387,
    1386,
    1388,
    1384,
    1387,
    1388,
    1387,
    1385,
    1386,
    1386,
    1387,
    1163,
    1385,
    1385,
    1383,
    1386,
    1383,
    1384,
    1165,
    1386,
    1385,
    1386,
    1384,
    1386,
    1384,
    1388,
    1386,
    1385,
    1384,
    1387,
    1386,
    1383,
    1387,
    1384,
    1388,
    1387,
    1383,
    1385,
    1383,
    1383,
    1386,
    1386,
    1383,
    1387,
    1387,
    1384,
    1388,
    1386,
    1383,
    1384,
    1387,
    1387,
    1388,
    1387,
    1388,
    1388,
    1383,
    1386,
    1388,
    1384,
    1388,
    1386,
    1384,
    1150,
    1151,
    11,
    1182,
    731,
    732,
    1108,
    980,
    981,
    982,
    719,
    1319,
    1320,
    1319,
    1320,
    1304,
    1303,
    1304,
    1068,
    1069,
    1070,
    1105,
    1106,
    1385,
    1387,
    1383,
    1385,
    1384,
    1384,
    1387,
    1383,
    1384,
    1383,
    1383,
    1384,
    1383,
    1384,
    1164,
    1386,
    1388,
    1388,
    1387,
    1384,
    1388,
    1388,
    1386,
    1383,
    1124,
    7,
    817,
    818,
    819,
    1106,
    1388,
    1124,
    801,
    802,
    803,
    1090,
    1386,
    1150,
    1151,
    1384,
    1387,
    1383,
    1388,
    1385,
    1386,
    1385,
    1387,
    1383,
    1383,
    1385,
    1384,
    1385,
    1385,
    1383,
    1386,
    1384,
    1384,
    1383,
    1386,
    1386,
    1384,
    1384,
    1386,
    1385,
    1387,
    1386,
    1385,
    1383,
    1164,
    1386,
    1386,
    1384,
    1386,
    1383,
    1383,
    1388,
    1385,
    1384,
    1387,
    1383,
    1384,
    1388,
    1383,
    1385,
    1386,
    1384,
    1388,
    1383,
    1388,
    1384,
    1387,
    1388,
    1386,
    1384,
    1388,
    1383,
    1383,
    1386,
    1165,
    1387,
    1386,
    1388,
    1384,
    1385,
    1182,
    1166,
    1167,
    731,
    732,
    747,
    748,
    1383,
    1093,
    997,
    998,
    975,
    976,
    975,
    976,
    983,
    984,
    1319,
    1320,
    1304,
    1015,
    1016,
    1017,
    1122,
    1387,
    1388,
    1388,
    1386,
    1388,
    1383,
    1385,
    1387,
    1388,
    1384,
    1383,
    1383,
    1387,
    1385,
    1387,
    1388,
    1383,
    1386,
    1383,
    1388,
    1386,
    1384,
    1165,
    1108,
    1109,
    1,
    796,
    797,
    1090,
    1384,
    1108,
    1109,
    817,
    818,
    819,
    1106,
    1182,
    1166,
    1167,
    1147,
    1383,
    1383,
    1383,
    1386,
    1383,
    1383,
    1383,
    1384,
    1388,
    1388,
    1386,
    1384,
    1385,
    1386,
    1383,
    1388,
    1386,
    1388,
    1386,
    1385,
    1384,
    1384,
    1387,
    1388,
    1385,
    1388,
    1388,
    1387,
    1385,
    1388,
    1386,
    1386,
    1383,
    1387,
    1387,
    1384,
    1387,
    1388,
    1388,
    1383,
    1165,
    1388,
    1383,
    1383,
    1388,
    1388,
    1385,
    1384,
    1386,
    1384,
    1165,
    1383,
    1388,
    1384,
    1387,
    1386,
    1387,
    1387,
    1383,
    1387,
    1386,
    1385,
    1388,
    1385,
    1386,
    1386,
    1384,
    747,
    748,
    1383,
    1384,
    1182,
    1388,
    1092,
    1,
    13,
    1,
    15,
    16,
    999,
    1000,
    1304,
    1303,
    1304,
    1031,
    1032,
    1033,
    1034,
    1106,
    1163,
    1387,
    1383,
    1387,
    1385,
    1387,
    1384,
    1383,
    1383,
    1383,
    1383,
    1383,
    1385,
    1386,
    1384,
    1386,
    1388,
    1384,
    1385,
    1383,
    1384,
    1123,
    1124,
    7,
    1389,
    812,
    813,
    1106,
    1387,
    1386,
    1092,
    785,
    786,
    787,
    1122,
    1387,
    1163,
    1147,
    1182,
    731,
    732,
    1386,
    1387,
    1385,
    1164,
    1386,
    1388,
    1387,
    1384,
    1385,
    1387,
    1387,
    1386,
    1386,
    1388,
    1388,
    1387,
    1386,
    1383,
    1384,
    1384,
    1385,
    1388,
    1388,
    1384,
    1384,
    1388,
    1383,
    1387,
    1384,
    1386,
    1182,
    1383,
    1385,
    1383,
    1387,
    1385,
    1383,
    1383,
    1384,
    1387,
    1384,
    1383,
    1387,
    1385,
    1386,
    1384,
    1386,
    1386,
    1383,
    1385,
    1384,
    1388,
    1385,
    1385,
    1387,
    1387,
    1386,
    1387,
    1385,
    1385,
    1387,
    1385,
    1385,
    1387,
    1387,
    1385,
    733,
    1386,
    1383,
    1386,
    1164,
    1388,
    1093,
    1075,
    1075,
    31,
    32,
    980,
    981,
    982,
    1319,
    1320,
    1047,
    1048,
    1049,
    1050,
    1122,
    1123,
    1123,
    1386,
    1386,
    1387,
    1385,
    1386,
    1386,
    1383,
    1384,
    1386,
    1388,
    1388,
    1386,
    1387,
    1383,
    1383,
    1384,
    1383,
    1387,
    1124,
    3,
    15,
    16,
    1405,
    828,
    3,
    1106,
    1386,
    1388,
    1108,
    801,
    802,
    803,
    4,
    1121,
    1385,
    1182,
    1383,
    747,
    748,
    1147,
    1387,
    1386,
    1385,
    1385,
    1386,
    1387,
    1388,
    1387,
    1383,
    1387,
    1386,
    1384,
    1383,
    1383,
    1385,
    1386,
    1385,
    1387,
    1386,
    1388,
    1383,
    1383,
    1386,
    1387,
    1383,
    1387,
    1386,
    1182,
    11,
    733,
    1164,
    1182,
    1388,
    1388,
    1387,
    1383,
    1385,
    1386,
    1386,
    1384,
    1387,
    1385,
    1387,
    1387,
    1388,
    1385,
    1383,
    1387,
    1385,
    1384,
    1383,
    1386,
    1387,
    1388,
    1387,
    1387,
    1383,
    1384,
    1386,
    1387,
    1388,
    1383,
    1386,
    1383,
    1386,
    1385,
    11,
    1383,
    1383,
    1383,
    1383,
    1387,
    1091,
    1091,
    1092,
    1075,
    1075,
    997,
    998,
    983,
    984,
    1303,
    1304,
    1438,
    1439,
    1440,
    1019,
    1020,
    1122,
    1385,
    1387,
    1387,
    1383,
    1386,
    1387,
    1386,
    1387,
    1384,
    1385,
    1386,
    1385,
    1384,
    1384,
    1387,
    1388,
    1124,
    1023,
    1024,
    31,
    32,
    1421,
    3,
    1090,
    1385,
    1387,
    733,
    1108,
    817,
    818,
    819,
    3,
    1089,
    731,
    732,
    1182,
    1147,
    1383,
    1182,
    1384,
    1387,
    1388,
    1387,
    1383,
    1384,
    1387,
    1384,
    1388,
    1386,
    1387,
    1385,
    1386,
    1387,
    1387,
    1383,
    1384,
    1386,
    1385,
    1385,
    1383,
    1386,
    1386,
    1387,
    1384,
    1387,
    1182,
    10,
    1147,
    1384,
    1387,
    1384,
    1388,
    1384,
    1385,
    1388,
    1385,
    1383,
    1387,
    1386,
    1383,
    1387,
    1383,
    1385,
    1383,
    1386,
    1383,
    1387,
    1386,
    1383,
    1385,
    1383,
    1385,
    1386,
    1386,
    1388,
    1163,
    1385,
    1386,
    1387,
    1387,
    1387,
    1385,
    1388,
    1383,
    1384,
    1385,
    1387,
    1384,
    1385,
    1386,
    1387,
    1386,
    1387,
    1384,
    1091,
    1091,
    1092,
    7,
    999,
    1000,
    1319,
    1320,
    1454,
    1455,
    1456,
    1035,
    1036,
    1037,
    1122,
    1388,
    1386,
    1388,
    1383,
    1387,
    1383,
    1383,
    1387,
    1384,
    1388,
    1384,
    1384,
    1388,
    1383,
    1384,
    881,
    1039,
    1040,
    1,
    4,
    1090,
    1091,
    1387,
    1388,
    1386,
    1123,
    1124,
    796,
    797,
    1152,
    1090,
    1387,
    747,
    748,
    1384,
    1150,
    1151,
    1182,
    1387,
    1387,
    1388,
    1383,
    1386,
    1388,
    1384,
    1387,
    1385,
    1385,
    1383,
    1388,
    1386,
    1388,
    11,
    1383,
    1385,
    1163,
    1388,
    1383,
    1387,
    1386,
    1383,
    1384,
    1388,
    1384,
    1384,
    1385,
    1386,
    1182,
    1383,
    1385,
    1388,
    1383,
    1387,
    1387,
    1385,
    1383,
    1386,
    1386,
    1383,
    1383,
    1387,
    1384,
    1388,
    1385,
    1383,
    1384,
    1387,
    1387,
    1387,
    1384,
    1388,
    1388,
    1383,
    1383,
    1383,
    1388,
    1383,
    1383,
    1383,
    1388,
    1384,
    1388,
    1387,
    1384,
    1383,
    1384,
    1383,
    1386,
    1383,
    1387,
    1386,
    1385,
    1387,
    1387,
    1387,
    1147,
    1092,
    980,
    981,
    982,
    1319,
    1320,
    1471,
    1472,
    1051,
    1052,
    1053,
    1054,
    1106,
    1385,
    1386,
    1386,
    1387,
    1383,
    1387,
    1388,
    1387,
    1384,
    1385,
    1388,
    1386,
    1384,
    1383,
    897,
    1055,
    1,
    1090,
    1091,
    1388,
    1387,
    1384,
    1384,
    1124,
    866,
    867,
    812,
    813,
    1090,
    1383,
    1147,
    1385,
    1384,
    1385,
    1166,
    1167,
    1383,
    1384,
    1383,
    1384,
    1384,
    1387,
    1383,
    1383,
    1384,
    1384,
    1388,
    1384,
    1383,
    1387,
    1384,
    1182,
    11,
    1387,
    1384,
    1386,
    1388,
    1384,
    1383,
    1384,
    1384,
    1385,
    1388,
    1383,
    733,
    1384,
    11,
    1388,
    1384,
    1385,
    1384,
    1386,
    1387,
    1384,
    1384,
    1388,
    1384,
    1386,
    1387,
    1383,
    1386,
    1384,
    1387,
    1383,
    1384,
    1387,
    1385,
    1386,
    1385,
    1384,
    1384,
    1387,
    1384,
    1388,
    1385,
    1387,
    1384,
    1386,
    1384,
    1387,
    1384,
    1384,
    1387,
    1383,
    1383,
    1388,
    1387,
    1388,
    1385,
    1383,
    1384,
    1388,
    1387,
    1383,
    1386,
    1108,
    1109,
    997,
    998,
    983,
    984,
    703,
    1303,
    1304,
    1068,
    1069,
    1070,
    1122,
    1163,
    1388,
    1386,
    1388,
    1387,
    1383,
    1384,
    1387,
    1388,
    1165,
    1388,
    1384,
    1385,
    1383,
    913,
    914,
    1090,
    1386,
    733,
    1385,
    1164,
    1388,
    1125,
    881,
    882,
    883,
    828,
    3,
    1106,
    1384,
    1388,
    1147,
    1383,
    1182,
    1388,
    1386,
    1383,
    1385,
    1386,
    1384,
    1388,
    1387,
    1387,
    1386,
    1386,
    1386,
    1385,
    1388,
    1386,
    1383,
    1385,
    1387,
    1383,
    1388,
    1386,
    1386,
    1383,
    1385,
    1164,
    1387,
    1388,
    1385,
    1388,
    1386,
    1383,
    1387,
    1386,
    1386,
    1384,
    1385,
    1383,
    1386,
    1388,
    1383,
    1386,
    1383,
    1386,
    1385,
    1386,
    1386,
    1385,
    1386,
    1385,
    1386,
    1386,
    1386,
    1388,
    1386,
    1383,
    1384,
    1385,
    1388,
    1386,
    1386,
    1163,
    1386,
    1387,
    1384,
    1387,
    1386,
    1387,
    1386,
    1383,
    1388,
    1383,
    1387,
    1383,
    1388,
    1384,
    1387,
    1387,
    1383,
    1163,
    1388,
    1385,
    1388,
    1092,
    1075,
    7,
    999,
    1000,
    719,
    1319,
    1320,
    1304,
    1015,
    1016,
    1017,
    1122,
    1385,
    1387,
    1165,
    1387,
    1385,
    1383,
    1387,
    1387,
    1388,
    1383,
    1388,
    1384,
    1388,
    1090,
    1091,
    1182,
    1147,
    1387,
    1386,
    1388,
    1124,
    1389,
    897,
    898,
    899,
    2,
    1090,
    1385,
    1386,
    1386,
    1388,
    1386,
    1385,
    1383,
    1386,
    1387,
    1387,
    1384,
    1383,
    1385,
    1383,
    1384,
    1386,
    1384,
    1387,
    1165,
    1165,
    1388,
    1387,
    1385,
    1383,
    1384,
    1386,
    1386,
    1385,
    1383,
    1385,
    1388,
    1383,
    1384,
    1384,
    1388,
    1388,
    1386,
    1387,
    1385,
    1383,
    1388,
    1388,
    1387,
    1388,
    1385,
    1388,
    1385,
    1384,
    1388,
    1388,
    1387,
    1388,
    1388,
    1386,
    1384,
    1388,
    1383,
    1384,
    1388,
    1388,
    1387,
    1386,
    1386,
    1386,
    1387,
    1384,
    1384,
    1388,
    1386,
    1388,
    1386,
    1383,
    1387,
    1384,
    1387,
    1384,
    1383,
    1386,
    1386,
    1385,
    1385,
    1164,
    1388,
    1130,
    1126,
    1129,
    1127,
    1385,
    1386,
    1091,
    1092,
    977,
    978,
    979,
    992,
    1303,
    1304,
    1031,
    1032,
    1033,
    1034,
    1122,
    1123,
    1123,
    1123,
    1386,
    1165,
    1387,
    1383,
    1148,
    1386,
    1385,
    1383,
    1147,
    1384,
    1182,
    10,
    1163,
    1388,
    1123,
    1124,
    3,
    1405,
    913,
    914,
    4,
    1089,
    1385,
    1384,
    1182,
    1383,
    1386,
    1384,
    1387,
    1386,
    1388,
    1388,
    1388,
    1384,
    1383,
    1387,
    1384,
    1387,
    1383,
    1387,
    1386,
    1387,
    1387,
    1388,
    1385,
    1385,
    1387,
    1385,
    1383,
    1387,
    1386,
    1386,
    1384,
    1384,
    1387,
    1384,
    1385,
    1387,
    1386,
    1384,
    1383,
    1388,
    1383,
    1387,
    1384,
    1387,
    1163,
    1386,
    1383,
    1386,
    1385,
    1388,
    1383,
    1384,
    1386,
    1387,
    1386,
    1385,
    1387,
    1386,
    1386,
    1386,
    1387,
    1386,
    1385,
    1388,
    1388,
    1388,
    1384,
    1384,
    1385,
    1385,
    1384,
    1383,
    1388,
    1384,
    1165,
    1386,
    1386,
    1383,
    1387,
    1383,
    1388,
    1384,
    1386,
    1130,
    12,
    1086,
    1087,
    1110,
    1111,
    1386,
    1385,
    1108,
    1109,
    994,
    995,
    1008,
    1319,
    1320,
    1047,
    1048,
    1049,
    1050,
    1152,
    1074,
    1074,
    1074,
    1122,
    1123,
    1123,
    1386,
    1387,
    1384,
    1385,
    10,
    1387,
    731,
    732,
    733,
    1123,
    1124,
    1023,
    1024,
    7,
    1421,
    3,
    13,
    1090,
    1388,
    1388,
    1386,
    1386,
    1384,
    1386,
    1387,
    1387,
    1384,
    1384,
    1385,
    1384,
    1383,
    1384,
    1165,
    1388,
    1387,
    1387,
    1386,
    1388,
    1386,
    1384,
    1385,
    1383,
    1385,
    1385,
    1385,
    1383,
    1386,
    1383,
    1384,
    1388,
    1383,
    1387,
    1385,
    1383,
    1383,
    1388,
    1384,
    1383,
    1388,
    1383,
    1387,
    1388,
    1384,
    1164,
    1165,
    1386,
    1387,
    1388,
    1383,
    1386,
    1383,
    1388,
    1386,
    1388,
    1388,
    1384,
    1383,
    1385,
    1384,
    1386,
    1384,
    1387,
    1388,
    1385,
    1384,
    1385,
    1388,
    1384,
    1384,
    1387,
    1384,
    1383,
    1383,
    1385,
    1384,
    1388,
    1387,
    1386,
    1387,
    1385,
    1387,
    1113,
    1114,
    1086,
    1087,
    1117,
    1083,
    1127,
    1383,
    1384,
    1384,
    1092,
    980,
    981,
    982,
    1319,
    1319,
    1320,
    1304,
    1438,
    1439,
    1440,
    936,
    937,
    936,
    937,
    1019,
    1020,
    1122,
    1384,
    1147,
    1165,
    1383,
    1197,
    747,
    748,
    1124,
    866,
    867,
    1039,
    1040,
    2,
    4,
    4,
    1089,
    1385,
    1163,
    1386,
    1388,
    1383,
    1383,
    1385,
    1387,
    1387,
    1387,
    1387,
    1384,
    1387,
    1385,
    1384,
    1385,
    1384,
    1386,
    1387,
    1387,
    1383,
    1388,
    1387,
    1385,
    1387,
    1386,
    1383,
    1388,
    1383,
    10,
    1384,
    1387,
    1386,
    1383,
    1386,
    1386,
    1383,
    1388,
    1385,
    1385,
    1383,
    1383,
    1385,
    1383,
    1385,
    1384,
    1383,
    1387,
    1384,
    1385,
    1386,
    1388,
    1387,
    1387,
    1387,
    1386,
    1387,
    1385,
    1384,
    1388,
    1384,
    1388,
    1385,
    1384,
    1386,
    1386,
    1383,
    1386,
    1384,
    1383,
    1388,
    1385,
    1388,
    1386,
    1388,
    1385,
    1384,
    1386,
    1388,
    1385,
    1388,
    1386,
    1383,
    1164,
    1113,
    1114,
    1083,
    1117,
    1083,
    1095,
    1096,
    1388,
    1384,
    1384,
    1108,
    1109,
    997,
    998,
    975,
    976,
    983,
    984,
    1454,
    1455,
    1456,
    952,
    953,
    952,
    953,
    1035,
    1036,
    1037,
    1122,
    1387,
    1182,
    1147,
    1213,
    1123,
    1124,
    881,
    882,
    883,
    1055,
    2,
    4,
    1090,
    1091,
    1385,
    1388,
    1387,
    1386,
    1384,
    1386,
    1385,
    1388,
    1383,
    1385,
    1388,
    1386,
    1386,
    1388,
    1388,
    1387,
    1385,
    1384,
    1384,
    1387,
    1383,
    1386,
    1386,
    1388,
    1383,
    1383,
    1386,
    1383,
    1385,
    1383,
    1385,
    1383,
    1385,
    1387,
    1384,
    1386,
    1388,
    1385,
    1387,
    1387,
    1386,
    1384,
    1387,
    1386,
    1387,
    1386,
    1384,
    1383,
    1386,
    1387,
    1386,
    1387,
    1385,
    1388,
    1388,
    1385,
    1387,
    1387,
    1388,
    1383,
    1388,
    1388,
    1388,
    1388,
    1386,
    1387,
    1388,
    1385,
    1387,
    1387,
    1387,
    1384,
    1386,
    1388,
    1385,
    1388,
    1386,
    1385,
    1384,
    1387,
    1383,
    1387,
    1387,
    1387,
    1386,
    1130,
    12,
    1087,
    1180,
    1110,
    1111,
    1384,
    1385,
    1385,
    1386,
    1388,
    1093,
    1075,
    1075,
    15,
    16,
    999,
    1000,
    1304,
    1471,
    1472,
    968,
    969,
    968,
    969,
    1051,
    1052,
    1053,
    1054,
    1106,
    1147,
    731,
    732,
    866,
    867,
    897,
    898,
    899,
    1152,
    3,
    1089,
    1384,
    1387,
    1388,
    1387,
    1386,
    1388,
    1385,
    1387,
    1388,
    1387,
    1384,
    1387,
    1383,
    1386,
    1386,
    1388,
    1388,
    1385,
    1387,
    1383,
    1388,
    1386,
    1386,
    1386,
    1385,
    1387,
    1386,
    1388,
    1387,
    1386,
    1384,
    1387,
    1386,
    1386,
    1385,
    1386,
    1383,
    1388,
    1387,
    1385,
    1383,
    1384,
    1385,
    1163,
    1384,
    1386,
    1384,
    1383,
    1388,
    1387,
    1388,
    1384,
    1387,
    1385,
    1387,
    1384,
    1384,
    1383,
    1387,
    1386,
    1385,
    1386,
    1383,
    1384,
    1388,
    1385,
    1386,
    1383,
    1384,
    1165,
    1385,
    1386,
    1383,
    1388,
    1388,
    1384,
    1388,
    1384,
    1164,
    1387,
    1385,
    1387,
    1383,
    1387,
    1385,
    1383,
    1388,
    1098,
    1117,
    1086,
    1087,
    1094,
    1164,
    1383,
    1386,
    1385,
    1384,
    1388,
    1163,
    1091,
    1091,
    1092,
    32,
    980,
    981,
    1319,
    1320,
    1304,
    1319,
    1320,
    1304,
    1319,
    1320,
    1068,
    1069,
    1070,
    1122,
    1383,
    747,
    748,
    882,
    883,
    913,
    914,
    2,
    4,
    1090,
    1387,
    1385,
    1383,
    1386,
    1387,
    1388,
    1386,
    1384,
    1384,
    1388,
    1388,
    1385,
    1387,
    1387,
    1385,
    1386,
    1388,
    1385,
    1384,
    1388,
    1384,
    1386,
    1386,
    1383,
    1383,
    1385,
    1388,
    1388,
    1388,
    1387,
    1384,
    1385,
    1383,
    1388,
    1385,
    1383,
    1385,
    1386,
    1385,
    1384,
    1388,
    1388,
    1388,
    1386,
    1383,
    1388,
    1383,
    1383,
    1386,
    1384,
    1384,
    1388,
    1383,
    1388,
    1384,
    1383,
    1387,
    1384,
    1384,
    1163,
    1384,
    1388,
    1386,
    1386,
    1385,
    1388,
    1386,
    1383,
    1388,
    1388,
    1385,
    1385,
    1386,
    1386,
    1386,
    1383,
    1384,
    1388,
    11,
    1387,
    1385,
    1386,
    1385,
    1387,
    1385,
    1383,
    1386,
    1383,
    1165,
    1097,
    1080,
    1094,
    11,
    1383,
    1387,
    1387,
    1386,
    1388,
    1387,
    1384,
    1385,
    1164,
    1386,
    1092,
    996,
    997,
    998,
    975,
    976,
    975,
    976,
    983,
    984,
    703,
    703,
    1015,
    1016,
    1017,
    1122,
    1385,
    1182,
    898,
    899,
    4,
    1075,
    1090,
    1091,
    1383,
    1165,
    1387,
    1384,
    1386,
    1386,
    1387,
    1387,
    1385,
    1383,
    1388,
    1388,
    1384,
    1388,
    1384,
    1384,
    1385,
    1385,
    1388,
    1383,
    1386,
    1387,
    1386,
    1388,
    1386,
    1383,
    1385,
    1385,
    1387,
    1386,
    1386,
    1384,
    1383,
    1385,
    1383,
    1388,
    1386,
    1386,
    1384,
    1385,
    1384,
    1388,
    1383,
    1384,
    1385,
    1386,
    1385,
    1384,
    1387,
    1383,
    1388,
    1388,
    1384,
    1385,
    1383,
    1384,
    1383,
    1386,
    1388,
    1385,
    1384,
    1383,
    1386,
    1386,
    1383,
    1386,
    1388,
    1385,
    1384,
    1384,
    1383,
    1385,
    1385,
    1386,
    1384,
    1386,
    1384,
    1384,
    1386,
    1383,
    1384,
    10,
    1387,
    1383,
    1387,
    1384,
    1386,
    1387,
    1384,
    1384,
    1385,
    1096,
    1163,
    1387,
    1384,
    1384,
    1388,
    1386,
    1385,
    1384,
    1384,
    1386,
    1384,
    1385,
    1387,
    1093,
    1,
    7,
    4,
    2,
    1,
    16,
    999,
    1000,
    719,
    719,
    1304,
    1032,
    1033,
    1034,
    1106,
    1165,
    914,
    1090,
    1091,
    1091,
    1384,
    1386,
    1386,
    1388,
    1385,
    1386,
    1386,
    1386,
    1386,
    1387,
    1385,
    1387,
    1384,
    1388,
    1384,
    1387,
    1123,
    1386,
    1388,
    1165,
    1123,
    1123,
    1386,
    1163,
    1387,
    1386,
    1383,
    1386,
    1385,
    1386,
    1388,
    1385,
    1384,
    1384,
    1387,
    1386,
    1384,
    1383,
    1383,
    1385,
    1383,
    1383,
    1384,
    1163,
    1386,
    1388,
    1383,
    1385,
    1386,
    1386,
    1388,
    1388,
    1387,
    1384,
    1386,
    1383,
    1388,
    1383,
    1386,
    1384,
    1165,
    1164,
    1387,
    1385,
    1388,
    1384,
    1388,
    1387,
    1383,
    1387,
    1383,
    1387,
    1385,
    1387,
    1384,
    1386,
    1384,
    1384,
    11,
    1386,
    1384,
    1388,
    1383,
    1384,
    1385,
    1388,
    1384,
    1388,
    1388,
    1387,
    1386,
    1388,
    1385,
    1387,
    1385,
    1384,
    1388,
    1385,
    1387,
    1385,
    1387,
    1384,
    1388,
    1387,
    1387,
    1386,
    1384,
    1386,
    1092,
    2,
    15,
    16,
    31,
    32,
    980,
    981,
    982,
    1319,
    1320,
    1048,
    1049,
    1050,
    1122,
    1123,
    1090,
    1163,
    733,
    1386,
    1383,
    1387,
    1386,
    1386,
    1385,
    1387,
    1388,
    1388,
    1386,
    1384,
    1387,
    1388,
    1383,
    1163,
    1123,
    1124,
    8,
    1122,
    1123,
    1124,
    1074,
    1074,
    1122,
    1123,
    1387,
    1386,
    1384,
    1386,
    1387,
    1386,
    1385,
    1385,
    1386,
    1385,
    1388,
    1386,
    1384,
    1387,
    1385,
    1384,
    1383,
    1388,
    1384,
    1384,
    1383,
    1387,
    1388,
    1385,
    1385,
    1388,
    1384,
    1387,
    1386,
    1383,
    1387,
    1386,
    1388,
    1386,
    1384,
    1383,
    1387,
    1384,
    1386,
    1388,
    1385,
    1388,
    1385,
    1383,
    1383,
    1385,
    1383,
    1385,
    1387,
    1386,
    1383,
    1388,
    1387,
    1387,
    1386,
    1383,
    1386,
    1388,
    1386,
    1385,
    1388,
    1387,
    1388,
    1383,
    1387,
    1387,
    1387,
    1383,
    1387,
    1383,
    1383,
    1387,
    1386,
    1383,
    1387,
    733,
    1388,
    1388,
    1384,
    1385,
    1386,
    1388,
    1388,
    1163,
    1384,
    1093,
    31,
    32,
    13,
    1152,
    996,
    997,
    998,
    983,
    984,
    703,
    1438,
    1439,
    1440,
    1019,
    1384,
    10,
    1385,
    1384,
    1383,
    1388,
    1385,
    1386,
    1388,
    1385,
    1383,
    1386,
    1182,
    1147,
    1385,
    1387,
    1164,
    1125,
    843,
    844,
    911,
    912,
    911,
    912,
    911,
    912,
    839,
    840,
    1122,
    1388,
    1165,
    1386,
    1386,
    1385,
    1383,
    1388,
    1387,
    1384,
    1388,
    1384,
    1388,
    1387,
    1388,
    1387,
    1388,
    1386,
    1386,
    1387,
    1386,
    1386,
    1388,
    1384,
    1386,
    1386,
    1383,
    1386,
    1388,
    1388,
    1384,
    1383,
    1387,
    1386,
    1388,
    1385,
    1385,
    1386,
    1383,
    1384,
    1386,
    1385,
    1383,
    1387,
    1385,
    1385,
    1388,
    1388,
    1385,
    1385,
    1384,
    1385,
    1388,
    1383,
    1383,
    1388,
    1387,
    1387,
    1385,
    1385,
    1387,
    1385,
    1384,
    1386,
    1388,
    1388,
    1386,
    1384,
    1182,
    1388,
    1384,
    1388,
    1387,
    1182,
    731,
    732,
    1384,
    1383,
    1386,
    1385,
    1387,
    1385,
    1387,
    1383,
    1387,
    1386,
    1091,
    1092,
    7,
    1,
    928,
    15,
    16,
    999,
    1000,
    719,
    1454,
    1455,
    1456,
    1035,
    1387,
    1383,
    1384,
    1386,
    1384,
    1384,
    1388,
    1383,
    1384,
    1199,
    1200,
    731,
    732,
    1165,
    1385,
    1123,
    1124,
    870,
    859,
    860,
    1075,
    1090,
    1091,
    1092,
    3,
    7,
    855,
    856,
    7,
    1121,
    1383,
    1388,
    1387,
    1383,
    1383,
    1388,
    1386,
    1385,
    1385,
    1387,
    1383,
    1383,
    1383,
    1385,
    1386,
    1387,
    1385,
    1388,
    1383,
    1388,
    1384,
    1383,
    1383,
    1387,
    1384,
    1383,
    1386,
    1385,
    1385,
    1387,
    1388,
    1385,
    1384,
    1387,
    1388,
    1388,
    1388,
    1383,
    1387,
    1383,
    1383,
    1385,
    1383,
    1387,
    1385,
    1384,
    1385,
    1384,
    1388,
    1383,
    1385,
    1387,
    1385,
    1385,
    1383,
    1385,
    1385,
    1388,
    1386,
    1387,
    1386,
    1384,
    1387,
    1386,
    1386,
    1385,
    1387,
    1384,
    1385,
    1383,
    1383,
    1384,
    747,
    748,
    1182,
    1387,
    1387,
    1384,
    1383,
    1387,
    1387,
    1386,
    1383,
    1164,
    1387,
    1384,
    1091,
    1091,
    1092,
    31,
    32,
    977,
    978,
    979,
    703,
    1471,
    1472,
    1051,
    1386,
    1388,
    1387,
    1387,
    1386,
    1386,
    1388,
    1182,
    1383,
    1215,
    1216,
    747,
    748,
    1388,
    1125,
    884,
    885,
    886,
    1075,
    1090,
    1091,
    1384,
    1388,
    1388,
    1091,
    1092,
    836,
    837,
    838,
    2,
    1122,
    1385,
    1384,
    1388,
    1385,
    1386,
    1388,
    1385,
    1387,
    1384,
    1387,
    1383,
    1386,
    1386,
    1387,
    1383,
    1386,
    1383,
    1386,
    1387,
    1385,
    1387,
    1388,
    1387,
    1384,
    1384,
    1388,
    1385,
    1388,
    1386,
    1384,
    1385,
    1387,
    1387,
    1386,
    1385,
    1387,
    1388,
    1386,
    1385,
    1388,
    1387,
    1383,
    1384,
    1387,
    1384,
    1386,
    1385,
    1383,
    1385,
    1384,
    1386,
    1388,
    1387,
    1385,
    1387,
    1385,
    1386,
    1386,
    1383,
    1385,
    1182,
    1387,
    1386,
    1182,
    731,
    732,
    733,
    1386,
    1383,
    1385,
    1384,
    1387,
    1165,
    1383,
    1385,
    1182,
    1385,
    1384,
    1386,
    1384,
    1385,
    1387,
    1383,
    1384,
    1182,
    1387,
    1165,
    1387,
    1093,
    1,
    993,
    994,
    995,
    719,
    1303,
    1304,
    992,
    1384,
    1383,
    1386,
    1384,
    1388,
    1388,
    1383,
    1388,
    731,
    732,
    1182,
    1383,
    1123,
    1124,
    870,
    900,
    901,
    1090,
    1091,
    1383,
    1386,
    1387,
    1123,
    1165,
    1388,
    1387,
    1092,
    853,
    854,
    839,
    840,
    1121,
    1387,
    1386,
    1387,
    1388,
    1385,
    1385,
    1388,
    1383,
    1385,
    1385,
    1388,
    1384,
    1387,
    1385,
    1383,
    1387,
    1385,
    1388,
    1388,
    1384,
    1384,
    1388,
    1385,
    1387,
    1388,
    1386,
    1386,
    1387,
    1383,
    1384,
    1383,
    1388,
    1383,
    1384,
    1388,
    1386,
    1385,
    1383,
    1383,
    1384,
    1386,
    1384,
    1388,
    1388,
    1388,
    1384,
    1387,
    1384,
    1384,
    1388,
    1384,
    1384,
    1386,
    1385,
    1385,
    1387,
    1388,
    1387,
    1386,
    1387,
    1383,
    1383,
    1388,
    747,
    748,
    731,
    732,
    1383,
    1386,
    1386,
    1386,
    1387,
    1387,
    1388,
    731,
    732,
    1387,
    1386,
    731,
    732,
    1385,
    1387,
    1386,
    1387,
    733,
    1150,
    1151,
    1388,
    1092,
    4,
    977,
    978,
    979,
    1319,
    1320,
    1008,
    1385,
    1387,
    1383,
    1385,
    1384,
    1199,
    1200,
    1147,
    747,
    748,
    1386,
    1124,
    884,
    885,
    886,
    1089,
    1091,
    1386,
    1387,
    1123,
    1123,
    1124,
    7,
    1122,
    1123,
    1123,
    1124,
    15,
    16,
    855,
    856,
    1105,
    1106,
    1163,
    1387,
    1384,
    1388,
    1383,
    1386,
    1388,
    1384,
    1386,
    1383,
    1384,
    1386,
    1383,
    1384,
    1385,
    1388,
    1386,
    1385,
    1383,
    1388,
    1384,
    1388,
    1384,
    1165,
    1384,
    1385,
    1384,
    1387,
    1383,
    1384,
    1385,
    1387,
    1384,
    1385,
    1385,
    1384,
    1384,
    1386,
    1386,
    1388,
    1386,
    1383,
    1387,
    1388,
    1383,
    1388,
    1386,
    1388,
    1385,
    1388,
    1385,
    1383,
    1384,
    1387,
    1384,
    1384,
    1383,
    1387,
    1384,
    1388,
    1383,
    1182,
    1182,
    1182,
    747,
    748,
    1384,
    1384,
    1386,
    1385,
    1388,
    1150,
    1151,
    747,
    748,
    1386,
    1182,
    747,
    748,
    1386,
    1387,
    1182,
    927,
    1182,
    1166,
    1167,
    1384,
    1387,
    1093,
    993,
    994,
    995,
    1179,
    1303,
    1304,
    1386,
    1385,
    1385,
    1383,
    1182,
    1215,
    1216,
    1182,
    1123,
    1123,
    1124,
    880,
    900,
    901,
    1090,
    1384,
    1164,
    1383,
    1125,
    843,
    844,
    911,
    912,
    911,
    912,
    1,
    16,
    31,
    32,
    836,
    837,
    838,
    1122,
    1384,
    1388,
    1388,
    1388,
    1384,
    1385,
    1383,
    1383,
    1386,
    1385,
    1388,
    1385,
    1388,
    1386,
    1388,
    1387,
    1388,
    1384,
    1384,
    1388,
    1388,
    1385,
    1386,
    1388,
    1388,
    1386,
    1383,
    1384,
    1387,
    1383,
    1385,
    1386,
    1387,
    1386,
    1386,
    1387,
    1384,
    1387,
    1384,
    1386,
    1387,
    1383,
    1385,
    1164,
    1386,
    1385,
    1388,
    1388,
    1384,
    1386,
    1387,
    1383,
    1383,
    1383,
    1384,
    1388,
    1386,
    1386,
    1383,
    1182,
    1387,
    1388,
    731,
    732,
    1182,
    1385,
    1383,
    1385,
    1385,
    1388,
    1182,
    1166,
    1167,
    733,
    1388,
    1388,
    1150,
    1151,
    1383,
    1385,
    1387,
    733,
    731,
    732,
    1182,
    1383,
    1182,
    1387,
    1388,
    1092,
    980,
    981,
    982,
    1319,
    1320,
    1387,
    1383,
    1387,
    1386,
    1386,
    1386,
    1182,
    1125,
    15,
    16,
    895,
    896,
    1090,
    1091,
    1387,
    1384,
    1385,
    1124,
    880,
    859,
    860,
    1,
    1,
    1,
    1,
    31,
    32,
    6,
    839,
    840,
    853,
    854,
    839,
    1122,
    1383,
    1388,
    1386,
    1385,
    1384,
    1388,
    1387,
    1385,
    1388,
    1384,
    1386,
    1388,
    1383,
    1387,
    1384,
    1384,
    1384,
    1388,
    1387,
    1385,
    1384,
    1386,
    1386,
    1387,
    1386,
    1385,
    1384,
    1385,
    1387,
    1388,
    1387,
    1386,
    1386,
    1383,
    1383,
    1386,
    1385,
    1385,
    1386,
    1384,
    1385,
    1386,
    1387,
    1388,
    1388,
    1163,
    1383,
    1386,
    1384,
    1385,
    1388,
    1384,
    1387,
    1385,
    1387,
    1385,
    1383,
    1383,
    1384,
    1384,
    1182,
    747,
    748,
    1385,
    1383,
    1385,
    1384,
    1386,
    1386,
    731,
    732,
    1182,
    11,
    1383,
    927,
    1166,
    1167,
    1383,
    1386,
    1386,
    927,
    747,
    748,
    10,
    1147,
    731,
    732,
    1164,
    1108,
    1109,
    997,
    998,
    983,
    984,
    1387,
    1164,
    1386,
    1383,
    1388,
    1383,
    1384,
    1093,
    31,
    15,
    7,
    1105,
    1106,
    1165,
    1385,
    1388,
    1125,
    895,
    896,
    1,
    1090,
    1091,
    1091,
    1091,
    1092,
    1152,
    1,
    2,
    855,
    856,
    835,
    1,
    855,
    856,
    1121,
    1383,
    1164,
    1384,
    1387,
    1387,
    1387,
    1388,
    1384,
    1385,
    1387,
    1387,
    1384,
    1383,
    1384,
    1386,
    1383,
    1386,
    1386,
    1386,
    1383,
    1383,
    1388,
    1383,
    1388,
    1387,
    1384,
    1388,
    1386,
    1385,
    1387,
    1387,
    1388,
    1386,
    1384,
    1386,
    1384,
    1387,
    1387,
    1385,
    1386,
    1387,
    1383,
    1384,
    1387,
    1384,
    1387,
    1386,
    1385,
    1387,
    1386,
    1383,
    1386,
    1385,
    1385,
    1387,
    1387,
    1383,
    1385,
    1385,
    731,
    732,
    1387,
    1384,
    1385,
    1386,
    731,
    732,
    1182,
    747,
    748,
    1147,
    1182,
    1386,
    731,
    732,
    1182,
    1385,
    1388,
    1383,
    1385,
    733,
    1147,
    1150,
    1151,
    747,
    748,
    1384,
    1384,
    1093,
    7,
    13,
    999,
    1000,
    1388,
    1387,
    1383,
    1385,
    1383,
    1385,
    1387,
    1384,
    1092,
    31,
    32,
    7,
    1122,
    1384,
    1385,
    1386,
    1092,
    798,
    799,
    1090,
    1386,
    1387,
    1197,
    1198,
    1387,
    1091,
    1092,
    4,
    785,
    786,
    787,
    1,
    785,
    786,
    787,
    1106,
    1388,
    1384,
    1383,
    1387,
    1387,
    1388,
    1383,
    1384,
    1384,
    1383,
    1387,
    1385,
    1384,
    1387,
    1383,
    1388,
    1385,
    1388,
    1383,
    1387,
    1385,
    1387,
    1386,
    1386,
    1386,
    1385,
    1388,
    1385,
    1388,
    1383,
    1385,
    1388,
    1386,
    1388,
    1388,
    1385,
    1388,
    1388,
    1384,
    1385,
    1387,
    1386,
    1387,
    1387,
    1388,
    1383,
    1383,
    1388,
    1383,
    1384,
    1386,
    1165,
    1387,
    1384,
    1388,
    1182,
    1384,
    1385,
    747,
    748,
    1388,
    1385,
    1387,
    1182,
    747,
    748,
    10,
    1199,
    1200,
    731,
    732,
    1147,
    747,
    748,
    1388,
    1384,
    1388,
    1384,
    1385,
    1383,
    1383,
    1166,
    1167,
    1147,
    11,
    733,
    1182,
    1385,
    1092,
    4,
    980,
    981,
    1383,
    1384,
    1385,
    1386,
    1387,
    1182,
    1383,
    1387,
    1384,
    1092,
    798,
    799,
    1105,
    1106,
    1387,
    1148,
    1108,
    814,
    815,
    1106,
    1386,
    733,
    1213,
    1214,
    733,
    1383,
    1108,
    2,
    801,
    802,
    803,
    7,
    801,
    802,
    803,
    1106,
    1388,
    1388,
    1383,
    1383,
    1383,
    1385,
    1385,
    1383,
    1384,
    1386,
    1387,
    1385,
    1386,
    1383,
    1385,
    1387,
    1386,
    1384,
    1386,
    1386,
    1383,
    1387,
    1383,
    1384,
    1387,
    1387,
    1384,
    1383,
    1386,
    1386,
    1383,
    1383,
    1386,
    1384,
    1383,
    1387,
    1386,
    1388,
    1386,
    1383,
    1386,
    1384,
    1386,
    1384,
    1385,
    1388,
    1385,
    1387,
    1386,
    1383,
    1387,
    1386,
    1388,
    1385,
    1384,
    1388,
    1383,
    731,
    732,
    1384,
    1384,
    1387,
    731,
    732,
    1150,
    1151,
    1147,
    1215,
    1216,
    747,
    748,
    927,
    1383,
    1387,
    1384,
    1384,
    1385,
    1385,
    1383,
    1386,
    1385,
    733,
    731,
    732,
    1182,
    1147,
    731,
    732,
    1163,
    1092,
    996,
    997,
    1388,
    1384,
    1388,
    1383,
    1199,
    1200,
    1182,
    1386,
    1387,
    1124,
    814,
    815,
    7,
    1122,
    1387,
    1385,
    1108,
    830,
    831,
    1122,
    1384,
    1383,
    1385,
    1199,
    1200,
    1182,
    1387,
    1092,
    817,
    818,
    819,
    1,
    817,
    818,
    819,
    1106,
    1163,
    1383,
    1385,
    1384,
    1383,
    1165,
    1387,
    1384,
    1164,
    1388,
    1388,
    1387,
    1384,
    1384,
    1388,
    1386,
    1385,
    1385,
    1386,
    1384,
    1388,
    1386,
    1385,
    1386,
    1385,
    1384,
    1388,
    1165,
    1388,
    1164,
    1384,
    1384,
    1388,
    1383,
    1387,
    1386,
    1387,
    1384,
    1383,
    1388,
    1383,
    1386,
    1388,
    1384,
    1387,
    1387,
    1388,
    1387,
    1383,
    1388,
    1384,
    1385,
    1388,
    1384,
    733,
    1384,
    1182,
    747,
    748,
    1388,
    1386,
    1388,
    747,
    748,
    1166,
    1167,
    1182,
    731,
    732,
    1147,
    731,
    732,
    1386,
    1388,
    1383,
    1385,
    1385,
    1388,
    1386,
    1385,
    1383,
    1387,
    747,
    748,
    1385,
    1182,
    747,
    748,
    1182,
    1388,
    1093,
    7,
    1384,
    1386,
    1383,
    1182,
    1215,
    1216,
    731,
    732,
    1108,
    1109,
    830,
    831,
    4,
    1105,
    1106,
    1385,
    1108,
    871,
    872,
    873,
    1122,
    1386,
    1147,
    1215,
    1216,
    1147,
    1386,
    1165,
    1092,
    837,
    838,
    1,
    833,
    834,
    835,
    1106,
    1384,
    1387,
    1384,
    1386,
    1388,
    1384,
    1386,
    1387,
    1383,
    1386,
    1384,
    1384,
    1385,
    1388,
    1385,
    1386,
    1387,
    1384,
    1386,
    1383,
    1386,
    1383,
    1388,
    1387,
    1386,
    1383,
    1384,
    1388,
    1388,
    1383,
    1384,
    1383,
    1387,
    1388,
    1385,
    1384,
    1165,
    1384,
    1385,
    1385,
    1383,
    1387,
    1386,
    1387,
    1384,
    1383,
    1386,
    1386,
    1165,
    1384,
    1388,
    1383,
    1388,
    1387,
    1384,
    1385,
    1386,
    731,
    732,
    1385,
    1385,
    1383,
    1388,
    1147,
    1388,
    1387,
    1387,
    747,
    748,
    1388,
    747,
    748,
    1386,
    1385,
    1387,
    1385,
    1383,
    1387,
    1386,
    1387,
    1384,
    1387,
    1384,
    1387,
    1388,
    1388,
    1388,
    1147,
    1387,
    1385,
    1386,
    1092,
    1385,
    1385,
    1387,
    733,
    1385,
    1182,
    747,
    748,
    1108,
    1109,
    871,
    872,
    873,
    1105,
    1106,
    1165,
    1383,
    1092,
    888,
    889,
    890,
    1121,
    1388,
    1150,
    1151,
    927,
    1147,
    1383,
    1108,
    853,
    854,
    839,
    849,
    850,
    851,
    1122,
    1384,
    1388,
    1388,
    1386,
    1385,
    1383,
    1383,
    1386,
    1384,
    1385,
    1385,
    1385,
    1384,
    1384,
    1386,
    1386,
    1385,
    1383,
    1387,
    1385,
    1387,
    1388,
    1388,
    1384,
    1385,
    1387,
    1386,
    1387,
    1388,
    1386,
    1383,
    1387,
    1387,
    1384,
    1386,
    1384,
    1383,
    1383,
    1388,
    1384,
    1387,
    1388,
    1386,
    1383,
    1388,
    1386,
    1388,
    1383,
    1383,
    1387,
    1388,
    1387,
    1383,
    1383,
    1388,
    1182,
    1386,
    747,
    748,
    1182,
    1385,
    1384,
    1386,
    733,
    1387,
    1388,
    1147,
    1383,
    1182,
    1164,
    1385,
    1385,
    1387,
    1387,
    1388,
    1383,
    1383,
    1384,
    1387,
    1165,
    1388,
    1383,
    1384,
    1387,
    1385,
    1388,
    1386,
    1383,
    1383,
    1385,
    1386,
    1385,
    1385,
    1387,
    1383,
    1383,
    1385,
    731,
    732,
    733,
    1164,
    1092,
    13,
    888,
    889,
    890,
    1122,
    1384,
    1383,
    1124,
    2,
    905,
    906,
    2,
    1122,
    1166,
    1167,
    731,
    732,
    1182,
    1383,
    1091,
    1092,
    855,
    856,
    836,
    837,
    838,
    1122,
    1383,
    1388,
    1383,
    1385,
    1388,
    1385,
    1384,
    1388,
    1385,
    1388,
    1387,
    1384,
    1383,
    1388,
    1386,
    1383,
    1385,
    1385,
    1388,
    1388,
    1386,
    1387,
    1385,
    1388,
    1383,
    1388,
    1384,
    1385,
    1385,
    1387,
    1385,
    1383,
    1385,
    1386,
    1384,
    1387,
    1388,
    1388,
    1383,
    1383,
    1384,
    1384,
    1384,
    1385,
    1384,
    1385,
    1384,
    1384,
    1387,
    1387,
    1385,
    1384,
    1383,
    1387,
    1383,
    733,
    1182,
    1182,
    1147,
    1386,
    1386,
    1386,
    1387,
    1387,
    1147,
    731,
    732,
    1385,
    1387,
    1383,
    1383,
    1385,
    1387,
    1383,
    1387,
    1385,
    1386,
    1384,
    1384,
    1384,
    1383,
    1387,
    1383,
    1386,
    1388,
    1165,
    1164,
    1385,
    1383,
    11,
    1165,
    1386,
    1388,
    1387,
    1385,
    733,
    747,
    748,
    1147,
    1383,
    1385,
    1093,
    904,
    905,
    906,
    1105,
    1106,
    1383,
    1092,
    3,
    798,
    799,
    1152,
    1090,
    1383,
    1147,
    747,
    748,
    1147,
    1387,
    1386,
    1108,
    833,
    834,
    835,
    853,
    854,
    2,
    1121,
    1383,
    1163,
    1383,
    1383,
    1388,
    1384,
    1387,
    1387,
    1385,
    1385,
    1386,
    1384,
    1384,
    1385,
    1384,
    1386,
    1386,
    1385,
    1387,
    1388,
    1383,
    1386,
    1165,
    1388,
    1385,
    1384,
    1386,
    1387,
    1386,
    1384,
    1387,
    1387,
    1386,
    1383,
    1383,
    1386,
    1386,
    1388,
    1383,
    1387,
    1384,
    1383,
    1385,
    1383,
    1387,
    1385,
    1384,
    1384,
    1384,
    1387,
    1383,
    1387,
    1386,
    1387,
    1386,
    1388,
    733,
    731,
    732,
    1386,
    1387,
    1384,
    1384,
    1386,
    747,
    748,
    10,
    1385,
    1383,
    1385,
    1384,
    1386,
    1388,
    1383,
    1388,
    1388,
    1383,
    1385,
    1387,
    1385,
    1386,
    1386,
    1385,
    1386,
    1388,
    1385,
    1383,
    1388,
    1384,
    1387,
    1386,
    1387,
    1163,
    1388,
    1147,
    1383,
    1385,
    1387,
    1387,
    1149,
    1383,
    1092,
    7,
    7,
    1090,
    1383,
    1383,
    1108,
    1109,
    814,
    815,
    1105,
    1106,
    1383,
    1182,
    1163,
    1150,
    1151,
    1148,
    1165,
    1386,
    1092,
    850,
    851,
    2,
    2,
    3,
    1105,
    1106,
    1383,
    1384,
    1384,
    1385,
    1386,
    1383,
    1385,
    1388,
    1387,
    1383,
    1383,
    1386,
    1383,
    1386,
    1385,
    1385,
    1384,
    1384,
    1386,
    1384,
    1387,
    1385,
    1383,
    1387,
    1384,
    1385,
    1388,
    1383,
    1388,
    1386,
    1386,
    1387,
    1386,
    1384,
    1384,
    1385,
    1384,
    1386,
    1384,
    1388,
    1383,
    1385,
    1385,
    1383,
    1387,
    1388,
    1385,
    1388,
    1387,
    1387,
    1387,
    1384,
    733,
    1387,
    1384,
    1385,
    747,
    748,
    731,
    732,
    1385,
    1383,
    1386,
    1384,
    1386,
    1384,
    1383,
    1384,
    1386,
    1385,
    1387,
    1386,
    1384,
    1383,
    1385,
    1388,
    1386,
    1388,
    1385,
    1388,
    1384,
    1384,
    1384,
    1384,
    1384,
    1386,
    1388,
    1384,
    1386,
    1388,
    1384,
    1384,
    1386,
    1383,
    1387,
    1386,
    1384,
    1387,
    1388,
    1165,
    1108,
    798,
    799,
    1122,
    1147,
    1383,
    1108,
    1109,
    830,
    831,
    4,
    1122,
    1387,
    1387,
    1148,
    1166,
    1167,
    1199,
    1200,
    1387,
    1108,
    785,
    786,
    787,
    4,
    1,
    1105,
    1106,
    1387,
    1386,
    1385,
    1388,
    1387,
    1383,
    1388,
    1387,
    1388,
    1383,
    1388,
    1384,
    1387,
    1388,
    1387,
    1383,
    1388,
    1386,
    1388,
    1388,
    1386,
    1387,
    1383,
    1386,
    1388,
    1385,
    1387,
    1384,
    1384,
    1388,
    1383,
    1386,
    1386,
    1388,
    1385,
    1388,
    1387,
    1385,
    1383,
    1387,
    1383,
    1385,
    1388,
    1388,
    1383,
    1386,
    1385,
    1383,
    1385,
    1386,
    1386,
    1388,
    1384,
    1387,
    733,
    1385,
    1385,
    1182,
    747,
    748,
    1387,
    1384,
    1387,
    731,
    732,
    1147,
    1384,
    1386,
    1386,
    1385,
    1388,
    1383,
    1385,
    1383,
    1385,
    1384,
    1383,
    1385,
    1386,
    1387,
    1388,
    1388,
    1384,
    1383,
    1385,
    1385,
    1388,
    1386,
    1383,
    1386,
    1386,
    1386,
    1384,
    1387,
    1388,
    1388,
    733,
    1199,
    1200,
    1387,
    1124,
    814,
    815,
    1105,
    1106,
    1386,
    1383,
    1092,
    871,
    872,
    873,
    1105,
    1106,
    1388,
    1384,
    1147,
    1386,
    1215,
    1216,
    1383,
    1108,
    801,
    802,
    803,
    2,
    4,
    3,
    1122,
    1387,
    1386,
    1387,
    1385,
    1388,
    1385,
    1387,
    1388,
    1386,
    1387,
    1383,
    1386,
    1383,
    1385,
    1388,
    1385,
    1384,
    1385,
    1384,
    1386,
    1385,
    1388,
    1387,
    1383,
    1383,
    1384,
    1386,
    1387,
    1163,
    1383,
    1386,
    1384,
    1386,
    1387,
    1383,
    1387,
    1385,
    1388,
    1383,
    1384,
    1165,
    1388,
    1383,
    1388,
    1385,
    1383,
    1386,
    1388,
    1388,
    1384,
    1385,
    1384,
    1385,
    1387,
    1388,
    1383,
    731,
    732,
    1385,
    1182,
    1383,
    1387,
    1385,
    747,
    748,
    1383,
    1387,
    1383,
    1386,
    1383,
    1388,
    1383,
    1387,
    1388,
    1385,
    1387,
    1385,
    1163,
    1388,
    1386,
    1387,
    1388,
    1386,
    1387,
    1387,
    1386,
    1387,
    1385,
    1386,
    1387,
    1385,
    1388,
    1385,
    1383,
    1386,
    1388,
    1147,
    1215,
    1216,
    1124,
    16,
    830,
    831,
    1105,
    1106,
    1385,
    1383,
    1108,
    1109,
    888,
    889,
    890,
    1106,
    1165,
    1386,
    1388,
    1383,
    1388,
    1383,
    1385,
    1124,
    817,
    818,
    819,
    1,
    1,
    4,
    2,
    1121,
    1384,
    1164,
    1384,
    1383,
    1164,
    1387,
    1386,
    1383,
    1386,
    1387,
    1385,
    1387,
    1387,
    1384,
    1385,
    1385,
    1384,
    1386,
    1385,
    1387,
    1387,
    1385,
    1385,
    1384,
    1385,
    1387,
    1386,
    1384,
    1388,
    1387,
    1383,
    1388,
    1383,
    1388,
    1386,
    1383,
    1387,
    1386,
    1387,
    1385,
    1386,
    1386,
    1385,
    1384,
    1383,
    1384,
    1385,
    1385,
    1388,
    1388,
    1384,
    1384,
    1165,
    1386,
    1386,
    747,
    748,
    1182,
    731,
    732,
    1386,
    1387,
    1386,
    1387,
    1386,
    1388,
    1386,
    1383,
    1385,
    1386,
    1384,
    1383,
    1384,
    1388,
    1384,
    1385,
    1386,
    1387,
    1383,
    1387,
    1385,
    1387,
    1387,
    1383,
    1388,
    1387,
    1384,
    1388,
    1386,
    1383,
    1383,
    1385,
    1386,
    731,
    732,
    733,
    1147,
    1147,
    1092,
    32,
    798,
    799,
    1105,
    1106,
    1388,
    1387,
    1108,
    1109,
    904,
    905,
    906,
    1122,
    1123,
    1124,
    1122,
    1386,
    1383,
    1387,
    1108,
    1,
    785,
    786,
    787,
    1,
    1,
    3,
    3,
    1089,
    1386,
    1385,
    1385,
    1383,
    1385,
    1385,
    1384,
    1386,
    1386,
    1386,
    1387,
    1385,
    1386,
    1387,
    1387,
    1386,
    1388,
    1385,
    1388,
    1388,
    1384,
    1384,
    1387,
    1385,
    1385,
    1387,
    1385,
    1383,
    1385,
    1388,
    1385,
    1387,
    1383,
    1384,
    1383,
    1383,
    1384,
    1385,
    1386,
    1387,
    1388,
    1383,
    1385,
    1384,
    1387,
    1388,
    1384,
    1383,
    1383,
    1386,
    1388,
    1388,
    1383,
    1387,
    1388,
    1384,
    1150,
    1151,
    747,
    748,
    1384,
    1384,
    1386,
    1386,
    1385,
    1386,
    1386,
    1386,
    1386,
    1388,
    1385,
    1386,
    1386,
    1388,
    1387,
    1387,
    1383,
    1383,
    1385,
    1384,
    1384,
    1385,
    1384,
    1386,
    1388,
    1385,
    1165,
    1386,
    1386,
    1387,
    1384,
    1388,
    1387,
    747,
    748,
    1148,
    731,
    732,
    1108,
    1,
    814,
    815,
    1105,
    1106,
    1385,
    1383,
    1384,
    1092,
    7,
    1390,
    1391,
    1392,
    875,
    876,
    877,
    1121,
    1387,
    1163,
    1108,
    7,
    801,
    802,
    803,
    5,
    5,
    2,
    1090,
    1386,
    1386,
    1383,
    1383,
    1384,
    1384,
    1385,
    1385,
    1388,
    1385,
    1386,
    1386,
    1384,
    1386,
    1387,
    1387,
    1388,
    1387,
    1383,
    1386,
    1388,
    1384,
    1387,
    1388,
    1388,
    1386,
    1383,
    1386,
    1385,
    1388,
    1384,
    1384,
    1164,
    1383,
    1386,
    1387,
    1386,
    1388,
    1387,
    1383,
    1388,
    1385,
    1386,
    1383,
    1386,
    1384,
    1384,
    1383,
    1388,
    1385,
    1385,
    1385,
    1383,
    1384,
    1384,
    1387,
    1383,
    1166,
    1167,
    1385,
    1182,
    1383,
    1383,
    1387,
    1388,
    1384,
    1387,
    1385,
    1384,
    1386,
    1387,
    1383,
    1383,
    1385,
    1387,
    1386,
    1387,
    1384,
    1384,
    1383,
    1384,
    1383,
    1386,
    1384,
    1383,
    1385,
    1388,
    1384,
    1384,
    1385,
    1388,
    1386,
    1387,
    1387,
    733,
    1387,
    1147,
    747,
    748,
    1124,
    2,
    830,
    831,
    2,
    1122,
    1164,
    1387,
    1213,
    1108,
    14,
    1406,
    1407,
    1408,
    891,
    892,
    893,
    1105,
    1106,
    1383,
    1124,
    1,
    817,
    818,
    819,
    1,
    839,
    840,
    1106,
    1163,
    1388,
    1388,
    1384,
    1384,
    1384,
    1386,
    1383,
    1384,
    1388,
    1383,
    1388,
    1387,
    1385,
    1387,
    1387,
    1387,
    1385,
    1387,
    1383,
    1383,
    1388,
    1387,
    1387,
    1386,
    1387,
    1388,
    1388,
    1385,
    1387,
    1384,
    1386,
    1384,
    1385,
    1386,
    1387,
    1387,
    1383,
    1383,
    1384,
    1387,
    1387,
    1384,
    1385,
    1384,
    1384,
    1387,
    1385,
    1384,
    1383,
    1383,
    1385,
    1383,
    1384,
    1388,
    1387,
    1388,
    1387,
    1383,
    1388,
    1387,
    1386,
    1383,
    1383,
    1386,
    1383,
    1386,
    1388,
    1384,
    1388,
    1384,
    1387,
    1384,
    1388,
    1387,
    1388,
    1388,
    1384,
    1384,
    1387,
    1387,
    1388,
    1388,
    1387,
    1385,
    1385,
    1386,
    1386,
    1385,
    1386,
    1385,
    1388,
    1383,
    1384,
    1182,
    1148,
    733,
    1148,
    733,
    1092,
    3,
    798,
    799,
    7,
    1090,
    1383,
    1386,
    1388,
    1388,
    1092,
    1,
    1423,
    1424,
    907,
    908,
    909,
    910,
    1122,
    1124,
    15,
    16,
    817,
    818,
    819,
    849,
    855,
    856,
    1122,
    1386,
    1387,
    1388,
    1383,
    1387,
    1388,
    1388,
    1388,
    1388,
    1387,
    1386,
    1388,
    1383,
    1386,
    1388,
    1386,
    1388,
    1388,
    1383,
    1388,
    1386,
    1386,
    1385,
    1383,
    1385,
    1388,
    1384,
    1383,
    1383,
    1387,
    1386,
    1386,
    1387,
    1386,
    1387,
    1388,
    1388,
    1384,
    1384,
    1386,
    1386,
    1386,
    1386,
    1386,
    1386,
    1387,
    1385,
    1384,
    1384,
    1386,
    1385,
    1386,
    1388,
    1384,
    1384,
    1386,
    1387,
    1387,
    1383,
    1388,
    1387,
    1387,
    1384,
    1383,
    1384,
    1388,
    1385,
    1387,
    1387,
    1384,
    1383,
    1388,
    1386,
    1388,
    1388,
    1383,
    1387,
    1384,
    1388,
    1386,
    1385,
    1387,
    1387,
    1385,
    1388,
    1383,
    1385,
    1388,
    1384,
    1383,
    1383,
    1385,
    1387,
    1384,
    1383,
    731,
    732,
    1147,
    1182,
    1108,
    1109,
    814,
    815,
    1105,
    1106,
    1383,
    1385,
    1163,
    1383,
    1387,
    1091,
    1091,
    1091,
    1092,
    924,
    925,
    926,
    1,
    1,
    1152,
    32,
    796,
    797,
    3,
    5,
    785,
    786,
    787,
    1106,
    1384,
    1385,
    1385,
    1388,
    1384,
    1387,
    1383,
    1387,
    1387,
    1388,
    1383,
    1387,
    1383,
    1383,
    1385,
    1385,
    1387,
    1383,
    1388,
    1385,
    1384,
    1384,
    1387,
    1385,
    1384,
    1388,
    1383,
    1386,
    1383,
    1384,
    1387,
    1384,
    1388,
    1383,
    1383,
    1387,
    1384,
    1383,
    1383,
    1385,
    1383,
    1387,
    1387,
    1387,
    1388,
    1388,
    1387,
    1385,
    1386,
    1387,
    1383,
    1385,
    1386,
    1385,
    1387,
    1384,
    1385,
    1387,
    1383,
    1384,
    1383,
    1388,
    1383,
    1386,
    1165,
    1386,
    1385,
    1385,
    1386,
    1383,
    1388,
    1383,
    1385,
    1386,
    1386,
    1387,
    1385,
    1388,
    1387,
    1387,
    1384,
    1165,
    1383,
    1383,
    1385,
    1383,
    1386,
    1384,
    1388,
    1384,
    1383,
    1385,
    1387,
    1384,
    747,
    748,
    1387,
    1182,
    1108,
    1109,
    830,
    831,
    4,
    1122,
    1387,
    1387,
    1387,
    1387,
    1386,
    1163,
    1386,
    1383,
    1164,
    1092,
    1390,
    1391,
    1392,
    793,
    794,
    795,
    812,
    813,
    6,
    3,
    801,
    802,
    803,
    1122,
    1388,
    1388,
    1387,
    1385,
    1388,
    1384,
    1384,
    1386,
    1384,
    1383,
    1385,
    1388,
    1388,
    1387,
    1383,
    1383,
    1385,
    1387,
    1386,
    1384,
    1383,
    1386,
    1387,
    1385,
    1388,
    1387,
    1385,
    1387,
    1388,
    1384,
    1385,
    1384,
    1385,
    1386,
    1387,
    1383,
    1387,
    1386,
    1384,
    1384,
    1383,
    1383,
    1386,
    1384,
    1384,
    1383,
    1384,
    1384,
    1383,
    1385,
    1384,
    1383,
    1388,
    1383,
    1387,
    1387,
    1385,
    1384,
    1387,
    1387,
    1385,
    1386,
    1386,
    1383,
    1388,
    1386,
    1388,
    1385,
    1388,
    1386,
    1385,
    1385,
    1387,
    1383,
    1387,
    1387,
    1385,
    1388,
    1384,
    1165,
    1388,
    1388,
    1387,
    1388,
    1384,
    1386,
    1383,
    1387,
    1388,
    1386,
    1385,
    1387,
    1182,
    1385,
    1386,
    1147,
    1197,
    1198,
    1383,
    1092,
    871,
    872,
    873,
    1105,
    1106,
    1388,
    1384,
    1388,
    1383,
    1386,
    1385,
    1384,
    1385,
    1108,
    1109,
    1407,
    1408,
    809,
    810,
    811,
    828,
    7,
    1,
    1,
    817,
    818,
    819,
    1090,
    1386,
    1388,
    1385,
    1387,
    1388,
    1387,
    1386,
    1387,
    1386,
    1388,
    1387,
    1383,
    1386,
    1387,
    1388,
    1388,
    1386,
    1386,
    1388,
    1388,
    1384,
    1385,
    1385,
    1388,
    1386,
    1383,
    1385,
    1387,
    1387,
    1385,
    1384,
    1385,
    1385,
    1383,
    1384,
    1386,
    1383,
    1388,
    1384,
    1387,
    1388,
    1388,
    1386,
    1383,
    1383,
    1383,
    1388,
    1385,
    1385,
    1383,
    1384,
    1386,
    1387,
    1385,
    1164,
    1386,
    1386,
    1383,
    1387,
    1384,
    1386,
    1383,
    1384,
    1385,
    1387,
    1383,
    1385,
    1388,
    1387,
    1388,
    1383,
    1387,
    1388,
    1386,
    1385,
    1388,
    1383,
    1383,
    1387,
    1386,
    1383,
    1383,
    1386,
    1164,
    1387,
    1383,
    1388,
    1388,
    1383,
    1385,
    1384,
    1387,
    1383,
    1388,
    1383,
    1182,
    1213,
    1214,
    1147,
    1108,
    1109,
    888,
    889,
    890,
    1106,
    1165,
    1386,
    1383,
    1385,
    1387,
    1386,
    1385,
    1388,
    1383,
    1092,
    1423,
    1424,
    825,
    826,
    827,
    1,
    3,
    2,
    7,
    796,
    797,
    1090,
    1164,
    1385,
    1385,
    1388,
    1383,
    1386,
    1386,
    1388,
    1386,
    1384,
    1384,
    1386,
    1387,
    1384,
    1386,
    1386,
    1383,
    1386,
    1388,
    1383,
    1384,
    1386,
    1385,
    1384,
    1384,
    1386,
    1388,
    1388,
    1386,
    1388,
    1388,
    1385,
    1385,
    1383,
    1383,
    1387,
    1386,
    1385,
    1385,
    1386,
    1386,
    1383,
    1387,
    1383,
    1383,
    1388,
    1383,
    1386,
    1388,
    1383,
    1386,
    1388,
    1385,
    1386,
    1384,
    1386,
    1385,
    1387,
    1388,
    1387,
    1387,
    1385,
    1385,
    1388,
    1385,
    1383,
    1383,
    1388,
    1386,
    1384,
    1386,
    1388,
    1383,
    1387,
    1387,
    1383,
    1383,
    1388,
    1388,
    1384,
    1383,
    1387,
    1387,
    1163,
    1386,
    1383,
    1386,
    1386,
    1386,
    1385,
    1385,
    1383,
    1385,
    1386,
    1383,
    1197,
    1198,
    1147,
    731,
    732,
    1108,
    1109,
    904,
    905,
    906,
    1122,
    1123,
    1124,
    1122,
    1386,
    1387,
    1383,
    1387,
    1383,
    1384,
    1385,
    1091,
    1092,
    6,
    1,
    3,
    3,
    2,
    2,
    1389,
    812,
    813,
    1106,
    1387,
    1388,
    1387,
    1383,
    1387,
    1386,
    1387,
    1387,
    1383,
    1386,
    1383,
    1388,
    1384,
    1386,
    1384,
    1385,
    1384,
    1385,
    1385,
    1384,
    1383,
    1383,
    1388,
    1388,
    1386,
    1383,
    1384,
    1384,
    1383,
    1388,
    1388,
    1388,
    1388,
    1386,
    1383,
    1386,
    1386,
    1384,
    1383,
    1384,
    1385,
    1387,
    1385,
    1386,
    1388,
    1387,
    1387,
    1383,
    1386,
    1383,
    1387,
    1386,
    1383,
    1388,
    1388,
    1384,
    1386,
    1386,
    1383,
    1385,
    1387,
    1387,
    1383,
    1386,
    1386,
    1385,
    1385,
    1388,
    1384,
    1383,
    1383,
    1384,
    1383,
    1384,
    1383,
    1383,
    1383,
    1386,
    1383,
    1383,
    1386,
    1385,
    1386,
    1385,
    1384,
    1388,
    1383,
    1385,
    1387,
    1383,
    1387,
    1384,
    1388,
    1388,
    1386,
    1213,
    1214,
    1388,
    747,
    748,
    1163,
    1092,
    7,
    1390,
    1391,
    1392,
    875,
    876,
    877,
    1121,
    1386,
    1383,
    1388,
    1387,
    1385,
    1123,
    1123,
    1124,
    1,
    4,
    1023,
    1024,
    3,
    5,
    1405,
    828,
    1090,
    1182,
    1384,
    1147,
    1384,
    1387,
    1388,
    1388,
    1385,
    1384,
    1385,
    1385,
    1386,
    1387,
    1384,
    1386,
    1383,
    1386,
    1386,
    1388,
    1388,
    1387,
    1387,
    1388,
    1384,
    1385,
    1384,
    1386,
    1388,
    1388,
    1386,
    1383,
    1386,
    1387,
    1387,
    1384,
    1384,
    1386,
    1388,
    1385,
    1386,
    1387,
    1385,
    1386,
    1386,
    1385,
    1388,
    1388,
    1386,
    1388,
    1385,
    1386,
    1388,
    1388,
    1386,
    1388,
    1383,
    1383,
    1384,
    1385,
    1388,
    1386,
    1388,
    1386,
    1388,
    1385,
    1386,
    1385,
    1383,
    1384,
    1385,
    1388,
    1384,
    1384,
    1388,
    1164,
    1387,
    1385,
    1385,
    1383,
    1385,
    1388,
    1385,
    1388,
    1383,
    1386,
    1383,
    1384,
    1388,
    1388,
    1386,
    1383,
    1384,
    1386,
    1388,
    1386,
    731,
    732,
    1147,
    1182,
    1387,
    1147,
    1197,
    1198,
    1092,
    1406,
    1407,
    1408,
    891,
    892,
    893,
    1105,
    1106,
    1163,
    1385,
    1123,
    1124,
    791,
    792,
    793,
    794,
    795,
    1039,
    1040,
    1090,
    1092,
    1421,
    1105,
    1106,
    1383,
    1165,
    1387,
    1383,
    1388,
    1386,
    1384,
    1385,
    1383,
    1387,
    1388,
    1386,
    1383,
    1385,
    1385,
    1385,
    1388,
    1384,
    1385,
    1386,
    1385,
    1386,
    1388,
    1383,
    1386,
    1384,
    1383,
    1384,
    1385,
    1384,
    1385,
    1386,
    1385,
    1387,
    1385,
    1387,
    1384,
    1388,
    1387,
    1384,
    1388,
    1386,
    1384,
    1165,
    1385,
    1383,
    1386,
    1383,
    1385,
    1385,
    1384,
    1388,
    1386,
    1384,
    1387,
    1383,
    1387,
    1383,
    1163,
    1388,
    1385,
    1385,
    1387,
    1386,
    1388,
    1383,
    1386,
    1388,
    1386,
    1383,
    1385,
    1383,
    1383,
    1383,
    1386,
    1388,
    1388,
    1387,
    1383,
    1387,
    1383,
    1385,
    1384,
    1384,
    1387,
    1386,
    1384,
    1386,
    1386,
    1383,
    1386,
    1387,
    1383,
    1383,
    1383,
    747,
    748,
    1385,
    1197,
    1198,
    927,
    1213,
    1214,
    1387,
    1093,
    1423,
    1424,
    907,
    908,
    909,
    910,
    1106,
    1388,
    1124,
    866,
    867,
    807,
    808,
    809,
    810,
    811,
    1055,
    1089,
    1388,
    1385,
    1093,
    1090,
    731,
    732,
    1384,
    1388,
    1385,
    1386,
    1387,
    1387,
    1387,
    1386,
    1388,
    1386,
    1384,
    1383,
    1384,
    1384,
    1383,
    1386,
    1388,
    1383,
    1164,
    1387,
    1385,
    1387,
    1388,
    1384,
    1385,
    1386,
    1387,
    1388,
    1388,
    1383,
    1385,
    1386,
    1387,
    1388,
    1388,
    1388,
    1386,
    1383,
    1386,
    1387,
    1383,
    1386,
    1383,
    1387,
    1386,
    1388,
    1385,
    1387,
    1383,
    1385,
    1385,
    1385,
    1388,
    1384,
    1386,
    1384,
    1384,
    1385,
    1384,
    1388,
    1384,
    1387,
    1383,
    1384,
    1387,
    1384,
    1385,
    1384,
    1385,
    1384,
    1385,
    1383,
    1385,
    1165,
    1383,
    1385,
    1388,
    1385,
    1386,
    1388,
    1388,
    1386,
    1388,
    1384,
    1386,
    1383,
    1384,
    1384,
    1387,
    1383,
    1165,
    1384,
    1388,
    1385,
    1385,
    1182,
    1147,
    1213,
    1214,
    1147,
    1383,
    1182,
    1385,
    1388,
    1091,
    1091,
    1092,
    924,
    925,
    926,
    1122,
    1124,
    881,
    882,
    883,
    823,
    824,
    825,
    826,
    827,
    1090,
    1387,
    1165,
    1386,
    1147,
    1165,
    747,
    748,
    1388,
    1384,
    1387,
    1383,
    1387,
    1387,
    1386,
    1386,
    1388,
    1388,
    1388,
    1385,
    1385,
    1387,
    1388,
    1386,
    1384,
    1130,
    1127,
    1130,
    1126,
    1163,
    1147,
    1386,
    1383,
    1388,
    1383,
    1387,
    1383,
    1384,
    1384,
    1385,
    1385,
    1387,
    1383,
    1383,
    1385,
    1383,
    1388,
    1387,
    1386,
    1388,
    1383,
    1383,
    1388,
    1385,
    1385,
    1385,
    1384,
    1385,
    1384,
    1387,
    1386,
    1385,
    1388,
    1385,
    1385,
    1385,
    1387,
    1384,
    1385,
    1385,
    1385,
    1385,
    1384,
    1384,
    1384,
    1383,
    1388,
    1385,
    1384,
    1383,
    1385,
    1384,
    1384,
    1388,
    1385,
    1383,
    1387,
    1383,
    1385,
    1387,
    1383,
    1388,
    1384,
    1387,
    1383,
    1165,
    1383,
    1388,
    1387,
    1386,
    1386,
    1388,
    1386,
    1197,
    1198,
    1147,
    731,
    732,
    1150,
    1151,
    1197,
    1198,
    1147,
    1150,
    1151,
    1092,
    1390,
    1391,
    1392,
    795,
    897,
    898,
    899,
    1090,
    1091,
    1091,
    1091,
    1091,
    1388,
    1387,
    1388,
    1386,
    1388,
    1383,
    1383,
    1384,
    1388,
    1384,
    1383,
    1383,
    1386,
    1388,
    1385,
    1385,
    1385,
    1384,
    1383,
    1388,
    1386,
    1385,
    1383,
    1384,
    1165,
    1114,
    12,
    1086,
    1087,
    1127,
    1388,
    1387,
    1383,
    1387,
    1386,
    1386,
    1385,
    1386,
    1386,
    1387,
    1388,
    1384,
    1388,
    1386,
    1386,
    1383,
    1385,
    1385,
    1388,
    1385,
    1384,
    1385,
    1383,
    1388,
    1383,
    1388,
    1165,
    1384,
    1387,
    1386,
    1386,
    1383,
    1387,
    1386,
    1383,
    1387,
    1386,
    1383,
    1387,
    1387,
    1385,
    1383,
    1388,
    1385,
    1388,
    1384,
    1385,
    1383,
    1383,
    1388,
    1386,
    1384,
    1388,
    1383,
    1388,
    1383,
    1388,
    1383,
    1386,
    1385,
    1386,
    1164,
    1387,
    1387,
    1385,
    1383,
    1123,
    1386,
    1383,
    1387,
    1387,
    1386,
    1386,
    1213,
    1214,
    1182,
    747,
    748,
    1166,
    1167,
    1213,
    1214,
    1388,
    1166,
    1167,
    1388,
    1092,
    1407,
    1408,
    811,
    913,
    914,
    1090,
    731,
    732,
    1385,
    11,
    1182,
    1385,
    1386,
    1384,
    1386,
    1384,
    1388,
    1383,
    1386,
    1387,
    1383,
    1386,
    1385,
    1384,
    1387,
    1385,
    1384,
    1386,
    1384,
    1388,
    1384,
    1383,
    1386,
    1387,
    1385,
    1384,
    1098,
    1086,
    1087,
    1117,
    1087,
    1126,
    1387,
    1388,
    1386,
    1384,
    1384,
    1385,
    1384,
    1386,
    1387,
    1383,
    1384,
    1384,
    1388,
    1383,
    1383,
    1386,
    1388,
    1384,
    1384,
    1388,
    1386,
    1383,
    1388,
    1388,
    1386,
    1385,
    1164,
    1388,
    1384,
    1387,
    1383,
    1386,
    1383,
    1388,
    1386,
    1384,
    1383,
    1388,
    1384,
    1384,
    1383,
    1383,
    1383,
    1384,
    1386,
    1385,
    1387,
    1387,
    1387,
    1383,
    1384,
    1388,
    1386,
    1383,
    1388,
    1386,
    1384,
    1383,
    1388,
    1387,
    1384,
    1125,
    1121,
    1388,
    1125,
    15,
    1386,
    1383,
    1386,
    1388,
    1384,
    1384,
    1385,
    1383,
    1150,
    1151,
    1147,
    1197,
    1198,
    1386,
    1383,
    1385,
    1386,
    1383,
    1386,
    1108,
    1423,
    1424,
    827,
    1090,
    1091,
    1388,
    747,
    748,
    1197,
    1198,
    1150,
    1151,
    1383,
    1385,
    1386,
    1384,
    1385,
    1383,
    1387,
    1385,
    1387,
    1383,
    1388,
    1383,
    1387,
    1387,
    1386,
    1384,
    1387,
    1384,
    1388,
    1388,
    1387,
    1385,
    1384,
    1388,
    1386,
    1098,
    1117,
    1086,
    1087,
    1110,
    1165,
    1384,
    1385,
    1388,
    1387,
    1387,
    1388,
    1386,
    1386,
    1383,
    1385,
    1385,
    1385,
    1386,
    1386,
    1388,
    1383,
    1385,
    1383,
    1386,
    1388,
    1388,
    1387,
    1385,
    1386,
    1383,
    1123,
    1123,
    1387,
    1384,
    1384,
    1384,
    1386,
    1384,
    1164,
    1383,
    1386,
    1383,
    1386,
    1388,
    1383,
    1383,
    1383,
    1385,
    1385,
    1384,
    1385,
    1386,
    1384,
    1384,
    1387,
    1384,
    1388,
    1165,
    1388,
    1383,
    1387,
    1388,
    1388,
    1387,
    1384,
    1093,
    1089,
    1124,
    15,
    16,
    1386,
    1386,
    1387,
    1383,
    1387,
    1385,
    1383,
    1384,
    1166,
    1167,
    1385,
    1213,
    1214,
    1182,
    1384,
    1386,
    1147,
    1199,
    1200,
    1385,
    1093,
    1,
    1089,
    1388,
    1182,
    1199,
    1200,
    10,
    1213,
    1214,
    1166,
    1167,
    1385,
    1387,
    1384,
    1386,
    1384,
    1385,
    1388,
    1386,
    1388,
    1384,
    1383,
    1383,
    1386,
    1388,
    1386,
    1385,
    1386,
    1384,
    1383,
    1387,
    1386,
    1388,
    1388,
    1383,
    1386,
    1384,
    1097,
    1117,
    1117,
    1117,
    1126,
    1385,
    1388,
    1386,
    1388,
    1385,
    1388,
    1385,
    1388,
    1386,
    1386,
    1386,
    1388,
    1384,
    1387,
    1384,
    1388,
    1383,
    1384,
    1383,
    1386,
    1384,
    1385,
    1384,
    1388,
    1125,
    5,
    1,
    1121,
    1384,
    1388,
    1384,
    1387,
    1387,
    1384,
    1385,
    1387,
    1383,
    1386,
    1384,
    1385,
    1386,
    1386,
    1388,
    1383,
    1383,
    1387,
    1383,
    1383,
    1383,
    1388,
    1383,
    1385,
    1388,
    1385,
    1385,
    1386,
    1388,
    1387,
    1384,
    1387,
    1123,
    1124,
    7,
    31,
    32,
    1383,
    1386,
    1385,
    1384,
    1384,
    1384,
    1388,
    1383,
    1387,
    1385,
    1383,
    1388,
    1384,
    1383,
    1387,
    1388,
    1387,
    1215,
    1216,
    1384,
    1384,
    1091,
    1386,
    1384,
    1387,
    1215,
    1216,
    1385,
    731,
    732,
    1182,
    1385,
    1386,
    1165,
    1386,
    1386,
    1385,
    1388,
    1388,
    1387,
    1386,
    1384,
    1384,
    1385,
    1386,
    1384,
    1385,
    1387,
    1385,
    1383,
    1383,
    1384,
    1386,
    1384,
    1388,
    10,
    1384,
    1383,
    1163,
    1114,
    1086,
    1196,
    1094,
    1386,
    1383,
    1386,
    1386,
    1384,
    1384,
    1386,
    1163,
    1385,
    1387,
    1388,
    1387,
    1383,
    1388,
    1388,
    1385,
    1385,
    1388,
    1385,
    1386,
    1387,
    1383,
    1165,
    1124,
    2,
    5,
    2,
    3,
    1122,
    1384,
    1165,
    1383,
    1387,
    1388,
    1383,
    1386,
    1383,
    1387,
    1386,
    1386,
    1383,
    1383,
    1383,
    1383,
    1384,
    1384,
    1386,
    1388,
    1384,
    1387,
    1385,
    1384,
    1385,
    1387,
    1387,
    1388,
    1388,
    1386,
    1165,
    1124,
    5,
    4,
    3,
    3,
    6,
    1386,
    1387,
    1388,
    1384,
    1386,
    1388,
    1387,
    1163,
    1388,
    1385,
    1388,
    1386,
    1384,
    1387,
    1386,
    1385,
    1385,
    1385,
    1384,
    1384,
    1384,
    1385,
    1385,
    1147,
    731,
    732,
    1383,
    1182,
    747,
    748,
    1385,
    1383,
    1383,
    1387,
    1388,
    1388,
    1386,
    1388,
    1384,
    1384,
    1386,
    1388,
    1388,
    1385,
    1385,
    1386,
    1384,
    1383,
    1383,
    1387,
    1386,
    1387,
    1386,
    1388,
    1387,
    1383,
    1386,
    1383,
    1164,
    1098,
    1080,
    1095,
    1163,
    1384,
    1384,
    1387,
    1385,
    1388,
    1388,
    1385,
    1384,
    1383,
    1383,
    1385,
    1385,
    1386,
    1388,
    1386,
    1385,
    1383,
    1383,
    1383,
    1385,
    1385,
    1387,
    1125,
    1,
    1,
    7,
    2,
    1,
    6,
    1122,
    1123,
    1123,
    1384,
    1388,
    1386,
    1383,
    1385,
    1386,
    1386,
    1388,
    1386,
    1384,
    1384,
    1386,
    1385,
    1383,
    1164,
    1386,
    1385,
    1384,
    1385,
    1387,
    1385,
    1182,
    1388,
    1388,
    1385,
    1147,
    1108,
    4,
    1152,
    6,
    7,
    7,
    2,
    1384,
    1385,
    1383,
    1383,
    1383,
    1386,
    1387,
    1386,
    1385,
    1384,
    1165,
    1385,
    1386,
    1383,
    1383,
    1387,
    1383,
    1387,
    1383,
    1163,
    1383,
    1383,
    1384,
    1384,
    747,
    748,
    1197,
    1198,
    1164,
    1147,
    1385,
    1147,
    1386,
    1385,
    1383,
    1388,
    1383,
    1163,
    1386,
    1387,
    1385,
    1383,
    1385,
    1386,
    1384,
    1386,
    1385,
    1384,
    1388,
    1385,
    1387,
    1385,
    1383,
    1388,
    1386,
    1388,
    1383,
    1387,
    1384,
    1383,
    1096,
    1386,
    1386,
    1386,
    1385,
    1386,
    1386,
    1386,
    1383,
    1383,
    1388,
    1388,
    1386,
    1385,
    1385,
    1384,
    1383,
    1387,
    1384,
    1386,
    1385,
    1384,
    1386,
    1165,
    1108,
    7,
    6,
    6,
    3,
    1,
    3,
    7,
    4,
    3,
    6,
    1121,
    1385,
    1383,
    1384,
    1384,
    1385,
    1385,
    1383,
    1385,
    1383,
    1388,
    1163,
    1384,
    1388,
    1386,
    1388,
    1387,
    1147,
    1383,
    1386,
    1386,
    1383,
    1386,
    1147,
    1182,
    1386,
    1124,
    5,
    7,
    1,
    2,
    1,
    2,
    1386,
    1387,
    1388,
    1387,
    1386,
    1386,
    1383,
    1388,
    1383,
    1388,
    1386,
    1384,
    1388,
    1383,
    1388,
    1386,
    1388,
    1383,
    1383,
    1386,
    1388,
    1385,
    1385,
    1385,
    1383,
    1388,
    1213,
    1214,
    1385,
    1387,
    1385,
    1386,
    1385,
    1383,
    1386,
    1387,
    1388,
    1386,
    1388,
    1383,
    1387,
    1386,
    1385,
    1387,
    1385,
    1388,
    1385,
    1387,
    1388,
    1388,
    1383,
    1383,
    1383,
    1384,
    1387,
    1384,
    1384,
    1383,
    1383,
    1387,
    1383,
    1384,
    1387,
    1388,
    1386,
    1387,
    1384,
    1383,
    1385,
    1384,
    1385,
    1384,
    1385,
    1388,
    1383,
    1386,
    1387,
    1386,
    1387,
    1386,
    1386,
    1163,
    1123,
    1123,
    1124,
    3,
    1100,
    1101,
    1102,
    7,
    1,
    2,
    7,
    5,
    1,
    1001,
    1122,
    1383,
    1387,
    1386,
    1383,
    1387,
    1385,
    1386,
    1388,
    1123,
    1123,
    1123,
    1386,
    1384,
    1125,
    1121,
    1385,
    1165,
    731,
    732,
    1164,
    1197,
    1198,
    1385,
    1108,
    1109,
    4,
    2,
    7,
    2,
    6,
    1,
    1383,
    1386,
    1386,
    1386,
    1383,
    1387,
    1388,
    1386,
    1386,
    1388,
    1384,
    1385,
    1164,
    1387,
    1387,
    1384,
    1386,
    1385,
    1383,
    1383,
    1386,
    1384,
    1383,
    1387,
    1388,
    1386,
    1388,
    1388,
    1384,
    1383,
    1383,
    1164,
    1384,
    1383,
    1385,
    1387,
    1387,
    1387,
    1384,
    1383,
    1387,
    1387,
    1387,
    1386,
    1386,
    1384,
    1385,
    1386,
    1385,
    1388,
    1386,
    1385,
    1385,
    1385,
    1384,
    1386,
    1386,
    1384,
    1388,
    1384,
    1384,
    1385,
    1383,
    1383,
    1388,
    1384,
    1383,
    1388,
    1384,
    1388,
    1387,
    1388,
    1388,
    1386,
    1387,
    1386,
    1388,
    1383,
    1386,
    1386,
    1123,
    1124,
    15,
    16,
    1,
    1100,
    1117,
    1086,
    1087,
    1102,
    1104,
    1099,
    1101,
    1102,
    1085,
    3,
    1,
    1121,
    1387,
    1388,
    1387,
    1384,
    1164,
    1384,
    1125,
    4,
    16,
    1152,
    1122,
    1124,
    3,
    4,
    1122,
    1147,
    747,
    748,
    1182,
    1213,
    1214,
    927,
    1124,
    4,
    7,
    2,
    3,
    5,
    4,
    1,
    1388,
    1388,
    1387,
    1388,
    1387,
    1384,
    1384,
    1385,
    1383,
    1384,
    1387,
    1384,
    1388,
    1385,
    1383,
    1386,
    1384,
    1386,
    1385,
    1384,
    1386,
    1387,
    1384,
    1383,
    1383,
    1383,
    1383,
    1385,
    1387,
    1388,
    1385,
    1385,
    1383,
    1383,
    1388,
    1388,
    1383,
    1386,
    1385,
    1383,
    1385,
    1387,
    1386,
    1386,
    1386,
    1387,
    1387,
    1383,
    1383,
    1386,
    1388,
    1384,
    1387,
    1388,
    1386,
    1387,
    1385,
    1388,
    1383,
    1387,
    1386,
    1388,
    1386,
    1387,
    1385,
    1385,
    1385,
    1385,
    1387,
    1387,
    1383,
    1386,
    1383,
    1388,
    1385,
    1387,
    1383,
    1165,
    1387,
    1124,
    7,
    2,
    31,
    32,
    1100,
    1086,
    1087,
    1086,
    12,
    1117,
    1101,
    1117,
    1117,
    1117,
    1101,
    1102,
    1,
    1,
    1122,
    1383,
    1385,
    1387,
    1385,
    1124,
    1,
    31,
    32,
    4,
    1104,
    4,
    15,
    16,
    4,
    1121,
    1147,
    1150,
    1151,
    731,
    732,
    1108,
    1109,
    1,
    3,
    5,
    5,
    15,
    16,
    13,
    1385,
    1383,
    1388,
    1387,
    1383,
    1384,
    1384,
    1386,
    1387,
    1385,
    1385,
    1388,
    1387,
    1386,
    1385,
    1384,
    1383,
    1387,
    1383,
    1164,
    1383,
    1385,
    1388,
    1385,
    1165,
    1385,
    1384,
    1384,
    1386,
    1387,
    1383,
    1386,
    1384,
    1387,
    1386,
    1388,
    1387,
    1386,
    1385,
    1384,
    1387,
    1383,
    1385,
    1387,
    1385,
    1385,
    1388,
    1383,
    1385,
    1388,
    1386,
    1383,
    1388,
    1387,
    1385,
    1386,
    1383,
    1386,
    1387,
    1387,
    1388,
    1388,
    1387,
    1383,
    1384,
    1388,
    1388,
    1383,
    1383,
    1388,
    1383,
    1386,
    1387,
    1383,
    1385,
    1384,
    1387,
    1123,
    1124,
    4,
    1,
    7,
    3,
    1099,
    1086,
    1087,
    1087,
    1117,
    1117,
    1117,
    1117,
    1080,
    1117,
    1117,
    1095,
    1096,
    1092,
    1,
    1105,
    1106,
    1388,
    1385,
    1386,
    1093,
    1,
    15,
    7,
    15,
    4,
    4,
    31,
    32,
    1152,
    1089,
    1163,
    1166,
    1167,
    747,
    748,
    1387,
    1092,
    1104,
    3,
    7,
    4,
    31,
    32,
    5,
    1387,
    1386,
    1386,
    1386,
    1387,
    1386,
    1386,
    1388,
    1384,
    1384,
    1385,
    1386,
    1383,
    1182,
    1387,
    1385,
    1388,
    1388,
    1388,
    1383,
    1383,
    1386,
    1384,
    1384,
    1385,
    1385,
    1384,
    1383,
    1383,
    1385,
    1387,
    1388,
    1388,
    1388,
    1386,
    1385,
    1384,
    1385,
    1384,
    1388,
    1387,
    1385,
    1387,
    1388,
    1385,
    1388,
    1385,
    1387,
    1386,
    1388,
    1387,
    1385,
    1387,
    1383,
    1386,
    1384,
    1383,
    1387,
    1385,
    1386,
    1388,
    1385,
    1385,
    1385,
    1385,
    1383,
    1388,
    1388,
    1387,
    1385,
    1387,
    1388,
    1386,
    1386,
    1387,
    1387,
    1124,
    15,
    16,
    2,
    1,
    4,
    1100,
    1086,
    1083,
    1117,
    1117,
    1117,
    1196,
    1180,
    1094,
    1096,
    1097,
    1095,
    1383,
    1163,
    1385,
    1093,
    1089,
    1384,
    1384,
    1385,
    1385,
    1388,
    1093,
    31,
    32,
    47,
    32,
    3,
    4,
    3,
    1090,
    1197,
    1198,
    731,
    732,
    1147,
    1199,
    1200,
    1108,
    4,
    3,
    1,
    5,
    7,
    2,
    1,
    1384,
    1385,
    1388,
    1386,
    1385,
    1388,
    1383,
    1387,
    1386,
    1384,
    1182,
    11,
    1386,
    1384,
    1387,
    1384,
    1386,
    1388,
    1383,
    1388,
    1385,
    1388,
    1387,
    1383,
    1384,
    1385,
    1386,
    1386,
    1383,
    1387,
    1387,
    1383,
    1388,
    1383,
    1385,
    1385,
    1385,
    1386,
    1387,
    1385,
    1384,
    1383,
    1388,
    1388,
    1385,
    1385,
    1387,
    1388,
    1386,
    1387,
    1386,
    1388,
    1383,
    1385,
    1387,
    1383,
    1384,
    1383,
    1385,
    1383,
    1385,
    1383,
    1385,
    1388,
    1383,
    1383,
    1385,
    1386,
    1384,
    1388,
    1384,
    1388,
    1383,
    1385,
    1383,
    1124,
    1,
    31,
    1,
    6,
    7,
    1115,
    1116,
    1083,
    1117,
    1117,
    1117,
    1117,
    1117,
    1095,
    1387,
    1163,
    1384,
    1384,
    1388,
    1148,
    1388,
    1384,
    1387,
    1387,
    1386,
    1386,
    1384,
    1383,
    1386,
    1091,
    1092,
    1089,
    1091,
    1091,
    1093,
    1089,
    1383,
    1213,
    1214,
    747,
    748,
    1385,
    1215,
    1216,
    1124,
    6,
    2,
    6,
    2,
    2,
    1,
    7,
    1385,
    1383,
    1387,
    1383,
    1387,
    1388,
    1387,
    1388,
    1388,
    1386,
    10,
    1384,
    1383,
    1383,
    1388,
    1384,
    1385,
    1387,
    1386,
    1386,
    1386,
    1386,
    11,
    1386,
    733,
    1182,
    1386,
    1387,
    1384,
    1385,
    1383,
    1383,
    1386,
    1388,
    1385,
    1383,
    1387,
    1383,
    1386,
    1383,
    1387,
    1385,
    1385,
    1387,
    1388,
    1386,
    1385,
    1386,
    1386,
    1383,
    1383,
    1387,
    1383,
    1388,
    1383,
    11,
    1388,
    1384,
    1388,
    1384,
    1197,
    1198,
    1387,
    1383,
    1386,
    1383,
    1386,
    1387,
    1383,
    1385,
    1388,
    1386,
    1384,
    1386,
    1125,
    15,
    16,
    4,
    7,
    3,
    5,
    1115,
    1116,
    1086,
    1087,
    1117,
    1117,
    1117,
    1095,
    1383,
    1388,
    1386,
    1383,
    1383,
    1384,
    1386,
    1388,
    1388,
    1388,
    1383,
    1164,
    1387,
    1385,
    1387,
    1388,
    1387,
    1147,
    1163,
    1148,
    1182,
    731,
    732,
    1182,
    1123,
    1123,
    1147,
    1388,
    1182,
    1387,
    1125,
    1152,
    4,
    5,
    4,
    4,
    4,
    1,
    6,
    1385,
    1386,
    1383,
    1384,
    1387,
    1386,
    1385,
    1387,
    1385,
    1182,
    1383,
    1386,
    1385,
    1147,
    1383,
    1388,
    1386,
    1386,
    1388,
    1385,
    1384,
    1383,
    1387,
    1147,
    1386,
    1384,
    1387,
    1385,
    1383,
    1385,
    1387,
    1383,
    1163,
    1383,
    1388,
    1384,
    1383,
    1388,
    1387,
    1383,
    1384,
    1385,
    1384,
    1385,
    1385,
    1388,
    1387,
    1386,
    1386,
    1386,
    1386,
    1383,
    1386,
    1387,
    1383,
    1383,
    1385,
    1385,
    1386,
    1385,
    1213,
    1214,
    1385,
    1387,
    1387,
    1384,
    1384,
    1383,
    1383,
    1386,
    1383,
    1384,
    1383,
    1383,
    1093,
    31,
    32,
    3,
    1,
    4,
    4,
    4,
    1132,
    1133,
    1083,
    1086,
    1087,
    1095,
    1385,
    1164,
    1383,
    1388,
    1388,
    1387,
    1384,
    1147,
    1384,
    1385,
    1384,
    1130,
    1127,
    1130,
    1126,
    1163,
    1386,
    1386,
    1384,
    1147,
    1182,
    1147,
    747,
    748,
    1125,
    1074,
    1074,
    1122,
    1123,
    1123,
    1124,
    2,
    3,
    3,
    1,
    3,
    1,
    1,
    1,
    7,
    1386,
    1384,
    1386,
    1387,
    1386,
    1385,
    1385,
    1383,
    1386,
    1387,
    1385,
    1386,
    1386,
    1385,
    11,
    1385,
    1385,
    1383,
    1387,
    1384,
    1383,
    1384,
    733,
    1182,
    11,
    1387,
    1386,
    1386,
    1387,
    1388,
    1386,
    1387,
    1385,
    1387,
    1387,
    1385,
    1383,
    1383,
    1147,
    1383,
    1387,
    1385,
    1385,
    1147,
    1386,
    1388,
    1383,
    1388,
    1388,
    1385,
    1383,
    1163,
    1385,
    731,
    732,
    1388,
    1387,
    1387,
    1199,
    1200,
    1387,
    1388,
    1387,
    1384,
    1383,
    1384,
    1387,
    1386,
    1385,
    1165,
    1387,
    1384,
    1386,
    1164,
    1383,
    1092,
    7,
    2,
    3,
    1,
    3,
    1,
    6,
    1084,
    1132,
    1095,
    1096,
    1384,
    1388,
    1383,
    1384,
    1388,
    10,
    1388,
    1388,
    1384,
    1385,
    1383,
    1165,
    1114,
    1086,
    1087,
    1087,
    1127,
    1388,
    1383,
    1386,
    1388,
    1150,
    1151,
    1148,
    1124,
    47,
    15,
    16,
    2,
    3,
    928,
    4,
    2,
    2,
    1,
    7,
    4,
    2,
    4,
    3,
    1,
    1387,
    1384,
    1388,
    1386,
    1384,
    1384,
    1385,
    1384,
    1385,
    1384,
    1386,
    1386,
    1387,
    1385,
    1385,
    1387,
    1388,
    1387,
    1388,
    1388,
    1386,
    1386,
    1385,
    1386,
    1384,
    1387,
    1384,
    1384,
    1385,
    1388,
    1383,
    1385,
    1384,
    1388,
    1388,
    1384,
    1197,
    1198,
    1386,
    731,
    732,
    1383,
    1387,
    1383,
    1387,
    1164,
    1388,
    1386,
    1387,
    731,
    732,
    1385,
    1384,
    747,
    748,
    1197,
    1198,
    1386,
    1215,
    1216,
    1385,
    1147,
    1383,
    1385,
    1387,
    1387,
    1387,
    1386,
    733,
    1388,
    1387,
    1383,
    1384,
    1384,
    1383,
    1108,
    3,
    5,
    1,
    3,
    1,
    3,
    5,
    7,
    1105,
    1106,
    1165,
    1384,
    1383,
    1384,
    1383,
    1387,
    1165,
    1387,
    1388,
    1388,
    1387,
    1383,
    1384,
    1098,
    1086,
    1087,
    1117,
    1087,
    1126,
    1383,
    1384,
    1182,
    1166,
    1167,
    1108,
    1109,
    4,
    31,
    32,
    47,
    5,
    5,
    4,
    5,
    6,
    13,
    5,
    4,
    4,
    2,
    1,
    3,
    1387,
    1385,
    1383,
    1387,
    1387,
    1385,
    1387,
    1383,
    1384,
    1384,
    1385,
    1385,
    1388,
    1386,
    1387,
    1384,
    1387,
    1384,
    1388,
    1384,
    1384,
    1385,
    1383,
    1385,
    1385,
    1386,
    1384,
    1383,
    1387,
    1384,
    1385,
    1383,
    1383,
    1383,
    1387,
    1383,
    1213,
    1214,
    1148,
    747,
    748,
    1199,
    1200,
    1150,
    1151,
    1199,
    1200,
    1386,
    1147,
    747,
    748,
    1199,
    1200,
    10,
    1147,
    1147,
    1214,
    1384,
    1388,
    1388,
    1383,
    1150,
    1151,
    1199,
    1200,
    1385,
    1386,
    1123,
    1123,
    1163,
    1388,
    1385,
    1182,
    1383,
    1386,
    1108,
    6,
    7,
    3,
    2,
    6,
    6,
    1,
    5,
    1090,
    1383,
    1387,
    1384,
    1388,
    1387,
    1383,
    1388,
    1383,
    1383,
    1387,
    1387,
    1383,
    1163,
    1388,
    1129,
    1086,
    1087,
    1086,
    1087,
    1095,
    1385,
    1388,
    1384,
    1384,
    1147,
    1124,
    3,
    5,
    3,
    5,
    4,
    1,
    3,
    1,
    2,
    1,
    4,
    1,
    4,
    1,
    1,
    5,
    7,
    1388,
    1387,
    1387,
    1387,
    1387,
    1384,
    1383,
    1383,
    1387,
    1388,
    1388,
    1384,
    1383,
    1387,
    1388,
    1386,
    1385,
    1385,
    1383,
    1386,
    1385,
    1387,
    1385,
    1384,
    1387,
    1386,
    1387,
    1387,
    1384,
    1386,
    1384,
    1383,
    1385,
    1387,
    1197,
    1198,
    1182,
    1197,
    1198,
    1182,
    1149,
    1215,
    1216,
    1166,
    1167,
    1215,
    1216,
    1388,
    1197,
    1198,
    1383,
    1215,
    1216,
    1388,
    1123,
    1384,
    1147,
    11,
    1384,
    1148,
    1387,
    1166,
    1167,
    1215,
    1216,
    1165,
    1124,
    1074,
    1074,
    1122,
    1123,
    1125,
    1122,
    1150,
    1151,
    1386,
    1092,
    4,
    7,
    6,
    5,
    4,
    5,
    1090,
    1182,
    1387,
    1386,
    1387,
    1384,
    1386,
    1385,
    1383,
    1383,
    1386,
    1164,
    1388,
    1130,
    1126,
    1129,
    1086,
    1083,
    1117,
    1117,
    1117,
    1126,
    1386,
    1383,
    1385,
    1388,
    1108,
    1109,
    1104,
    6,
    3,
    6,
    6,
    4,
    1,
    4,
    1,
    6,
    6,
    1,
    3,
    2,
    4,
    15,
    16,
    1387,
    1384,
    1386,
    1385,
    1388,
    1387,
    1386,
    1388,
    1386,
    1386,
    1385,
    1383,
    1388,
    1387,
    1384,
    1387,
    1387,
    1388,
    1387,
    1383,
    1386,
    1388,
    1387,
    1384,
    1387,
    1383,
    1385,
    1385,
    1387,
    1385,
    1385,
    1388,
    1388,
    1386,
    1213,
    1214,
    1150,
    1151,
    1214,
    1197,
    1198,
    1147,
    1199,
    1200,
    1147,
    1387,
    731,
    732,
    1213,
    1214,
    1147,
    1384,
    1147,
    1125,
    7,
    1122,
    1384,
    1163,
    1150,
    1151,
    1197,
    1198,
    1147,
    1383,
    1123,
    1124,
    3,
    1,
    5,
    3,
    1,
    1,
    1090,
    1166,
    1167,
    1182,
    1384,
    1092,
    2,
    15,
    1,
    5,
    1090,
    1387,
    731,
    732,
    1383,
    1386,
    1386,
    1384,
    1385,
    1387,
    1385,
    1385,
    1386,
    1130,
    12,
    1086,
    1087,
    1083,
    1117,
    1095,
    1097,
    1086,
    1095,
    1386,
    1384,
    1385,
    1147,
    1124,
    1,
    5,
    5,
    1,
    4,
    15,
    16,
    2,
    5,
    6,
    15,
    16,
    2,
    1,
    1,
    5,
    31,
    32,
    1386,
    1383,
    1385,
    1385,
    1388,
    1387,
    1384,
    1388,
    1384,
    1387,
    1388,
    1388,
    1385,
    1384,
    1386,
    1387,
    1386,
    1387,
    1384,
    1386,
    1388,
    1388,
    1386,
    1383,
    1386,
    1384,
    1384,
    1386,
    1385,
    1387,
    1383,
    1385,
    1385,
    1385,
    1149,
    1387,
    1166,
    1167,
    1147,
    1213,
    1214,
    1182,
    1215,
    1216,
    1387,
    1147,
    747,
    748,
    1147,
    1148,
    1199,
    1200,
    1108,
    1109,
    15,
    16,
    1121,
    1386,
    1166,
    1167,
    1213,
    1214,
    1386,
    1125,
    1074,
    4,
    6,
    3,
    15,
    16,
    6,
    5,
    1122,
    1123,
    1386,
    731,
    732,
    1383,
    1093,
    31,
    32,
    1089,
    1383,
    1182,
    747,
    748,
    1385,
    1387,
    1385,
    1383,
    1386,
    1386,
    1387,
    1387,
    1388,
    1098,
    1117,
    1083,
    1117,
    1095,
    1096,
    1164,
    1384,
    1096,
    1387,
    1388,
    1384,
    1384,
    1108,
    1109,
    6,
    3,
    5,
    5,
    1,
    31,
    32,
    1152,
    6,
    3,
    31,
    32,
    4,
    4,
    6,
    1,
    1,
    1,
    1388,
    1385,
    1385,
    1385,
    1384,
    1386,
    1385,
    1385,
    1384,
    1388,
    1384,
    1384,
    1388,
    1386,
    1383,
    1387,
    1384,
    1388,
    1385,
    1388,
    1384,
    1388,
    1387,
    1385,
    1388,
    1384,
    1387,
    1386,
    1386,
    1383,
    731,
    732,
    1182,
    1386,
    1197,
    1198,
    1182,
    1199,
    1200,
    1182,
    1149,
    1147,
    1148,
    1182,
    1197,
    1198,
    1385,
    1148,
    1388,
    1147,
    1215,
    1216,
    1388,
    1093,
    31,
    32,
    1089,
    1384,
    1388,
    1123,
    1123,
    1123,
    1124,
    3,
    1152,
    2,
    3,
    4,
    31,
    32,
    2,
    6,
    7,
    1105,
    1106,
    747,
    748,
    1147,
    1383,
    1091,
    1091,
    1165,
    1197,
    1198,
    11,
    731,
    732,
    1384,
    1387,
    1388,
    1384,
    1384,
    1386,
    1384,
    1383,
    1165,
    1097,
    1080,
    1094,
    11,
    1383,
    1384,
    1384,
    1385,
    1387,
    1384,
    1386,
    1182,
    1108,
    1109,
    5,
    2,
    2,
    13,
    5,
    2,
    2,
    7,
    6,
    4,
    4,
    6,
    5,
    1,
    1,
    3,
    6,
    5,
    1386,
    1386,
    1387,
    1385,
    1385,
    1388,
    1385,
    1388,
    1383,
    1387,
    1163,
    1388,
    1388,
    1387,
    1388,
    1385,
    1386,
    1385,
    1386,
    1388,
    1384,
    1385,
    1383,
    1383,
    1388,
    1385,
    1383,
    1384,
    1383,
    1388,
    747,
    748,
    1385,
    1383,
    1213,
    1214,
    1147,
    1215,
    1216,
    1148,
    731,
    732,
    1182,
    1147,
    1213,
    1214,
    1388,
    1125,
    1121,
    1383,
    1384,
    1385,
    1384,
    1386,
    1091,
    1091,
    1123,
    1123,
    1124,
    1074,
    1074,
    2,
    2,
    5,
    6,
    4,
    1,
    6,
    4,
    4,
    4,
    1,
    5,
    1090,
    1384,
    1182,
    1149,
    1150,
    1151,
    1199,
    1200,
    1148,
    1213,
    1214,
    1182,
    747,
    748,
    1182,
    1388,
    1165,
    1125,
    1121,
    1385,
    1386,
    1384,
    1384,
    1385,
    1096,
    1163,
    1147,
    1384,
    1387,
    1386,
    1388,
    1383,
    1384,
    1197,
    1198,
    1384,
    1092,
    1,
    3,
    6,
    1,
    4,
    1,
    5,
    4,
    6,
    1,
    1,
    3,
    4,
    2,
    4,
    5,
    7,
    3,
    1386,
    1386,
    1388,
    1386,
    1384,
    1386,
    1384,
    1384,
    1388,
    1385,
    1388,
    1383,
    1383,
    1386,
    1386,
    1386,
    1386,
    1383,
    1387,
    1385,
    1385,
    1387,
    1386,
    1383,
    1387,
    1387,
    1386,
    1386,
    1387,
    1385,
    1386,
    1383,
    1147,
    731,
    732,
    1388,
    1182,
    1386,
    1388,
    1147,
    747,
    748,
    1147,
    1383,
    1386,
    1123,
    1124,
    3,
    1088,
    1122,
    1387,
    1164,
    1165,
    1123,
    1123,
    1124,
    47,
    7,
    6,
    7,
    4,
    4,
    4,
    4,
    4,
    4,
    2,
    1,
    4,
    4,
    6,
    4,
    1105,
    1106,
    1163,
    1197,
    1198,
    1166,
    1167,
    1215,
    1216,
    1182,
    1147,
    731,
    732,
    1149,
    1388,
    1123,
    1123,
    1124,
    15,
    16,
    1122,
    1182,
    1383,
    1386,
    1387,
    1383,
    1385,
    1387,
    1385,
    1383,
    1386,
    1383,
    1385,
    1383,
    1213,
    1214,
    1182,
    1147,
    1091,
    1092,
    2,
    3,
    15,
    16,
    1,
    4,
    6,
    4,
    4,
    2,
    5,
    6,
    1,
    3,
    5,
    4,
    1384,
    1385,
    1383,
    1388,
    1388,
    1386,
    1385,
    1385,
    1385,
    1385,
    1388,
    1383,
    1388,
    1386,
    1388,
    1385,
    1384,
    1385,
    1386,
    1387,
    1383,
    1165,
    1384,
    1386,
    1388,
    1385,
    1388,
    1383,
    1383,
    1384,
    1383,
    1150,
    1151,
    747,
    748,
    1199,
    1200,
    1385,
    731,
    732,
    1182,
    1125,
    1121,
    1386,
    1124,
    4,
    1,
    7,
    4,
    4,
    1122,
    1123,
    1124,
    47,
    5,
    3,
    4,
    5,
    13,
    4,
    4,
    4,
    4,
    4,
    4,
    4,
    4,
    5,
    6,
    1,
    5,
    15,
    4,
    1122,
    1123,
    1213,
    1214,
    731,
    732,
    1148,
    1197,
    1198,
    1182,
    747,
    748,
    1387,
    1125,
    1074,
    1074,
    4,
    4,
    32,
    3,
    1122,
    1165,
    1383,
    1385,
    1148,
    1385,
    1383,
    1388,
    1163,
    1386,
    1384,
    1388,
    1383,
    1182,
    1383,
    1148,
    1147,
    1199,
    1200,
    1091,
    1092,
    31,
    32,
    4,
    4,
    6,
    5,
    1,
    3,
    2,
    4,
    4,
    15,
    16,
    4,
    1385,
    1388,
    1385,
    1386,
    1384,
    1383,
    1385,
    1386,
    1387,
    1383,
    1383,
    1388,
    1386,
    1386,
    1387,
    1388,
    1384,
    1388,
    1383,
    1386,
    1386,
    1386,
    1383,
    1388,
    1383,
    1387,
    1165,
    1387,
    1386,
    1383,
    1385,
    1166,
    1167,
    1387,
    1182,
    1215,
    1216,
    1147,
    747,
    748,
    1147,
    1093,
    1089,
    1124,
    4,
    4,
    15,
    16,
    3,
    6,
    5,
    3,
    5,
    1152,
    4,
    4,
    6,
    4,
    7,
    5,
    4,
    4,
    6,
    5,
    15,
    16,
    4,
    6,
    2,
    4,
    4,
    4,
    32,
    1,
    1,
    1122,
    1385,
    747,
    748,
    1384,
    1213,
    1214,
    1386,
    1388,
    1388,
    1124,
    5,
    3,
    5,
    2,
    4,
    4,
    2,
    1105,
    1106,
    1384,
    1388,
    1387,
    1383,
    1385,
    1388,
    1384,
    1388,
    1385,
    1386,
    1164,
    1383,
    731,
    732,
    1182,
    1215,
    1216,
    1387,
    1147,
    1092,
    4,
    2,
    4,
    3,
    7,
    5,
    2,
    5,
    6,
    3,
    13,
    32,
    1,
    1387,
    1386,
    1383,
    1388,
    1386,
    1384,
    1388,
    1384,
    1383,
    1386,
    1388,
    1387,
    1383,
    1383,
    1384,
    1385,
    1386,
    1385,
    1387,
    1383,
    1383,
    1383,
    1384,
    1385,
    1385,
    1388,
    1386,
    1388,
    1384,
    1385,
    1386,
    1388,
    1123,
    1123,
    1383,
    1385,
    1182,
    1163,
    1147,
    1386,
    1387,
    1123,
    1124,
    4,
    4,
    13,
    31,
    32,
    6,
    4,
    3,
    15,
    4,
    6,
    2,
    3,
    4,
    2,
    1,
    4,
    6,
    4,
    2,
    7,
    31,
    32,
    1,
    3,
    5,
    2,
    6,
    4,
    3,
    1,
    4,
    2,
    1122,
    1123,
    1123,
    1182,
    11,
    1387,
    1384,
    1165,
    1125,
    4,
    4,
    4,
    3,
    1,
    7,
    2,
    5,
    1105,
    1106,
    1182,
    1385,
    1384,
    1388,
    1385,
    1388,
    1384,
    1387,
    1385,
    1388,
    1182,
    1387,
    747,
    748,
    1384,
    1384,
    1387,
    1147,
    1387,
    1182,
    1091,
    1092,
    1,
    5,
    2,
    1,
    2,
    7,
    4,
    4,
    7,
    6,
    7,
    1383,
    1383,
    1388,
    1386,
    1388,
    1384,
    1385,
    1387,
    1385,
    1383,
    1383,
    1387,
    1383,
    1388,
    1384,
    1386,
    1383,
    1386,
    1386,
    1388,
    1388,
    1384,
    1383,
    1384,
    1384,
    1388,
    1388,
    1387,
    1383,
    1164,
    1384,
    1125,
    15,
    16,
    1121,
    1387,
    1383,
    1150,
    1151,
    927,
    1124,
    3,
    1,
    5,
    3,
    6,
    5,
    4,
    4,
    1,
    2,
    31,
    32,
    4,
    4,
    1,
    1,
    4,
    4,
    1152,
    5,
    3,
    4,
    4,
    3,
    1,
    4,
    1,
    6,
    1,
    3,
    4,
    3,
    6,
    3,
    15,
    1,
    5,
    928,
    1122,
    1123,
    1123,
    1123,
    1124,
    15,
    16,
    4,
    4,
    5,
    3,
    2,
    3,
    6,
    1,
    1122,
    1384,
    1197,
    1198,
    1182,
    1385,
    1386,
    1384,
    1386,
    1150,
    1151,
    1383,
    1386,
    1182,
    1387,
    1197,
    1198,
    1182,
    1150,
    1151,
    1383,
    1387,
    1384,
    1091,
    1092,
    3,
    4,
    5,
    5,
    7,
    4,
    3,
    3,
    3,
    1385,
    1386,
    1386,
    1388,
    1388,
    1385,
    1386,
    1388,
    1383,
    1386,
    1388,
    1385,
    1388,
    1387,
    1385,
    1385,
    1385,
    1383,
    1387,
    1388,
    1384,
    1383,
    1388,
    1388,
    1383,
    1384,
    1387,
    1384,
    1387,
    1385,
    1124,
    1,
    31,
    32,
    1,
    1122,
    1383,
    1166,
    1167,
    1108,
    2,
    2,
    4,
    3,
    3,
    4,
    2,
    1,
    3,
    4,
    1,
    2,
    1,
    6,
    4,
    2,
    7,
    4,
    7,
    4,
    7,
    2,
    4,
    4,
    4,
    4,
    5,
    3,
    2,
    15,
    16,
    4,
    6,
    6,
    5,
    31,
    32,
    3,
    47,
    48,
    928,
    4,
    7,
    4,
    31,
    32,
    6,
    15,
    16,
    6,
    4,
    4,
    3,
    1,
    1,
    1122,
    1213,
    1214,
    1386,
    1385,
    1386,
    1385,
    1383,
    1166,
    1167,
    1386,
    1388,
    1123,
    1123,
    1213,
    1214,
    1147,
    1166,
    1167,
    1387,
    1147,
    1383,
    1387,
    1384,
    1093,
    2,
    1090,
    1092,
    3,
    4,
    2,
    6,
    7,
    1384,
    1386,
    1388,
    1384,
    1386,
    1383,
    1385,
    1387,
    1388,
    1384,
    1388,
    1387,
    1165,
    1384,
    1388,
    1384,
    1385,
    1385,
    1387,
    1386,
    1383,
    1385,
    1384,
    1385,
    1386,
    1384,
    1386,
    1386,
    1385,
    1386,
    1093,
    1,
    15,
    7,
    15,
    16,
    1121,
    1386,
    11,
    1124,
    2,
    2,
    47,
    5,
    4,
    4,
    2,
    1,
    4,
    4,
    4,
    4,
    4,
    1,
    4,
    4,
    4,
    4,
    6,
    4,
    2,
    3,
    5,
    4,
    4,
    2,
    5,
    4,
    4,
    4,
    32,
    5,
    6,
    4,
    2,
    6,
    3,
    2,
    3,
    47,
    2,
    6,
    2,
    4,
    4,
    4,
    3,
    31,
    32,
    15,
    16,
    6,
    1,
    1,
    1,
    1105,
    1106,
    731,
    732,
    1386,
    1385,
    1182,
    1197,
    1198,
    1386,
    1384,
    1125,
    15,
    16,
    1121,
    1387,
    731,
    732,
    1387,
    1147,
    1383,
    1387,
    1386,
    1387,
    1383,
    1091,
    1386,
    1388,
    1091,
    1091,
    1092,
    6,
    2,
    1386,
    1388,
    1384,
    1385,
    1386,
    1387,
    1388,
    1385,
    1386,
    1388,
    1384,
    1383,
    1385,
    1385,
    1385,
    1385,
    1384,
    1384,
    1385,
    1387,
    1386,
    1385,
    1388,
    1385,
    1385,
    1385,
    1387,
    1384,
    1386,
    1385,
    1388,
    1093,
    31,
    32,
    31,
    32,
    1090,
    1386,
    1124,
    6,
    1,
    15,
    16,
    5,
    4,
    4,
    4,
    4,
    4,
    3,
    4,
    1104,
    5,
    1,
    5,
    4,
    2,
    3,
    4,
    1,
    4,
    4,
    4,
    4,
    6,
    1,
    4,
    3,
    3,
    4,
    4,
    3,
    4,
    4,
    4,
    1,
    5,
    1,
    5,
    4,
    4,
    1,
    15,
    16,
    13,
    3,
    1,
    5,
    4,
    31,
    32,
    6,
    1,
    2,
    4,
    1,
    1106,
    747,
    748,
    1387,
    1387,
    1388,
    1213,
    1214,
    1182,
    1124,
    1,
    31,
    32,
    1,
    1122,
    747,
    748,
    1182,
    1383,
    1385,
    1388,
    1383,
    1386,
    1163,
    1388,
    1384,
    1387,
    1386,
    1386,
    1383,
    1091,
    1091,
    1385,
    1388,
    1384,
    1384,
    1385,
    1387,
    1387,
    1383,
    1386,
    1387,
    1385,
    1384,
    1386,
    1383,
    1388,
    1387,
    1388,
    1385,
    1383,
    1384,
    1386,
    1388,
    1383,
    1385,
    1388,
    1388,
    1388,
    1387,
    1388,
    1384,
    1163,
    1386,
    1091,
    1092,
    7,
    1089,
    1165,
    1108,
    15,
    16,
    15,
    31,
    32,
    5,
    2,
    4,
    2,
    4,
    4,
    3,
    3,
    5,
    5,
    4,
    4,
    4,
    3,
    6,
    4,
    4,
    6,
    4,
    4,
    5,
    7,
    4,
    1,
    4,
    4,
    4,
    1,
    4,
    5,
    1,
    4,
    6,
    5,
    4,
    4,
    5,
    6,
    4,
    31,
    32,
    2,
    4,
    5,
    4,
    5,
    4,
    4,
    4,
    2,
    5,
    3,
    5,
    1122,
    1386,
    1199,
    1200,
    1385,
    1386,
    1383,
    1199,
    1200,
    1093,
    1,
    13,
    7,
    15,
    16,
    1121,
    1147,
    1384,
    1386,
    1387,
    1383,
    1385,
    1387,
    1387,
    1384,
    1385,
    1384,
    1383,
    1164,
    1387,
    1383,
    1387,
    1385,
    1388,
    1386,
    1387,
    1386,
    1386,
    1385,
    1386,
    1383,
    1388,
    1383,
    1388,
    1386,
    1386,
    1385,
    1387,
    1387,
    1385,
    1385,
    1387,
    1385,
    1388,
    1388,
    1383,
    1388,
    1388,
    1384,
    1387,
    1383,
    1384,
    1385,
    1383,
    1387,
    1387,
    1091,
    1388,
    1387,
    1124,
    31,
    32,
    31,
    32,
    3,
    13,
    6,
    4,
    4,
    4,
    6,
    6,
    1,
    1,
    1,
    1,
    6,
    6,
    5,
    2,
    2,
    4,
    5,
    4,
    2,
    15,
    16,
    7,
    4,
    2,
    2,
    13,
    2,
    5,
    1,
    3,
    5,
    4,
    5,
    6,
    7,
    2,
    2,
    6,
    4,
    4,
    5,
    1,
    3,
    15,
    16,
    2,
    4,
    5,
    6,
    5,
    6,
    15,
    16,
    1121,
    1215,
    1216,
    1182,
    1383,
    1182,
    1215,
    1216,
    1388,
    1093,
    31,
    32,
    31,
    32,
    1090,
    1384,
    1383,
    1384,
    1388,
    1385,
    1387,
    1384,
    1384,
    1387,
    1384,
    1388,
    1387,
    702,
    1387,
    1384,
    1165
   ]
  },
  {
   "id": 2,
   "name": "spawns",
   "type": "objectgroup",
   "x": 0,
   "y": 0,
   "width": 0,
   "height": 0,
   "opacity": 1,
   "visible": true,
   "draworder": "topdown",
   "objects": []
  },
  {
   "id": 3,
   "name": "collision",
   "type": "tilelayer",
   "x": 0,
   "y": 0,
   "width": 128,
   "height": 128,
   "opacity": 1,
   "visible": false,
   "data": [
    0,
    0,
    0,
    0,
    0,
    0,
    0,
    0,
    0,
    0,
    0,
    0,
    0,
    0,
    1552,
    0,
    0,
    0,
    0,
    0,
    0,
    0,
    0,
    0,
    0,
    0,
    0,
    1552,
    0,
    0,
    1552,
    0,
    0,
    1552,
    1552,
    0,
    0,
    1552,
    1552,
    1552,
    1552,
    1552,
    0,
    0,
    1552,
    1552,
    1552,
    1552,
    1552,
    1552,
    1552,
    1552,
    1552,
    1552,
    1552,
    1552,
    1552,
    0,
    0,
    0,
    1552,
    1552,
    1552,
    0,
    1552,
    1552,
    0,
    0,
    0,
    0,
    0,
    0,
    0,
    0,
    0,
    0,
    0,
    1552,
    0,
    0,
    0,
    0,
    0,
    0,
    0,
    0,
    0,
    0,
    0,
    0,
    0,
    0,
    0,
    0,
    1552,
    1552,
    1552,
    1552,
    1552,
    1552,
    1552,
    0,
    1552,
    0,
    0,
    0,
    0,
    0,
    0,
    0,
    0,
    0,
    0,
    0,
    0,
    0,
    0,
    0,
    0,
    0,
    0,
    0,
    0,
    0,
    0,
    0,
    0,
    0,
    0,
    0,
    0,
    0,
    0,
    0,
    0,
    0,
    0,
    0,
    0,
    0,
    0,
    0,
    0,
    1552,
    0,
    0,
    0,
    0,
    0,
    0,
    0,
    0,
    0,
    0,
    0,
    1552,
    1552,
    0,
    0,
    1552,
    1552,
    0,
    1552,
    0,
    0,
    1552,
    1552,
    1552,
    1552,
    1552,
    0,
    0,
    0,
    1552,
    1552,
    1552,
    1552,
    1552,
    1552,
    1552,
    1552,
    1552,
    1552,
    1552,
    1552,
    1552,
    0,
    0,
    0,
    1552,
    1552,
    1552,
    1552,
    1552,
    1552,
    0,
    0,
    0,
    0,
    0,
    0,
    0,
    0,
    0,
    0,
    0,
    0,
    0,
    0,
    0,
    0,
    0,
    0,
    0,
    0,
    0,
    0,
    0,
    0,
    0,
    1552,
    0,
    1552,
    1552,
    1552,
    1552,
    1552,
    1552,
    1552,
    1552,
    1552,
    0,
    1552,
    0,
    0,
    0,
    0,
    0,
    0,
    0,
    0,
    0,
    0,
    0,
    0,
    0,
    0,
    0,
    0,
    0,
    0,
    0,
    0,
    0,
    0,
    0,
    1552,
    0,
    0,
    0,
    0,
    0,
    0,
    0,
    0,
    0,
    0,
    0,
    0,
    0,
    0,
    0,
    0,
    0,
    0,
    0,
    0,
    0,
    0,
    0,
    0,
    0,
    0,
    0,
    1552,
    0,
    0,
    0,
    1552,
    1552,
    0,
    1552,
    1552,
    0,
    0,
    0,
    1552,
    1552,
    1552,
    1552,
    0,
    0,
    0,
    0,
    1552,
    1552,
    1552,
    1552,
    1552,
    1552,
    1552,
    1552,
    1552,
    1552,
    1552,
    0,
    0,
    1552,
    1552,
    1552,
    1552,
    1552,
    1552,
    1552,
    0,
    0,
    0,
    0,
    0,
    0,
    0,
    0,
    0,
    0,
    0,
    0,
    0,
    0,
    0,
    0,
    0,
    0,
    0,
    0,
    0,
    0,
    0,
    0,
    0,
    0,
    1552,
    1552,
    1552,
    1552,
    1552,
    1552,
    1552,
    1552,
    1552,
    0,
    1552,
    0,
    0,
    1552,
    0,
    0,
    0,
    0,
    0,
    0,
    0,
    0,
    0,
    0,
    0,
    0,
    0,
    0,
    0,
    0,
    0,
    0,
    0,
    0,
    0,
    0,
    0,
    0,
    0,
    0,
    0,
    0,
    0,
    0,
    0,
    0,
    0,
    0,
    0,
    0,
    0,
    0,
    0,
    0,
    0,
    0,
    0,
    0,
    0,
    0,
    0,
    0,
    0,
    1552,
    1552,
    0,
    0,
    1552,
    0,
    0,
    1552,
    1552,
    0,
    0,
    1552,
    1552,
    1552,
    1552,
    1552,
    0,
    1552,
    0,
    0,
    1552,
    1552,
    1552,
    1552,
    1552,
    1552,
    1552,
    1552,
    1552,
    1552,
    0,
    0,
    0,
    1552,
    1552,
    1552,
    1552,
    1552,
    1552,
    0,
    1552,
    0,
    0,
    0,
    0,
    0,
    0,
    0,
    0,
    0,
    0,
    0,
    0,
    0,
    0,
    0,
    0,
    0,
    0,
    0,
    0,
    0,
    0,
    0,
    1552,
    1552,
    1552,
    1552,
    1552,
    1552,
    1552,
    1552,
    0,
    0,
    1552,
    0,
    0,
    0,
    0,
    0,
    0,
    0,
    0,
    0,
    0,
    0,
    0,
    0,
    0,
    0,
    0,
    0,
    0,
    0,
    0,
    0,
    0,
    0,
    0,
    0,
    0,
    0,
    0,
    0,
    0,
    0,
    0,
    0,
    0,
    0,
    0,
    0,
    0,
    0,
    0,
    0,
    0,
    0,
    0,
    0,
    0,
    0,
    0,
    0,
    0,
    0,
    0,
    0,
    0,
    1552,
    1552,
    0,
    1552,
    1552,
    0,
    1552,
    1552,
    0,
    0,
    1552,
    1552,
    1552,
    1552,
    1552,
    1552,
    1552,
    0,
    0,
    0,
    1552,
    1552,
    1552,
    1552,
    1552,
    1552,
    1552,
    1552,
    1552,
    1552,
    0,
    0,
    0,
    0,
    1552,
    1552,
    0,
    1552,
    1552,
    0,
    0,
    0,
    0,
    0,
    0,
    0,
    0,
    0,
    0,
    0,
    0,
    0,
    0,
    0,
    0,
    0,
    0,
    0,
    0,
    0,
    0,
    0,
    1552,
    1552,
    0,
    1552,
    1552,
    1552,
    1552,
    1552,
    1552,
    1552,
    0,
    0,
    0,
    0,
    0,
    0,
    0,
    0,
    0,
    0,
    0,
    0,
    0,
    0,
    0,
    0,
    0,
    0,
    0,
    0,
    0,
    0,
    0,
    0,
    0,
    0,
    1552,
    0,
    0,
    0,
    0,
    0,
    0,
    0,
    0,
    0,
    0,
    0,
    0,
    0,
    0,
    0,
    0,
    0,
    0,
    0,
    0,
    0,
    0,
    0,
    0,
    0,
    0,
    0,
    0,
    0,
    1552,
    1552,
    0,
    1552,
    1552,
    0,
    1552,
    1552,
    0,
    0,
    0,
    0,
    0,
    1552,
    1552,
    1552,
    1552,
    0,
    0,
    0,
    0,
    0,
    0,
    1552,
    1552,
    1552,
    1552,
    1552,
    1552,
    1552,
    1552,
    1552,
    0,
    0,
    0,
    0,
    1552,
    1552,
    1552,
    1552,
    1552,
    1552,
    0,
    0,
    0,
    0,
    0,
    0,
    0,
    0,
    0,
    0,
    0,
    0,
    0,
    0,
    0,
    0,
    0,
    0,
    0,
    1552,
    1552,
    1552,
    0,
    1552,
    1552,
    1552,
    0,
    1552,
    1552,
    1552,
    0,
    0,
    0,
    0,
    0,
    0,
    0,
    0,
    0,
    0,
    0,
    0,
    0,
    0,
    0,
    0,
    0,
    0,
    0,
    0,
    0,
    0,
    0,
    0,
    0,
    0,
    1552,
    1552,
    0,
    0,
    0,
    0,
    0,
    0,
    0,
    0,
    0,
    0,
    0,
    0,
    0,
    0,
    1552,
    0,
    0,
    0,
    0,
    0,
    0,
    0,
    0,
    0,
    0,
    0,
    0,
    0,
    1552,
    1552,
    0,
    1552,
    1552,
    0,
    1552,
    1552,
    0,
    0,
    0,
    0,
    0,
    1552,
    1552,
    0,
    0,
    0,
    0,
    0,
    0,
    0,
    0,
    0,
    1552,
    1552,
    1552,
    1552,
    1552,
    1552,
    1552,
    1552,
    1552,
    0,
    0,
    0,
    1552,
    0,
    1552,
    1552,
    1552,
    1552,
    0,
    0,
    0,
    0,
    0,
    0,
    0,
    0,
    0,
    0,
    0,
    0,
    0,
    0,
    0,
    0,
    0,
    0,
    0,
    0,
    0,
    0,
    0,
    0,
    1552,
    1552,
    1552,
    0,
    0,
    0,
    0,
    0,
    0,
    0,
    0,
    0,
    0,
    0,
    0,
    0,
    0,
    0,
    0,
    0,
    0,
    0,
    0,
    0,
    0,
    0,
    0,
    0,
    0,
    0,
    0,
    0,
    1552,
    1552,
    0,
    0,
    0,
    0,
    0,
    0,
    0,
    0,
    0,
    0,
    0,
    0,
    0,
    1552,
    1552,
    0,
    0,
    0,
    0,
    0,
    0,
    0,
    0,
    0,
    0,
    0,
    0,
    0,
    1552,
    1552,
    0,
    1552,
    1552,
    0,
    1552,
    1552,
    0,
    0,
    0,
    0,
    1552,
    0,
    0,
    0,
    0,
    0,
    0,
    0,
    0,
    0,
    0,
    0,
    1552,
    1552,
    1552,
    1552,
    1552,
    1552,
    1552,
    1552,
    1552,
    1552,
    0,
    0,
    0,
    0,
    1552,
    1552,
    1552,
    0,
    0,
    0,
    0,
    0,
    0,
    0,
    0,
    0,
    0,
    0,
    0,
    0,
    0,
    0,
    0,
    0,
    0,
    0,
    0,
    0,
    0,
    0,
    0,
    0,
    0,
    0,
    0,
    0,
    0,
    0,
    0,
    0,
    0,
    0,
    0,
    0,
    0,
    0,
    0,
    0,
    0,
    0,
    0,
    0,
    0,
    0,
    0,
    0,
    0,
    0,
    0,
    0,
    0,
    0,
    0,
    0,
    0,
    1552,
    1552,
    0,
    0,
    0,
    0,
    0,
    0,
    0,
    0,
    1552,
    0,
    0,
    1552,
    1552,
    0,
    0,
    0,
    0,
    0,
    0,
    0,
    0,
    0,
    0,
    0,
    0,
    0,
    0,
    1552,
    1552,
    0,
    1552,
    1552,
    0,
    1552,
    1552,
    0,
    0,
    0,
    0,
    0,
    0,
    0,
    0,
    0,
    0,
    0,
    0,
    0,
    0,
    0,
    0,
    0,
    1552,
    1552,
    1552,
    1552,
    1552,
    1552,
    1552,
    1552,
    1552,
    1552,
    0,
    0,
    0,
    0,
    0,
    0,
    0,
    0,
    0,
    0,
    0,
    0,
    0,
    0,
    0,
    0,
    0,
    0,
    0,
    0,
    0,
    0,
    0,
    0,
    0,
    0,
    0,
    0,
    0,
    0,
    0,
    0,
    0,
    0,
    0,
    0,
    0,
    0,
    0,
    0,
    0,
    0,
    0,
    0,
    0,
    0,
    0,
    0,
    0,
    0,
    0,
    0,
    0,
    0,
    0,
    0,
    0,
    0,
    0,
    0,
    0,
    0,
    0,
    0,
    1552,
    1552,
    1552,
    0,
    0,
    0,
    0,
    0,
    0,
    0,
    0,
    0,
    0,
    0,
    1552,
    0,
    0,
    0,
    0,
    0,
    0,
    0,
    0,
    0,
    0,
    0,
    0,
    0,
    0,
    1552,
    1552,
    0,
    1552,
    1552,
    0,
    1552,
    1552,
    0,
    0,
    0,
    0,
    0,
    0,
    0,
    0,
    0,
    0,
    0,
    0,
    0,
    0,
    0,
    0,
    0,
    0,
    1552,
    1552,
    1552,
    1552,
    1552,
    1552,
    1552,
    1552,
    1552,
    0,
    0,
    0,
    0,
    0,
    0,
    0,
    0,
    1552,
    0,
    0,
    0,
    0,
    0,
    0,
    0,
    1552,
    0,
    0,
    0,
    0,
    0,
    0,
    0,
    1552,
    0,
    1552,
    1552,
    1552,
    0,
    0,
    0,
    0,
    0,
    0,
    0,
    0,
    0,
    0,
    0,
    0,
    0,
    0,
    0,
    0,
    0,
    0,
    0,
    0,
    1552,
    0,
    0,
    0,
    0,
    0,
    0,
    0,
    0,
    0,
    0,
    0,
    0,
    0,
    0,
    0,
    1552,
    1552,
    0,
    1552,
    1552,
    0,
    0,
    0,
    0,
    0,
    0,
    0,
    0,
    1552,
    1552,
    0,
    0,
    0,
    0,
    0,
    0,
    0,
    0,
    0,
    0,
    0,
    0,
    0,
    1552,
    1552,
    0,
    1552,
    1552,
    0,
    0,
    1552,
    0,
    0,
    0,
    0,
    0,
    0,
    0,
    0,
    0,
    0,
    0,
    0,
    0,
    0,
    0,
    0,
    0,
    0,
    0,
    1552,
    1552,
    1552,
    1552,
    1552,
    1552,
    1552,
    1552,
    0,
    0,
    0,
    0,
    0,
    0,
    1552,
    1552,
    0,
    0,
    0,
    1552,
    1552,
    0,
    1552,
    0,
    0,
    1552,
    1552,
    1552,
    1552,
    0,
    0,
    1552,
    0,
    1552,
    1552,
    1552,
    1552,
    0,
    0,
    0,
    0,
    0,
    0,
    0,
    0,
    0,
    0,
    0,
    0,
    0,
    0,
    0,
    0,
    0,
    0,
    0,
    0,
    1552,
    1552,
    0,
    0,
    0,
    0,
    0,
    0,
    0,
    0,
    0,
    0,
    0,
    0,
    0,
    0,
    1552,
    1552,
    0,
    1552,
    1552,
    0,
    0,
    0,
    1552,
    0,
    1552,
    1552,
    0,
    1552,
    1552,
    0,
    0,
    0,
    0,
    0,
    0,
    0,
    0,
    0,
    0,
    0,
    0,
    0,
    0,
    1552,
    0,
    0,
    1552,
    0,
    0,
    1552,
    1552,
    0,
    0,
    0,
    0,
    0,
    0,
    0,
    0,
    0,
    0,
    0,
    0,
    0,
    0,
    0,
    0,
    0,
    0,
    1552,
    1552,
    1552,
    1552,
    1552,
    1552,
    1552,
    1552,
    0,
    0,
    0,
    0,
    0,
    0,
    1552,
    1552,
    0,
    0,
    0,
    1552,
    1552,
    0,
    0,
    1552,
    1552,
    1552,
    1552,
    1552,
    1552,
    1552,
    1552,
    1552,
    1552,
    1552,
    1552,
    1552,
    0,
    1552,
    1552,
    1552,
    0,
    0,
    0,
    0,
    0,
    0,
    0,
    0,
    0,
    0,
    0,
    0,
    0,
    0,
    0,
    0,
    1552,
    1552,
    0,
    0,
    0,
    0,
    0,
    0,
    0,
    0,
    0,
    0,
    0,
    0,
    0,
    0,
    0,
    1552,
    1552,
    0,
    0,
    0,
    0,
    0,
    0,
    0,
    0,
    1552,
    1552,
    0,
    1552,
    1552,
    0,
    0,
    0,
    0,
    0,
    0,
    0,
    0,
    0,
    0,
    0,
    0,
    0,
    0,
    1552,
    1552,
    0,
    1552,
    1552,
    0,
    1552,
    1552,
    0,
    0,
    0,
    0,
    0,
    0,
    0,
    0,
    0,
    0,
    0,
    0,
    0,
    0,
    0,
    0,
    0,
    0,
    1552,
    1552,
    1552,
    1552,
    1552,
    1552,
    1552,
    1552,
    0,
    0,
    0,
    0,
    0,
    0,
    0,
    0,
    0,
    0,
    1552,
    1552,
    1552,
    1552,
    1552,
    0,
    1552,
    1552,
    0,
    0,
    0,
    0,
    1552,
    1552,
    1552,
    1552,
    1552,
    1552,
    1552,
    0,
    1552,
    1552,
    0,
    1552,
    0,
    0,
    0,
    0,
    0,
    0,
    0,
    0,
    0,
    0,
    0,
    0,
    0,
    0,
    0,
    0,
    0,
    1552,
    1552,
    0,
    0,
    0,
    0,
    0,
    0,
    0,
    0,
    0,
    0,
    0,
    0,
    1552,
    1552,
    0,
    0,
    0,
    0,
    0,
    0,
    0,
    0,
    0,
    1552,
    0,
    1552,
    1552,
    0,
    0,
    0,
    0,
    0,
    0,
    0,
    0,
    0,
    0,
    0,
    0,
    0,
    0,
    1552,
    1552,
    0,
    1552,
    1552,
    0,
    1552,
    1552,
    0,
    0,
    0,
    0,
    0,
    0,
    0,
    0,
    0,
    0,
    0,
    0,
    0,
    0,
    0,
    0,
    0,
    0,
    1552,
    1552,
    1552,
    1552,
    1552,
    1552,
    1552,
    1552,
    1552,
    1552,
    0,
    0,
    0,
    0,
    0,
    0,
    0,
    0,
    0,
    0,
    1552,
    1552,
    1552,
    1552,
    1552,
    0,
    0,
    0,
    0,
    0,
    0,
    0,
    1552,
    1552,
    1552,
    1552,
    1552,
    1552,
    0,
    1552,
    1552,
    0,
    0,
    0,
    0,
    0,
    0,
    0,
    0,
    0,
    0,
    0,
    0,
    0,
    0,
    0,
    0,
    0,
    1552,
    0,
    1552,
    0,
    0,
    0,
    0,
    0,
    0,
    0,
    0,
    0,
    0,
    0,
    0,
    0,
    1552,
    1552,
    0,
    0,
    0,
    0,
    0,
    0,
    1552,
    0,
    0,
    0,
    1552,
    1552,
    0,
    0,
    0,
    0,
    0,
    0,
    0,
    0,
    0,
    0,
    0,
    0,
    1552,
    1552,
    1552,
    0,
    0,
    1552,
    1552,
    0,
    1552,
    1552,
    0,
    0,
    0,
    0,
    0,
    0,
    0,
    0,
    0,
    0,
    0,
    0,
    0,
    0,
    0,
    0,
    0,
    0,
    0,
    1552,
    1552,
    1552,
    1552,
    1552,
    1552,
    1552,
    1552,
    1552,
    1552,
    0,
    0,
    0,
    0,
    0,
    0,
    0,
    0,
    0,
    0,
    1552,
    1552,
    1552,
    0,
    0,
    0,
    0,
    0,
    0,
    0,
    0,
    0,
    1552,
    1552,
    0,
    1552,
    0,
    0,
    1552,
    1552,
    0,
    1552,
    0,
    1552,
    0,
    0,
    0,
    0,
    0,
    0,
    0,
    0,
    0,
    0,
    0,
    0,
    0,
    0,
    0,
    0,
    0,
    0,
    0,
    0,
    0,
    0,
    0,
    0,
    0,
    0,
    0,
    0,
    0,
    1552,
    1552,
    1552,
    0,
    0,
    0,
    0,
    0,
    0,
    0,
    0,
    1552,
    1552,
    0,
    0,
    0,
    0,
    0,
    0,
    0,
    0,
    0,
    0,
    0,
    1552,
    1552,
    1552,
    1552,
    1552,
    0,
    0,
    1552,
    1552,
    0,
    1552,
    1552,
    0,
    0,
    0,
    0,
    0,
    0,
    0,
    0,
    0,
    0,
    0,
    0,
    0,
    0,
    0,
    1552,
    0,
    0,
    0,
    0,
    1552,
    1552,
    1552,
    1552,
    1552,
    1552,
    1552,
    1552,
    1552,
    1552,
    0,
    0,
    0,
    0,
    0,
    0,
    0,
    0,
    0,
    0,
    0,
    0,
    1552,
    1552,
    1552,
    1552,
    1552,
    1552,
    1552,
    0,
    0,
    0,
    0,
    1552,
    1552,
    1552,
    1552,
    1552,
    1552,
    1552,
    0,
    0,
    0,
    0,
    0,
    0,
    0,
    0,
    0,
    0,
    0,
    0,
    0,
    0,
    0,
    0,
    0,
    0,
    0,
    0,
    0,
    0,
    0,
    0,
    0,
    0,
    0,
    0,
    0,
    0,
    0,
    0,
    0,
    1552,
    1552,
    0,
    0,
    0,
    0,
    0,
    0,
    1552,
    1552,
    1552,
    1552,
    0,
    0,
    0,
    0,
    0,
    0,
    0,
    0,
    0,
    1552,
    1552,
    1552,
    1552,
    0,
    0,
    0,
    0,
    0,
    1552,
    1552,
    0,
    1552,
    1552,
    0,
    0,
    0,
    0,
    0,
    0,
    0,
    0,
    0,
    0,
    0,
    0,
    0,
    0,
    0,
    1552,
    0,
    0,
    0,
    0,
    0,
    1552,
    1552,
    1552,
    1552,
    1552,
    1552,
    1552,
    1552,
    1552,
    1552,
    0,
    1552,
    0,
    0,
    0,
    0,
    1552,
    1552,
    1552,
    1552,
    1552,
    1552,
    1552,
    1552,
    1552,
    1552,
    1552,
    1552,
    1552,
    0,
    0,
    0,
    0,
    1552,
    1552,
    1552,
    1552,
    1552,
    1552,
    0,
    0,
    0,
    0,
    0,
    0,
    0,
    0,
    0,
    0,
    0,
    0,
    0,
    0,
    0,
    0,
    0,
    0,
    0,
    0,
    0,
    0,
    0,
    0,
    0,
    0,
    0,
    0,
    0,
    1552,
    0,
    0,
    0,
    1552,
    1552,
    1552,
    1552,
    1552,
    1552,
    1552,
    1552,
    1552,
    1552,
    0,
    0,
    0,
    0,
    0,
    0,
    0,
    0,
    0,
    0,
    1552,
    1552,
    1552,
    0,
    0,
    0,
    0,
    0,
    0,
    1552,
    1552,
    0,
    0,
    1552,
    1552,
    0,
    0,
    0,
    0,
    0,
    0,
    0,
    0,
    0,
    0,
    0,
    0,
    0,
    0,
    0,
    0,
    1552,
    0,
    0,
    0,
    0,
    0,
    1552,
    1552,
    1552,
    1552,
    1552,
    1552,
    1552,
    1552,
    1552,
    1552,
    1552,
    1552,
    1552,
    1552,
    1552,
    1552,
    1552,
    1552,
    1552,
    1552,
    1552,
    1552,
    1552,
    1552,
    1552,
    1552,
    1552,
    1552,
    1552,
    0,
    0,
    0,
    0,
    1552,
    1552,
    1552,
    1552,
    1552,
    1552,
    0,
    0,
    0,
    0,
    0,
    0,
    0,
    0,
    0,
    0,
    0,
    0,
    0,
    0,
    0,
    0,
    0,
    0,
    0,
    0,
    0,
    0,
    0,
    0,
    0,
    0,
    0,
    0,
    1552,
    1552,
    0,
    0,
    0,
    1552,
    1552,
    1552,
    1552,
    1552,
    1552,
    1552,
    0,
    0,
    0,
    0,
    0,
    0,
    0,
    0,
    0,
    0,
    0,
    1552,
    1552,
    0,
    0,
    0,
    0,
    0,
    0,
    0,
    0,
    1552,
    1552,
    0,
    1552,
    1552,
    0,
    0,
    0,
    0,
    0,
    0,
    0,
    0,
    0,
    0,
    0,
    0,
    0,
    0,
    0,
    0,
    1552,
    1552,
    0,
    0,
    1552,
    1552,
    0,
    0,
    1552,
    1552,
    1552,
    1552,
    1552,
    1552,
    1552,
    1552,
    1552,
    1552,
    1552,
    1552,
    1552,
    1552,
    1552,
    1552,
    1552,
    1552,
    1552,
    1552,
    1552,
    1552,
    1552,
    1552,
    1552,
    1552,
    1552,
    1552,
    1552,
    0,
    0,
    0,
    0,
    0,
    0,
    1552,
    1552,
    0,
    0,
    0,
    0,
    0,
    0,
    0,
    0,
    0,
    0,
    0,
    0,
    0,
    0,
    0,
    0,
    0,
    0,
    0,
    0,
    0,
    0,
    0,
    0,
    0,
    0,
    0,
    0,
    0,
    1552,
    1552,
    0,
    0,
    0,
    0,
    0,
    0,
    0,
    0,
    0,
    0,
    0,
    0,
    0,
    0,
    0,
    0,
    0,
    0,
    0,
    0,
    1552,
    1552,
    0,
    0,
    0,
    0,
    0,
    0,
    0,
    0,
    0,
    0,
    1552,
    1552,
    1552,
    1552,
    0,
    0,
    0,
    0,
    0,
    0,
    0,
    0,
    0,
    0,
    0,
    0,
    0,
    0,
    0,
    1552,
    1552,
    1552,
    0,
    1552,
    1552,
    1552,
    0,
    0,
    0,
    1552,
    1552,
    1552,
    1552,
    1552,
    1552,
    1552,
    1552,
    1552,
    1552,
    1552,
    1552,
    1552,
    1552,
    1552,
    1552,
    1552,
    1552,
    1552,
    1552,
    1552,
    0,
    1552,
    1552,
    1552,
    1552,
    1552,
    1552,
    1552,
    1552,
    1552,
    1552,
    0,
    0,
    0,
    0,
    1552,
    0,
    0,
    0,
    0,
    0,
    0,
    0,
    0,
    0,
    0,
    0,
    0,
    0,
    0,
    0,
    0,
    0,
    0,
    0,
    0,
    0,
    0,
    0,
    0,
    0,
    0,
    0,
    0,
    1552,
    1552,
    1552,
    1552,
    1552,
    0,
    0,
    0,
    0,
    0,
    0,
    0,
    0,
    0,
    0,
    0,
    0,
    0,
    0,
    0,
    0,
    0,
    1552,
    1552,
    0,
    0,
    0,
    0,
    0,
    0,
    0,
    0,
    0,
    1552,
    1552,
    1552,
    0,
    0,
    0,
    0,
    0,
    0,
    0,
    0,
    0,
    0,
    0,
    0,
    0,
    0,
    0,
    0,
    0,
    0,
    0,
    1552,
    1552,
    1552,
    1552,
    0,
    1552,
    0,
    0,
    0,
    1552,
    1552,
    1552,
    1552,
    1552,
    1552,
    1552,
    1552,
    1552,
    1552,
    1552,
    1552,
    1552,
    1552,
    1552,
    1552,
    1552,
    1552,
    1552,
    0,
    0,
    1552,
    1552,
    1552,
    1552,
    1552,
    1552,
    1552,
    1552,
    1552,
    1552,
    1552,
    0,
    0,
    0,
    0,
    0,
    0,
    0,
    0,
    0,
    0,
    0,
    0,
    0,
    0,
    0,
    0,
    0,
    0,
    0,
    0,
    0,
    0,
    0,
    0,
    0,
    0,
    0,
    0,
    0,
    0,
    0,
    0,
    1552,
    1552,
    1552,
    1552,
    0,
    0,
    0,
    0,
    0,
    0,
    0,
    0,
    0,
    0,
    0,
    0,
    0,
    0,
    0,
    0,
    0,
    0,
    1552,
    1552,
    0,
    0,
    0,
    0,
    0,
    0,
    0,
    0,
    0,
    1552,
    0,
    0,
    0,
    0,
    0,
    0,
    0,
    0,
    0,
    0,
    0,
    0,
    0,
    0,
    0,
    0,
    0,
    0,
    0,
    0,
    1552,
    0,
    1552,
    1552,
    1552,
    1552,
    0,
    0,
    0,
    0,
    0,
    1552,
    1552,
    1552,
    1552,
    1552,
    1552,
    1552,
    1552,
    1552,
    1552,
    1552,
    1552,
    1552,
    1552,
    1552,
    1552,
    1552,
    1552,
    1552,
    1552,
    1552,
    1552,
    1552,
    1552,
    1552,
    1552,
    1552,
    1552,
    1552,
    1552,
    1552,
    1552,
    0,
    0,
    0,
    0,
    0,
    0,
    0,
    0,
    0,
    0,
    0,
    0,
    0,
    0,
    0,
    0,
    0,
    0,
    0,
    0,
    0,
    0,
    0,
    0,
    0,
    0,
    0,
    0,
    0,
    0,
    0,
    1552,
    1552,
    1552,
    0,
    1552,
    0,
    0,
    0,
    0,
    0,
    0,
    0,
    0,
    0,
    0,
    0,
    0,
    0,
    0,
    0,
    0,
    0,
    1552,
    1552,
    0,
    0,
    0,
    0,
    0,
    0,
    0,
    0,
    0,
    0,
    0,
    0,
    0,
    0,
    0,
    0,
    0,
    0,
    0,
    0,
    0,
    0,
    0,
    0,
    0,
    0,
    0,
    0,
    0,
    0,
    0,
    0,
    0,
    1552,
    1552,
    1552,
    1552,
    0,
    0,
    0,
    0,
    0,
    0,
    0,
    0,
    0,
    0,
    0,
    0,
    1552,
    1552,
    0,
    0,
    0,
    1552,
    1552,
    1552,
    1552,
    1552,
    1552,
    1552,
    1552,
    1552,
    1552,
    1552,
    1552,
    1552,
    1552,
    1552,
    1552,
    1552,
    1552,
    1552,
    1552,
    0,
    0,
    0,
    0,
    0,
    0,
    0,
    0,
    0,
    0,
    0,
    0,
    0,
    0,
    0,
    0,
    0,
    0,
    0,
    0,
    0,
    0,
    0,
    0,
    0,
    0,
    0,
    0,
    0,
    0,
    1552,
    1552,
    1552,
    1552,
    0,
    1552,
    1552,
    1552,
    0,
    0,
    0,
    0,
    0,
    0,
    0,
    0,
    0,
    0,
    0,
    0,
    0,
    0,
    1552,
    1552,
    0,
    0,
    0,
    0,
    0,
    0,
    1552,
    1552,
    0,
    0,
    0,
    0,
    0,
    0,
    0,
    0,
    0,
    0,
    0,
    0,
    0,
    0,
    0,
    0,
    0,
    0,
    0,
    0,
    0,
    0,
    0,
    1552,
    1552,
    0,
    1552,
    1552,
    1552,
    1552,
    0,
    0,
    0,
    0,
    0,
    0,
    0,
    0,
    0,
    0,
    0,
    0,
    0,
    0,
    0,
    0,
    0,
    1552,
    1552,
    1552,
    1552,
    1552,
    1552,
    1552,
    1552,
    1552,
    1552,
    1552,
    1552,
    1552,
    1552,
    1552,
    1552,
    1552,
    1552,
    1552,
    0,
    0,
    0,
    0,
    0,
    0,
    0,
    0,
    0,
    0,
    0,
    0,
    0,
    0,
    0,
    0,
    0,
    0,
    0,
    0,
    0,
    0,
    0,
    0,
    0,
    0,
    0,
    0,
    0,
    0,
    1552,
    1552,
    1552,
    1552,
    1552,
    0,
    1552,
    1552,
    0,
    0,
    0,
    0,
    0,
    0,
    0,
    0,
    0,
    0,
    0,
    0,
    0,
    1552,
    1552,
    0,
    0,
    0,
    0,
    0,
    1552,
    1552,
    1552,
    0,
    0,
    0,
    0,
    0,
    0,
    0,
    0,
    0,
    0,
    0,
    0,
    0,
    0,
    0,
    0,
    0,
    0,
    0,
    0,
    0,
    0,
    0,
    1552,
    1552,
    1552,
    0,
    1552,
    1552,
    1552,
    1552,
    0,
    0,
    1552,
    0,
    0,
    0,
    0,
    0,
    0,
    0,
    0,
    0,
    0,
    0,
    0,
    0,
    0,
    0,
    1552,
    1552,
    1552,
    1552,
    1552,
    1552,
    1552,
    1552,
    1552,
    1552,
    1552,
    1552,
    1552,
    1552,
    1552,
    1552,
    1552,
    1552,
    0,
    0,
    0,
    0,
    0,
    0,
    0,
    0,
    0,
    0,
    0,
    0,
    0,
    0,
    0,
    0,
    0,
    0,
    0,
    0,
    0,
    0,
    0,
    0,
    0,
    0,
    0,
    0,
    0,
    0,
    1552,
    1552,
    1552,
    1552,
    1552,
    0,
    0,
    0,
    0,
    0,
    0,
    0,
    0,
    0,
    0,
    0,
    0,
    0,
    0,
    0,
    0,
    1552,
    1552,
    0,
    0,
    0,
    1552,
    1552,
    1552,
    1552,
    1552,
    0,
    0,
    0,
    0,
    0,
    0,
    0,
    0,
    0,
    0,
    0,
    0,
    0,
    0,
    0,
    0,
    0,
    0,
    0,
    0,
    0,
    0,
    0,
    0,
    0,
    0,
    0,
    0,
    1552,
    1552,
    0,
    0,
    0,
    1552,
    0,
    0,
    0,
    0,
    0,
    0,
    0,
    0,
    0,
    0,
    0,
    1552,
    1552,
    0,
    0,
    0,
    0,
    0,
    1552,
    1552,
    1552,
    1552,
    1552,
    1552,
    1552,
    0,
    0,
    0,
    1552,
    1552,
    1552,
    1552,
    1552,
    0,
    0,
    0,
    0,
    0,
    0,
    0,
    0,
    0,
    0,
    0,
    0,
    0,
    0,
    0,
    0,
    0,
    0,
    0,
    0,
    0,
    0,
    0,
    0,
    0,
    0,
    0,
    0,
    0,
    0,
    1552,
    1552,
    1552,
    1552,
    1552,
    1552,
    0,
    0,
    0,
    0,
    0,
    0,
    0,
    0,
    0,
    0,
    0,
    0,
    0,
    0,
    0,
    0,
    0,
    0,
    1552,
    1552,
    1552,
    1552,
    0,
    0,
    0,
    0,
    0,
    0,
    0,
    0,
    0,
    0,
    0,
    0,
    0,
    0,
    0,
    0,
    0,
    0,
    0,
    0,
    0,
    0,
    0,
    0,
    0,
    0,
    0,
    0,
    0,
    0,
    0,
    1552,
    0,
    0,
    0,
    0,
    0,
    0,
    0,
    0,
    0,
    0,
    0,
    0,
    0,
    0,
    1552,
    1552,
    1552,
    1552,
    0,
    1552,
    1552,
    0,
    0,
    0,
    1552,
    1552,
    1552,
    1552,
    1552,
    0,
    0,
    1552,
    0,
    1552,
    1552,
    1552,
    1552,
    1552,
    0,
    0,
    0,
    0,
    0,
    0,
    0,
    0,
    0,
    0,
    0,
    0,
    0,
    0,
    0,
    0,
    0,
    0,
    0,
    0,
    0,
    0,
    0,
    0,
    0,
    0,
    0,
    0,
    0,
    0,
    1552,
    1552,
    1552,
    1552,
    1552,
    1552,
    1552,
    0,
    0,
    0,
    0,
    0,
    0,
    0,
    0,
    1552,
    0,
    0,
    0,
    0,
    0,
    0,
    0,
    1552,
    1552,
    1552,
    0,
    0,
    0,
    0,
    0,
    0,
    0,
    0,
    0,
    0,
    0,
    0,
    0,
    0,
    0,
    0,
    0,
    0,
    0,
    0,
    0,
    0,
    0,
    0,
    0,
    0,
    0,
    0,
    0,
    0,
    0,
    0,
    0,
    0,
    0,
    0,
    0,
    0,
    0,
    0,
    0,
    0,
    0,
    0,
    0,
    0,
    0,
    0,
    1552,
    0,
    1552,
    1552,
    1552,
    1552,
    1552,
    0,
    0,
    1552,
    1552,
    1552,
    1552,
    1552,
    1552,
    1552,
    1552,
    1552,
    1552,
    1552,
    1552,
    1552,
    1552,
    1552,
    0,
    0,
    0,
    0,
    0,
    0,
    0,
    0,
    0,
    0,
    0,
    0,
    0,
    0,
    0,
    0,
    0,
    0,
    0,
    0,
    0,
    0,
    0,
    0,
    0,
    0,
    0,
    0,
    0,
    0,
    1552,
    1552,
    1552,
    1552,
    1552,
    1552,
    1552,
    0,
    0,
    0,
    0,
    0,
    0,
    0,
    1552,
    1552,
    0,
    0,
    0,
    0,
    0,
    0,
    1552,
    1552,
    0,
    0,
    0,
    0,
    0,
    0,
    1552,
    0,
    1552,
    0,
    0,
    0,
    0,
    0,
    0,
    0,
    0,
    0,
    0,
    0,
    0,
    0,
    0,
    0,
    0,
    0,
    0,
    0,
    0,
    0,
    0,
    0,
    0,
    0,
    0,
    0,
    0,
    0,
    0,
    0,
    0,
    0,
    0,
    0,
    0,
    0,
    0,
    0,
    1552,
    0,
    1552,
    1552,
    1552,
    1552,
    1552,
    1552,
    1552,
    0,
    0,
    0,
    0,
    1552,
    1552,
    1552,
    1552,
    1552,
    1552,
    1552,
    1552,
    1552,
    1552,
    1552,
    1552,
    1552,
    0,
    1552,
    0,
    0,
    0,
    0,
    0,
    0,
    0,
    0,
    0,
    0,
    0,
    0,
    0,
    0,
    0,
    0,
    0,
    0,
    0,
    0,
    0,
    0,
    0,
    0,
    0,
    0,
    0,
    0,
    1552,
    1552,
    1552,
    1552,
    1552,
    1552,
    1552,
    0,
    0,
    0,
    0,
    0,
    1552,
    1552,
    1552,
    0,
    0,
    0,
    0,
    0,
    0,
    1552,
    1552,
    0,
    0,
    0,
    0,
    0,
    0,
    0,
    0,
    1552,
    0,
    0,
    0,
    0,
    0,
    0,
    0,
    0,
    0,
    0,
    0,
    0,
    0,
    0,
    0,
    0,
    0,
    0,
    0,
    0,
    0,
    0,
    0,
    0,
    0,
    0,
    0,
    0,
    0,
    0,
    0,
    0,
    0,
    0,
    0,
    0,
    0,
    0,
    0,
    1552,
    1552,
    1552,
    1552,
    1552,
    1552,
    1552,
    1552,
    1552,
    1552,
    1552,
    0,
    0,
    0,
    1552,
    1552,
    1552,
    1552,
    1552,
    1552,
    1552,
    1552,
    1552,
    1552,
    1552,
    1552,
    0,
    0,
    0,
    0,
    0,
    0,
    0,
    0,
    0,
    0,
    0,
    0,
    0,
    0,
    0,
    0,
    0,
    0,
    0,
    0,
    0,
    0,
    0,
    0,
    0,
    0,
    0,
    0,
    0,
    0,
    0,
    1552,
    1552,
    1552,
    1552,
    1552,
    1552,
    0,
    0,
    0,
    0,
    0,
    1552,
    1552,
    1552,
    0,
    0,
    0,
    0,
    0,
    0,
    0,
    1552,
    1552,
    0,
    0,
    0,
    0,
    0,
    1552,
    1552,
    0,
    0,
    0,
    0,
    0,
    0,
    0,
    0,
    0,
    0,
    0,
    0,
    0,
    0,
    0,
    0,
    0,
    0,
    0,
    0,
    0,
    0,
    0,
    0,
    0,
    0,
    0,
    0,
    0,
    0,
    0,
    0,
    0,
    0,
    0,
    0,
    0,
    0,
    0,
    0,
    0,
    1552,
    1552,
    1552,
    1552,
    0,
    0,
    1552,
    1552,
    1552,
    1552,
    1552,
    1552,
    0,
    0,
    0,
    1552,
    1552,
    1552,
    1552,
    1552,
    1552,
    1552,
    1552,
    1552,
    1552,
    0,
    0,
    0,
    0,
    0,
    0,
    0,
    0,
    0,
    0,
    0,
    0,
    0,
    0,
    0,
    0,
    0,
    0,
    0,
    0,
    0,
    0,
    0,
    0,
    0,
    0,
    0,
    0,
    0,
    0,
    0,
    0,
    1552,
    1552,
    1552,
    1552,
    0,
    1552,
    0,
    0,
    0,
    0,
    1552,
    1552,
    0,
    0,
    0,
    1552,
    1552,
    1552,
    0,
    0,
    0,
    1552,
    1552,
    0,
    0,
    0,
    0,
    1552,
    1552,
    0,
    1552,
    1552,
    0,
    0,
    0,
    0,
    0,
    0,
    0,
    0,
    0,
    0,
    0,
    0,
    0,
    0,
    0,
    0,
    0,
    0,
    0,
    0,
    0,
    0,
    0,
    0,
    0,
    0,
    0,
    0,
    0,
    0,
    0,
    0,
    0,
    0,
    0,
    0,
    0,
    0,
    0,
    0,
    0,
    1552,
    1552,
    1552,
    1552,
    1552,
    1552,
    1552,
    1552,
    1552,
    0,
    1552,
    0,
    0,
    0,
    1552,
    1552,
    1552,
    1552,
    1552,
    1552,
    1552,
    1552,
    0,
    0,
    0,
    0,
    0,
    0,
    0,
    0,
    0,
    0,
    0,
    0,
    0,
    0,
    0,
    0,
    0,
    0,
    0,
    0,
    0,
    0,
    0,
    0,
    0,
    0,
    0,
    0,
    0,
    0,
    0,
    0,
    0,
    1552,
    1552,
    1552,
    1552,
    0,
    0,
    0,
    0,
    0,
    1552,
    1552,
    0,
    0,
    0,
    1552,
    1552,
    1552,
    0,
    0,
    0,
    0,
    1552,
    1552,
    0,
    0,
    0,
    1552,
    1552,
    1552,
    1552,
    1552,
    1552,
    1552,
    1552,
    0,
    1552,
    1552,
    0,
    0,
    0,
    0,
    0,
    0,
    0,
    0,
    0,
    0,
    0,
    0,
    0,
    0,
    0,
    0,
    0,
    0,
    0,
    0,
    0,
    0,
    0,
    0,
    0,
    0,
    0,
    0,
    0,
    0,
    0,
    0,
    0,
    0,
    0,
    0,
    0,
    1552,
    1552,
    1552,
    1552,
    0,
    1552,
    1552,
    0,
    0,
    0,
    0,
    0,
    0,
    0,
    1552,
    1552,
    1552,
    1552,
    1552,
    1552,
    1552,
    0,
    0,
    0,
    0,
    0,
    0,
    0,
    0,
    0,
    0,
    0,
    0,
    0,
    0,
    0,
    0,
    0,
    0,
    0,
    0,
    0,
    0,
    0,
    0,
    0,
    0,
    0,
    0,
    0,
    0,
    0,
    0,
    0,
    1552,
    1552,
    1552,
    1552,
    1552,
    0,
    0,
    0,
    0,
    1552,
    1552,
    0,
    0,
    1552,
    1552,
    1552,
    1552,
    0,
    0,
    0,
    0,
    1552,
    1552,
    0,
    0,
    0,
    1552,
    1552,
    1552,
    1552,
    0,
    1552,
    1552,
    1552,
    1552,
    1552,
    1552,
    0,
    0,
    0,
    0,
    0,
    0,
    0,
    0,
    0,
    0,
    0,
    0,
    0,
    0,
    0,
    0,
    0,
    0,
    0,
    0,
    0,
    0,
    0,
    0,
    0,
    0,
    0,
    0,
    0,
    0,
    0,
    0,
    0,
    0,
    0,
    0,
    0,
    1552,
    1552,
    0,
    0,
    1552,
    1552,
    0,
    0,
    0,
    0,
    0,
    0,
    0,
    0,
    1552,
    1552,
    1552,
    1552,
    1552,
    1552,
    1552,
    0,
    0,
    0,
    0,
    0,
    0,
    0,
    0,
    0,
    0,
    0,
    0,
    0,
    0,
    0,
    0,
    0,
    0,
    0,
    0,
    0,
    0,
    0,
    0,
    0,
    0,
    0,
    0,
    0,
    0,
    0,
    0,
    0,
    1552,
    1552,
    1552,
    1552,
    1552,
    0,
    0,
    0,
    0,
    1552,
    1552,
    0,
    0,
    1552,
    1552,
    0,
    0,
    0,
    0,
    0,
    0,
    1552,
    1552,
    0,
    0,
    0,
    1552,
    1552,
    1552,
    1552,
    1552,
    1552,
    1552,
    1552,
    1552,
    1552,
    0,
    0,
    0,
    0,
    0,
    1552,
    0,
    0,
    0,
    0,
    0,
    0,
    0,
    0,
    0,
    0,
    0,
    0,
    0,
    0,
    0,
    0,
    0,
    0,
    0,
    0,
    0,
    0,
    0,
    0,
    0,
    0,
    0,
    0,
    0,
    0,
    0,
    0,
    0,
    0,
    0,
    1552,
    0,
    0,
    0,
    1552,
    1552,
    0,
    0,
    0,
    0,
    0,
    1552,
    1552,
    1552,
    1552,
    1552,
    1552,
    1552,
    0,
    0,
    0,
    0,
    0,
    0,
    0,
    0,
    0,
    0,
    0,
    0,
    0,
    0,
    0,
    0,
    0,
    0,
    0,
    0,
    0,
    0,
    0,
    0,
    0,
    0,
    0,
    0,
    0,
    0,
    0,
    0,
    0,
    1552,
    1552,
    1552,
    1552,
    0,
    0,
    0,
    0,
    0,
    1552,
    1552,
    0,
    0,
    0,
    0,
    0,
    0,
    0,
    0,
    0,
    0,
    1552,
    1552,
    0,
    0,
    0,
    0,
    1552,
    1552,
    1552,
    1552,
    0,
    1552,
    1552,
    1552,
    0,
    0,
    0,
    0,
    0,
    0,
    0,
    0,
    0,
    0,
    0,
    0,
    0,
    0,
    0,
    0,
    0,
    0,
    0,
    0,
    0,
    0,
    0,
    0,
    0,
    0,
    0,
    0,
    0,
    0,
    0,
    0,
    0,
    0,
    0,
    0,
    0,
    0,
    0,
    0,
    0,
    0,
    0,
    0,
    0,
    0,
    1552,
    1552,
    0,
    0,
    0,
    0,
    0,
    1552,
    1552,
    1552,
    1552,
    1552,
    1552,
    1552,
    1552,
    0,
    0,
    0,
    0,
    0,
    0,
    0,
    1552,
    0,
    0,
    0,
    0,
    0,
    0,
    0,
    0,
    0,
    0,
    0,
    0,
    0,
    0,
    0,
    0,
    0,
    0,
    0,
    0,
    0,
    0,
    0,
    0,
    1552,
    1552,
    1552,
    1552,
    0,
    0,
    0,
    0,
    0,
    1552,
    1552,
    0,
    0,
    1552,
    0,
    0,
    0,
    0,
    0,
    0,
    0,
    1552,
    1552,
    0,
    0,
    1552,
    1552,
    1552,
    1552,
    1552,
    1552,
    0,
    1552,
    1552,
    1552,
    0,
    0,
    0,
    0,
    0,
    0,
    0,
    0,
    0,
    0,
    0,
    0,
    0,
    0,
    0,
    0,
    0,
    0,
    0,
    0,
    0,
    0,
    0,
    0,
    0,
    0,
    0,
    0,
    0,
    0,
    0,
    0,
    0,
    0,
    0,
    0,
    0,
    0,
    0,
    0,
    0,
    0,
    0,
    0,
    0,
    0,
    0,
    0,
    0,
    0,
    0,
    0,
    0,
    0,
    1552,
    1552,
    1552,
    1552,
    1552,
    1552,
    1552,
    0,
    0,
    0,
    0,
    0,
    0,
    0,
    0,
    1552,
    1552,
    1552,
    1552,
    0,
    0,
    0,
    0,
    0,
    0,
    0,
    0,
    0,
    0,
    0,
    0,
    0,
    0,
    0,
    0,
    0,
    0,
    0,
    0,
    1552,
    1552,
    1552,
    1552,
    0,
    0,
    0,
    0,
    0,
    1552,
    1552,
    0,
    0,
    1552,
    0,
    0,
    0,
    0,
    0,
    0,
    0,
    1552,
    0,
    0,
    0,
    0,
    1552,
    1552,
    1552,
    1552,
    1552,
    1552,
    1552,
    1552,
    0,
    1552,
    1552,
    0,
    0,
    0,
    0,
    0,
    0,
    0,
    0,
    0,
    0,
    0,
    0,
    0,
    0,
    0,
    0,
    0,
    0,
    0,
    0,
    0,
    0,
    0,
    0,
    0,
    0,
    0,
    0,
    0,
    0,
    0,
    0,
    0,
    0,
    0,
    0,
    0,
    0,
    0,
    0,
    0,
    0,
    0,
    0,
    0,
    1552,
    0,
    0,
    0,
    0,
    0,
    0,
    1552,
    1552,
    1552,
    1552,
    1552,
    1552,
    1552,
    1552,
    0,
    1552,
    0,
    0,
    0,
    0,
    0,
    1552,
    1552,
    1552,
    1552,
    1552,
    0,
    0,
    0,
    0,
    0,
    0,
    0,
    0,
    0,
    0,
    0,
    0,
    0,
    0,
    0,
    0,
    0,
    0,
    0,
    1552,
    1552,
    0,
    0,
    0,
    0,
    0,
    0,
    0,
    1552,
    1552,
    0,
    0,
    0,
    0,
    0,
    0,
    0,
    0,
    0,
    1552,
    1552,
    0,
    0,
    0,
    1552,
    1552,
    0,
    1552,
    0,
    1552,
    1552,
    1552,
    1552,
    1552,
    1552,
    0,
    0,
    0,
    0,
    0,
    0,
    0,
    0,
    0,
    0,
    0,
    0,
    0,
    0,
    0,
    0,
    0,
    0,
    0,
    0,
    0,
    0,
    0,
    0,
    0,
    0,
    0,
    0,
    0,
    0,
    0,
    0,
    0,
    0,
    0,
    0,
    0,
    0,
    0,
    0,
    0,
    0,
    0,
    0,
    0,
    0,
    0,
    0,
    0,
    0,
    0,
    0,
    0,
    1552,
    1552,
    1552,
    1552,
    1552,
    1552,
    1552,
    1552,
    0,
    0,
    0,
    0,
    0,
    0,
    0,
    0,
    0,
    1552,
    0,
    0,
    0,
    0,
    0,
    0,
    0,
    0,
    0,
    0,
    0,
    0,
    0,
    0,
    0,
    0,
    0,
    0,
    0,
    0,
    0,
    1552,
    1552,
    0,
    0,
    0,
    0,
    0,
    0,
    0,
    1552,
    1552,
    0,
    0,
    0,
    0,
    0,
    0,
    0,
    0,
    0,
    0,
    0,
    0,
    0,
    0,
    1552,
    1552,
    0,
    1552,
    1552,
    1552,
    1552,
    1552,
    1552,
    1552,
    1552,
    0,
    0,
    0,
    0,
    0,
    0,
    0,
    0,
    0,
    0,
    0,
    0,
    0,
    0,
    0,
    0,
    0,
    0,
    0,
    0,
    0,
    0,
    0,
    0,
    0,
    0,
    0,
    0,
    0,
    0,
    0,
    0,
    0,
    0,
    0,
    0,
    0,
    0,
    0,
    0,
    0,
    0,
    0,
    0,
    0,
    0,
    0,
    0,
    0,
    0,
    0,
    0,
    0,
    1552,
    1552,
    1552,
    1552,
    1552,
    1552,
    1552,
    1552,
    0,
    0,
    0,
    0,
    0,
    0,
    0,
    0,
    0,
    0,
    0,
    0,
    0,
    0,
    0,
    0,
    0,
    0,
    0,
    0,
    0,
    0,
    0,
    0,
    0,
    0,
    0,
    0,
    0,
    0,
    0,
    1552,
    0,
    1552,
    0,
    0,
    0,
    0,
    0,
    1552,
    1552,
    0,
    0,
    0,
    0,
    0,
    1552,
    1552,
    0,
    0,
    0,
    0,
    0,
    0,
    1552,
    0,
    0,
    1552,
    1552,
    1552,
    1552,
    0,
    1552,
    1552,
    1552,
    0,
    0,
    0,
    0,
    0,
    0,
    0,
    0,
    0,
    0,
    0,
    0,
    0,
    0,
    0,
    0,
    0,
    0,
    0,
    0,
    0,
    0,
    0,
    0,
    0,
    0,
    0,
    0,
    0,
    0,
    0,
    0,
    0,
    0,
    0,
    0,
    0,
    0,
    0,
    0,
    0,
    0,
    0,
    0,
    0,
    0,
    0,
    0,
    0,
    0,
    0,
    0,
    0,
    0,
    0,
    1552,
    1552,
    1552,
    1552,
    1552,
    1552,
    1552,
    1552,
    0,
    0,
    0,
    0,
    0,
    0,
    0,
    0,
    0,
    0,
    0,
    0,
    0,
    0,
    1552,
    0,
    0,
    0,
    0,
    0,
    0,
    0,
    0,
    0,
    0,
    0,
    0,
    0,
    0,
    0,
    0,
    0,
    0,
    0,
    0,
    0,
    0,
    0,
    1552,
    1552,
    1552,
    0,
    0,
    0,
    0,
    1552,
    1552,
    0,
    0,
    0,
    0,
    0,
    0,
    0,
    0,
    1552,
    1552,
    0,
    1552,
    1552,
    0,
    0,
    0,
    1552,
    1552,
    0,
    0,
    0,
    0,
    0,
    0,
    0,
    0,
    0,
    0,
    0,
    0,
    0,
    0,
    0,
    0,
    0,
    0,
    0,
    0,
    0,
    0,
    0,
    0,
    0,
    0,
    0,
    0,
    0,
    0,
    0,
    0,
    0,
    0,
    0,
    0,
    0,
    0,
    0,
    0,
    0,
    0,
    0,
    0,
    0,
    0,
    0,
    0,
    0,
    0,
    0,
    0,
    1552,
    0,
    0,
    0,
    1552,
    1552,
    1552,
    1552,
    1552,
    1552,
    1552,
    1552,
    1552,
    1552,
    1552,
    1552,
    1552,
    0,
    0,
    0,
    0,
    0,
    0,
    0,
    1552,
    1552,
    0,
    0,
    0,
    0,
    0,
    0,
    0,
    0,
    0,
    0,
    0,
    0,
    0,
    0,
    0,
    0,
    0,
    0,
    0,
    0,
    0,
    0,
    1552,
    1552,
    0,
    0,
    0,
    0,
    0,
    1552,
    1552,
    1552,
    0,
    0,
    0,
    0,
    0,
    0,
    0,
    0,
    1552,
    1552,
    0,
    1552,
    1552,
    0,
    0,
    0,
    0,
    0,
    0,
    0,
    0,
    0,
    0,
    0,
    0,
    0,
    0,
    0,
    0,
    0,
    0,
    0,
    0,
    0,
    0,
    0,
    0,
    0,
    0,
    0,
    0,
    0,
    0,
    0,
    0,
    0,
    0,
    0,
    0,
    0,
    0,
    0,
    0,
    0,
    0,
    0,
    0,
    0,
    0,
    0,
    0,
    0,
    0,
    0,
    0,
    0,
    0,
    0,
    0,
    0,
    1552,
    1552,
    0,
    0,
    0,
    1552,
    1552,
    1552,
    1552,
    1552,
    1552,
    1552,
    1552,
    1552,
    1552,
    1552,
    1552,
    1552,
    0,
    0,
    0,
    0,
    0,
    0,
    0,
    0,
    1552,
    0,
    0,
    0,
    0,
    0,
    0,
    0,
    0,
    0,
    0,
    0,
    0,
    0,
    0,
    0,
    0,
    0,
    0,
    0,
    0,
    0,
    1552,
    1552,
    0,
    0,
    0,
    0,
    1552,
    1552,
    0,
    0,
    0,
    0,
    0,
    0,
    0,
    0,
    0,
    0,
    0,
    0,
    0,
    0,
    0,
    0,
    0,
    0,
    0,
    0,
    0,
    0,
    0,
    0,
    0,
    0,
    0,
    0,
    0,
    0,
    0,
    0,
    0,
    0,
    0,
    0,
    0,
    0,
    0,
    0,
    0,
    0,
    0,
    0,
    0,
    0,
    0,
    0,
    0,
    0,
    0,
    0,
    0,
    0,
    0,
    0,
    0,
    0,
    0,
    0,
    0,
    0,
    0,
    0,
    0,
    0,
    0,
    0,
    0,
    1552,
    0,
    1552,
    1552,
    1552,
    0,
    0,
    0,
    0,
    1552,
    1552,
    1552,
    1552,
    1552,
    1552,
    1552,
    1552,
    1552,
    1552,
    1552,
    1552,
    1552,
    0,
    0,
    0,
    0,
    0,
    0,
    0,
    0,
    0,
    0,
    0,
    0,
    0,
    0,
    0,
    0,
    0,
    0,
    0,
    0,
    0,
    0,
    0,
    0,
    0,
    0,
    0,
    0,
    0,
    1552,
    1552,
    0,
    0,
    0,
    0,
    1552,
    1552,
    0,
    0,
    0,
    0,
    1552,
    0,
    0,
    0,
    0,
    0,
    0,
    0,
    0,
    0,
    0,
    0,
    0,
    0,
    0,
    0,
    0,
    0,
    0,
    0,
    0,
    0,
    0,
    0,
    0,
    0,
    0,
    0,
    0,
    0,
    0,
    0,
    0,
    0,
    0,
    0,
    0,
    0,
    0,
    0,
    0,
    0,
    0,
    0,
    0,
    0,
    0,
    0,
    0,
    0,
    0,
    0,
    0,
    0,
    0,
    0,
    0,
    0,
    0,
    0,
    0,
    0,
    0,
    0,
    0,
    0,
    0,
    1552,
    1552,
    1552,
    1552,
    1552,
    1552,
    0,
    0,
    1552,
    1552,
    1552,
    1552,
    1552,
    1552,
    1552,
    1552,
    1552,
    1552,
    1552,
    1552,
    1552,
    0,
    0,
    0,
    0,
    0,
    0,
    0,
    0,
    0,
    0,
    0,
    0,
    0,
    0,
    0,
    0,
    0,
    0,
    0,
    0,
    0,
    0,
    0,
    0,
    0,
    0,
    0,
    0,
    1552,
    1552,
    0,
    0,
    0,
    0,
    1552,
    1552,
    0,
    0,
    0,
    1552,
    1552,
    0,
    0,
    0,
    0,
    0,
    0,
    0,
    0,
    0,
    0,
    0,
    0,
    0,
    0,
    0,
    0,
    0,
    0,
    0,
    0,
    0,
    0,
    0,
    0,
    0,
    0,
    0,
    0,
    0,
    0,
    0,
    0,
    0,
    0,
    0,
    0,
    0,
    0,
    0,
    0,
    0,
    0,
    0,
    0,
    0,
    0,
    0,
    0,
    0,
    0,
    0,
    0,
    0,
    0,
    0,
    0,
    0,
    0,
    0,
    0,
    0,
    0,
    0,
    0,
    0,
    1552,
    1552,
    1552,
    1552,
    1552,
    1552,
    1552,
    0,
    0,
    0,
    1552,
    1552,
    1552,
    1552,
    1552,
    1552,
    1552,
    1552,
    1552,
    1552,
    1552,
    1552,
    1552,
    0,
    0,
    0,
    0,
    0,
    0,
    0,
    0,
    0,
    0,
    0,
    0,
    0,
    0,
    0,
    0,
    0,
    0,
    0,
    0,
    0,
    0,
    0,
    0,
    0,
    0,
    0,
    1552,
    1552,
    0,
    0,
    0,
    0,
    1552,
    1552,
    0,
    0,
    1552,
    1552,
    1552,
    1552,
    0,
    0,
    0,
    0,
    0,
    0,
    0,
    0,
    0,
    0,
    0,
    0,
    0,
    0,
    0,
    0,
    0,
    0,
    0,
    0,
    0,
    0,
    0,
    0,
    0,
    0,
    0,
    0,
    0,
    0,
    0,
    0,
    0,
    0,
    0,
    0,
    0,
    0,
    0,
    0,
    0,
    0,
    0,
    0,
    0,
    0,
    0,
    0,
    0,
    0,
    0,
    0,
    0,
    0,
    0,
    0,
    0,
    0,
    0,
    0,
    0,
    0,
    0,
    0,
    0,
    0,
    0,
    1552,
    1552,
    0,
    0,
    1552,
    0,
    0,
    0,
    0,
    0,
    0,
    0,
    1552,
    1552,
    1552,
    1552,
    1552,
    1552,
    1552,
    1552,
    0,
    0,
    0,
    0,
    0,
    0,
    0,
    0,
    0,
    0,
    0,
    0,
    0,
    0,
    0,
    0,
    0,
    0,
    0,
    0,
    0,
    0,
    0,
    0,
    0,
    0,
    1552,
    1552,
    0,
    0,
    0,
    0,
    0,
    1552,
    1552,
    0,
    0,
    0,
    0,
    1552,
    1552,
    1552,
    1552,
    0,
    0,
    0,
    0,
    0,
    0,
    0,
    0,
    0,
    0,
    0,
    0,
    0,
    0,
    0,
    0,
    0,
    0,
    0,
    0,
    0,
    0,
    0,
    0,
    0,
    0,
    0,
    0,
    0,
    0,
    1552,
    0,
    0,
    0,
    0,
    0,
    0,
    0,
    0,
    0,
    0,
    0,
    0,
    0,
    0,
    0,
    0,
    0,
    0,
    0,
    0,
    0,
    0,
    0,
    0,
    0,
    0,
    0,
    0,
    0,
    0,
    0,
    0,
    0,
    0,
    0,
    1552,
    0,
    0,
    0,
    0,
    0,
    0,
    0,
    0,
    0,
    0,
    0,
    1552,
    1552,
    1552,
    1552,
    1552,
    1552,
    1552,
    1552,
    0,
    0,
    0,
    0,
    0,
    0,
    0,
    0,
    0,
    0,
    0,
    0,
    0,
    0,
    0,
    0,
    0,
    0,
    0,
    0,
    0,
    0,
    0,
    0,
    0,
    1552,
    1552,
    0,
    0,
    0,
    0,
    0,
    1552,
    1552,
    0,
    0,
    0,
    0,
    1552,
    0,
    1552,
    1552,
    1552,
    0,
    0,
    0,
    0,
    0,
    0,
    0,
    0,
    0,
    0,
    0,
    0,
    0,
    0,
    0,
    0,
    0,
    0,
    0,
    0,
    0,
    0,
    0,
    0,
    0,
    0,
    0,
    1552,
    1552,
    1552,
    0,
    1552,
    0,
    0,
    0,
    0,
    0,
    0,
    0,
    0,
    0,
    0,
    0,
    0,
    0,
    0,
    0,
    0,
    0,
    0,
    0,
    0,
    0,
    0,
    0,
    0,
    0,
    0,
    0,
    0,
    0,
    0,
    0,
    0,
    0,
    0,
    1552,
    0,
    0,
    0,
    0,
    0,
    0,
    0,
    0,
    0,
    0,
    0,
    1552,
    1552,
    1552,
    1552,
    1552,
    1552,
    1552,
    1552,
    1552,
    0,
    0,
    0,
    0,
    0,
    0,
    0,
    0,
    0,
    0,
    0,
    0,
    0,
    0,
    0,
    0,
    0,
    0,
    0,
    1552,
    0,
    0,
    0,
    0,
    0,
    0,
    0,
    0,
    1552,
    0,
    1552,
    1552,
    0,
    0,
    0,
    1552,
    1552,
    1552,
    1552,
    0,
    1552,
    0,
    0,
    0,
    0,
    0,
    0,
    0,
    0,
    0,
    0,
    0,
    0,
    0,
    0,
    0,
    0,
    0,
    0,
    0,
    0,
    0,
    0,
    0,
    0,
    0,
    0,
    1552,
    1552,
    1552,
    0,
    0,
    0,
    0,
    0,
    0,
    0,
    0,
    0,
    0,
    0,
    0,
    0,
    0,
    0,
    0,
    0,
    0,
    0,
    0,
    0,
    0,
    0,
    0,
    0,
    0,
    0,
    0,
    0,
    0,
    0,
    0,
    0,
    0,
    0,
    0,
    0,
    0,
    0,
    0,
    0,
    0,
    0,
    0,
    0,
    0,
    0,
    0,
    0,
    0,
    1552,
    1552,
    1552,
    1552,
    1552,
    1552,
    1552,
    1552,
    1552,
    0,
    0,
    0,
    0,
    0,
    0,
    0,
    0,
    0,
    0,
    0,
    0,
    0,
    0,
    0,
    0,
    0,
    1552,
    1552,
    0,
    0,
    0,
    0,
    0,
    0,
    0,
    0,
    0,
    0,
    1552,
    1552,
    1552,
    0,
    0,
    1552,
    1552,
    0,
    1552,
    1552,
    1552,
    0,
    0,
    0,
    0,
    0,
    0,
    0,
    0,
    0,
    0,
    0,
    0,
    0,
    0,
    1552,
    0,
    0,
    0,
    0,
    0,
    0,
    0,
    0,
    0,
    0,
    0,
    0,
    0,
    0,
    1552,
    0,
    0,
    0,
    0,
    0,
    0,
    0,
    0,
    0,
    0,
    0,
    0,
    0,
    0,
    0,
    0,
    0,
    0,
    0,
    0,
    0,
    0,
    0,
    0,
    0,
    0,
    0,
    0,
    0,
    0,
    0,
    0,
    0,
    0,
    0,
    0,
    0,
    0,
    0,
    0,
    0,
    0,
    0,
    0,
    0,
    0,
    0,
    1552,
    0,
    0,
    1552,
    1552,
    1552,
    1552,
    1552,
    1552,
    1552,
    1552,
    1552,
    0,
    0,
    0,
    0,
    0,
    0,
    0,
    0,
    0,
    0,
    0,
    0,
    0,
    0,
    0,
    0,
    1552,
    0,
    0,
    0,
    0,
    0,
    0,
    0,
    0,
    0,
    0,
    1552,
    1552,
    0,
    0,
    0,
    1552,
    0,
    0,
    0,
    1552,
    1552,
    0,
    0,
    0,
    0,
    0,
    0,
    0,
    0,
    0,
    0,
    0,
    0,
    0,
    0,
    0,
    1552,
    1552,
    0,
    0,
    0,
    0,
    0,
    0,
    0,
    0,
    0,
    0,
    0,
    1552,
    0,
    1552,
    0,
    0,
    0,
    0,
    0,
    0,
    0,
    0,
    0,
    0,
    0,
    0,
    0,
    0,
    0,
    0,
    0,
    0,
    0,
    0,
    0,
    0,
    0,
    0,
    0,
    0,
    0,
    0,
    0,
    0,
    0,
    0,
    0,
    0,
    0,
    0,
    0,
    0,
    0,
    0,
    0,
    0,
    0,
    0,
    0,
    0,
    0,
    0,
    0,
    0,
    0,
    1552,
    1552,
    1552,
    1552,
    1552,
    1552,
    1552,
    1552,
    1552,
    0,
    0,
    0,
    0,
    0,
    0,
    0,
    0,
    0,
    0,
    0,
    0,
    0,
    0,
    0,
    0,
    0,
    0,
    0,
    1552,
    0,
    0,
    0,
    0,
    1552,
    1552,
    1552,
    1552,
    0,
    0,
    0,
    0,
    1552,
    0,
    1552,
    0,
    0,
    0,
    0,
    0,
    0,
    0,
    0,
    0,
    0,
    0,
    0,
    0,
    0,
    0,
    0,
    0,
    0,
    0,
    0,
    0,
    0,
    0,
    0,
    0,
    0,
    0,
    0,
    0,
    0,
    0,
    0,
    0,
    0,
    0,
    0,
    0,
    0,
    0,
    0,
    0,
    0,
    0,
    0,
    0,
    0,
    0,
    0,
    0,
    0,
    0,
    0,
    0,
    0,
    0,
    0,
    0,
    0,
    0,
    0,
    0,
    0,
    0,
    0,
    0,
    0,
    0,
    0,
    0,
    0,
    0,
    0,
    0,
    0,
    0,
    0,
    0,
    0,
    0,
    0,
    0,
    0,
    0,
    0,
    0,
    1552,
    1552,
    1552,
    1552,
    1552,
    1552,
    1552,
    1552,
    1552,
    0,
    0,
    0,
    0,
    0,
    0,
    0,
    0,
    0,
    0,
    0,
    0,
    0,
    0,
    0,
    0,
    1552,
    1552,
    0,
    0,
    0,
    0,
    1552,
    1552,
    1552,
    0,
    0,
    0,
    0,
    0,
    0,
    0,
    0,
    0,
    0,
    0,
    0,
    0,
    0,
    0,
    0,
    0,
    0,
    0,
    0,
    0,
    0,
    0,
    0,
    0,
    0,
    0,
    0,
    0,
    0,
    0,
    0,
    0,
    0,
    0,
    0,
    0,
    0,
    0,
    0,
    0,
    0,
    0,
    0,
    0,
    0,
    0,
    0,
    0,
    0,
    0,
    0,
    0,
    0,
    0,
    0,
    0,
    0,
    0,
    0,
    0,
    0,
    0,
    0,
    0,
    0,
    0,
    0,
    0,
    0,
    0,
    0,
    0,
    0,
    0,
    0,
    0,
    0,
    0,
    0,
    0,
    0,
    0,
    0,
    0,
    0,
    0,
    0,
    0,
    0,
    0,
    0,
    0,
    0,
    0,
    1552,
    1552,
    1552,
    1552,
    1552,
    1552,
    1552,
    1552,
    0,
    0,
    0,
    0,
    0,
    0,
    0,
    0,
    0,
    1552,
    0,
    0,
    0,
    1552,
    0,
    1552,
    1552,
    0,
    0,
    0,
    0,
    0,
    1552,
    0,
    0,
    0,
    0,
    0,
    0,
    1552,
    0,
    0,
    0,
    0,
    0,
    0,
    0,
    0,
    0,
    0,
    0,
    0,
    0,
    0,
    0,
    0,
    0,
    0,
    0,
    0,
    0,
    0,
    0,
    0,
    0,
    0,
    0,
    0,
    0,
    0,
    0,
    0,
    0,
    0,
    0,
    0,
    0,
    0,
    0,
    0,
    0,
    0,
    0,
    0,
    0,
    0,
    0,
    0,
    0,
    0,
    0,
    0,
    0,
    0,
    0,
    0,
    0,
    0,
    0,
    0,
    0,
    0,
    0,
    0,
    0,
    0,
    0,
    0,
    0,
    0,
    0,
    0,
    0,
    0,
    0,
    0,
    0,
    0,
    0,
    0,
    0,
    1552,
    0,
    0,
    0,
    0,
    0,
    0,
    0,
    0,
    1552,
    1552,
    1552,
    1552,
    1552,
    1552,
    1552,
    1552,
    1552,
    1552,
    0,
    0,
    0,
    0,
    0,
    0,
    0,
    0,
    0,
    0,
    1552,
    0,
    1552,
    1552,
    1552,
    0,
    0,
    1552,
    1552,
    0,
    0,
    0,
    0,
    0,
    0,
    0,
    0,
    0,
    0,
    0,
    0,
    0,
    0,
    0,
    0,
    0,
    0,
    0,
    0,
    0,
    0,
    0,
    0,
    0,
    0,
    0,
    0,
    0,
    0,
    0,
    0,
    0,
    0,
    0,
    0,
    0,
    0,
    0,
    0,
    0,
    0,
    0,
    0,
    0,
    0,
    0,
    0,
    0,
    0,
    0,
    0,
    0,
    0,
    0,
    0,
    0,
    0,
    0,
    0,
    0,
    0,
    0,
    0,
    0,
    0,
    0,
    0,
    0,
    0,
    0,
    0,
    0,
    0,
    0,
    0,
    0,
    0,
    0,
    0,
    0,
    0,
    0,
    0,
    0,
    0,
    0,
    0,
    0,
    0,
    0,
    0,
    0,
    0,
    0,
    0,
    0,
    0,
    0,
    0,
    1552,
    1552,
    1552,
    1552,
    1552,
    1552,
    1552,
    1552,
    1552,
    1552,
    1552,
    1552,
    1552,
    1552,
    0,
    0,
    0,
    1552,
    0,
    0,
    1552,
    1552,
    1552,
    0,
    0,
    1552,
    1552,
    0,
    0,
    0,
    0,
    0,
    0,
    0,
    0,
    0,
    0,
    0,
    0,
    0,
    0,
    0,
    0,
    0,
    0,
    0,
    0,
    0,
    0,
    0,
    0,
    0,
    0,
    0,
    0,
    0,
    0,
    0,
    0,
    0,
    0,
    1552,
    0,
    0,
    0,
    0,
    0,
    0,
    0,
    0,
    0,
    0,
    0,
    0,
    0,
    0,
    0,
    0,
    0,
    0,
    0,
    0,
    0,
    0,
    0,
    0,
    0,
    0,
    0,
    0,
    0,
    0,
    0,
    0,
    0,
    0,
    0,
    0,
    0,
    0,
    0,
    0,
    0,
    0,
    0,
    0,
    0,
    0,
    0,
    0,
    0,
    0,
    0,
    0,
    0,
    0,
    0,
    0,
    0,
    0,
    0,
    0,
    0,
    0,
    0,
    0,
    0,
    0,
    0,
    1552,
    1552,
    1552,
    1552,
    1552,
    1552,
    1552,
    1552,
    1552,
    1552,
    1552,
    1552,
    1552,
    1552,
    0,
    0,
    0,
    1552,
    1552,
    1552,
    0,
    0,
    1552,
    1552,
    1552,
    1552,
    0,
    0,
    0,
    0,
    0,
    0,
    0,
    0,
    0,
    0,
    0,
    0,
    0,
    0,
    0,
    0,
    0,
    0,
    0,
    0,
    0,
    0,
    0,
    0,
    0,
    0,
    0,
    0,
    0,
    0,
    0,
    0,
    0,
    0,
    0,
    0,
    0,
    0,
    0,
    0,
    0,
    0,
    0,
    0,
    0,
    0,
    0,
    0,
    0,
    0,
    0,
    0,
    0,
    0,
    0,
    0,
    0,
    0,
    0,
    0,
    0,
    0,
    0,
    0,
    0,
    0,
    0,
    0,
    0,
    0,
    0,
    0,
    0,
    0,
    0,
    0,
    0,
    0,
    0,
    0,
    0,
    0,
    0,
    0,
    0,
    0,
    0,
    0,
    0,
    0,
    1552,
    0,
    0,
    0,
    0,
    0,
    0,
    0,
    0,
    0,
    0,
    0,
    0,
    0,
    0,
    1552,
    1552,
    1552,
    1552,
    1552,
    1552,
    1552,
    1552,
    1552,
    1552,
    1552,
    1552,
    0,
    0,
    1552,
    1552,
    1552,
    0,
    1552,
    1552,
    1552,
    0,
    1552,
    0,
    0,
    0,
    0,
    0,
    0,
    0,
    0,
    0,
    0,
    0,
    0,
    0,
    0,
    0,
    0,
    0,
    0,
    0,
    0,
    0,
    0,
    0,
    0,
    0,
    0,
    0,
    0,
    0,
    0,
    0,
    0,
    0,
    0,
    0,
    0,
    0,
    0,
    0,
    0,
    0,
    0,
    0,
    0,
    0,
    0,
    0,
    0,
    0,
    0,
    0,
    0,
    0,
    0,
    0,
    0,
    0,
    0,
    0,
    0,
    0,
    0,
    0,
    0,
    0,
    0,
    0,
    0,
    0,
    0,
    0,
    0,
    0,
    0,
    0,
    0,
    0,
    0,
    0,
    0,
    0,
    0,
    0,
    0,
    0,
    0,
    0,
    0,
    0,
    0,
    0,
    0,
    0,
    0,
    0,
    0,
    0,
    0,
    0,
    0,
    0,
    0,
    0,
    0,
    0,
    0,
    1552,
    1552,
    1552,
    1552,
    1552,
    1552,
    1552,
    1552,
    1552,
    1552,
    1552,
    1552,
    0,
    0,
    1552,
    1552,
    1552,
    1552,
    0,
    0,
    0,
    0,
    0,
    0,
    0,
    0,
    0,
    0,
    0,
    0,
    0,
    0,
    0,
    0,
    0,
    0,
    0,
    0,
    0,
    0,
    0,
    0,
    0,
    0,
    0,
    0,
    0,
    0,
    0,
    0,
    0,
    0,
    0,
    0,
    0,
    0,
    0,
    0,
    0,
    0,
    0,
    0,
    0,
    0,
    0,
    0,
    0,
    0,
    0,
    0,
    0,
    0,
    0,
    0,
    0,
    0,
    0,
    0,
    0,
    0,
    0,
    0,
    0,
    0,
    0,
    0,
    0,
    0,
    0,
    0,
    0,
    0,
    0,
    0,
    0,
    0,
    0,
    0,
    0,
    0,
    0,
    1552,
    0,
    0,
    0,
    0,
    0,
    0,
    0,
    0,
    0,
    0,
    0,
    0,
    0,
    1552,
    0,
    0,
    0,
    0,
    0,
    0,
    0,
    0,
    0,
    0,
    0,
    0,
    0,
    1552,
    1552,
    1552,
    1552,
    1552,
    1552,
    1552,
    1552,
    1552,
    1552,
    1552,
    1552,
    0,
    0,
    1552,
    1552,
    0,
    0,
    0,
    0,
    0,
    0,
    0,
    0,
    0,
    0,
    0,
    0,
    0,
    0,
    0,
    0,
    0,
    0,
    0,
    0,
    0,
    0,
    0,
    0,
    0,
    0,
    0,
    0,
    0,
    0,
    0,
    0,
    0,
    0,
    0,
    0,
    0,
    0,
    0,
    0,
    0,
    0,
    0,
    0,
    0,
    0,
    0,
    0,
    0,
    0,
    0,
    0,
    0,
    0,
    0,
    0,
    0,
    0,
    0,
    0,
    0,
    0,
    0,
    0,
    0,
    0,
    0,
    0,
    0,
    0,
    0,
    0,
    0,
    0,
    0,
    0,
    0,
    0,
    0,
    0,
    0,
    0,
    0,
    0,
    0,
    0,
    1552,
    0,
    0,
    0,
    0,
    0,
    0,
    0,
    0,
    0,
    0,
    0,
    0,
    0,
    0,
    0,
    0,
    0,
    0,
    0,
    0,
    0,
    0,
    0,
    0,
    0,
    0,
    0,
    0,
    0,
    0,
    1552,
    1552,
    1552,
    1552,
    1552,
    1552,
    1552,
    0,
    0,
    0,
    0,
    0,
    0,
    0,
    0,
    0,
    0,
    0,
    0,
    0,
    0,
    0,
    0,
    0,
    0,
    0,
    0,
    0,
    0,
    0,
    0,
    0,
    0,
    0,
    0,
    0,
    0,
    0,
    0,
    0,
    0,
    0,
    0,
    0,
    0,
    0,
    0,
    0,
    0,
    0,
    0,
    0,
    0,
    0,
    0,
    0,
    0,
    0,
    0,
    0,
    0,
    0,
    0,
    0,
    0,
    0,
    0,
    0,
    0,
    0,
    0,
    0,
    0,
    0,
    0,
    0,
    0,
    0,
    0,
    0,
    0,
    0,
    0,
    0,
    0,
    0,
    0,
    0,
    0,
    0,
    0,
    0,
    1552,
    0,
    0,
    0,
    0,
    0,
    0,
    0,
    0,
    0,
    0,
    0,
    0,
    0,
    0,
    0,
    0,
    0,
    0,
    0,
    0,
    0,
    0,
    0,
    0,
    0,
    0,
    0,
    0,
    0,
    0,
    0,
    0,
    0,
    0,
    0,
    0,
    1552,
    1552,
    1552,
    1552,
    1552,
    1552,
    1552,
    0,
    0,
    0,
    0,
    1552,
    0,
    0,
    0,
    0,
    0,
    0,
    0,
    0,
    0,
    0,
    0,
    0,
    0,
    0,
    0,
    0,
    0,
    1552,
    0,
    0,
    0,
    0,
    0,
    0,
    0,
    0,
    0,
    0,
    0,
    0,
    0,
    0,
    0,
    0,
    0,
    0,
    0,
    0,
    0,
    0,
    0,
    0,
    0,
    0,
    0,
    0,
    0,
    0,
    0,
    0,
    0,
    0,
    0,
    0,
    0,
    0,
    0,
    0,
    0,
    0,
    0,
    0,
    0,
    0,
    0,
    0,
    0,
    0,
    0,
    0,
    0,
    0,
    0,
    0,
    0,
    0,
    0,
    0,
    0,
    0,
    0,
    0,
    0,
    0,
    0,
    0,
    0,
    0,
    0,
    0,
    0,
    0,
    0,
    0,
    0,
    0,
    0,
    0,
    0,
    0,
    1552,
    0,
    0,
    0,
    0,
    0,
    0,
    0,
    0,
    0,
    0,
    0,
    0,
    0,
    1552,
    0,
    0,
    1552,
    1552,
    1552,
    1552,
    1552,
    1552,
    1552,
    1552,
    0,
    1552,
    0,
    0,
    0,
    0,
    0,
    0,
    0,
    0,
    0,
    0,
    1552,
    1552,
    0,
    0,
    0,
    0,
    1552,
    1552,
    1552,
    1552,
    1552,
    1552,
    1552,
    1552,
    1552,
    0,
    0,
    0,
    0,
    0,
    0,
    0,
    0,
    0,
    0,
    0,
    0,
    0,
    0,
    0,
    0,
    0,
    0,
    0,
    0,
    0,
    0,
    0,
    0,
    0,
    0,
    0,
    0,
    0,
    0,
    0,
    0,
    0,
    0,
    0,
    0,
    0,
    0,
    0,
    0,
    0,
    0,
    0,
    0,
    0,
    0,
    0,
    0,
    0,
    0,
    0,
    0,
    0,
    0,
    0,
    0,
    0,
    0,
    0,
    0,
    0,
    0,
    0,
    0,
    0,
    0,
    0,
    0,
    0,
    1552,
    0,
    0,
    0,
    0,
    1552,
    1552,
    1552,
    0,
    0,
    0,
    0,
    0,
    0,
    0,
    0,
    0,
    0,
    0,
    0,
    0,
    0,
    1552,
    0,
    0,
    1552,
    1552,
    1552,
    1552,
    1552,
    1552,
    1552,
    0,
    0,
    0,
    0,
    0,
    0,
    0,
    0,
    0,
    1552,
    1552,
    1552,
    1552,
    0,
    0,
    0,
    0,
    1552,
    1552,
    0,
    0,
    0,
    0,
    0,
    0,
    0,
    1552,
    1552,
    0,
    0,
    0,
    0,
    0,
    0,
    0,
    0,
    0,
    0,
    0,
    0,
    0,
    0,
    0,
    0,
    0,
    0,
    0,
    0,
    0,
    0,
    0,
    0,
    0,
    0,
    0,
    0,
    0,
    0,
    0,
    0,
    0,
    0,
    0,
    0,
    0,
    0,
    0,
    0,
    0,
    0,
    0,
    0,
    0,
    0,
    0,
    0,
    0,
    0,
    0,
    0,
    0,
    0,
    0,
    0,
    0,
    0,
    0,
    0,
    0,
    0,
    0,
    0,
    0,
    0,
    0,
    0,
    0,
    0,
    0,
    0,
    0,
    0,
    1552,
    1552,
    1552,
    0,
    0,
    0,
    0,
    0,
    0,
    0,
    0,
    0,
    0,
    0,
    0,
    0,
    0,
    0,
    0,
    0,
    1552,
    1552,
    1552,
    1552,
    1552,
    1552,
    0,
    0,
    0,
    0,
    0,
    0,
    0,
    1552,
    0,
    1552,
    1552,
    1552,
    1552,
    0,
    0,
    1552,
    1552,
    0,
    0,
    0,
    0,
    0,
    0,
    0,
    0,
    0,
    0,
    1552,
    0,
    0,
    0,
    0,
    0,
    0,
    0,
    0,
    0,
    0,
    0,
    0,
    0,
    0,
    0,
    0,
    0,
    0,
    0,
    0,
    0,
    0,
    0,
    0,
    0,
    0,
    0,
    0,
    0,
    0,
    0,
    0,
    0,
    0,
    0,
    0,
    0,
    0,
    0,
    0,
    0,
    0,
    0,
    0,
    0,
    0,
    0,
    0,
    0,
    0,
    0,
    0,
    0,
    0,
    0,
    0,
    0,
    0,
    0,
    0,
    0,
    0,
    0,
    1552,
    0,
    0,
    1552,
    1552,
    1552,
    1552,
    0,
    0,
    0,
    0,
    0,
    0,
    0,
    0,
    1552,
    0,
    0,
    0,
    0,
    0,
    0,
    0,
    0,
    1552,
    0,
    0,
    0,
    0,
    0,
    0,
    1552,
    1552,
    1552,
    1552,
    1552,
    1552,
    0,
    0,
    0,
    0,
    0,
    0,
    0,
    0,
    1552,
    1552,
    1552,
    0,
    0,
    0,
    1552,
    0,
    0,
    0,
    0,
    0,
    0,
    0,
    0,
    0,
    0,
    0,
    0,
    0,
    1552,
    1552,
    0,
    0,
    0,
    0,
    0,
    0,
    0,
    0,
    0,
    0,
    0,
    0,
    0,
    0,
    0,
    0,
    0,
    0,
    0,
    0,
    0,
    0,
    0,
    0,
    0,
    0,
    0,
    0,
    0,
    0,
    0,
    0,
    0,
    0,
    0,
    0,
    0,
    0,
    0,
    0,
    0,
    0,
    0,
    0,
    0,
    0,
    0,
    0,
    0,
    0,
    0,
    0,
    0,
    0,
    0,
    0,
    0,
    0,
    0,
    0,
    0,
    0,
    0,
    0,
    0,
    1552,
    1552,
    1552,
    1552,
    0,
    0,
    0,
    0,
    0,
    0,
    0,
    1552,
    1552,
    0,
    0,
    1552,
    1552,
    0,
    0,
    0,
    0,
    1552,
    1552,
    1552,
    0,
    0,
    0,
    0,
    1552,
    1552,
    1552,
    1552,
    1552,
    0,
    0,
    0,
    0,
    0,
    1552,
    1552,
    1552,
    1552,
    1552,
    0,
    0,
    1552,
    1552,
    0,
    0,
    0,
    0,
    0,
    0,
    0,
    0,
    0,
    0,
    0,
    0,
    0,
    0,
    0,
    1552,
    1552,
    0,
    0,
    0,
    0,
    0,
    0,
    0,
    0,
    0,
    0,
    0,
    0,
    0,
    0,
    0,
    0,
    0,
    0,
    0,
    0,
    0,
    0,
    0,
    0,
    0,
    0,
    0,
    0,
    0,
    0,
    0,
    0,
    0,
    0,
    0,
    0,
    0,
    0,
    0,
    0,
    0,
    0,
    0,
    0,
    0,
    0,
    0,
    0,
    0,
    0,
    0,
    0,
    0,
    0,
    0,
    0,
    0,
    0,
    0,
    0,
    0,
    0,
    0,
    1552,
    1552,
    1552,
    1552,
    1552,
    0,
    0,
    0,
    0,
    0,
    1552,
    1552,
    1552,
    1552,
    0,
    1552,
    1552,
    1552,
    0,
    0,
    1552,
    1552,
    1552,
    1552,
    1552,
    0,
    0,
    0,
    0,
    1552,
    1552,
    1552,
    1552,
    1552,
    0,
    0,
    0,
    0,
    1552,
    1552,
    1552,
    1552,
    0,
    0,
    0,
    1552,
    0,
    0,
    0,
    0,
    0,
    0,
    0,
    1552,
    1552,
    1552,
    1552,
    1552,
    1552,
    0,
    0,
    0,
    0,
    0,
    1552,
    0,
    0,
    0,
    0,
    0,
    0,
    0,
    0,
    0,
    0,
    0,
    0,
    0,
    0,
    0,
    0,
    0,
    0,
    0,
    0,
    0,
    0,
    0,
    0,
    0,
    0,
    0,
    0,
    0,
    0,
    0,
    0,
    0,
    0,
    0,
    0,
    0,
    0,
    0,
    0,
    0,
    0,
    0,
    0,
    0,
    0,
    0,
    0,
    0,
    0,
    0,
    0,
    0,
    0,
    0,
    0,
    0,
    0,
    0,
    0,
    0,
    1552,
    0,
    0,
    1552,
    1552,
    1552,
    0,
    0,
    0,
    0,
    0,
    1552,
    1552,
    1552,
    1552,
    0,
    0,
    1552,
    1552,
    0,
    0,
    0,
    1552,
    1552,
    1552,
    1552,
    0,
    1552,
    0,
    0,
    0,
    0,
    1552,
    1552,
    1552,
    1552,
    0,
    0,
    0,
    0,
    0,
    0,
    1552,
    0,
    0,
    0,
    0,
    1552,
    0,
    0,
    0,
    0,
    0,
    0,
    1552,
    1552,
    0,
    0,
    0,
    0,
    0,
    0,
    0,
    0,
    1552,
    0,
    0,
    1552,
    1552,
    0,
    0,
    0,
    0,
    0,
    0,
    0,
    0,
    0,
    0,
    0,
    0,
    0,
    0,
    0,
    0,
    0,
    0,
    0,
    0,
    0,
    0,
    0,
    0,
    0,
    0,
    0,
    0,
    0,
    0,
    0,
    0,
    0,
    0,
    0,
    0,
    0,
    0,
    0,
    0,
    0,
    0,
    0,
    0,
    0,
    0,
    0,
    0,
    0,
    0,
    0,
    0,
    0,
    0,
    0,
    0,
    0,
    0,
    0,
    0,
    0,
    1552,
    1552,
    1552,
    0,
    0,
    0,
    0,
    0,
    0,
    1552,
    1552,
    1552,
    1552,
    0,
    1552,
    1552,
    1552,
    0,
    0,
    0,
    1552,
    1552,
    1552,
    1552,
    1552,
    1552,
    1552,
    0,
    0,
    0,
    0,
    1552,
    1552,
    1552,
    0,
    0,
    0,
    0,
    0,
    0,
    0,
    0,
    0,
    0,
    0,
    0,
    0,
    0,
    0,
    0,
    0,
    0,
    1552,
    0,
    0,
    0,
    0,
    0,
    0,
    0,
    0,
    0,
    1552,
    1552,
    0,
    0,
    1552,
    1552,
    0,
    0,
    0,
    0,
    0,
    0,
    0,
    0,
    0,
    0,
    0,
    0,
    0,
    0,
    0,
    0,
    0,
    0,
    0,
    0,
    0,
    0,
    0,
    0,
    0,
    0,
    0,
    0,
    0,
    0,
    0,
    0,
    0,
    0,
    0,
    0,
    0,
    0,
    0,
    0,
    0,
    0,
    0,
    0,
    0,
    0,
    0,
    0,
    0,
    0,
    0,
    0,
    0,
    0,
    0,
    0,
    0,
    0,
    0,
    0,
    1552,
    1552,
    0,
    0,
    0,
    0,
    1552,
    1552,
    1552,
    1552,
    1552,
    1552,
    1552,
    0,
    1552,
    1552,
    1552,
    0,
    0,
    0,
    0,
    1552,
    1552,
    1552,
    1552,
    1552,
    1552,
    0,
    0,
    0,
    0,
    0,
    1552,
    1552,
    0,
    0,
    0,
    0,
    0,
    0,
    0,
    0,
    0,
    0,
    0,
    0,
    0,
    0,
    0,
    0,
    0,
    1552,
    1552,
    0,
    0,
    0,
    1552,
    1552,
    0,
    0,
    0,
    0,
    1552,
    1552,
    0,
    0,
    1552,
    1552,
    0,
    0,
    0,
    0,
    0,
    0,
    0,
    0,
    0,
    0,
    0,
    0,
    0,
    0,
    0,
    0,
    0,
    0,
    0,
    0,
    0,
    0,
    0,
    0,
    0,
    0,
    0,
    0,
    0,
    0,
    0,
    0,
    0,
    0,
    0,
    0,
    0,
    0,
    0,
    0,
    0,
    0,
    0,
    0,
    0,
    0,
    0,
    0,
    0,
    0,
    0,
    0,
    0,
    0,
    0,
    0,
    0,
    1552,
    0,
    0,
    1552,
    1552,
    0,
    0,
    0,
    1552,
    1552,
    1552,
    1552,
    1552,
    1552,
    1552,
    1552,
    1552,
    1552,
    1552,
    0,
    0,
    0,
    0,
    0,
    0,
    0,
    1552,
    1552,
    1552,
    1552,
    1552,
    1552,
    0,
    0,
    0,
    0,
    1552,
    0,
    0,
    0,
    0,
    0,
    1552,
    0,
    0,
    0,
    0,
    1552,
    1552,
    0,
    0,
    0,
    1552,
    0,
    1552,
    1552,
    0,
    0,
    1552,
    1552,
    1552,
    1552,
    0,
    0,
    0,
    1552,
    1552,
    0,
    0,
    1552,
    1552,
    0,
    0,
    0,
    0,
    0,
    0,
    0,
    0,
    0,
    0,
    0,
    0,
    0,
    0,
    0,
    0,
    0,
    0,
    0,
    0,
    0,
    0,
    0,
    0,
    0,
    0,
    0,
    0,
    0,
    0,
    0,
    0,
    0,
    0,
    0,
    0,
    0,
    0,
    0,
    0,
    0,
    0,
    0,
    0,
    0,
    0,
    0,
    0,
    0,
    0,
    0,
    0,
    0,
    0,
    0,
    0,
    0,
    0,
    0,
    1552,
    1552,
    0,
    0,
    0,
    1552,
    1552,
    1552,
    1552,
    1552,
    1552,
    1552,
    1552,
    1552,
    1552,
    0,
    0,
    0,
    0,
    0,
    0,
    0,
    0,
    0,
    1552,
    1552,
    1552,
    1552,
    1552,
    1552,
    1552,
    0,
    0,
    0,
    0,
    0,
    0,
    0,
    0,
    1552,
    1552,
    1552,
    0,
    0,
    0,
    1552,
    1552,
    0,
    0,
    0,
    0,
    0,
    1552,
    1552,
    0,
    0,
    0,
    0,
    1552,
    1552,
    1552,
    0,
    0,
    1552,
    1552,
    0,
    0,
    1552,
    1552,
    0,
    0,
    0,
    0,
    0,
    0,
    0,
    0,
    0,
    0,
    0,
    0,
    0,
    0,
    0,
    0,
    0,
    0,
    0,
    0,
    0,
    0,
    0,
    0,
    0,
    0,
    0,
    0,
    0,
    0,
    0,
    0,
    0,
    0,
    0,
    0,
    0,
    0,
    0,
    0,
    0,
    0,
    0,
    0,
    0,
    0,
    0,
    0,
    0,
    0,
    0,
    0,
    0,
    0,
    0,
    0,
    1552,
    0,
    1552,
    1552,
    1552,
    0,
    0,
    0,
    1552,
    1552,
    1552,
    1552,
    1552,
    1552,
    1552,
    1552,
    1552,
    1552,
    0,
    0,
    0,
    0,
    0,
    0,
    0,
    0,
    0,
    0,
    1552,
    1552,
    0,
    1552,
    1552,
    1552,
    1552,
    0,
    0,
    0,
    0,
    0,
    0,
    1552,
    1552,
    1552,
    1552,
    1552,
    0,
    0,
    1552,
    1552,
    0,
    0,
    0,
    0,
    0,
    0,
    1552,
    1552,
    0,
    0,
    1552,
    1552,
    1552,
    1552,
    0,
    0,
    0,
    1552,
    0,
    0,
    0,
    1552,
    0,
    0,
    0,
    0,
    0,
    0,
    0,
    0,
    0,
    0,
    0,
    0,
    0,
    0,
    0,
    0,
    0,
    0,
    0,
    0,
    0,
    0,
    0,
    0,
    0,
    0,
    0,
    0,
    0,
    0,
    0,
    0,
    0,
    0,
    0,
    0,
    0,
    0,
    0,
    0,
    0,
    0,
    0,
    0,
    0,
    0,
    0,
    0,
    0,
    0,
    0,
    0,
    0,
    0,
    0,
    0,
    0,
    0,
    0,
    1552,
    1552,
    0,
    0,
    0,
    0,
    1552,
    0,
    0,
    0,
    1552,
    1552,
    0,
    1552,
    1552,
    0,
    0,
    0,
    0,
    0,
    0,
    0,
    0,
    0,
    0,
    0,
    0,
    0,
    0,
    0,
    1552,
    0,
    0,
    0,
    0,
    0,
    0,
    0,
    1552,
    0,
    1552,
    1552,
    1552,
    0,
    0,
    0,
    1552,
    1552,
    0,
    0,
    0,
    0,
    0,
    1552,
    1552,
    1552,
    0,
    0,
    1552,
    1552,
    1552,
    1552,
    0,
    0,
    0,
    1552,
    1552,
    0,
    1552,
    1552,
    0,
    0,
    0,
    0,
    0,
    0,
    0,
    0,
    0,
    0,
    0,
    0,
    0,
    0,
    0,
    0,
    0,
    0,
    0,
    0,
    0,
    0,
    0,
    0,
    0,
    0,
    0,
    0,
    0,
    0,
    0,
    0,
    0,
    0,
    0,
    0,
    0,
    0,
    0,
    0,
    0,
    0,
    0,
    0,
    0,
    0,
    0,
    0,
    0,
    0,
    0,
    0,
    0,
    0,
    0,
    0,
    1552,
    0,
    1552,
    1552,
    1552,
    0,
    0,
    0,
    1552,
    0,
    0,
    1552,
    0,
    1552,
    0,
    0,
    0,
    0,
    0,
    0,
    0,
    0,
    0,
    0,
    0,
    0,
    0,
    0,
    0,
    0,
    0,
    0,
    0,
    0,
    0,
    0,
    0,
    0,
    0,
    0,
    0,
    0,
    1552,
    1552,
    1552,
    0,
    0,
    0,
    1552,
    1552,
    0,
    0,
    0,
    0,
    0,
    0,
    1552,
    1552,
    0,
    0,
    1552,
    1552,
    1552,
    1552,
    1552,
    0,
    0,
    0,
    1552,
    1552,
    0,
    1552,
    0,
    0,
    0,
    0,
    0,
    0,
    0,
    0,
    0,
    0,
    0,
    0,
    0,
    0,
    0,
    0,
    0,
    0,
    0,
    0,
    0,
    0,
    0,
    0,
    0,
    0,
    0,
    0,
    0,
    0,
    0,
    0,
    0,
    0,
    0,
    0,
    0,
    0,
    0,
    0,
    0,
    0,
    0,
    0,
    0,
    0,
    0,
    0,
    0,
    0,
    0,
    0,
    0,
    0,
    0,
    0,
    0,
    1552,
    1552,
    1552,
    1552,
    0,
    0,
    0,
    0,
    0,
    1552,
    1552,
    1552,
    0,
    0,
    0,
    0,
    0,
    0,
    0,
    0,
    0,
    0,
    0,
    0,
    0,
    0,
    0,
    0,
    0,
    0,
    0,
    0,
    0,
    0,
    1552,
    0,
    0,
    0,
    0,
    0,
    1552,
    1552,
    1552,
    1552,
    0,
    0,
    0,
    0,
    1552,
    1552,
    0,
    0,
    0,
    0,
    0,
    1552,
    1552,
    0,
    0,
    0,
    1552,
    1552,
    1552,
    1552,
    0,
    0,
    0,
    0,
    1552,
    0,
    0,
    1552,
    0,
    0,
    0,
    0,
    0,
    0,
    0,
    0,
    0,
    0,
    0,
    0,
    0,
    0,
    0,
    0,
    0,
    0,
    0,
    0,
    0,
    0,
    0,
    0,
    0,
    0,
    0,
    0,
    0,
    0,
    0,
    0,
    0,
    0,
    0,
    0,
    0,
    0,
    0,
    0,
    0,
    0,
    0,
    0,
    0,
    0,
    0,
    0,
    0,
    0,
    0,
    0,
    0,
    0,
    0,
    0,
    0,
    0,
    1552,
    1552,
    1552,
    0,
    0,
    0,
    0,
    0,
    1552,
    1552,
    1552,
    0,
    0,
    0,
    0,
    0,
    0,
    0,
    0,
    0,
    0,
    0,
    0,
    0,
    0,
    0,
    0,
    0,
    0,
    0,
    0,
    0,
    0,
    0,
    0,
    0,
    0,
    0,
    1552,
    0,
    0,
    0,
    0,
    1552,
    0,
    0,
    0,
    0,
    0,
    0,
    0,
    0,
    0,
    1552,
    1552,
    0,
    0,
    0,
    1552,
    0,
    1552,
    1552,
    1552,
    0,
    0,
    0,
    1552,
    1552,
    0,
    0,
    0,
    0,
    0,
    0,
    0,
    0,
    0,
    0,
    0,
    0,
    0,
    0,
    0,
    0,
    0,
    0,
    0,
    0,
    0,
    0,
    0,
    0,
    0,
    0,
    0,
    0,
    0,
    0,
    0,
    0,
    0,
    0,
    0,
    0,
    0,
    0,
    0,
    0,
    0,
    0,
    0,
    0,
    0,
    0,
    0,
    0,
    0,
    0,
    0,
    0,
    0,
    0,
    0,
    0,
    0,
    1552,
    0,
    0,
    0,
    1552,
    1552,
    1552,
    1552,
    0,
    0,
    0,
    0,
    0,
    0,
    0,
    0,
    0,
    0,
    0,
    0,
    0,
    0,
    0,
    0,
    0,
    0,
    0,
    0,
    0,
    0,
    0,
    0,
    0,
    0,
    0,
    0,
    0,
    0,
    0,
    0,
    0,
    0,
    0,
    0,
    0,
    0,
    0,
    0,
    0,
    1552,
    1552,
    0,
    1552,
    0,
    0,
    0,
    1552,
    1552,
    0,
    0,
    0,
    0,
    1552,
    1552,
    1552,
    1552,
    1552,
    0,
    0,
    1552,
    1552,
    0,
    0,
    0,
    0,
    0,
    0,
    0,
    0,
    0,
    0,
    0,
    0,
    0,
    0,
    0,
    0,
    0,
    0,
    0,
    0,
    0,
    0,
    0,
    0,
    0,
    0,
    0,
    0,
    0,
    0,
    0,
    0,
    0,
    0,
    0,
    0,
    0,
    0,
    0,
    0,
    0,
    0,
    0,
    0,
    0,
    0,
    0,
    0,
    0,
    0,
    0,
    0,
    0,
    0,
    0,
    0,
    0,
    0,
    0,
    1552,
    0,
    0,
    1552,
    1552,
    1552,
    0,
    0,
    0,
    1552,
    1552,
    1552,
    0,
    0,
    0,
    0,
    0,
    0,
    0,
    0,
    0,
    0,
    0,
    0,
    0,
    0,
    0,
    0,
    0,
    0,
    0,
    0,
    0,
    0,
    0,
    0,
    0,
    0,
    0,
    0,
    0,
    0,
    1552,
    1552,
    1552,
    0,
    0,
    1552,
    1552,
    0,
    0,
    0,
    0,
    0,
    0,
    1552,
    1552,
    0,
    0,
    0,
    0,
    1552,
    0,
    1552,
    1552,
    0,
    0,
    1552,
    1552,
    0,
    0,
    0,
    0,
    0,
    0,
    0,
    0,
    0,
    0,
    0,
    0,
    0,
    0,
    0,
    0,
    0,
    0,
    0,
    0,
    0,
    0,
    0,
    0,
    0,
    0,
    0,
    0,
    0,
    0,
    0,
    0,
    0,
    0,
    0,
    0,
    0,
    0,
    0,
    0,
    0,
    0,
    0,
    0,
    0,
    0,
    0,
    0,
    0,
    0,
    0,
    0,
    0,
    0,
    0,
    0,
    0,
    0,
    0,
    0,
    0,
    1552,
    1552,
    0,
    1552,
    0,
    0,
    0,
    1552,
    1552,
    0,
    0,
    0,
    0,
    0,
    0,
    0,
    0,
    0,
    0,
    0,
    0,
    0,
    0,
    0,
    0,
    0,
    0,
    0,
    0,
    0,
    0,
    0,
    0,
    0,
    0,
    0,
    0,
    0,
    0,
    0,
    1552,
    1552,
    1552,
    0,
    0,
    1552,
    1552,
    0,
    0,
    0,
    0,
    0,
    0,
    1552,
    1552,
    0,
    0,
    0,
    0,
    0,
    0,
    0,
    0,
    0,
    0,
    1552,
    1552,
    0,
    0,
    0,
    0,
    0,
    0,
    0,
    0,
    0,
    0,
    0,
    0,
    0,
    0,
    0,
    0,
    0,
    0,
    0,
    0,
    0,
    0,
    0,
    0,
    0,
    0,
    0,
    0,
    0,
    0,
    0,
    0,
    0,
    0,
    0,
    0,
    0,
    0,
    0,
    0,
    0,
    0,
    0,
    0,
    0,
    0,
    0,
    0,
    0,
    0,
    0,
    0,
    0,
    0,
    0,
    0,
    0,
    0,
    0,
    0,
    0,
    1552,
    1552,
    1552,
    1552,
    1552,
    0,
    0,
    0,
    0,
    0,
    0,
    0,
    0,
    0,
    0,
    0,
    0,
    0,
    0,
    0,
    0,
    0,
    0,
    0,
    0,
    0,
    0,
    0,
    0,
    0,
    0,
    0,
    0,
    0,
    0,
    0,
    0,
    0,
    1552,
    1552,
    1552,
    1552,
    1552,
    0,
    0,
    1552,
    1552,
    0,
    0,
    0,
    0,
    0,
    0,
    0,
    1552,
    1552,
    0,
    0,
    0,
    0,
    0,
    0,
    0,
    0,
    0,
    1552,
    1552,
    0,
    0,
    0,
    0,
    0,
    0,
    0,
    0,
    0,
    0,
    0,
    0,
    0,
    0,
    0,
    0,
    0,
    0,
    0,
    0,
    0,
    0,
    0,
    0,
    0,
    0,
    0,
    0,
    0,
    0,
    0,
    0,
    0,
    0,
    0,
    0,
    0,
    0,
    0,
    0,
    0,
    0,
    0,
    0,
    0,
    0,
    0,
    0,
    0,
    0,
    0,
    0,
    0,
    0,
    0,
    0,
    0,
    0,
    0,
    0,
    0,
    0,
    1552,
    1552,
    1552,
    1552,
    0,
    0,
    0,
    0,
    0,
    0,
    0,
    0,
    0,
    0,
    0,
    0,
    0,
    0,
    0,
    0,
    0,
    0,
    0,
    0,
    0,
    0,
    0,
    0,
    0,
    0,
    0,
    0,
    0,
    0,
    0,
    0,
    0,
    1552,
    1552,
    1552,
    1552,
    1552,
    0,
    0,
    1552,
    1552,
    0,
    0,
    0,
    0,
    0,
    0,
    0,
    1552,
    1552,
    1552,
    1552,
    0,
    0,
    0,
    0,
    0,
    0,
    0,
    1552,
    1552,
    0,
    0,
    0,
    0,
    0,
    0,
    0,
    0,
    0,
    0,
    0,
    0,
    0,
    0,
    0,
    0,
    0,
    0,
    0,
    0,
    0,
    0,
    0,
    0,
    0,
    0,
    0,
    0,
    0,
    0,
    0,
    0,
    0,
    0,
    0,
    0,
    0,
    0,
    0,
    0,
    0,
    0,
    0,
    0,
    0,
    0,
    0,
    0,
    0,
    0,
    0,
    0,
    0,
    0,
    0,
    0,
    0,
    0,
    0,
    0,
    0,
    0,
    1552,
    1552,
    0,
    1552,
    0,
    0,
    0,
    0,
    0,
    0,
    0,
    0,
    0,
    0,
    0,
    0,
    0,
    0,
    0,
    0,
    0,
    0,
    0,
    0,
    0,
    0,
    0,
    0,
    0,
    0,
    0,
    0,
    0,
    0,
    0,
    0,
    0,
    1552,
    0,
    1552,
    1552,
    1552,
    0,
    0,
    1552,
    1552,
    0,
    0,
    0,
    0,
    1552,
    0,
    0,
    0,
    1552,
    1552,
    1552,
    1552,
    0,
    0,
    0,
    0,
    0,
    0,
    1552,
    1552,
    0,
    0,
    1552,
    0,
    0,
    0,
    0,
    0,
    0,
    0,
    0,
    0,
    0,
    0,
    0,
    0,
    0,
    0,
    0,
    0,
    0,
    0,
    0,
    0,
    0,
    0,
    0,
    0,
    0,
    0,
    0,
    0,
    0,
    0,
    0,
    0,
    0,
    0,
    0,
    0,
    0,
    0,
    0,
    0,
    0,
    0,
    0,
    0,
    0,
    0,
    0,
    0,
    0,
    0,
    0,
    0,
    0,
    0,
    0,
    0,
    0,
    0,
    0,
    0,
    0,
    0,
    0,
    0,
    0,
    0,
    0,
    0,
    0,
    0,
    0,
    0,
    0,
    0,
    0,
    0,
    0,
    0,
    0,
    0,
    0,
    0,
    0,
    0,
    0,
    0,
    0,
    0,
    0,
    0,
    0,
    0,
    0,
    0,
    0,
    1552,
    1552,
    1552,
    1552,
    1552,
    0,
    0,
    1552,
    1552,
    0,
    0,
    0,
    0,
    0,
    0,
    0,
    0,
    0,
    0,
    1552,
    1552,
    1552,
    0,
    0,
    0,
    0,
    0,
    1552,
    1552,
    0,
    0,
    0,
    1552,
    0,
    0,
    0,
    0,
    0,
    0,
    0,
    0,
    0,
    0,
    0,
    0,
    0,
    0,
    0,
    0,
    0,
    0,
    0,
    0,
    0,
    0,
    0,
    0,
    0,
    0,
    0,
    0,
    0,
    0,
    0,
    0,
    0,
    0,
    0,
    0,
    0,
    0,
    0,
    0,
    0,
    0,
    0,
    0,
    0,
    0,
    0,
    0,
    0,
    0,
    0,
    0,
    0,
    0,
    0,
    0,
    0,
    0,
    0,
    0,
    0,
    0,
    0,
    0,
    0,
    0,
    0,
    0,
    0,
    0,
    0,
    0,
    0,
    0,
    0,
    0,
    0,
    0,
    0,
    0,
    0,
    0,
    0,
    0,
    0,
    0,
    0,
    0,
    0,
    0,
    0,
    0,
    0,
    0,
    0,
    0,
    1552,
    1552,
    1552,
    1552,
    0,
    0,
    1552,
    1552,
    0,
    0,
    0,
    0,
    0,
    0,
    0,
    0,
    0,
    0,
    0,
    0,
    1552,
    1552,
    0,
    0,
    0,
    0,
    1552,
    0,
    0,
    0,
    1552,
    1552,
    0,
    0,
    0,
    0,
    0,
    0,
    0,
    0,
    0,
    0,
    0,
    0,
    0,
    0,
    0,
    0,
    0,
    0,
    0,
    0,
    0,
    0,
    0,
    0,
    0,
    0,
    0,
    0,
    0,
    0,
    0,
    0,
    0,
    0,
    0,
    0,
    0,
    0,
    0,
    0,
    0,
    0,
    0,
    0,
    0,
    0,
    0,
    0,
    0,
    0,
    0,
    0,
    0,
    0,
    0,
    0,
    0,
    0,
    0,
    0,
    0,
    0,
    0,
    0,
    0,
    0,
    0,
    0,
    0,
    0,
    0,
    0,
    0,
    0,
    0,
    0,
    0,
    0,
    0,
    0,
    0,
    0,
    0,
    0,
    0,
    0,
    0,
    0,
    0,
    0,
    0,
    0,
    0,
    0,
    0,
    0,
    1552,
    1552,
    0,
    1552,
    0,
    0,
    1552,
    1552,
    0,
    0,
    0,
    0,
    0,
    0,
    0,
    0,
    0,
    0,
    0,
    0,
    1552,
    1552,
    1552,
    1552,
    1552,
    1552,
    1552,
    0,
    0,
    0,
    1552,
    1552,
    0,
    0,
    0,
    0,
    0,
    0,
    0,
    0,
    0,
    0,
    0,
    0,
    0,
    0,
    0,
    0,
    0,
    0,
    0,
    0,
    0,
    0,
    0,
    0,
    0,
    0,
    0,
    0,
    0,
    0,
    0,
    0,
    0,
    0,
    0,
    0,
    0,
    0,
    0,
    0,
    0,
    0,
    0,
    0,
    0,
    0,
    0,
    0,
    0,
    0,
    0,
    0,
    0,
    0,
    0,
    0,
    0,
    0,
    0,
    0,
    0,
    0,
    0,
    0,
    0,
    0,
    0,
    0,
    0,
    0,
    0,
    0,
    0,
    0,
    0,
    0,
    0,
    0,
    0,
    0,
    0,
    0,
    0,
    0,
    0,
    0,
    0,
    0,
    0,
    0,
    0,
    0,
    0,
    0,
    1552,
    0,
    0,
    1552,
    1552,
    1552,
    0,
    0,
    0,
    1552,
    1552,
    0,
    0,
    0,
    0,
    0,
    0,
    0,
    0,
    0,
    0,
    0,
    0,
    1552,
    1552,
    1552,
    1552,
    1552,
    0,
    0,
    0,
    0,
    1552,
    1552,
    0,
    0,
    0,
    0,
    0,
    0,
    0,
    0,
    0,
    0,
    0,
    0,
    0,
    0,
    0,
    0,
    0,
    0,
    0,
    0,
    0,
    0,
    0,
    0,
    0,
    0,
    0,
    0,
    0,
    0,
    0,
    0,
    0,
    0,
    0,
    0,
    0,
    0,
    0,
    0,
    0,
    0,
    0,
    0,
    0,
    0,
    0,
    0,
    0,
    0,
    0,
    0,
    0,
    0,
    0,
    0,
    0,
    0,
    0,
    0,
    0,
    0,
    0,
    0,
    0,
    0,
    0,
    0,
    0,
    0,
    0,
    0,
    0,
    0,
    0,
    0,
    0,
    0,
    0,
    0,
    0,
    0,
    0,
    0,
    0,
    0,
    0,
    0,
    0,
    0,
    0,
    0,
    0,
    0,
    0,
    0,
    0,
    1552,
    1552,
    1552,
    1552,
    0,
    0,
    1552,
    1552,
    0,
    0,
    0,
    0,
    0,
    0,
    0,
    0,
    0,
    0,
    0,
    0,
    0,
    0,
    0,
    0,
    0,
    0,
    0,
    0,
    0,
    1552,
    1552,
    0,
    0,
    0,
    0,
    0,
    0,
    0,
    0,
    0,
    0,
    0,
    0,
    0,
    0,
    0,
    0,
    0,
    0,
    0,
    0,
    0,
    0,
    0,
    0,
    0,
    0,
    0,
    0,
    0,
    0,
    0,
    0,
    0,
    0,
    0,
    0,
    0,
    0,
    0,
    0,
    0,
    0,
    0,
    0,
    0,
    0,
    0,
    0,
    0,
    0,
    0,
    0,
    0,
    0,
    0,
    0,
    0,
    0,
    0,
    0,
    0,
    0,
    0,
    0,
    0,
    0,
    0,
    0,
    0,
    0,
    0,
    0,
    0,
    0,
    0,
    0,
    0,
    0,
    0,
    0,
    0,
    0,
    0,
    0,
    0,
    0,
    0,
    0,
    0,
    0,
    0,
    0,
    0,
    0,
    0,
    0,
    1552,
    1552,
    1552,
    1552,
    1552,
    0,
    0,
    0,
    1552,
    1552,
    0,
    0,
    0,
    0,
    0,
    0,
    0,
    0,
    0,
    0,
    0,
    0,
    0,
    0,
    0,
    0,
    0,
    0,
    0,
    1552,
    1552,
    0,
    0,
    0,
    0,
    0,
    0,
    0,
    0,
    0,
    0,
    0,
    0,
    0,
    0,
    0,
    0,
    0,
    0,
    0,
    0,
    0,
    0,
    0,
    0,
    0,
    0,
    0,
    0,
    0,
    0,
    0,
    0,
    0,
    0,
    0,
    0,
    0,
    0,
    0,
    0,
    0,
    0,
    0,
    0,
    0,
    0,
    0,
    0,
    0,
    0,
    0,
    0,
    0,
    0,
    0,
    0,
    0,
    0,
    0,
    0,
    0,
    0,
    0,
    0,
    0,
    0,
    0,
    0,
    0,
    0,
    0,
    0,
    0,
    0,
    0,
    0,
    0,
    0,
    0,
    0,
    0,
    0,
    0,
    0,
    0,
    0,
    0,
    0,
    0,
    0,
    0,
    0,
    0,
    0,
    0,
    0,
    0,
    1552,
    1552,
    0,
    1552,
    1552,
    0,
    0,
    0,
    1552,
    1552,
    1552,
    1552,
    0,
    0,
    0,
    0,
    0,
    0,
    0,
    0,
    0,
    0,
    0,
    0,
    0,
    1552,
    1552,
    0,
    0,
    1552,
    1552,
    0,
    1552,
    0,
    1552,
    0,
    0,
    0,
    0,
    0,
    0,
    0,
    0,
    0,
    0,
    0,
    0,
    0,
    0,
    0,
    0,
    0,
    0,
    0,
    0,
    0,
    0,
    0,
    0,
    0,
    0,
    0,
    0,
    0,
    0,
    0,
    0,
    0,
    0,
    0,
    0,
    0,
    0,
    0,
    0,
    0,
    0,
    0,
    0,
    0,
    0,
    0,
    0,
    0,
    0,
    0,
    0,
    0,
    0,
    0,
    0,
    0,
    0,
    0,
    0,
    0,
    0,
    0,
    0,
    0,
    0,
    0,
    0,
    0,
    0,
    0,
    0,
    0,
    0,
    0,
    0,
    0,
    0,
    0,
    0,
    0,
    0,
    0,
    0,
    0,
    0,
    0,
    0,
    0,
    0,
    0,
    0,
    1552,
    1552,
    1552,
    1552,
    0,
    1552,
    1552,
    1552,
    0,
    0,
    1552,
    1552,
    1552,
    1552,
    0,
    0,
    0,
    0,
    0,
    0,
    0,
    0,
    1552,
    1552,
    1552,
    1552,
    1552,
    0,
    0,
    0,
    0,
    0,
    0,
    0,
    0,
    0,
    0,
    0,
    0,
    0,
    0,
    0,
    0,
    0,
    0,
    0,
    0,
    0,
    0,
    0,
    0,
    0,
    0,
    0,
    0,
    0,
    0,
    0,
    0,
    0,
    0,
    0,
    0,
    0,
    0,
    0,
    0,
    0,
    0,
    0,
    0,
    0,
    0,
    0,
    0,
    0,
    0,
    0,
    0,
    0,
    0,
    0,
    0,
    0,
    0,
    0,
    0,
    0,
    0,
    0,
    0,
    0,
    0,
    0,
    0,
    0,
    0,
    0,
    0,
    0,
    0,
    0,
    0,
    0,
    0,
    0,
    0,
    0,
    0,
    0,
    0,
    0,
    0,
    0,
    0,
    0,
    0,
    0,
    0,
    0,
    0,
    0,
    0,
    0,
    0,
    0,
    0,
    0,
    1552,
    1552,
    0,
    1552,
    1552,
    1552,
    1552,
    1552,
    0,
    0,
    0,
    0,
    1552,
    1552,
    1552,
    0,
    0,
    0,
    0,
    0,
    1552,
    1552,
    1552,
    1552,
    1552,
    1552,
    1552,
    0,
    0,
    0,
    0,
    0,
    1552,
    1552,
    0,
    0,
    0,
    0,
    0,
    0,
    0,
    0,
    0,
    0,
    0,
    0,
    0,
    0,
    0,
    0,
    0,
    0,
    0,
    0,
    0,
    0,
    0,
    0,
    0,
    0,
    0,
    0,
    0,
    0,
    0,
    0,
    0,
    0,
    0,
    0,
    0,
    0,
    0,
    0,
    0,
    0,
    0,
    0,
    0,
    0,
    0,
    0,
    0,
    0,
    0,
    0,
    0,
    0,
    0,
    0,
    0,
    0,
    0,
    0,
    0,
    0,
    0,
    0,
    0,
    0,
    0,
    0,
    0,
    0,
    0,
    0,
    0,
    0,
    0,
    0,
    0,
    0,
    0,
    0,
    0,
    0,
    0,
    0,
    0,
    0,
    0,
    0,
    0,
    0,
    0,
    0,
    0,
    0,
    0,
    1552,
    1552,
    1552,
    1552,
    1552,
    0,
    1552,
    0,
    0,
    0,
    0,
    0,
    0,
    1552,
    1552,
    0,
    0,
    1552,
    1552,
    1552,
    1552,
    0,
    0,
    0,
    0,
    0,
    0,
    0,
    0,
    1552,
    0,
    1552,
    1552,
    0,
    0,
    0,
    0,
    0,
    0,
    0,
    0,
    0,
    0,
    0,
    0,
    0,
    0,
    0,
    0,
    0,
    0,
    0,
    0,
    0,
    0,
    1552,
    0,
    0,
    0,
    0,
    0,
    0,
    0,
    0,
    0,
    0,
    0,
    0,
    0,
    0,
    0,
    0,
    0,
    0,
    0,
    0,
    0,
    0,
    0,
    0,
    0,
    0,
    0,
    0,
    0,
    0,
    0,
    0,
    0,
    0,
    0,
    0,
    0,
    0,
    0,
    0,
    0,
    0,
    0,
    0,
    0,
    0,
    0,
    0,
    0,
    0,
    0,
    0,
    0,
    0,
    0,
    0,
    0,
    0,
    0,
    0,
    0,
    0,
    0,
    0,
    0,
    0,
    0,
    0,
    0,
    0,
    0,
    0,
    1552,
    1552,
    1552,
    1552,
    1552,
    1552,
    1552,
    1552,
    1552,
    1552,
    1552,
    1552,
    0,
    1552,
    1552,
    1552,
    1552,
    1552,
    1552,
    0,
    0,
    0,
    0,
    0,
    0,
    0,
    0,
    0,
    0,
    0,
    0,
    0,
    0,
    0,
    0,
    0,
    0,
    0,
    0,
    0,
    0,
    0,
    0,
    0,
    0,
    0,
    0,
    0,
    0,
    0,
    0,
    1552,
    0,
    0,
    0,
    0,
    0,
    0,
    0,
    0,
    0,
    0,
    0,
    0,
    0,
    0,
    0,
    0,
    0,
    0,
    0,
    0,
    0,
    0,
    0,
    0,
    0,
    0,
    0,
    0,
    0,
    0,
    0,
    0,
    0,
    0,
    0,
    0,
    0,
    0,
    0,
    0,
    0,
    0,
    0,
    0,
    0,
    0,
    0,
    0,
    0,
    0,
    0,
    0,
    0,
    0,
    0,
    0,
    0,
    0,
    0,
    0,
    0,
    0,
    0,
    0,
    0,
    0,
    0,
    0,
    0,
    0,
    0,
    0,
    0,
    0,
    0,
    0,
    1552,
    1552,
    1552,
    1552,
    1552,
    1552,
    1552,
    1552,
    1552,
    0,
    1552,
    1552,
    0,
    0,
    1552,
    1552,
    1552,
    0,
    0,
    0,
    1552,
    1552,
    0,
    1552,
    1552,
    0,
    0,
    0,
    0,
    0,
    0,
    0,
    0,
    0,
    0,
    0,
    0,
    0,
    0,
    0,
    0,
    0,
    0,
    0,
    0,
    0,
    0,
    0,
    0,
    0,
    0,
    0,
    0,
    0,
    0,
    0,
    0,
    0,
    0,
    0,
    0,
    0,
    0,
    0,
    0,
    0,
    0,
    0,
    0,
    0,
    0,
    0,
    0,
    0,
    0,
    0,
    0,
    0,
    0,
    0,
    0,
    0,
    0,
    0,
    0,
    0,
    0,
    0,
    0,
    0,
    0,
    0,
    0,
    0,
    0,
    0,
    0,
    0,
    0,
    0,
    0,
    0,
    0,
    0,
    0,
    0,
    0,
    0,
    0,
    0,
    0,
    0,
    0,
    0,
    0,
    0,
    0,
    0,
    0,
    0,
    0,
    0,
    0,
    0,
    0,
    0,
    0,
    0,
    0,
    0,
    1552,
    1552,
    1552,
    1552,
    1552,
    0,
    0,
    0,
    0,
    0,
    0,
    0,
    0,
    0,
    0,
    0,
    0,
    0,
    1552,
    1552,
    1552,
    1552,
    1552,
    1552,
    0,
    0,
    0,
    0,
    0,
    0,
    0,
    0,
    0,
    0,
    0,
    0,
    0,
    0,
    0,
    0,
    0,
    0,
    0,
    0,
    0,
    0,
    0,
    0,
    0,
    0,
    0,
    0,
    0,
    0,
    0,
    0,
    0,
    0,
    0,
    0,
    0,
    0,
    0,
    0,
    0,
    0,
    0,
    0,
    0,
    0,
    0,
    0,
    0,
    0,
    0,
    0,
    0,
    0,
    0,
    0,
    0,
    0,
    0,
    0,
    0,
    0,
    0,
    0,
    0,
    0,
    0,
    0,
    0,
    0,
    0,
    0,
    0,
    0,
    0,
    0,
    0,
    0,
    0,
    0,
    0,
    0,
    0,
    0,
    0,
    0,
    0,
    0,
    0,
    0,
    0,
    0,
    0,
    0,
    0,
    0,
    0,
    0,
    0,
    0,
    0,
    0,
    0,
    0,
    1552,
    1552,
    0,
    1552,
    1552,
    1552,
    0,
    0,
    1552,
    1552,
    1552,
    0,
    0,
    0,
    0,
    0,
    1552,
    1552,
    1552,
    1552,
    1552,
    1552,
    1552,
    1552,
    0,
    0,
    0,
    0,
    0,
    0,
    0,
    0,
    0,
    0,
    0,
    0,
    0,
    0,
    0,
    0,
    0,
    0,
    0,
    0,
    0,
    0,
    0,
    0,
    0,
    0,
    0,
    0,
    0,
    0,
    0,
    0,
    0,
    0,
    0,
    0,
    0,
    0,
    0,
    0,
    0,
    0,
    0,
    0,
    0,
    0,
    0,
    0,
    0,
    0,
    0,
    0,
    0,
    0,
    0,
    0,
    0,
    0,
    0,
    0,
    0,
    0,
    0,
    0,
    0,
    0,
    0,
    0,
    0,
    0,
    0,
    0,
    0,
    0,
    0,
    0,
    0,
    0,
    0,
    0,
    0,
    0,
    0,
    0,
    0,
    0,
    0,
    0,
    0,
    0,
    0,
    0,
    0,
    0,
    0,
    0,
    0,
    0,
    0,
    0,
    0,
    0,
    0,
    0,
    0,
    0,
    0,
    0,
    0,
    0,
    0,
    0,
    0,
    1552,
    1552,
    0,
    0,
    0,
    0,
    0,
    0,
    1552,
    1552,
    0,
    1552,
    1552,
    1552,
    0,
    0,
    0,
    0,
    0,
    0,
    0,
    0,
    0,
    0,
    0,
    0,
    0,
    0,
    0,
    0,
    0,
    0,
    0,
    0,
    0,
    0,
    0,
    0,
    1552,
    0,
    0,
    0,
    0,
    0,
    1552,
    0,
    0,
    0,
    0,
    0,
    0,
    0,
    0,
    0,
    0,
    0,
    0,
    0,
    0,
    0,
    0,
    0,
    0,
    0,
    0,
    0,
    0,
    0,
    0,
    0,
    0,
    0,
    0,
    0,
    0,
    0,
    0,
    0,
    0,
    0,
    0,
    0,
    0,
    0,
    0,
    0,
    0,
    0,
    0,
    0,
    0,
    0,
    0,
    0,
    0,
    0,
    0,
    0,
    0,
    0,
    0,
    0,
    0,
    0,
    0,
    0,
    0,
    0,
    0,
    0,
    0,
    0,
    0,
    0,
    0,
    0,
    0,
    0,
    0,
    0,
    0,
    0,
    0,
    0,
    0,
    0,
    0,
    0,
    0,
    0,
    0,
    0,
    0,
    0,
    1552,
    1552,
    1552,
    0,
    1552,
    1552,
    1552,
    0,
    0,
    0,
    0,
    0,
    0,
    0,
    0,
    0,
    0,
    0,
    0,
    0,
    0,
    0,
    0,
    0,
    0,
    0,
    0,
    0,
    0,
    0,
    0,
    0,
    0,
    0,
    0,
    0,
    0,
    0,
    0,
    0,
    0,
    0,
    0,
    0,
    0,
    0,
    0,
    0,
    0,
    0,
    0,
    0,
    0,
    0,
    0,
    0,
    0,
    0,
    0,
    0,
    0,
    0,
    0,
    0,
    0,
    0,
    0,
    0,
    0,
    0,
    0,
    0,
    0,
    0,
    0,
    0,
    0,
    0,
    0,
    0,
    0,
    0,
    0,
    0,
    0,
    0,
    0,
    0,
    0,
    0,
    0,
    0,
    0,
    1552,
    0,
    0,
    0,
    1552,
    0,
    0,
    1552,
    0,
    0,
    0,
    0,
    0,
    0,
    0,
    0,
    0,
    0,
    0,
    0,
    0,
    0,
    0,
    0,
    0,
    0,
    0,
    0,
    0,
    0,
    0,
    0,
    0,
    0,
    0,
    0,
    1552,
    1552,
    1552,
    1552,
    0,
    1552,
    0,
    1552,
    0,
    0,
    0,
    0,
    0,
    0,
    0,
    0,
    0,
    0,
    0,
    0,
    0,
    0,
    0,
    0,
    0,
    0,
    0,
    0,
    0,
    0,
    0,
    0,
    0,
    0,
    0,
    0,
    0,
    0,
    0,
    0,
    0,
    0,
    0,
    0,
    0,
    0,
    0,
    0,
    0,
    0,
    0,
    0,
    0,
    0,
    0,
    0,
    0,
    0,
    0,
    0,
    0,
    0,
    0,
    0,
    0,
    0,
    0,
    0,
    0,
    0,
    0,
    0,
    0,
    0,
    0,
    0,
    0,
    0,
    0,
    0,
    0,
    0,
    0,
    0,
    0,
    0,
    0,
    0,
    1552,
    0,
    0,
    0,
    0,
    0,
    1552,
    1552,
    0,
    0,
    0,
    0,
    0,
    0,
    0,
    0,
    0,
    0,
    0,
    0,
    0,
    0,
    0,
    0,
    0,
    0,
    0,
    0,
    0,
    0,
    0,
    0,
    0,
    0,
    0,
    0,
    0,
    0,
    0,
    0,
    0,
    0,
    1552,
    1552,
    0,
    0,
    0,
    0,
    0,
    0,
    0,
    0,
    0,
    0,
    0,
    0,
    0,
    0,
    0,
    0,
    0,
    0,
    0,
    0,
    0,
    0,
    0,
    0,
    0,
    0,
    0,
    0,
    0,
    0,
    0,
    0,
    0,
    0,
    0,
    0,
    0,
    0,
    0,
    0,
    0,
    0,
    0,
    0,
    0,
    0,
    0,
    0,
    0,
    0,
    0,
    0,
    0,
    0,
    0,
    0,
    0,
    0,
    0,
    0,
    0,
    0,
    0,
    0,
    0,
    0,
    0,
    0,
    0,
    0,
    0,
    0,
    0,
    0,
    0,
    0,
    0,
    0,
    0,
    0,
    0,
    0,
    0,
    0,
    0,
    0,
    1552,
    1552,
    0,
    1552,
    1552,
    0,
    0,
    0,
    0,
    0,
    0,
    0,
    0,
    0,
    0,
    0,
    0,
    0,
    0,
    0,
    0,
    0,
    0,
    0,
    0,
    0,
    0,
    0,
    0,
    0,
    0,
    0,
    0,
    0,
    0,
    0,
    0,
    0,
    0,
    0,
    0,
    0,
    0,
    0,
    0,
    0,
    0,
    0,
    0,
    0,
    0,
    0,
    0,
    0,
    0,
    0,
    0,
    0,
    0,
    0,
    0,
    0,
    0,
    0,
    0,
    0,
    0,
    0,
    0,
    0,
    0,
    0,
    0,
    0,
    0,
    0,
    0,
    0,
    0,
    0,
    0,
    0,
    0,
    0,
    0,
    0,
    0,
    0,
    0,
    0,
    0,
    0,
    0,
    0,
    0,
    0,
    0,
    0,
    0,
    0,
    0,
    0,
    0,
    0,
    0,
    0,
    0,
    0,
    0,
    0,
    0,
    0,
    0,
    0,
    0,
    0,
    0,
    0,
    0,
    0,
    0,
    1552,
    0,
    0,
    0,
    0,
    0,
    1552,
    1552,
    1552,
    1552,
    1552,
    1552,
    1552,
    0,
    0,
    0,
    0,
    0,
    0,
    0,
    0,
    0,
    0,
    0,
    0,
    0,
    0,
    0,
    0,
    0,
    0,
    0,
    0,
    0,
    0,
    0,
    0,
    0,
    0,
    0,
    0,
    0,
    0,
    0,
    0,
    0,
    0,
    0,
    0,
    0,
    0,
    0,
    0,
    0,
    0,
    0,
    0,
    0,
    0,
    0,
    0,
    0,
    0,
    0,
    0,
    0,
    0,
    0,
    0,
    0,
    0,
    0,
    0,
    0,
    0,
    0,
    0,
    0,
    0,
    0,
    0,
    0,
    0,
    0,
    0,
    0,
    0,
    0,
    0,
    0,
    0,
    0,
    0,
    0,
    0,
    0,
    0,
    0,
    0,
    0,
    0,
    0,
    0,
    0,
    0,
    0,
    0,
    0,
    0,
    1552,
    0,
    0,
    0,
    0,
    0,
    0,
    0,
    0,
    0,
    0,
    0,
    0,
    0,
    0,
    0,
    0,
    0,
    0,
    0,
    0,
    0,
    0,
    0,
    0,
    0,
    1552,
    1552,
    1552,
    1552,
    1552,
    0,
    0,
    0,
    0,
    0,
    0,
    0,
    0,
    0,
    0,
    0,
    0,
    0,
    0,
    0,
    0,
    0,
    0,
    0,
    0,
    0,
    0,
    0,
    0,
    0,
    0,
    0,
    0,
    0,
    0,
    0,
    0,
    0,
    0,
    0,
    0,
    0,
    0,
    0,
    0,
    0,
    0,
    0,
    0,
    0,
    0,
    0,
    0,
    0,
    0,
    0,
    0,
    0,
    0,
    0,
    0,
    0,
    0,
    0,
    0,
    0,
    0,
    0,
    0,
    0,
    0,
    0,
    0,
    0,
    0,
    0,
    0,
    0,
    0,
    0,
    0,
    0,
    0,
    0,
    0,
    0,
    0,
    0,
    0,
    0,
    0,
    0,
    0,
    0,
    0,
    0,
    0,
    0,
    0,
    0,
    0,
    0,
    0,
    0,
    0,
    0,
    0,
    0,
    0,
    0,
    0,
    0,
    0,
    0,
    0,
    0,
    0,
    0,
    0,
    0,
    0,
    0,
    0,
    0,
    0,
    0,
    1552,
    0,
    0,
    1552,
    1552,
    1552,
    1552,
    0,
    0,
    0,
    0,
    0,
    0,
    0,
    0,
    0,
    0,
    0,
    0,
    0,
    0,
    0,
    0,
    0,
    0,
    0,
    0,
    0,
    0,
    1552,
    0,
    0,
    0,
    0,
    0,
    0,
    0,
    0,
    0,
    0,
    0,
    0,
    0,
    0,
    0,
    0,
    0,
    0,
    0,
    0,
    0,
    0,
    0,
    0,
    0,
    0,
    0,
    0,
    0,
    0,
    0,
    0,
    0,
    0,
    0,
    0,
    0,
    0,
    0,
    0,
    0,
    0,
    0,
    0,
    0,
    0,
    0,
    0,
    0,
    0,
    0,
    0,
    0,
    0,
    0,
    0,
    0,
    0,
    0,
    0,
    0,
    0,
    0,
    0,
    0,
    0,
    0,
    0,
    0,
    0,
    0,
    0,
    0,
    0,
    1552,
    0,
    0,
    0,
    0,
    0,
    0,
    0,
    0,
    0,
    0,
    0,
    0,
    0,
    0,
    0,
    0,
    0,
    0,
    1552,
    0,
    0,
    0,
    0,
    0,
    1552,
    1552,
    1552,
    1552,
    1552,
    1552,
    1552,
    0,
    0,
    0,
    0,
    0,
    0,
    0,
    0,
    0,
    0,
    0,
    0,
    0,
    0,
    0,
    0,
    0,
    0,
    1552,
    1552,
    0,
    0,
    0,
    0,
    0,
    0,
    0,
    0,
    0,
    0,
    0,
    0,
    0,
    0,
    0,
    0,
    0,
    0,
    0,
    0,
    0,
    0,
    0,
    0,
    0,
    0,
    0,
    0,
    0,
    0,
    0,
    0,
    0,
    0,
    0,
    0,
    0,
    0,
    0,
    0,
    0,
    0,
    0,
    0,
    0,
    0,
    0,
    0,
    0,
    0,
    0,
    0,
    0,
    0,
    0,
    0,
    0,
    0,
    0,
    0,
    0,
    0,
    0,
    0,
    0,
    0,
    0,
    0,
    0,
    0,
    0,
    0,
    0,
    0,
    0,
    0,
    0,
    0,
    0,
    0,
    0,
    0,
    0,
    1552,
    0,
    0,
    0,
    0,
    0,
    0,
    0,
    0,
    0,
    0,
    0,
    0,
    0,
    0,
    0,
    0,
    0,
    1552,
    1552,
    1552,
    1552,
    0,
    1552,
    1552,
    0,
    0,
    0,
    0,
    0,
    0,
    0,
    0,
    0,
    0,
    0,
    0,
    0,
    0,
    0,
    0,
    0,
    0,
    1552,
    0,
    0,
    0,
    0,
    0,
    0,
    0,
    0,
    0,
    0,
    0,
    1552,
    0,
    1552,
    1552,
    0,
    0,
    0,
    0,
    0,
    0,
    0,
    0,
    0,
    0,
    0,
    0,
    0,
    0,
    0,
    0,
    0,
    0,
    0,
    0,
    0,
    0,
    0,
    0,
    0,
    0,
    0,
    0,
    0,
    1552,
    0,
    0,
    0,
    0,
    1552,
    1552,
    0,
    0,
    0,
    0,
    0,
    0,
    0,
    0,
    0,
    0,
    0,
    0,
    0,
    0,
    0,
    0,
    0,
    0,
    0,
    0,
    0,
    0,
    0,
    0,
    0,
    0,
    0,
    0,
    0,
    0,
    0,
    0,
    0,
    0,
    0,
    0,
    0,
    0,
    0,
    0,
    0,
    0,
    0,
    0,
    1552,
    0,
    1552,
    1552,
    1552,
    1552,
    1552,
    0,
    0,
    1552,
    0,
    1552,
    0,
    0,
    1552,
    0,
    0,
    0,
    0,
    0,
    0,
    0,
    0,
    0,
    0,
    0,
    0,
    0,
    0,
    0,
    0,
    1552,
    0,
    0,
    0,
    1552,
    0,
    0,
    0,
    0,
    0,
    0,
    0,
    0,
    0,
    1552,
    0,
    0,
    0,
    0,
    0,
    0,
    0,
    0,
    0,
    0,
    0,
    0,
    0,
    0,
    0,
    0,
    0,
    0,
    0,
    0,
    0,
    0,
    0,
    0,
    0,
    0,
    0,
    0,
    0,
    0,
    0,
    0,
    0,
    0,
    0,
    0,
    1552,
    1552,
    0,
    0,
    0,
    0,
    0,
    0,
    0,
    0,
    0,
    0,
    0,
    0,
    0,
    0,
    0,
    0,
    0,
    0,
    0,
    0,
    0,
    0,
    0,
    0,
    0,
    0,
    0,
    0,
    0,
    0,
    0,
    0,
    0,
    1552,
    0,
    0,
    0,
    0,
    0,
    0,
    0,
    0,
    0,
    0,
    0,
    1552,
    1552,
    1552,
    1552,
    1552,
    0,
    0,
    0,
    0,
    0,
    0,
    0,
    0,
    0,
    0,
    0,
    0,
    0,
    0,
    0,
    0,
    0,
    0,
    0,
    0,
    0,
    0,
    0,
    0,
    0,
    0,
    0,
    0,
    0,
    0,
    1552,
    0,
    0,
    0,
    0,
    0,
    0,
    0,
    1552,
    1552,
    1552,
    0,
    0,
    0,
    0,
    0,
    0,
    0,
    0,
    0,
    0,
    0,
    0,
    0,
    1552,
    0,
    0,
    0,
    0,
    1552,
    0,
    0,
    0,
    0,
    0,
    0,
    0,
    0,
    0,
    1552,
    1552,
    0,
    0,
    0,
    1552,
    1552,
    0,
    0,
    0,
    0,
    0,
    0,
    0,
    0,
    0,
    0,
    0,
    0,
    0,
    0,
    0,
    0,
    0,
    0,
    0,
    0,
    0,
    0,
    0,
    0,
    0,
    0,
    0,
    0,
    0,
    0,
    0,
    0,
    1552,
    0,
    0,
    0,
    0,
    0,
    0,
    0,
    0,
    0,
    0,
    0,
    0,
    0,
    0,
    0,
    1552,
    1552,
    1552,
    0,
    1552,
    0,
    0,
    0,
    0,
    1552,
    0,
    0,
    0,
    0,
    0,
    0,
    0,
    0,
    0,
    0,
    0,
    0,
    0,
    0,
    0,
    0,
    0,
    0,
    0,
    0,
    0,
    0,
    0,
    0,
    0,
    0,
    0,
    0,
    0,
    0,
    0,
    0,
    0,
    0,
    0,
    0,
    0,
    0,
    0,
    0,
    0,
    0,
    0,
    0,
    0,
    0,
    1552,
    1552,
    0,
    1552,
    1552,
    0,
    0,
    0,
    0,
    0,
    0,
    0,
    0,
    1552,
    1552,
    0,
    0,
    1552,
    1552,
    1552,
    1552,
    0,
    1552,
    1552,
    0,
    1552,
    0,
    0,
    0,
    0,
    0,
    0,
    1552,
    0,
    0,
    0,
    0,
    0,
    0,
    0,
    0,
    0,
    0,
    0,
    0,
    0,
    0,
    0,
    0,
    0,
    0,
    0,
    0,
    0,
    0,
    0,
    0,
    0,
    0,
    0,
    0,
    0,
    0,
    0,
    0,
    0,
    0,
    0,
    0,
    0,
    0,
    1552,
    1552,
    1552,
    0,
    0,
    0,
    0,
    0,
    1552,
    0,
    0,
    0,
    0,
    0,
    0,
    0,
    0,
    0,
    0,
    0,
    0,
    0,
    0,
    0,
    0,
    0,
    0,
    0,
    0,
    0,
    0,
    0,
    0,
    0,
    0,
    0,
    0,
    0,
    0,
    0,
    0,
    0,
    0,
    0,
    0,
    0,
    0,
    0,
    0,
    0,
    0,
    0,
    0,
    0,
    0,
    0,
    0,
    1552,
    1552,
    1552,
    1552,
    1552,
    1552,
    1552,
    1552,
    1552,
    1552,
    1552,
    0,
    1552,
    1552,
    1552,
    1552,
    1552,
    1552,
    1552,
    1552,
    1552,
    0,
    0,
    0,
    0,
    1552,
    1552,
    1552,
    1552,
    0,
    0,
    0,
    0,
    0,
    0,
    0,
    1552,
    0,
    0,
    0,
    0,
    0,
    0,
    0,
    0,
    0,
    0,
    0,
    0,
    0,
    0,
    0,
    0,
    0,
    0,
    0,
    0,
    0,
    0,
    0,
    0,
    0,
    0,
    0,
    0,
    0,
    0,
    0,
    0,
    0,
    0,
    0,
    0,
    1552,
    0,
    0,
    0,
    0,
    0,
    0,
    0,
    0,
    0,
    0,
    0,
    0,
    0,
    0,
    0,
    0,
    0,
    0,
    0,
    0,
    0,
    0,
    0,
    0,
    0,
    0,
    0,
    0,
    0,
    0,
    0,
    0,
    0,
    0,
    0,
    0,
    0,
    0,
    0,
    0,
    0,
    0,
    0,
    0,
    0,
    0,
    0,
    0,
    0,
    0,
    0,
    0,
    1552,
    1552,
    1552,
    1552,
    1552,
    1552,
    1552,
    1552,
    1552,
    1552,
    1552,
    1552,
    1552,
    0,
    1552,
    1552,
    0,
    1552,
    1552,
    0,
    0,
    0,
    1552,
    1552,
    0,
    1552,
    0,
    1552,
    1552,
    1552,
    1552,
    0,
    0,
    0,
    0,
    0,
    0,
    0,
    0,
    1552,
    1552,
    0,
    0,
    0,
    0,
    0,
    0,
    0,
    0,
    0,
    1552,
    0,
    0,
    0,
    0,
    0,
    0,
    0,
    0,
    0,
    0,
    0,
    0,
    0,
    0,
    0,
    0,
    0,
    0,
    0,
    0,
    0,
    0,
    0,
    0,
    0,
    0,
    0,
    0,
    0,
    0,
    0,
    0,
    0,
    0,
    0,
    0,
    0,
    0,
    0,
    0,
    0,
    0,
    0,
    0,
    0,
    0,
    0,
    0,
    0,
    0,
    0,
    0,
    0,
    0,
    0,
    0,
    0,
    0,
    0,
    0,
    0,
    0,
    0,
    0,
    0,
    0,
    0,
    0,
    0,
    0,
    0,
    0,
    0,
    0,
    0,
    0,
    0,
    1552,
    1552,
    1552,
    1552,
    1552,
    1552,
    1552,
    1552,
    1552,
    1552,
    1552,
    0,
    1552,
    1552,
    1552,
    1552,
    1552,
    0,
    1552,
    0,
    0,
    0,
    0,
    0,
    1552,
    1552,
    1552,
    1552,
    1552,
    0,
    0,
    0,
    0,
    0,
    0,
    0,
    0,
    0,
    0,
    1552,
    1552,
    1552,
    0,
    0,
    0,
    0,
    0,
    0,
    0,
    0,
    1552,
    1552,
    0,
    0,
    0,
    0,
    0,
    0,
    0,
    0,
    0,
    0,
    1552,
    0,
    0,
    0,
    0,
    0,
    0,
    0,
    0,
    0,
    0,
    0,
    1552,
    0,
    0,
    0,
    0,
    0,
    0,
    0,
    0,
    0,
    0,
    0,
    0,
    0,
    0,
    0,
    0,
    0,
    0,
    0,
    0,
    0,
    0,
    0,
    0,
    0,
    0,
    0,
    0,
    0,
    0,
    0,
    0,
    0,
    0,
    0,
    0,
    0,
    0,
    0,
    0,
    0,
    0,
    0,
    0,
    0,
    0,
    0,
    0,
    0,
    0,
    0,
    0,
    0,
    1552,
    0,
    1552,
    1552,
    1552,
    1552,
    1552,
    1552,
    1552,
    1552,
    0,
    1552,
    1552,
    1552,
    1552,
    1552,
    1552,
    1552,
    0,
    0,
    0,
    0,
    0,
    0,
    1552,
    1552,
    1552,
    1552,
    0,
    0,
    0,
    0,
    0,
    0,
    0,
    0,
    0,
    0,
    0,
    0,
    0,
    1552,
    1552,
    0,
    0,
    0,
    0,
    0,
    0,
    1552,
    1552,
    1552,
    0,
    0,
    0,
    0,
    0,
    0,
    0,
    0,
    0,
    0,
    0,
    0,
    0,
    0,
    0,
    0,
    0,
    0,
    0,
    0,
    0,
    0,
    0,
    0,
    0,
    0,
    0,
    0,
    0,
    0,
    0,
    1552,
    0,
    0,
    0,
    0,
    0,
    0,
    0,
    0,
    0,
    0,
    0,
    0,
    0,
    0,
    0,
    0,
    0,
    0,
    0,
    0,
    0,
    0,
    0,
    0,
    0,
    0,
    0,
    0,
    0,
    0,
    0,
    0,
    0,
    0,
    0,
    0,
    0,
    0,
    0,
    0,
    1552,
    1552,
    1552,
    0,
    1552,
    1552,
    1552,
    1552,
    1552,
    1552,
    1552,
    1552,
    1552,
    1552,
    1552,
    1552,
    0,
    1552,
    0,
    1552,
    1552,
    1552,
    0,
    0,
    0,
    0,
    0,
    0,
    0,
    0,
    0,
    0,
    0,
    0,
    1552,
    0,
    0,
    0,
    0,
    0,
    0,
    0,
    0,
    0,
    0,
    1552,
    1552,
    1552,
    0,
    0,
    0,
    0,
    1552,
    1552,
    1552,
    1552,
    1552,
    0,
    0,
    0,
    0,
    0,
    0,
    0,
    0,
    0,
    0,
    0,
    0,
    1552,
    0,
    0,
    0,
    0,
    0,
    0,
    0,
    1552,
    0,
    0,
    0,
    0,
    0,
    0,
    0,
    0,
    0,
    0,
    0,
    0,
    0,
    0,
    0,
    0,
    0,
    0,
    0,
    0,
    0,
    0,
    0,
    0,
    0,
    0,
    0,
    0,
    0,
    0,
    0,
    0,
    0,
    0,
    0,
    0,
    0,
    0,
    0,
    0,
    0,
    0,
    0,
    0,
    0,
    0,
    0,
    0,
    0,
    0,
    1552,
    1552,
    0,
    0,
    1552,
    1552,
    1552,
    1552,
    1552,
    1552,
    1552,
    1552,
    1552,
    1552,
    1552,
    1552,
    0,
    0,
    0,
    0,
    0,
    0,
    0,
    0,
    0,
    0,
    0,
    0,
    0,
    0,
    0,
    0,
    0,
    0,
    0,
    0,
    0,
    0,
    0,
    0,
    0,
    0,
    0,
    0,
    0,
    1552,
    1552,
    1552,
    1552,
    1552,
    1552,
    1552,
    1552,
    1552,
    1552,
    1552,
    1552,
    1552,
    0,
    0,
    0,
    0,
    0,
    0,
    0,
    0,
    0,
    0,
    0,
    1552,
    0,
    0,
    0,
    0,
    0,
    0,
    1552,
    1552,
    0,
    0,
    0,
    0,
    0,
    0,
    0,
    0,
    0,
    0,
    0,
    0,
    0,
    0,
    0,
    0,
    0,
    0,
    0,
    0,
    0,
    0,
    0,
    0,
    0,
    0,
    0,
    0,
    0,
    0,
    0,
    0,
    0,
    0,
    0,
    0,
    0,
    0,
    0,
    0,
    0,
    0,
    0,
    0,
    0,
    0,
    0,
    0,
    0,
    0,
    0,
    0,
    1552,
    1552,
    1552,
    0,
    1552,
    0,
    0,
    1552,
    1552,
    1552,
    1552,
    0,
    0,
    0,
    0,
    0,
    0,
    0,
    0,
    0,
    0,
    0,
    0,
    0,
    1552,
    0,
    0,
    0,
    0,
    0,
    0,
    0,
    0,
    0,
    0,
    0,
    0,
    0,
    0,
    0,
    0,
    0,
    0,
    1552,
    1552,
    1552,
    1552,
    1552,
    1552,
    1552,
    1552,
    1552,
    1552,
    1552,
    0,
    0,
    0,
    0,
    0,
    0,
    0,
    1552,
    0,
    0,
    0,
    0,
    0,
    0,
    0,
    0,
    0,
    0,
    0,
    0,
    1552,
    1552,
    1552,
    1552,
    0,
    0,
    0,
    0,
    0,
    0,
    0,
    0,
    0,
    0,
    0,
    0,
    0,
    0,
    0,
    0,
    0,
    0,
    0,
    0,
    0,
    0,
    0,
    0,
    0,
    0,
    0,
    0,
    0,
    0,
    0,
    0,
    0,
    0,
    0,
    0,
    0,
    0,
    0,
    0,
    0,
    0,
    0,
    0,
    0,
    0,
    0,
    0,
    0,
    1552,
    1552,
    1552,
    1552,
    1552,
    1552,
    0,
    1552,
    1552,
    1552,
    0,
    0,
    0,
    0,
    0,
    0,
    0,
    0,
    0,
    0,
    0,
    0,
    1552,
    0,
    0,
    0,
    0,
    0,
    0,
    0,
    0,
    0,
    0,
    0,
    0,
    0,
    0,
    0,
    0,
    0,
    0,
    0,
    0,
    0,
    1552,
    1552,
    1552,
    1552,
    1552,
    1552,
    1552,
    1552,
    1552,
    1552,
    0,
    0,
    0,
    0,
    0,
    0,
    0,
    0,
    0,
    0,
    0,
    0,
    1552,
    0,
    0,
    0,
    0,
    0,
    0,
    0,
    0,
    1552,
    0,
    1552,
    1552,
    1552,
    1552,
    0,
    0,
    0,
    0,
    0,
    0,
    0,
    0,
    0,
    0,
    0,
    0,
    0,
    0,
    0,
    0,
    0,
    0,
    0,
    0,
    0,
    0,
    0,
    0,
    0,
    0,
    0,
    0,
    0,
    0,
    0,
    0,
    0,
    0,
    0,
    0,
    0,
    0,
    0,
    0,
    0,
    0,
    0,
    0,
    0,
    0,
    0,
    1552,
    1552,
    0,
    1552,
    1552,
    1552,
    1552,
    1552,
    1552,
    1552,
    0,
    0,
    0,
    0,
    0,
    0,
    0,
    0,
    0,
    0,
    0,
    0,
    1552,
    0,
    0,
    0,
    0,
    0,
    0,
    0,
    0,
    0,
    0,
    0,
    0,
    0,
    0,
    0,
    0,
    0,
    0,
    0,
    0,
    0,
    0,
    0,
    1552,
    1552,
    0,
    1552,
    1552,
    0,
    0,
    0,
    0,
    0,
    0,
    0,
    0,
    0,
    0,
    0,
    0,
    0,
    0,
    0,
    0,
    0,
    0,
    0,
    0,
    0,
    0,
    0,
    0,
    0,
    1552,
    1552,
    1552,
    1552,
    1552,
    0,
    1552,
    0,
    0,
    0,
    0,
    0,
    0,
    0,
    0,
    0,
    0,
    0,
    0,
    0,
    0,
    0,
    0,
    0,
    0,
    0,
    0,
    0,
    0,
    0,
    0,
    0,
    0,
    0,
    0,
    0,
    0,
    0,
    0,
    0,
    0,
    0,
    0,
    0,
    0,
    0,
    0,
    0,
    0,
    0,
    0,
    0,
    0,
    0,
    0,
    0,
    0,
    1552,
    0,
    1552,
    0,
    0,
    0,
    0,
    0,
    0,
    0,
    0,
    0,
    0,
    0,
    0,
    0,
    0,
    0,
    0,
    0,
    0,
    0,
    0,
    0,
    0,
    0,
    0,
    0,
    0,
    0,
    0,
    0,
    0,
    0,
    0,
    0,
    0,
    0,
    0,
    0,
    0,
    0,
    0,
    1552,
    1552,
    0,
    0,
    0,
    0,
    0,
    0,
    0,
    0,
    0,
    0,
    0,
    0,
    0,
    0,
    1552,
    0,
    0,
    0,
    0,
    0,
    0,
    0,
    0,
    0,
    1552,
    0,
    1552,
    1552,
    0,
    0,
    0,
    1552,
    0,
    1552,
    0,
    0,
    0,
    0,
    0,
    0,
    0,
    0,
    0,
    0,
    0,
    0,
    0,
    0,
    0,
    0,
    0,
    0,
    0,
    0,
    0,
    0,
    0,
    0,
    0,
    0,
    0,
    0,
    0,
    0,
    0,
    0,
    0,
    0,
    0,
    0,
    0,
    0,
    0,
    0,
    0,
    0,
    0,
    0,
    0,
    0,
    0,
    0,
    0,
    0,
    1552,
    1552,
    1552,
    0,
    0,
    0,
    0,
    0,
    0,
    0,
    0,
    0,
    0,
    0,
    0,
    0,
    0,
    0,
    0,
    0,
    0,
    0,
    1552,
    0,
    0,
    0,
    0,
    0,
    0,
    0,
    0,
    0,
    0,
    0,
    0,
    0,
    0,
    0,
    0,
    0,
    0,
    1552,
    0,
    0,
    0,
    0,
    0,
    0,
    0,
    0,
    0,
    0,
    0,
    0,
    0,
    0,
    0,
    0,
    0,
    1552,
    1552,
    1552,
    0,
    0,
    0,
    0,
    1552,
    1552,
    0,
    0,
    1552,
    0,
    1552,
    1552,
    1552,
    1552,
    1552,
    0,
    0,
    0,
    0,
    0,
    0,
    0,
    0,
    0,
    0,
    0,
    0,
    0,
    0,
    0,
    0,
    0,
    0,
    0,
    0,
    0,
    0,
    0,
    0,
    0,
    0,
    0,
    0,
    0,
    0,
    0,
    0,
    0,
    0,
    0,
    0,
    0,
    0,
    0,
    0,
    0,
    0,
    0,
    0,
    0,
    0,
    0,
    0,
    0,
    0,
    0,
    1552,
    1552,
    0,
    0,
    0,
    0,
    0,
    0,
    0,
    0,
    0,
    0,
    0,
    0,
    0,
    0,
    0,
    0,
    0,
    0,
    0,
    0,
    0,
    0,
    0,
    0,
    0,
    0,
    0,
    0,
    0,
    0,
    0,
    0,
    0,
    0,
    0,
    0,
    0,
    0,
    0,
    1552,
    1552,
    1552,
    0,
    0,
    0,
    0,
    0,
    0,
    0,
    0,
    0,
    0,
    0,
    0,
    0,
    0,
    0,
    1552,
    1552,
    0,
    0,
    0,
    0,
    0,
    1552,
    1552,
    0,
    0,
    0,
    0,
    1552,
    1552,
    1552,
    1552,
    1552,
    0,
    1552,
    0,
    0,
    0,
    0,
    0,
    0,
    0,
    0,
    0,
    0,
    0,
    0,
    0,
    0,
    0,
    0,
    0,
    0,
    0,
    0,
    0,
    0,
    0,
    0,
    0,
    0,
    0,
    0,
    0,
    0,
    0,
    0,
    0,
    0,
    0,
    0,
    0,
    0,
    0,
    0,
    0,
    0,
    0,
    0,
    0,
    0,
    0,
    0,
    0,
    0,
    1552,
    0,
    0,
    0,
    1552,
    0,
    0,
    0,
    0,
    0,
    0,
    0,
    0,
    0,
    0,
    0,
    0,
    0,
    0,
    0,
    0,
    0,
    0,
    0,
    0,
    0,
    0,
    0,
    0,
    0,
    0,
    0,
    0,
    0,
    0,
    0,
    0,
    0,
    0,
    0,
    0,
    1552,
    0,
    0,
    0,
    0,
    0,
    0,
    0,
    0,
    0,
    0,
    0,
    0,
    0,
    0,
    0,
    0,
    0,
    1552,
    1552,
    0,
    0,
    1552,
    1552,
    1552,
    0,
    0,
    0,
    0,
    0,
    0,
    0,
    1552,
    1552,
    0,
    1552,
    0,
    0,
    0,
    0,
    0,
    0,
    0,
    0,
    0,
    0,
    0,
    0,
    0,
    0,
    0,
    0,
    0,
    0,
    0,
    0,
    0,
    0,
    0,
    0,
    0,
    0,
    0,
    0,
    0,
    0,
    0,
    0,
    0,
    0,
    0,
    0,
    0,
    0,
    0,
    0,
    0,
    0,
    0,
    0,
    0,
    0,
    0,
    0,
    0,
    0,
    0,
    0,
    0,
    0,
    0,
    0,
    0,
    0,
    0,
    0,
    0,
    0,
    0,
    0,
    0,
    0,
    0,
    0,
    0,
    0,
    0,
    0,
    0,
    0,
    0,
    0,
    0,
    0,
    0,
    0,
    0,
    0,
    0,
    0,
    0,
    0,
    0,
    0,
    0,
    0,
    0,
    0,
    0,
    0,
    0,
    0,
    0,
    0,
    0,
    0,
    0,
    0,
    0,
    0,
    0,
    0,
    0,
    0,
    0,
    0,
    1552,
    1552,
    0,
    0,
    0,
    1552,
    1552,
    1552,
    0,
    0,
    0,
    0,
    0,
    0,
    1552,
    1552,
    1552,
    0,
    0,
    0,
    0,
    0,
    0,
    0,
    0,
    0,
    0,
    0,
    0,
    0,
    0,
    0,
    0,
    0,
    0,
    0,
    0,
    0,
    0,
    0,
    0,
    0,
    0,
    0,
    0,
    0,
    0,
    0,
    0,
    0,
    0,
    0,
    0,
    0,
    0,
    0,
    0,
    0,
    0,
    0,
    0,
    0,
    0,
    0,
    0,
    0,
    0,
    0,
    0,
    0,
    0,
    0,
    0,
    0,
    0,
    0,
    0,
    0,
    0,
    0,
    0,
    0,
    0,
    0,
    0,
    0,
    0,
    0,
    0,
    0,
    0,
    0,
    0,
    0,
    0,
    0,
    0,
    0,
    0,
    0,
    0,
    0,
    0,
    0,
    0,
    0,
    0,
    0,
    0,
    0,
    0,
    0,
    0,
    0,
    0,
    0,
    0,
    0,
    0,
    0,
    0,
    0,
    0,
    0,
    0,
    0,
    0,
    0,
    0,
    1552,
    1552,
    0,
    0,
    0,
    1552,
    1552,
    0,
    0,
    0,
    0,
    0,
    0,
    0,
    1552,
    0,
    0,
    0,
    0,
    0,
    0,
    0,
    0,
    0,
    0,
    0,
    0,
    0,
    0,
    0,
    0,
    0,
    0,
    0,
    0,
    0,
    0,
    0,
    0,
    0,
    0,
    0,
    0,
    0,
    0,
    0,
    0,
    0,
    0,
    0,
    0,
    0,
    0,
    0,
    0,
    0,
    0,
    0,
    0,
    0,
    0,
    0,
    0,
    0,
    0,
    0,
    0,
    0,
    0,
    0,
    0,
    0,
    0,
    0,
    0,
    0,
    0,
    0,
    0,
    0,
    0,
    0,
    0,
    0,
    0,
    0,
    0,
    0,
    0,
    0,
    0,
    0,
    0,
    0,
    0,
    0,
    0,
    0,
    0,
    0,
    0,
    0,
    0,
    0,
    0,
    0,
    0,
    0,
    0,
    0,
    0,
    0,
    0,
    0,
    0,
    0,
    0,
    0,
    0,
    0,
    0,
    0,
    0,
    0,
    0,
    0,
    0,
    0,
    1552,
    1552,
    1552,
    0,
    1552,
    1552,
    1552,
    0,
    0,
    0,
    0,
    0,
    0,
    0,
    0,
    0,
    0,
    0,
    0,
    0,
    0,
    0,
    0,
    0,
    0,
    0,
    1552,
    0,
    0,
    0
   ]
  }
 ]
}
