{
 "type": "map",
 "version": 1.1,
 "tiledversion": "1.11.0",
 "orientation": "orthogonal",
 "renderorder": "right-down",
 "width": 128,
 "height": 128,
 "tilewidth": 40,
 "tileheight": 40,
 "infinite": false,
 "nextlayerid": 5,
 "nextobjectid": 43,
 "compressionlevel": -1,
 "properties": [],
 "tilesets": [
  {
   "firstgid": 1,
   "source": "terrain.tsx"
  }
 ],
 "layers": [
  {
   "id": 1,
   "name": "terrain",
   "type": "tilelayer",
   "x": 0,
   "y": 0,
   "width": 128,
   "height": 128,
   "opacity": 1,
   "visible": true,
   "data": [
    1182,
    1148,
    1182,
    1147,
    1182,
    1182,
    731,
    732,
    1385,
    1387,
    1383,
    1383,
    1386,
    1385,
    1385,
    1387,
    1388,
    1383,
    1384,
    1386,
    1383,
    1383,
    1383,
    1383,
    1385,
    1383,
    1388,
    1385,
    702,
    1388,
    1386,
    1385,
    1383,
    1383,
    1384,
    1384,
    1385,
    1383,
    1384,
    1386,
    1385,
    1387,
    1388,
    1383,
    731,
    732,
    1388,
    1182,
    1384,
    1385,
    1388,
    1387,
    1384,
    1387,
    1384,
    1385,
    1388,
    1383,
    1388,
    1383,
    1386,
    1385,
    1385,
    1388,
    1387,
    1383,
    1383,
    1384,
    1387,
    1385,
    1384,
    1384,
    1384,
    1388,
    1386,
    1385,
    1385,
    1384,
    1388,
    1383,
    1386,
    1386,
    1388,
    1384,
    1385,
    1387,
    1385,
    1385,
    1386,
    1388,
    1383,
    1387,
    1383,
    1383,
    1383,
    1386,
    1387,
    1387,
    1388,
    1383,
    1383,
    1384,
    1383,
    1385,
    1384,
    1385,
    1387,
    1388,
    1383,
    1384,
    1386,
    1384,
    1388,
    1384,
    1387,
    1383,
    1386,
    1385,
    1386,
    1163,
    1385,
    1388,
    1385,
    733,
    731,
    732,
    1147,
    1182,
    1388,
    731,
    732,
    1182,
    1150,
    1151,
    747,
    748,
    1182,
    1385,
    1383,
    927,
    11,
    1386,
    1387,
    1388,
    1386,
    1385,
    1384,
    1383,
    1385,
    1387,
    1384,
    1387,
    1387,
    1163,
    1388,
    1387,
    1383,
    1388,
    1384,
    1387,
    1383,
    1386,
    1163,
    1386,
    1388,
    1387,
    1383,
    1387,
    1384,
    1383,
    731,
    732,
    747,
    748,
    731,
    732,
    1387,
    1387,
    1388,
    1383,
    1386,
    1384,
    1383,
    1383,
    1384,
    1387,
    1386,
    1388,
    1163,
    1388,
    1388,
    1386,
    1384,
    1384,
    1387,
    1387,
    1165,
    1384,
    1386,
    1387,
    1387,
    1386,
    1385,
    1388,
    1385,
    1387,
    1384,
    1386,
    1384,
    1388,
    1385,
    1385,
    1383,
    1388,
    1384,
    1165,
    1385,
    1384,
    1387,
    1385,
    1383,
    1384,
    1386,
    1384,
    1385,
    1385,
    1387,
    1385,
    1384,
    1383,
    1388,
    1383,
    1384,
    1163,
    1384,
    1385,
    1386,
    1384,
    1384,
    1387,
    1388,
    1164,
    1388,
    1388,
    1165,
    1388,
    1384,
    1387,
    1385,
    1386,
    731,
    732,
    747,
    748,
    733,
    1147,
    733,
    747,
    748,
    1147,
    1166,
    1167,
    1182,
    1148,
    731,
    732,
    1383,
    1387,
    1385,
    1165,
    1385,
    1385,
    1388,
    1385,
    1383,
    1384,
    1384,
    1383,
    1383,
    1385,
    1383,
    1388,
    1385,
    1385,
    1386,
    1384,
    1387,
    1383,
    1387,
    1386,
    1384,
    1383,
    1383,
    1388,
    1388,
    1384,
    731,
    732,
    747,
    748,
    1147,
    10,
    747,
    748,
    1384,
    1384,
    1385,
    1388,
    1165,
    1386,
    1388,
    1384,
    1387,
    1387,
    1388,
    1384,
    1383,
    1383,
    1165,
    1384,
    1388,
    1388,
    1388,
    1383,
    1383,
    1388,
    1385,
    1388,
    1385,
    1383,
    1388,
    1164,
    1384,
    1385,
    1384,
    1386,
    1385,
    1163,
    1388,
    1386,
    1383,
    1383,
    1383,
    1386,
    1385,
    1383,
    1387,
    1388,
    1386,
    1386,
    1386,
    1386,
    1384,
    1164,
    1387,
    1384,
    1384,
    1384,
    1388,
    11,
    1385,
    1387,
    1385,
    1388,
    1385,
    1383,
    1383,
    1386,
    1384,
    1387,
    1385,
    1383,
    1385,
    1386,
    1385,
    1386,
    731,
    732,
    747,
    748,
    1147,
    1182,
    731,
    732,
    1182,
    1147,
    1148,
    733,
    1148,
    1386,
    1182,
    927,
    747,
    748,
    1387,
    1385,
    1387,
    1386,
    1388,
    1386,
    1383,
    1388,
    1388,
    1163,
    1385,
    1383,
    1383,
    1383,
    1385,
    1385,
    1383,
    1383,
    1388,
    1383,
    1387,
    1384,
    1386,
    1386,
    1384,
    1165,
    1385,
    1388,
    731,
    732,
    747,
    748,
    10,
    1147,
    731,
    732,
    1383,
    1164,
    1383,
    1383,
    1386,
    1384,
    1388,
    1387,
    1388,
    1385,
    1388,
    1387,
    1385,
    1387,
    1386,
    1386,
    1383,
    1386,
    1387,
    1387,
    1386,
    1386,
    1388,
    1384,
    1384,
    1387,
    1388,
    1388,
    1384,
    1383,
    1387,
    1386,
    1387,
    1388,
    1386,
    1388,
    1385,
    1387,
    1388,
    1387,
    1384,
    1384,
    1385,
    1385,
    1387,
    1388,
    1387,
    1384,
    1384,
    1387,
    1387,
    1385,
    1383,
    1385,
    1383,
    1387,
    1386,
    1388,
    1388,
    1384,
    1385,
    1385,
    1387,
    1387,
    1387,
    1388,
    1383,
    1386,
    1385,
    1383,
    1385,
    1388,
    1388,
    1386,
    747,
    748,
    1182,
    731,
    732,
    1385,
    747,
    748,
    1384,
    733,
    927,
    1386,
    731,
    732,
    1147,
    1182,
    733,
    733,
    1385,
    927,
    1386,
    1387,
    1388,
    1385,
    1386,
    1385,
    1383,
    1388,
    1387,
    1388,
    1386,
    1385,
    1385,
    1388,
    1387,
    1385,
    1388,
    1386,
    1386,
    1385,
    1383,
    1386,
    1383,
    1388,
    1387,
    1147,
    747,
    748,
    1149,
    731,
    732,
    1182,
    747,
    748,
    1387,
    1386,
    1383,
    1385,
    1388,
    1385,
    733,
    1147,
    1388,
    1387,
    1385,
    1387,
    1385,
    1385,
    1384,
    1164,
    1383,
    1384,
    1385,
    1386,
    1384,
    1386,
    1387,
    1388,
    1384,
    1386,
    1385,
    1383,
    1383,
    1384,
    1387,
    1165,
    1385,
    1388,
    1383,
    1383,
    1388,
    1383,
    1164,
    1387,
    1383,
    1385,
    1387,
    1383,
    1385,
    1383,
    1387,
    1386,
    1388,
    1384,
    1385,
    1384,
    1387,
    1386,
    1383,
    1384,
    1383,
    1388,
    1387,
    1385,
    1386,
    1384,
    1388,
    1386,
    1387,
    1383,
    1385,
    1387,
    1388,
    1385,
    1385,
    1383,
    1384,
    1384,
    1182,
    733,
    1147,
    747,
    748,
    1387,
    1182,
    1147,
    1182,
    1182,
    1148,
    733,
    747,
    748,
    1182,
    731,
    732,
    1147,
    1386,
    1386,
    1383,
    1388,
    1386,
    1387,
    1388,
    1388,
    1388,
    1385,
    1386,
    1182,
    1384,
    1385,
    1385,
    1386,
    1386,
    1385,
    1165,
    1385,
    1386,
    1387,
    1383,
    1384,
    1388,
    1388,
    1388,
    1388,
    1147,
    731,
    732,
    747,
    748,
    731,
    732,
    1384,
    1383,
    1388,
    1384,
    1387,
    1385,
    1386,
    11,
    1383,
    1383,
    1383,
    1385,
    1385,
    1385,
    1388,
    1388,
    1383,
    1387,
    1388,
    1386,
    1384,
    1388,
    1385,
    1387,
    1387,
    1386,
    1388,
    1388,
    1385,
    1386,
    1387,
    1384,
    1385,
    1386,
    1388,
    1384,
    1383,
    1388,
    1383,
    1384,
    1386,
    1386,
    1384,
    1384,
    1388,
    1384,
    1165,
    1386,
    1383,
    1384,
    1384,
    1163,
    1385,
    1383,
    1385,
    1388,
    1383,
    1385,
    1385,
    1387,
    1388,
    1383,
    1387,
    1385,
    1386,
    1384,
    1385,
    1385,
    1388,
    1387,
    1386,
    1387,
    1386,
    1383,
    1384,
    1385,
    731,
    732,
    1182,
    1383,
    733,
    731,
    732,
    1383,
    731,
    732,
    1182,
    733,
    1148,
    927,
    747,
    748,
    1150,
    1151,
    733,
    1388,
    1384,
    1387,
    1388,
    1383,
    1388,
    1386,
    1385,
    1386,
    1386,
    1385,
    1384,
    1386,
    1386,
    1383,
    1387,
    1388,
    1385,
    1383,
    1388,
    1388,
    1383,
    1387,
    1388,
    1387,
    1388,
    1388,
    747,
    748,
    1182,
    1384,
    747,
    748,
    1386,
    1384,
    1388,
    1384,
    1388,
    1383,
    1383,
    1388,
    1182,
    1386,
    1387,
    1383,
    1387,
    1384,
    1385,
    1385,
    1383,
    1384,
    1387,
    1383,
    1163,
    1384,
    1383,
    1387,
    1384,
    1385,
    1387,
    1383,
    1386,
    1383,
    1386,
    1387,
    1387,
    1383,
    1384,
    1385,
    1387,
    1386,
    1388,
    1385,
    1387,
    1387,
    1387,
    1388,
    1387,
    1385,
    1384,
    1383,
    1386,
    1384,
    1388,
    1387,
    1383,
    1386,
    1383,
    1388,
    1385,
    1384,
    1387,
    1384,
    1385,
    1387,
    1388,
    1383,
    1384,
    1388,
    1385,
    1387,
    1383,
    1386,
    1383,
    1385,
    1388,
    1386,
    1383,
    1387,
    747,
    748,
    1386,
    1150,
    1151,
    747,
    748,
    1147,
    747,
    748,
    1387,
    1147,
    733,
    1164,
    11,
    1182,
    1166,
    1167,
    1383,
    1386,
    1386,
    1384,
    1387,
    1386,
    1384,
    1385,
    731,
    732,
    1182,
    1150,
    1151,
    1388,
    1387,
    1384,
    1385,
    1387,
    1387,
    1387,
    1383,
    1388,
    1385,
    1385,
    1164,
    1385,
    1386,
    1385,
    1383,
    1164,
    1384,
    1387,
    1182,
    1385,
    1387,
    1388,
    1385,
    1383,
    1386,
    1387,
    1383,
    1384,
    1387,
    1163,
    1386,
    1386,
    1385,
    1383,
    1386,
    1386,
    1386,
    1384,
    1385,
    1386,
    1385,
    1387,
    1387,
    1387,
    1387,
    1388,
    1385,
    1384,
    1388,
    1385,
    1387,
    1383,
    1384,
    1385,
    1383,
    11,
    1386,
    1384,
    1385,
    1387,
    1388,
    1386,
    1388,
    1385,
    1385,
    1387,
    1385,
    1387,
    1387,
    1383,
    1384,
    1386,
    1385,
    1386,
    1386,
    1386,
    1387,
    1387,
    1386,
    1386,
    1385,
    1383,
    1385,
    1387,
    1384,
    1385,
    1383,
    1384,
    1384,
    1385,
    1384,
    1387,
    1384,
    1383,
    1387,
    731,
    732,
    1385,
    1383,
    1166,
    1167,
    1182,
    1147,
    1182,
    1147,
    733,
    1182,
    1182,
    731,
    732,
    927,
    733,
    1165,
    1385,
    1387,
    1386,
    1386,
    1386,
    1386,
    1384,
    1386,
    1388,
    747,
    748,
    11,
    1166,
    1167,
    1182,
    1383,
    1387,
    1383,
    1386,
    1383,
    1387,
    1387,
    1386,
    1387,
    1163,
    1386,
    1386,
    1384,
    1385,
    1384,
    1386,
    1384,
    1383,
    1383,
    1383,
    1387,
    1386,
    1388,
    1385,
    1388,
    1388,
    1387,
    1384,
    1384,
    1387,
    1387,
    1387,
    1386,
    1387,
    1387,
    1383,
    1386,
    1387,
    1383,
    1387,
    1384,
    1386,
    1385,
    1386,
    1164,
    1384,
    1387,
    1385,
    1388,
    1385,
    1386,
    1385,
    1385,
    1388,
    1384,
    1386,
    1384,
    1386,
    1384,
    1384,
    1385,
    1385,
    1383,
    1385,
    1384,
    1385,
    1385,
    1384,
    1385,
    1383,
    1384,
    1383,
    1384,
    1385,
    1386,
    1385,
    1388,
    1383,
    1383,
    1383,
    1388,
    1384,
    1165,
    1386,
    1385,
    1388,
    1386,
    1386,
    1388,
    1385,
    1383,
    1182,
    1384,
    1387,
    1384,
    747,
    748,
    1383,
    1182,
    1147,
    733,
    1150,
    1151,
    1388,
    731,
    732,
    1147,
    733,
    747,
    748,
    1182,
    1386,
    1147,
    733,
    1387,
    1387,
    1384,
    1165,
    1387,
    1383,
    1182,
    731,
    732,
    1182,
    1385,
    1123,
    1387,
    1182,
    1386,
    1386,
    1384,
    1388,
    1182,
    1387,
    731,
    732,
    1384,
    1383,
    1383,
    1385,
    1388,
    1385,
    1384,
    1386,
    1383,
    1384,
    1384,
    1385,
    1388,
    1384,
    1385,
    1386,
    1385,
    1385,
    1384,
    1385,
    1385,
    1387,
    1384,
    1384,
    1386,
    1388,
    1383,
    1387,
    1387,
    1383,
    1386,
    1387,
    1384,
    1384,
    1386,
    1386,
    1383,
    1385,
    1387,
    1384,
    1388,
    1385,
    1388,
    1385,
    1384,
    1388,
    1384,
    1163,
    1386,
    1383,
    1386,
    1385,
    1388,
    1388,
    1385,
    1164,
    1387,
    1388,
    1163,
    1388,
    1386,
    1385,
    1387,
    1387,
    1383,
    1384,
    1388,
    1385,
    1388,
    1384,
    1386,
    1388,
    1386,
    1385,
    1386,
    1384,
    1386,
    1386,
    1383,
    1163,
    1388,
    1388,
    1386,
    1388,
    1387,
    1147,
    1383,
    1384,
    1388,
    1385,
    1384,
    733,
    1147,
    1166,
    1167,
    1147,
    747,
    748,
    11,
    1150,
    1151,
    1182,
    731,
    732,
    1387,
    1387,
    1386,
    1383,
    1386,
    1384,
    1384,
    731,
    732,
    747,
    748,
    1386,
    1124,
    1,
    1121,
    1385,
    1163,
    1387,
    1383,
    731,
    732,
    1182,
    747,
    748,
    1383,
    1182,
    1385,
    1387,
    1383,
    1386,
    1165,
    1387,
    1384,
    1387,
    1383,
    1163,
    1385,
    1384,
    1383,
    1383,
    1383,
    1164,
    1387,
    1384,
    1388,
    1383,
    1383,
    1384,
    1387,
    1386,
    1165,
    1388,
    1384,
    1383,
    1383,
    1384,
    1385,
    1387,
    1386,
    1383,
    1385,
    1387,
    1386,
    1387,
    1385,
    1385,
    1384,
    1383,
    1383,
    1385,
    1387,
    1385,
    1163,
    1386,
    1383,
    1384,
    1385,
    1387,
    1386,
    1383,
    1387,
    1384,
    1386,
    1386,
    1384,
    1386,
    1387,
    1384,
    1386,
    1388,
    1385,
    1387,
    1165,
    1388,
    1164,
    1388,
    1384,
    1386,
    1385,
    1386,
    1387,
    1384,
    1383,
    1387,
    1385,
    1383,
    1147,
    1387,
    1383,
    1383,
    1387,
    1385,
    1164,
    1383,
    1385,
    1388,
    1386,
    1386,
    1182,
    1148,
    1182,
    1147,
    1182,
    1166,
    1167,
    1383,
    747,
    748,
    1384,
    1385,
    1384,
    1386,
    1384,
    1383,
    1383,
    747,
    748,
    1182,
    1388,
    1125,
    15,
    16,
    14,
    1122,
    1384,
    1385,
    1385,
    747,
    748,
    1386,
    1150,
    1151,
    1182,
    731,
    732,
    1385,
    1182,
    1387,
    1386,
    1386,
    1383,
    1387,
    1387,
    1387,
    1386,
    1383,
    1384,
    1383,
    1383,
    1384,
    1388,
    1383,
    1385,
    1384,
    1383,
    1384,
    1383,
    1386,
    1384,
    1387,
    1383,
    1384,
    1385,
    1387,
    1388,
    1388,
    1386,
    1388,
    1384,
    1386,
    1386,
    1384,
    1163,
    1383,
    1386,
    1386,
    1383,
    1387,
    1386,
    1385,
    1383,
    1385,
    1384,
    1383,
    1387,
    1383,
    1385,
    1388,
    1386,
    1386,
    1384,
    1384,
    1383,
    1386,
    1384,
    1384,
    1388,
    1386,
    1384,
    1387,
    1383,
    1384,
    1384,
    1384,
    1385,
    1385,
    1387,
    1385,
    1384,
    1386,
    1384,
    1384,
    1388,
    1383,
    1386,
    1384,
    1384,
    1388,
    1385,
    1387,
    1384,
    1386,
    1383,
    1386,
    1165,
    1386,
    1384,
    1387,
    927,
    731,
    732,
    733,
    731,
    732,
    10,
    1387,
    1384,
    1164,
    1387,
    1386,
    1387,
    1182,
    1387,
    1388,
    1182,
    1386,
    1387,
    1093,
    31,
    32,
    1,
    1105,
    1106,
    1388,
    1165,
    1123,
    1123,
    1386,
    1166,
    1167,
    1386,
    747,
    748,
    731,
    732,
    1388,
    1385,
    1383,
    1386,
    1386,
    1385,
    1386,
    1387,
    1386,
    1385,
    1385,
    1388,
    1387,
    1386,
    1383,
    1386,
    1383,
    1385,
    1385,
    1384,
    1383,
    1387,
    1384,
    1385,
    1384,
    1383,
    1383,
    1385,
    1384,
    1386,
    1386,
    1386,
    1386,
    1383,
    1383,
    1383,
    1384,
    1383,
    1388,
    1384,
    1387,
    1388,
    1387,
    1383,
    1386,
    1383,
    1384,
    1387,
    1386,
    1384,
    1383,
    1388,
    1385,
    1388,
    1387,
    1386,
    1383,
    1387,
    1388,
    1385,
    1385,
    1387,
    1388,
    1386,
    1386,
    1383,
    1387,
    1383,
    1386,
    1386,
    1385,
    1387,
    1388,
    1384,
    1384,
    1385,
    1385,
    1387,
    1385,
    1384,
    1386,
    1383,
    1386,
    1386,
    1384,
    1383,
    1385,
    1385,
    1388,
    1165,
    731,
    732,
    747,
    748,
    1147,
    747,
    748,
    1182,
    1388,
    1165,
    1386,
    1383,
    1383,
    1385,
    1386,
    1385,
    731,
    732,
    1182,
    1386,
    1108,
    1109,
    15,
    1,
    8,
    1122,
    1123,
    1124,
    1074,
    1074,
    1122,
    1123,
    1387,
    1386,
    1384,
    1386,
    747,
    748,
    731,
    732,
    1388,
    1386,
    1388,
    1384,
    1386,
    1388,
    1384,
    1165,
    1386,
    1386,
    1388,
    1383,
    1385,
    1383,
    1387,
    1384,
    1384,
    1386,
    1388,
    1384,
    1383,
    1387,
    1386,
    1384,
    1388,
    1388,
    1384,
    1386,
    1387,
    1383,
    1386,
    1383,
    1163,
    1385,
    1384,
    1164,
    1387,
    1388,
    1384,
    1388,
    1384,
    1387,
    1384,
    1383,
    1384,
    1386,
    1385,
    1384,
    1388,
    1165,
    1384,
    1387,
    1388,
    1383,
    1383,
    1386,
    1387,
    1384,
    1385,
    1387,
    1387,
    1387,
    1384,
    1386,
    1383,
    1383,
    1388,
    1388,
    1385,
    1386,
    1386,
    1386,
    1384,
    1388,
    1387,
    1383,
    1383,
    1165,
    1384,
    1388,
    1386,
    1385,
    1384,
    1387,
    1387,
    1386,
    1388,
    1386,
    747,
    748,
    1150,
    1151,
    1148,
    927,
    1388,
    1147,
    1386,
    1384,
    1386,
    1386,
    1387,
    1384,
    731,
    732,
    747,
    748,
    1383,
    1165,
    1124,
    1,
    31,
    32,
    911,
    912,
    911,
    912,
    911,
    912,
    839,
    840,
    1122,
    1388,
    1163,
    731,
    732,
    1385,
    747,
    748,
    1384,
    1383,
    1163,
    1388,
    1388,
    1387,
    1385,
    1383,
    1385,
    1385,
    1387,
    1388,
    1388,
    1387,
    1388,
    1385,
    1386,
    1385,
    1163,
    1387,
    1387,
    1386,
    1386,
    1386,
    1388,
    1384,
    1383,
    1383,
    1383,
    1386,
    1388,
    1387,
    1387,
    1388,
    1383,
    1384,
    1388,
    1385,
    1383,
    1387,
    733,
    1147,
    1164,
    1384,
    1387,
    1386,
    1383,
    1385,
    1387,
    1384,
    1387,
    1388,
    1387,
    1383,
    1383,
    1384,
    1388,
    1163,
    1387,
    1384,
    1386,
    1386,
    1163,
    1388,
    1388,
    1386,
    1386,
    1387,
    1388,
    1384,
    1385,
    1383,
    1387,
    1383,
    1163,
    1383,
    1386,
    1383,
    1385,
    1384,
    1385,
    1388,
    1387,
    1386,
    1388,
    1388,
    1387,
    1384,
    1147,
    1182,
    1166,
    1167,
    1386,
    1388,
    1388,
    1384,
    1384,
    1384,
    1388,
    1384,
    1182,
    1383,
    747,
    748,
    1147,
    1386,
    1385,
    1124,
    845,
    846,
    847,
    1075,
    1075,
    1090,
    1091,
    1092,
    3,
    7,
    855,
    856,
    7,
    1121,
    1383,
    747,
    748,
    731,
    732,
    1388,
    1388,
    1385,
    1385,
    1387,
    1383,
    1163,
    1387,
    1388,
    1387,
    1386,
    1384,
    1386,
    1164,
    1384,
    1387,
    1388,
    1383,
    1387,
    1385,
    1384,
    1384,
    1383,
    1387,
    1165,
    1383,
    1388,
    1388,
    1388,
    1385,
    1385,
    1384,
    1385,
    1386,
    1384,
    1386,
    1384,
    1384,
    1386,
    733,
    10,
    1182,
    1388,
    1388,
    1383,
    1383,
    1386,
    1383,
    1384,
    1385,
    1386,
    1384,
    1164,
    1388,
    1384,
    1384,
    1388,
    1385,
    1388,
    1385,
    1387,
    1388,
    1386,
    1386,
    1386,
    1383,
    1384,
    1386,
    1387,
    1387,
    1384,
    1383,
    1387,
    1388,
    1383,
    1385,
    1384,
    1164,
    1383,
    1386,
    1385,
    1387,
    1385,
    1385,
    1383,
    1385,
    1383,
    1383,
    1388,
    1387,
    731,
    732,
    1386,
    1182,
    1386,
    1387,
    1385,
    1383,
    1385,
    1385,
    1383,
    1386,
    1147,
    1387,
    1182,
    1385,
    1387,
    1125,
    880,
    861,
    862,
    1090,
    1091,
    1091,
    1384,
    1388,
    1388,
    1091,
    1092,
    836,
    837,
    838,
    2,
    1122,
    1385,
    1384,
    747,
    748,
    1147,
    1182,
    1383,
    1387,
    1385,
    1386,
    1385,
    1387,
    1383,
    1383,
    1383,
    1384,
    1387,
    1386,
    1387,
    1387,
    1386,
    1386,
    1386,
    1387,
    1383,
    1387,
    1386,
    1383,
    1387,
    1383,
    1386,
    1388,
    1164,
    1385,
    1384,
    1383,
    1385,
    1386,
    1386,
    1385,
    1385,
    1388,
    1182,
    1147,
    1388,
    1385,
    1383,
    733,
    1388,
    1386,
    1387,
    1383,
    1383,
    1383,
    1387,
    1388,
    1385,
    1383,
    1386,
    1387,
    1388,
    1387,
    1388,
    1383,
    1384,
    1388,
    1383,
    1387,
    1386,
    1386,
    1388,
    1386,
    1383,
    1384,
    1165,
    1385,
    1388,
    1385,
    1383,
    1385,
    1388,
    1384,
    1388,
    1385,
    1386,
    1387,
    1385,
    1383,
    1384,
    1385,
    1385,
    1384,
    1388,
    1386,
    747,
    748,
    1383,
    1387,
    1386,
    1385,
    1384,
    1383,
    1384,
    1388,
    1383,
    1388,
    1385,
    1387,
    1383,
    1388,
    1124,
    895,
    896,
    1090,
    1091,
    1165,
    1385,
    1386,
    1387,
    1123,
    1387,
    1388,
    1387,
    1092,
    853,
    854,
    839,
    840,
    1121,
    1387,
    1386,
    1150,
    1151,
    1387,
    1383,
    1383,
    1386,
    1384,
    1383,
    1388,
    1386,
    1387,
    1386,
    1385,
    1388,
    1385,
    1384,
    1385,
    1388,
    1386,
    1386,
    1387,
    1388,
    1386,
    1387,
    1387,
    1384,
    1384,
    1383,
    1386,
    1385,
    1387,
    1388,
    1385,
    1385,
    1386,
    1383,
    1385,
    1386,
    1384,
    733,
    11,
    1182,
    1147,
    1383,
    1384,
    1163,
    1384,
    1385,
    1387,
    1383,
    1383,
    1384,
    1383,
    1388,
    1388,
    1386,
    1385,
    1385,
    1387,
    1384,
    1383,
    1385,
    1387,
    1383,
    1385,
    1383,
    1164,
    1387,
    1385,
    1386,
    1383,
    1383,
    1387,
    1387,
    1383,
    1386,
    1387,
    1383,
    1387,
    1182,
    1385,
    1182,
    1387,
    1385,
    1383,
    1385,
    1384,
    1383,
    1386,
    1385,
    1147,
    1385,
    1385,
    1385,
    1385,
    1387,
    1384,
    1385,
    1385,
    1388,
    1384,
    1386,
    1387,
    1384,
    1165,
    1384,
    1125,
    845,
    846,
    1089,
    1383,
    1383,
    1383,
    1386,
    1123,
    1124,
    7,
    1122,
    1123,
    1123,
    1124,
    2,
    3,
    855,
    856,
    1105,
    1106,
    1165,
    1166,
    1167,
    1387,
    1383,
    1388,
    1386,
    1386,
    1386,
    1386,
    1384,
    1164,
    1383,
    1385,
    1383,
    1384,
    1388,
    1387,
    1384,
    1387,
    1385,
    1384,
    1383,
    1384,
    1387,
    1384,
    1384,
    1383,
    1384,
    1388,
    1387,
    1387,
    1386,
    1387,
    1386,
    1386,
    1383,
    1385,
    1165,
    1388,
    1384,
    1383,
    733,
    1384,
    1386,
    1384,
    1384,
    1384,
    1386,
    1386,
    1388,
    1383,
    1386,
    1388,
    1385,
    1385,
    1387,
    1383,
    1384,
    1387,
    1383,
    1386,
    1384,
    1386,
    1387,
    1383,
    1383,
    1383,
    1384,
    1385,
    1385,
    1388,
    1383,
    1388,
    1388,
    1385,
    1385,
    1165,
    1384,
    1182,
    1147,
    1182,
    1385,
    1388,
    1388,
    1388,
    1384,
    1388,
    1383,
    1387,
    1386,
    1387,
    1386,
    1385,
    1387,
    1388,
    1384,
    1385,
    1383,
    1388,
    1385,
    1384,
    1385,
    1123,
    1123,
    1123,
    1124,
    870,
    861,
    1090,
    1385,
    1123,
    1123,
    1123,
    1124,
    1,
    1,
    14,
    1,
    13,
    1,
    1,
    2,
    4,
    836,
    837,
    838,
    1122,
    1384,
    1388,
    1388,
    1385,
    1388,
    1388,
    1384,
    1388,
    1386,
    1385,
    1387,
    1383,
    1386,
    1388,
    1386,
    1387,
    1387,
    1383,
    1163,
    1386,
    1384,
    1383,
    1386,
    1386,
    1385,
    1386,
    1384,
    1383,
    1384,
    1386,
    1386,
    1388,
    1386,
    1384,
    1384,
    1388,
    1385,
    1387,
    1383,
    1385,
    1384,
    1388,
    1385,
    1385,
    1386,
    1385,
    1384,
    1384,
    1386,
    1384,
    1385,
    1386,
    1386,
    1385,
    1387,
    1384,
    1386,
    1383,
    1384,
    1383,
    1384,
    1384,
    1383,
    1165,
    1383,
    1387,
    1385,
    1387,
    1386,
    1384,
    1383,
    1385,
    1385,
    1384,
    1387,
    1388,
    1383,
    1386,
    1388,
    1388,
    731,
    732,
    1147,
    1387,
    1383,
    1387,
    1385,
    1387,
    1388,
    1385,
    702,
    1388,
    1147,
    1147,
    1182,
    1383,
    1386,
    1386,
    1385,
    1386,
    1388,
    1163,
    1124,
    16,
    14,
    884,
    885,
    886,
    1089,
    1383,
    1125,
    843,
    844,
    911,
    912,
    911,
    912,
    841,
    842,
    845,
    846,
    847,
    1090,
    1091,
    1092,
    853,
    854,
    839,
    1122,
    1383,
    1163,
    1386,
    1384,
    1385,
    1386,
    1388,
    1385,
    1386,
    1387,
    1388,
    1385,
    1386,
    1386,
    1384,
    1385,
    1388,
    1383,
    1384,
    1386,
    1383,
    1386,
    1383,
    1388,
    1385,
    1386,
    1383,
    1385,
    1385,
    1388,
    1385,
    1388,
    1386,
    1386,
    1383,
    1384,
    1383,
    1386,
    1388,
    1388,
    1385,
    1383,
    1385,
    1384,
    1386,
    1387,
    1385,
    1388,
    1384,
    1384,
    1388,
    1383,
    1163,
    1384,
    1385,
    1385,
    1388,
    1385,
    1385,
    1386,
    1386,
    1387,
    1384,
    1384,
    1385,
    1388,
    1383,
    1383,
    1386,
    1383,
    1386,
    1383,
    1388,
    1385,
    1388,
    1383,
    1385,
    1386,
    11,
    747,
    748,
    1384,
    1165,
    1383,
    1386,
    1385,
    1164,
    1386,
    1388,
    1383,
    731,
    732,
    1182,
    731,
    732,
    1384,
    1386,
    1387,
    1384,
    1385,
    1125,
    31,
    32,
    880,
    900,
    901,
    1090,
    1385,
    1124,
    880,
    859,
    860,
    1,
    1,
    1090,
    1092,
    857,
    858,
    861,
    1090,
    1091,
    1385,
    1384,
    1383,
    1091,
    1092,
    855,
    856,
    1122,
    1123,
    1123,
    1164,
    1386,
    1383,
    1388,
    1388,
    1387,
    1386,
    1388,
    1387,
    1388,
    1383,
    1182,
    1384,
    1388,
    1385,
    1388,
    1386,
    1386,
    1387,
    1387,
    1385,
    1385,
    1386,
    1383,
    1386,
    1387,
    1388,
    1384,
    1388,
    1385,
    1384,
    1383,
    1388,
    1384,
    1386,
    1384,
    1388,
    1383,
    1387,
    1387,
    1388,
    1383,
    1383,
    1384,
    1384,
    1388,
    1388,
    1383,
    1384,
    1388,
    1383,
    1386,
    1383,
    1387,
    1386,
    1387,
    1383,
    1385,
    1384,
    1387,
    1386,
    1385,
    1387,
    1384,
    1388,
    1386,
    1385,
    1388,
    1383,
    1387,
    1386,
    1387,
    1387,
    1147,
    1384,
    1147,
    1387,
    1182,
    1384,
    1384,
    1383,
    1387,
    1383,
    1385,
    1385,
    1388,
    1385,
    747,
    748,
    1182,
    747,
    748,
    1385,
    1385,
    1383,
    1386,
    1386,
    1093,
    7,
    895,
    896,
    1,
    1089,
    1384,
    1125,
    895,
    896,
    1,
    1090,
    1091,
    1091,
    1163,
    1387,
    1091,
    1091,
    1091,
    1384,
    1384,
    1383,
    1384,
    1388,
    1165,
    1108,
    785,
    786,
    787,
    3,
    1105,
    1106,
    1386,
    1386,
    1383,
    1386,
    1385,
    1388,
    1388,
    1165,
    1387,
    1384,
    733,
    11,
    1385,
    1384,
    1386,
    1387,
    1386,
    1386,
    1383,
    1164,
    1385,
    1383,
    1384,
    1385,
    1163,
    1384,
    1387,
    1386,
    1383,
    1387,
    1385,
    1384,
    1383,
    1384,
    1164,
    1384,
    1386,
    1388,
    1388,
    1386,
    1388,
    1388,
    1384,
    1165,
    1388,
    1386,
    1387,
    1385,
    1385,
    1386,
    1383,
    1388,
    1388,
    1385,
    1386,
    1386,
    1385,
    1383,
    1386,
    1384,
    1386,
    1388,
    1384,
    1387,
    1385,
    1388,
    1163,
    1386,
    1384,
    1386,
    1386,
    1385,
    1387,
    1387,
    1383,
    1384,
    1386,
    1387,
    1386,
    1385,
    1384,
    1385,
    1383,
    1385,
    1388,
    1387,
    1147,
    731,
    732,
    1387,
    927,
    1182,
    1386,
    1383,
    1164,
    1388,
    1387,
    1092,
    798,
    799,
    1090,
    1165,
    1384,
    1092,
    798,
    799,
    1090,
    1386,
    1182,
    1386,
    1386,
    1182,
    1383,
    1150,
    1151,
    1387,
    1384,
    1383,
    1386,
    1384,
    1388,
    1108,
    801,
    802,
    803,
    2,
    1089,
    1386,
    1385,
    1385,
    1385,
    1387,
    1388,
    1384,
    1387,
    1387,
    1384,
    1386,
    1386,
    1388,
    1383,
    1386,
    1386,
    1385,
    1387,
    1387,
    1383,
    1386,
    1388,
    1388,
    1383,
    1383,
    1386,
    1387,
    1388,
    1387,
    1385,
    1388,
    1385,
    1388,
    1383,
    1388,
    1386,
    1386,
    1386,
    1387,
    1387,
    1386,
    1384,
    1385,
    1385,
    1385,
    1388,
    1383,
    1387,
    1387,
    1388,
    1388,
    1386,
    1384,
    1383,
    1386,
    1388,
    1164,
    1386,
    1384,
    1383,
    1388,
    1385,
    1385,
    1384,
    1383,
    1383,
    1387,
    1386,
    1384,
    1384,
    1385,
    1387,
    1383,
    1388,
    1386,
    1182,
    1383,
    731,
    732,
    1388,
    1388,
    1386,
    1387,
    1387,
    1387,
    1386,
    1386,
    1387,
    747,
    748,
    1182,
    1385,
    1385,
    1384,
    1383,
    1385,
    1383,
    1165,
    1108,
    814,
    815,
    1106,
    1383,
    1386,
    1108,
    814,
    815,
    1106,
    1386,
    1388,
    1147,
    731,
    732,
    1387,
    1166,
    1167,
    1383,
    1388,
    1383,
    1385,
    1383,
    1163,
    1124,
    817,
    818,
    819,
    1090,
    1165,
    1384,
    1388,
    1386,
    1387,
    1387,
    1384,
    1163,
    1387,
    1384,
    1388,
    1386,
    1384,
    1387,
    1384,
    1387,
    1386,
    1388,
    1385,
    1387,
    1386,
    1384,
    1386,
    1384,
    1383,
    1386,
    1387,
    1384,
    1386,
    1385,
    1385,
    1388,
    1384,
    1385,
    1383,
    1385,
    1386,
    1386,
    1385,
    1387,
    1388,
    1388,
    1384,
    1388,
    1383,
    1388,
    1387,
    1387,
    1385,
    1388,
    1387,
    1383,
    1385,
    1385,
    1385,
    1383,
    1386,
    1384,
    1385,
    1386,
    1383,
    1383,
    1388,
    1387,
    1384,
    1383,
    1384,
    1384,
    1383,
    1383,
    1386,
    1387,
    1385,
    1386,
    1386,
    1387,
    1383,
    1383,
    747,
    748,
    1385,
    1383,
    1383,
    1386,
    1384,
    1385,
    1384,
    1384,
    1182,
    1147,
    1182,
    731,
    732,
    1182,
    1386,
    1384,
    1385,
    1387,
    1385,
    1108,
    830,
    831,
    1122,
    1386,
    1385,
    1108,
    830,
    831,
    1122,
    1384,
    1182,
    1385,
    747,
    748,
    731,
    732,
    1383,
    1182,
    1388,
    1384,
    1384,
    1387,
    1125,
    1,
    796,
    797,
    1105,
    1106,
    1384,
    1386,
    1387,
    1383,
    1385,
    1388,
    1384,
    1386,
    1384,
    1383,
    1385,
    1387,
    1385,
    1383,
    1383,
    1385,
    1388,
    1384,
    1387,
    1385,
    1383,
    1388,
    1383,
    1386,
    1385,
    1388,
    1384,
    1384,
    1385,
    1388,
    1385,
    1385,
    1388,
    1386,
    1387,
    1387,
    1385,
    1383,
    1387,
    1388,
    1386,
    1387,
    1384,
    1384,
    1383,
    1385,
    1385,
    1388,
    1384,
    1387,
    1387,
    1384,
    1385,
    1383,
    1383,
    1388,
    1385,
    1387,
    1388,
    1385,
    1387,
    1385,
    1388,
    1384,
    1383,
    1383,
    1384,
    1385,
    1388,
    1387,
    1388,
    1387,
    1383,
    1388,
    1385,
    1388,
    1388,
    1385,
    1182,
    731,
    732,
    1383,
    1384,
    1388,
    1383,
    1384,
    1383,
    1386,
    1385,
    731,
    732,
    747,
    748,
    1383,
    1182,
    1383,
    1385,
    1386,
    1388,
    1108,
    871,
    872,
    873,
    1121,
    1383,
    1108,
    871,
    872,
    873,
    1122,
    1386,
    1384,
    1182,
    1147,
    747,
    748,
    1384,
    1387,
    1388,
    1387,
    1123,
    1124,
    866,
    867,
    812,
    813,
    1090,
    1383,
    1386,
    1385,
    1384,
    1388,
    1384,
    1387,
    1387,
    1385,
    1387,
    1386,
    1386,
    1388,
    1385,
    1383,
    1386,
    1383,
    1383,
    1387,
    1386,
    1385,
    1383,
    1384,
    1385,
    1384,
    1383,
    1387,
    1384,
    1387,
    1384,
    1388,
    1385,
    1388,
    1387,
    1383,
    1388,
    1384,
    1388,
    1386,
    1385,
    1383,
    1386,
    1384,
    1383,
    1387,
    1383,
    1386,
    1385,
    1387,
    1387,
    1383,
    1386,
    1384,
    1388,
    1387,
    1387,
    1384,
    1386,
    1383,
    1383,
    1383,
    1384,
    1386,
    1383,
    1384,
    1386,
    1384,
    1386,
    1386,
    1387,
    1385,
    1384,
    1385,
    1385,
    1385,
    1387,
    1383,
    1387,
    1383,
    1384,
    747,
    748,
    1386,
    1387,
    1387,
    1383,
    1384,
    1388,
    1383,
    1182,
    747,
    748,
    1147,
    1182,
    1383,
    1383,
    1385,
    1163,
    1384,
    927,
    1387,
    1092,
    888,
    889,
    890,
    1122,
    1124,
    1,
    888,
    889,
    890,
    1121,
    1147,
    1386,
    731,
    732,
    1385,
    1182,
    1387,
    1384,
    1125,
    3,
    881,
    882,
    883,
    828,
    1090,
    1386,
    1383,
    1385,
    1384,
    1383,
    1383,
    1385,
    1383,
    1384,
    1387,
    1387,
    1386,
    1384,
    1383,
    1386,
    1388,
    1384,
    1384,
    1384,
    1386,
    1387,
    1386,
    1385,
    1385,
    1385,
    1387,
    1388,
    1388,
    1383,
    1388,
    1383,
    1384,
    1388,
    1387,
    1384,
    1163,
    1383,
    1386,
    1385,
    1383,
    1388,
    1386,
    1388,
    1384,
    1387,
    1387,
    1388,
    1387,
    1388,
    1387,
    1387,
    1386,
    1383,
    1383,
    1388,
    1387,
    1385,
    1386,
    1383,
    1386,
    1384,
    1386,
    1384,
    1385,
    1386,
    1388,
    1385,
    1385,
    1383,
    1383,
    1388,
    1384,
    1385,
    1388,
    1384,
    1384,
    1385,
    1164,
    1384,
    1383,
    1387,
    1385,
    1182,
    1387,
    1386,
    1387,
    1388,
    1387,
    1383,
    1384,
    1386,
    1387,
    1147,
    1385,
    1385,
    1383,
    1387,
    1387,
    1387,
    1384,
    1147,
    731,
    732,
    1092,
    905,
    906,
    1,
    7,
    1023,
    1024,
    905,
    906,
    2,
    1122,
    1388,
    747,
    748,
    1383,
    1387,
    1163,
    1124,
    4,
    1389,
    897,
    898,
    899,
    1089,
    1386,
    1165,
    1388,
    1388,
    1383,
    1385,
    1388,
    1386,
    1386,
    1387,
    1385,
    1388,
    1388,
    1383,
    1385,
    1388,
    1386,
    1385,
    1384,
    1383,
    1386,
    1385,
    1386,
    1386,
    1165,
    1383,
    1388,
    1383,
    1384,
    1386,
    1164,
    1388,
    1385,
    1387,
    1385,
    1386,
    1385,
    1384,
    1388,
    1385,
    1388,
    1386,
    1164,
    1387,
    1388,
    1387,
    1165,
    1383,
    1384,
    1386,
    1386,
    733,
    1384,
    10,
    1386,
    1383,
    1385,
    1383,
    1383,
    1384,
    1163,
    1387,
    1385,
    1383,
    1385,
    1388,
    1388,
    1385,
    1386,
    1384,
    1388,
    1385,
    1383,
    1388,
    1386,
    1383,
    1386,
    1386,
    1388,
    1388,
    1386,
    1387,
    1386,
    1385,
    1385,
    1387,
    1386,
    1383,
    1387,
    1385,
    1387,
    1388,
    1383,
    1383,
    1384,
    1384,
    1388,
    1387,
    1384,
    1384,
    1383,
    1385,
    747,
    748,
    1108,
    1390,
    1391,
    1392,
    795,
    1039,
    1040,
    798,
    799,
    7,
    1090,
    1386,
    1165,
    1387,
    1147,
    1384,
    1125,
    15,
    16,
    1405,
    913,
    914,
    1090,
    1388,
    1385,
    1384,
    1385,
    1388,
    1384,
    1387,
    1383,
    1388,
    1386,
    1387,
    1384,
    1385,
    1384,
    1387,
    1387,
    1384,
    1387,
    1386,
    1385,
    1386,
    1383,
    1384,
    1387,
    1388,
    1388,
    1163,
    1388,
    1387,
    1385,
    1383,
    1386,
    1387,
    1388,
    1386,
    1384,
    1383,
    1384,
    1384,
    1384,
    1384,
    1385,
    1387,
    1383,
    1384,
    1386,
    1385,
    1384,
    1384,
    1385,
    1386,
    1384,
    1388,
    1165,
    733,
    11,
    1383,
    1384,
    1388,
    1383,
    1386,
    1388,
    1388,
    1386,
    1388,
    1387,
    1164,
    1386,
    1383,
    1384,
    1384,
    1385,
    1387,
    1387,
    1165,
    1387,
    1386,
    1387,
    1386,
    1386,
    1387,
    1388,
    1384,
    1388,
    1387,
    1383,
    1386,
    1164,
    1383,
    1388,
    1386,
    1386,
    1387,
    1388,
    1387,
    1385,
    1384,
    1385,
    1385,
    1383,
    1383,
    1385,
    11,
    1386,
    1383,
    1108,
    1406,
    1407,
    1408,
    811,
    1055,
    1,
    814,
    815,
    1105,
    1106,
    1147,
    1388,
    1388,
    1123,
    1124,
    2,
    3,
    32,
    1421,
    1090,
    1091,
    1384,
    1383,
    1383,
    1385,
    1384,
    1388,
    1384,
    1387,
    1388,
    1385,
    1385,
    1388,
    1388,
    1386,
    1386,
    1385,
    1384,
    1387,
    1385,
    1384,
    1384,
    1384,
    1386,
    1385,
    1386,
    1383,
    1385,
    1387,
    1384,
    1383,
    1386,
    1384,
    1388,
    1387,
    1388,
    1386,
    1387,
    1387,
    1386,
    1383,
    1387,
    1387,
    1386,
    1383,
    1384,
    1384,
    1385,
    1387,
    1383,
    1383,
    1387,
    1383,
    1385,
    1386,
    1388,
    1386,
    1383,
    1385,
    1383,
    1388,
    1385,
    1387,
    1385,
    1387,
    1388,
    1388,
    1384,
    1385,
    1384,
    1383,
    1383,
    1385,
    1387,
    1383,
    1383,
    1385,
    1385,
    1386,
    1388,
    1163,
    1386,
    1387,
    1383,
    1383,
    1383,
    1384,
    1387,
    1388,
    1384,
    1386,
    1388,
    1383,
    1386,
    1386,
    1388,
    1387,
    1383,
    1385,
    1385,
    1385,
    1383,
    1388,
    1386,
    1386,
    1383,
    1387,
    1147,
    1092,
    1423,
    1424,
    827,
    15,
    16,
    830,
    831,
    1105,
    1106,
    1388,
    1387,
    1124,
    789,
    1023,
    1024,
    3,
    1090,
    1091,
    1386,
    1164,
    1383,
    1388,
    1385,
    1388,
    1386,
    1388,
    1384,
    1386,
    1383,
    1383,
    1387,
    1388,
    733,
    1387,
    1384,
    1383,
    1387,
    1182,
    1386,
    1384,
    1182,
    1388,
    1386,
    1384,
    1385,
    1385,
    1386,
    1387,
    1386,
    1386,
    1384,
    1147,
    1385,
    1384,
    1388,
    1383,
    1388,
    1386,
    1384,
    1383,
    1385,
    1386,
    1388,
    1386,
    1383,
    1386,
    1384,
    1388,
    1385,
    1387,
    1386,
    1387,
    1164,
    1385,
    1388,
    1384,
    1387,
    1387,
    1386,
    1387,
    1386,
    1385,
    1388,
    1384,
    1387,
    1384,
    1387,
    1388,
    1385,
    1387,
    1388,
    1384,
    1386,
    1383,
    1388,
    1386,
    1387,
    1388,
    1383,
    1384,
    1386,
    1386,
    1383,
    1387,
    1388,
    1388,
    1386,
    1388,
    1384,
    1385,
    1388,
    1386,
    1388,
    1384,
    1165,
    1388,
    1387,
    1388,
    1386,
    1385,
    1388,
    927,
    1386,
    1384,
    1383,
    1386,
    1388,
    1163,
    1091,
    1091,
    1092,
    31,
    32,
    798,
    799,
    1090,
    1387,
    1386,
    1108,
    804,
    805,
    1039,
    1040,
    1,
    1106,
    1384,
    1383,
    1387,
    1384,
    1383,
    1387,
    1388,
    1383,
    1386,
    1385,
    1388,
    1388,
    1163,
    1383,
    1388,
    1385,
    1383,
    1383,
    731,
    732,
    1384,
    731,
    732,
    1383,
    1386,
    1383,
    1386,
    1383,
    1383,
    1385,
    1385,
    1383,
    1385,
    1383,
    1384,
    1387,
    1385,
    1385,
    1388,
    1387,
    1387,
    1385,
    1383,
    1383,
    1384,
    1385,
    1388,
    1386,
    1386,
    1388,
    1385,
    1387,
    1386,
    1385,
    1384,
    1383,
    1387,
    1388,
    1384,
    1385,
    1163,
    1385,
    1386,
    1386,
    1388,
    1388,
    1383,
    1383,
    1386,
    1384,
    1385,
    1388,
    1388,
    1384,
    1388,
    1385,
    1163,
    1386,
    1383,
    1385,
    1383,
    1387,
    1386,
    1387,
    1385,
    1163,
    1383,
    1384,
    1387,
    1385,
    1384,
    1386,
    1384,
    1163,
    1386,
    1384,
    1387,
    1388,
    1384,
    1388,
    1384,
    1387,
    1164,
    1147,
    1182,
    1387,
    1384,
    1388,
    1387,
    1388,
    1386,
    1384,
    1385,
    1385,
    1092,
    1,
    814,
    815,
    1106,
    1165,
    1386,
    1124,
    820,
    821,
    1055,
    1,
    1090,
    1386,
    1388,
    1387,
    1386,
    1387,
    1387,
    1386,
    1383,
    1385,
    1387,
    1387,
    1384,
    1388,
    1388,
    1387,
    1182,
    1388,
    731,
    732,
    747,
    748,
    733,
    747,
    748,
    731,
    732,
    1150,
    1151,
    1383,
    1383,
    1387,
    1386,
    1384,
    1386,
    1387,
    1384,
    1383,
    1385,
    1388,
    1384,
    1165,
    1386,
    1384,
    1388,
    1383,
    1163,
    1387,
    1388,
    1386,
    1385,
    1385,
    1387,
    1385,
    1386,
    1384,
    1385,
    1388,
    1385,
    1384,
    1385,
    1388,
    1383,
    1383,
    1386,
    1384,
    1388,
    1387,
    1384,
    1385,
    1388,
    1388,
    1385,
    1385,
    1387,
    1388,
    1383,
    1384,
    1383,
    1388,
    1387,
    1386,
    1386,
    1386,
    1388,
    1384,
    1385,
    1385,
    1383,
    1387,
    1384,
    1386,
    1386,
    1384,
    1385,
    1384,
    1386,
    1387,
    1387,
    1388,
    1388,
    1387,
    1384,
    1384,
    1385,
    1384,
    1386,
    1388,
    1386,
    1383,
    1386,
    1387,
    1384,
    1385,
    1163,
    1383,
    1108,
    1109,
    830,
    831,
    1122,
    1383,
    1387,
    1092,
    785,
    786,
    787,
    1090,
    1165,
    1383,
    1383,
    1385,
    1384,
    1386,
    1165,
    1386,
    1384,
    1387,
    1388,
    1387,
    1388,
    1383,
    1388,
    1384,
    1384,
    1147,
    747,
    748,
    1384,
    731,
    732,
    1182,
    1182,
    747,
    748,
    1166,
    1167,
    1384,
    1182,
    1385,
    1386,
    1387,
    1388,
    1388,
    1387,
    1385,
    1387,
    1384,
    1386,
    1385,
    1383,
    1386,
    1388,
    1386,
    1388,
    1383,
    1385,
    1385,
    1384,
    1388,
    1386,
    1384,
    1386,
    1387,
    1388,
    1387,
    1383,
    1388,
    1387,
    1383,
    1385,
    1384,
    1388,
    1384,
    1164,
    1385,
    1386,
    1386,
    1386,
    1383,
    1165,
    1384,
    1387,
    1387,
    1384,
    1387,
    1387,
    1387,
    1386,
    1388,
    1384,
    1383,
    1384,
    1386,
    1384,
    1383,
    1383,
    1386,
    1387,
    1386,
    1383,
    1383,
    1385,
    1388,
    1387,
    1386,
    1383,
    1387,
    1387,
    1385,
    1388,
    1385,
    1385,
    1385,
    1383,
    1388,
    1387,
    1384,
    1388,
    1385,
    1383,
    1388,
    1290,
    1165,
    1108,
    1109,
    871,
    872,
    873,
    1122,
    1383,
    1108,
    801,
    802,
    803,
    1106,
    11,
    1383,
    1384,
    1387,
    1385,
    1388,
    1384,
    1383,
    1385,
    1383,
    927,
    1386,
    1383,
    1383,
    1182,
    1387,
    731,
    732,
    1182,
    1150,
    1151,
    747,
    748,
    1182,
    731,
    732,
    1383,
    731,
    732,
    731,
    732,
    1386,
    1384,
    1385,
    1388,
    1384,
    1384,
    1386,
    1387,
    1163,
    1384,
    1385,
    1384,
    1164,
    1387,
    1386,
    1387,
    1385,
    1386,
    1386,
    1388,
    1387,
    1383,
    1385,
    1385,
    1383,
    1383,
    1163,
    1387,
    1383,
    1388,
    1388,
    1387,
    1388,
    1384,
    1387,
    1387,
    1385,
    1386,
    1383,
    1384,
    1388,
    1385,
    1383,
    1388,
    1384,
    1383,
    1383,
    1388,
    1386,
    1387,
    1383,
    1387,
    1383,
    1165,
    1388,
    1386,
    1384,
    1385,
    1388,
    1385,
    1385,
    1385,
    1383,
    1388,
    1387,
    731,
    732,
    1387,
    1387,
    1386,
    1384,
    1386,
    1388,
    1384,
    1383,
    1387,
    1383,
    1387,
    1386,
    1388,
    1383,
    1383,
    1384,
    1388,
    1387,
    1383,
    1092,
    1,
    888,
    889,
    890,
    1106,
    1108,
    817,
    818,
    819,
    1106,
    1388,
    1385,
    1385,
    1388,
    733,
    1386,
    1387,
    1383,
    1387,
    1385,
    1385,
    1385,
    1165,
    1386,
    1385,
    927,
    747,
    748,
    1386,
    1166,
    1167,
    1384,
    731,
    732,
    747,
    748,
    1386,
    747,
    748,
    747,
    748,
    1388,
    1388,
    1387,
    1388,
    1164,
    1385,
    1387,
    1388,
    1387,
    1385,
    1388,
    1383,
    1387,
    1383,
    1165,
    1385,
    1388,
    1384,
    1384,
    1385,
    1385,
    1388,
    1384,
    1385,
    1384,
    1388,
    1384,
    1387,
    1388,
    1387,
    1383,
    1386,
    1386,
    1386,
    1386,
    1387,
    1165,
    1388,
    1383,
    1384,
    1383,
    1163,
    1386,
    1387,
    1384,
    1385,
    1383,
    1384,
    1386,
    1387,
    1387,
    1387,
    1386,
    1388,
    1386,
    1387,
    1388,
    1387,
    1384,
    1388,
    1383,
    1385,
    1387,
    1383,
    1387,
    747,
    748,
    1388,
    1383,
    1383,
    1388,
    1388,
    1387,
    1388,
    1384,
    1387,
    1387,
    1385,
    1386,
    10,
    1384,
    1388,
    1385,
    1383,
    1290,
    1163,
    1386,
    1092,
    7,
    905,
    906,
    1122,
    1124,
    796,
    797,
    1090,
    1384,
    1165,
    1383,
    1384,
    1387,
    1385,
    1385,
    1386,
    731,
    732,
    1386,
    731,
    732,
    1388,
    1387,
    1387,
    1163,
    1386,
    731,
    732,
    731,
    732,
    927,
    747,
    748,
    1388,
    1182,
    733,
    1384,
    731,
    732,
    731,
    732,
    1384,
    1383,
    1383,
    1386,
    1387,
    1384,
    1385,
    1384,
    1385,
    1384,
    1384,
    1384,
    1386,
    1383,
    1383,
    1388,
    1388,
    1385,
    1385,
    1386,
    1383,
    1387,
    1383,
    1388,
    1388,
    1385,
    1386,
    1385,
    1386,
    1384,
    1383,
    1388,
    1383,
    1387,
    1383,
    1383,
    1385,
    1384,
    1387,
    1385,
    1388,
    1388,
    1386,
    1388,
    1383,
    1383,
    1388,
    1384,
    1164,
    1388,
    1386,
    1386,
    1384,
    1386,
    1386,
    1388,
    1385,
    1385,
    1385,
    1383,
    1386,
    1385,
    1384,
    1182,
    733,
    1147,
    1386,
    1386,
    1387,
    1386,
    1383,
    1383,
    1385,
    1385,
    1383,
    1387,
    1388,
    1165,
    1386,
    1385,
    1387,
    1386,
    1387,
    1387,
    1386,
    1388,
    1108,
    1109,
    1390,
    1391,
    1392,
    795,
    812,
    813,
    1106,
    1387,
    1385,
    1388,
    1182,
    1386,
    1385,
    1388,
    1385,
    747,
    748,
    1385,
    747,
    748,
    731,
    732,
    1388,
    1385,
    927,
    747,
    748,
    747,
    748,
    731,
    732,
    1388,
    1182,
    11,
    731,
    732,
    747,
    748,
    747,
    748,
    1182,
    1383,
    1385,
    1387,
    1386,
    1386,
    1386,
    1386,
    1385,
    1384,
    1388,
    1383,
    1387,
    1384,
    1386,
    1165,
    1385,
    1387,
    1385,
    1384,
    1385,
    1386,
    1388,
    1387,
    1388,
    1384,
    1387,
    1383,
    1387,
    1388,
    1387,
    1385,
    1388,
    1387,
    1384,
    1383,
    1386,
    1387,
    1386,
    1164,
    1385,
    1384,
    1387,
    1386,
    1387,
    1386,
    1384,
    1385,
    1385,
    1386,
    1384,
    1383,
    1383,
    1384,
    1384,
    1383,
    1388,
    1386,
    733,
    1386,
    1182,
    1383,
    1182,
    1147,
    1150,
    1151,
    1388,
    1383,
    1383,
    1387,
    1387,
    1384,
    1386,
    1384,
    1385,
    1388,
    1384,
    1384,
    1386,
    1387,
    1388,
    1384,
    1385,
    1384,
    1386,
    1383,
    1165,
    1092,
    1406,
    1407,
    1408,
    811,
    828,
    1090,
    1384,
    1385,
    1386,
    1386,
    1388,
    1387,
    1384,
    1387,
    1147,
    1387,
    731,
    732,
    1386,
    1182,
    747,
    748,
    1383,
    1383,
    1384,
    1385,
    1387,
    731,
    732,
    747,
    748,
    927,
    731,
    732,
    747,
    748,
    1384,
    1182,
    1386,
    731,
    732,
    1384,
    1182,
    1388,
    1387,
    1387,
    1385,
    1384,
    1386,
    1387,
    1387,
    1383,
    1388,
    1387,
    1386,
    1386,
    1388,
    1388,
    1386,
    1164,
    1388,
    1385,
    1384,
    1383,
    1384,
    1387,
    1388,
    1385,
    1385,
    1387,
    1386,
    1387,
    1384,
    1386,
    1385,
    1387,
    1386,
    1383,
    1388,
    1383,
    1386,
    1386,
    1383,
    1384,
    1385,
    1163,
    1383,
    1383,
    1388,
    1385,
    1384,
    1385,
    1388,
    1388,
    1386,
    1388,
    1385,
    1384,
    1384,
    1388,
    1383,
    1182,
    731,
    732,
    1166,
    1167,
    1383,
    1388,
    1383,
    1383,
    1384,
    1385,
    1387,
    1385,
    1386,
    1385,
    1387,
    1387,
    1383,
    1383,
    1383,
    1383,
    1387,
    1387,
    1384,
    1386,
    1384,
    1386,
    1093,
    1423,
    1424,
    827,
    1089,
    1383,
    1388,
    1165,
    1388,
    1387,
    1385,
    1388,
    1385,
    1388,
    1384,
    11,
    747,
    748,
    731,
    732,
    1150,
    1151,
    927,
    1383,
    1383,
    1386,
    1386,
    747,
    748,
    1147,
    731,
    732,
    747,
    748,
    927,
    731,
    732,
    1150,
    1151,
    747,
    748,
    1182,
    1388,
    731,
    732,
    1383,
    1165,
    1387,
    1383,
    1383,
    1386,
    1384,
    1388,
    1383,
    1383,
    1383,
    1385,
    1387,
    1383,
    1388,
    1385,
    1386,
    1386,
    1386,
    1387,
    1383,
    1385,
    1388,
    1387,
    1385,
    1383,
    1385,
    1384,
    1388,
    1388,
    1388,
    1387,
    1384,
    1383,
    1384,
    1383,
    1387,
    1385,
    1385,
    1383,
    1386,
    1387,
    1388,
    1384,
    1385,
    1384,
    1387,
    1388,
    1384,
    1385,
    1385,
    1384,
    1388,
    1384,
    1385,
    731,
    732,
    747,
    748,
    731,
    732,
    1388,
    1383,
    1383,
    1387,
    1387,
    1385,
    1164,
    1163,
    1388,
    1384,
    1383,
    1384,
    1384,
    1386,
    1385,
    1384,
    1383,
    1386,
    1384,
    1384,
    1385,
    1164,
    1383,
    1091,
    1091,
    1091,
    1388,
    1163,
    1387,
    1386,
    1386,
    1385,
    1385,
    1388,
    1384,
    1147,
    1182,
    733,
    1147,
    1182,
    747,
    748,
    1166,
    1167,
    1384,
    1147,
    731,
    732,
    1388,
    1165,
    1387,
    1387,
    747,
    748,
    731,
    732,
    733,
    747,
    748,
    1166,
    1167,
    1182,
    731,
    732,
    1383,
    747,
    748,
    1383,
    1385,
    1386,
    1384,
    1384,
    1386,
    1385,
    1386,
    1387,
    1388,
    1384,
    1385,
    1383,
    1385,
    1383,
    1387,
    1385,
    1384,
    1388,
    1383,
    1383,
    1383,
    1387,
    1386,
    1388,
    1383,
    1383,
    1385,
    1387,
    1385,
    1385,
    1383,
    1387,
    1385,
    1386,
    1386,
    1386,
    1388,
    1387,
    1384,
    1388,
    1385,
    1387,
    1387,
    1388,
    1386,
    1384,
    1385,
    1388,
    1388,
    1388,
    1387,
    1384,
    1165,
    1387,
    747,
    748,
    1385,
    1182,
    747,
    748,
    1386,
    1387,
    1383,
    1386,
    1384,
    1388,
    1383,
    1384,
    1386,
    1385,
    1383,
    1388,
    1383,
    1384,
    1388,
    1385,
    1387,
    1384,
    1383,
    1387,
    1383,
    1387,
    1165,
    1383,
    1383,
    1387,
    1384,
    1385,
    1385,
    1387,
    1383,
    1386,
    1385,
    1386,
    1388,
    1385,
    1387,
    1384,
    1182,
    731,
    732,
    1147,
    1182,
    731,
    732,
    927,
    747,
    748,
    927,
    1388,
    1386,
    1165,
    1385,
    733,
    747,
    748,
    927,
    1182,
    11,
    731,
    732,
    1182,
    747,
    748,
    731,
    732,
    1385,
    1150,
    1151,
    1383,
    1385,
    1383,
    1383,
    1383,
    1383,
    1387,
    1383,
    1386,
    1385,
    1386,
    1383,
    1386,
    1388,
    1384,
    1385,
    1387,
    1386,
    1386,
    1385,
    1163,
    1388,
    1386,
    1385,
    1386,
    1383,
    1386,
    1387,
    1163,
    1385,
    1384,
    1384,
    1384,
    1383,
    1383,
    1385,
    1383,
    1383,
    1387,
    1385,
    1385,
    1385,
    1384,
    1386,
    1383,
    1384,
    1388,
    1383,
    1388,
    1385,
    1383,
    1388,
    733,
    1150,
    1151,
    731,
    732,
    1147,
    1386,
    1384,
    1386,
    1387,
    1384,
    1387,
    1388,
    1386,
    1387,
    1385,
    1383,
    1387,
    1388,
    1387,
    1387,
    1384,
    1383,
    1388,
    1387,
    1386,
    1385,
    1385,
    1383,
    1388,
    1383,
    1387,
    1384,
    1383,
    1383,
    1388,
    1386,
    1387,
    1388,
    1385,
    1384,
    1384,
    1182,
    1388,
    1386,
    1388,
    747,
    748,
    731,
    732,
    747,
    748,
    927,
    1182,
    731,
    732,
    1182,
    1385,
    927,
    1384,
    1387,
    1388,
    733,
    731,
    732,
    927,
    747,
    748,
    731,
    732,
    1182,
    747,
    748,
    1387,
    1166,
    1167,
    1388,
    1383,
    1388,
    1384,
    1386,
    1163,
    1384,
    1385,
    1387,
    1388,
    1383,
    1386,
    1383,
    1387,
    1386,
    1387,
    1386,
    1385,
    1383,
    1386,
    1385,
    1386,
    1388,
    1387,
    1385,
    1385,
    1385,
    1388,
    1383,
    1383,
    1387,
    1388,
    1383,
    1388,
    1165,
    1386,
    1385,
    1384,
    1388,
    1385,
    1386,
    1386,
    1383,
    1386,
    1384,
    1387,
    1386,
    1163,
    1383,
    1384,
    1388,
    1182,
    1388,
    1166,
    1167,
    747,
    748,
    731,
    732,
    927,
    1386,
    1383,
    1383,
    1388,
    1386,
    1386,
    1388,
    1387,
    1165,
    1388,
    1386,
    1387,
    1163,
    1386,
    1387,
    1387,
    1388,
    1387,
    1384,
    1388,
    1387,
    1383,
    1385,
    1383,
    1383,
    1386,
    1386,
    1383,
    1387,
    1387,
    1384,
    1388,
    1386,
    1383,
    1384,
    1165,
    1387,
    1148,
    1182,
    733,
    747,
    748,
    1386,
    731,
    732,
    1182,
    747,
    748,
    11,
    927,
    731,
    732,
    1182,
    1384,
    1164,
    747,
    748,
    731,
    732,
    1182,
    747,
    748,
    731,
    732,
    1384,
    731,
    732,
    1385,
    1386,
    1387,
    1383,
    1385,
    1387,
    1383,
    1385,
    1384,
    1384,
    1387,
    1383,
    1384,
    1383,
    1383,
    1384,
    1383,
    1384,
    1388,
    1386,
    1388,
    1388,
    1387,
    1163,
    1385,
    1388,
    1385,
    1387,
    1388,
    1383,
    1387,
    1383,
    1383,
    1383,
    1386,
    1385,
    1385,
    1388,
    1384,
    1383,
    1387,
    1383,
    1384,
    1383,
    1386,
    1385,
    1384,
    1388,
    1383,
    1386,
    1387,
    1385,
    1388,
    1385,
    1385,
    1182,
    1388,
    11,
    747,
    748,
    1385,
    731,
    732,
    1386,
    1387,
    1383,
    1384,
    1387,
    1384,
    1388,
    1386,
    1386,
    1383,
    1387,
    1386,
    1387,
    1384,
    1387,
    1386,
    1384,
    1388,
    1385,
    1383,
    1385,
    1385,
    1383,
    1388,
    1384,
    1386,
    1386,
    1387,
    1384,
    1387,
    1383,
    1385,
    1386,
    1388,
    1388,
    1386,
    1383,
    1388,
    1383,
    731,
    732,
    747,
    748,
    927,
    1150,
    1151,
    731,
    732,
    747,
    748,
    731,
    732,
    1384,
    1387,
    927,
    747,
    748,
    1150,
    1151,
    1182,
    747,
    748,
    1385,
    747,
    748,
    1385,
    1383,
    1164,
    1384,
    1384,
    1383,
    1386,
    1386,
    1384,
    1384,
    1386,
    1385,
    1387,
    1386,
    1385,
    1383,
    1386,
    1386,
    1164,
    1384,
    1386,
    1383,
    1383,
    1388,
    1385,
    1384,
    1387,
    1383,
    1384,
    1388,
    1383,
    1385,
    1386,
    1384,
    1388,
    1383,
    1388,
    1384,
    1387,
    1388,
    1386,
    1384,
    1388,
    1383,
    1383,
    1386,
    1383,
    1387,
    1386,
    1388,
    1384,
    1165,
    1388,
    1147,
    1383,
    731,
    732,
    1150,
    1151,
    1147,
    1182,
    747,
    748,
    1383,
    1385,
    1388,
    1387,
    1383,
    1383,
    1383,
    1386,
    1383,
    1387,
    1384,
    1385,
    1384,
    1383,
    1386,
    1387,
    1384,
    1387,
    1388,
    1388,
    1383,
    1383,
    1388,
    1383,
    1383,
    1388,
    1388,
    1385,
    1384,
    1386,
    1384,
    1384,
    1383,
    1388,
    1384,
    1150,
    1151,
    1387,
    733,
    747,
    748,
    1182,
    731,
    732,
    1166,
    1167,
    747,
    748,
    11,
    1182,
    747,
    748,
    1388,
    1388,
    1387,
    1387,
    1386,
    1166,
    1167,
    731,
    732,
    1387,
    731,
    732,
    733,
    1388,
    1388,
    1387,
    1385,
    1386,
    1388,
    1387,
    1383,
    1387,
    1385,
    1387,
    1384,
    1165,
    1383,
    1383,
    1383,
    1383,
    1385,
    1386,
    1384,
    1386,
    1388,
    1384,
    1383,
    1386,
    1165,
    1388,
    1387,
    1385,
    1387,
    1383,
    1383,
    1384,
    1388,
    1387,
    1385,
    1164,
    1388,
    1386,
    1388,
    1388,
    1387,
    1387,
    1384,
    1388,
    1384,
    1385,
    1384,
    1384,
    1388,
    1383,
    1385,
    1384,
    1388,
    1384,
    747,
    748,
    1166,
    1167,
    731,
    731,
    732,
    927,
    1386,
    1163,
    1182,
    1388,
    1387,
    1384,
    1388,
    1383,
    1385,
    1384,
    1148,
    1164,
    1387,
    1386,
    1387,
    1383,
    1384,
    1387,
    1388,
    1383,
    1388,
    1383,
    1385,
    1384,
    1384,
    1385,
    1384,
    1386,
    1385,
    1383,
    1386,
    1384,
    1386,
    1383,
    1384,
    1166,
    1167,
    1383,
    1384,
    1388,
    731,
    732,
    747,
    748,
    927,
    731,
    732,
    927,
    1182,
    731,
    732,
    1384,
    927,
    1182,
    1165,
    1386,
    731,
    732,
    1147,
    747,
    748,
    1182,
    747,
    748,
    1387,
    1387,
    731,
    732,
    1388,
    1388,
    1387,
    1386,
    1383,
    1147,
    1384,
    1385,
    1388,
    1388,
    1384,
    1384,
    1388,
    1383,
    1387,
    1384,
    1386,
    1385,
    1383,
    1385,
    1383,
    1387,
    1385,
    1383,
    1383,
    1384,
    1387,
    1163,
    1383,
    1387,
    1385,
    1386,
    1384,
    1386,
    1386,
    1383,
    1385,
    1384,
    1388,
    1385,
    1385,
    1387,
    1387,
    1386,
    1387,
    1385,
    1385,
    1387,
    1385,
    1385,
    1387,
    1387,
    1385,
    1182,
    731,
    732,
    747,
    747,
    748,
    1182,
    1182,
    1387,
    1384,
    11,
    1384,
    1383,
    1386,
    1383,
    1383,
    1383,
    1386,
    1383,
    1386,
    1383,
    1385,
    1385,
    1388,
    1388,
    1387,
    1383,
    1385,
    1386,
    1163,
    1384,
    1387,
    1385,
    1387,
    1387,
    1388,
    1165,
    1383,
    1387,
    1385,
    1384,
    1383,
    1386,
    1387,
    733,
    1387,
    1387,
    747,
    748,
    1182,
    731,
    732,
    747,
    748,
    731,
    732,
    747,
    748,
    1383,
    1383,
    1383,
    1383,
    1164,
    747,
    748,
    731,
    732,
    1182,
    731,
    732,
    1182,
    1387,
    1163,
    747,
    748,
    1182,
    731,
    732,
    1386,
    1385,
    1385,
    1387,
    1387,
    1383,
    1386,
    1387,
    1386,
    1387,
    1384,
    1385,
    1386,
    1385,
    1384,
    1384,
    1387,
    1384,
    1383,
    1383,
    1387,
    1386,
    1388,
    1388,
    1386,
    1384,
    1383,
    1386,
    1386,
    1385,
    1387,
    1386,
    1386,
    1386,
    1384,
    1384,
    1383,
    1385,
    1384,
    1388,
    1385,
    1387,
    1164,
    1386,
    1385,
    1388,
    1388,
    1182,
    1387,
    1147,
    1388,
    747,
    748,
    1385,
    1127,
    733,
    1164,
    731,
    732,
    927,
    733,
    1383,
    1383,
    1385,
    1383,
    1384,
    1387,
    1388,
    1386,
    1386,
    1383,
    1385,
    1164,
    1385,
    1388,
    1383,
    1385,
    1387,
    1387,
    1388,
    1386,
    1387,
    1383,
    1388,
    1386,
    1388,
    1387,
    1384,
    1384,
    1387,
    1386,
    1386,
    1383,
    1383,
    1387,
    1385,
    731,
    732,
    731,
    732,
    747,
    748,
    927,
    1182,
    747,
    748,
    1384,
    927,
    1386,
    731,
    732,
    1383,
    1387,
    1384,
    1387,
    747,
    748,
    1147,
    747,
    748,
    1384,
    1388,
    731,
    732,
    731,
    732,
    747,
    748,
    1383,
    1384,
    1386,
    1385,
    1385,
    1383,
    1386,
    1386,
    1387,
    1384,
    1387,
    1385,
    1385,
    1383,
    1384,
    1387,
    1384,
    1388,
    1384,
    1385,
    1388,
    1385,
    1383,
    1387,
    1386,
    1383,
    1387,
    1383,
    1385,
    1383,
    1386,
    1383,
    1387,
    1386,
    1383,
    1385,
    1383,
    1385,
    1386,
    1386,
    1388,
    1388,
    1385,
    1386,
    1387,
    1387,
    1387,
    1385,
    1388,
    1383,
    1384,
    1385,
    1387,
    11,
    1161,
    1126,
    1383,
    747,
    748,
    731,
    732,
    1182,
    731,
    732,
    1383,
    1147,
    1384,
    1384,
    1385,
    1386,
    1385,
    1383,
    1385,
    1388,
    1383,
    1387,
    1387,
    1385,
    1383,
    1386,
    1386,
    1383,
    1383,
    1387,
    1384,
    1388,
    1385,
    1383,
    1384,
    1387,
    1387,
    1387,
    1384,
    1388,
    1388,
    1383,
    747,
    748,
    747,
    748,
    927,
    1182,
    731,
    732,
    927,
    731,
    732,
    1383,
    1163,
    747,
    748,
    731,
    732,
    1386,
    1385,
    1387,
    1147,
    733,
    733,
    1386,
    1386,
    1384,
    747,
    748,
    747,
    748,
    927,
    731,
    732,
    1386,
    731,
    732,
    1385,
    1164,
    1386,
    1387,
    1383,
    1387,
    1388,
    1387,
    1384,
    1385,
    1388,
    1386,
    1384,
    1383,
    1388,
    1384,
    1384,
    1388,
    1384,
    1387,
    1383,
    1383,
    1387,
    1383,
    1388,
    1386,
    1388,
    1384,
    1383,
    1387,
    1385,
    1388,
    1385,
    1388,
    1386,
    1385,
    1383,
    1383,
    1383,
    1388,
    1383,
    1383,
    1384,
    1387,
    1386,
    1387,
    1386,
    1385,
    1384,
    1384,
    1190,
    1162,
    1127,
    1128,
    1128,
    747,
    748,
    1388,
    747,
    748,
    1128,
    1128,
    1128,
    1182,
    1385,
    1386,
    1385,
    1387,
    1386,
    1388,
    1383,
    1385,
    1388,
    1383,
    1387,
    1386,
    1386,
    1388,
    1387,
    1384,
    1384,
    1385,
    1383,
    1383,
    1385,
    1388,
    1384,
    1383,
    1386,
    1385,
    1386,
    1388,
    1387,
    731,
    732,
    927,
    731,
    732,
    747,
    748,
    1182,
    747,
    748,
    1385,
    731,
    732,
    733,
    747,
    748,
    731,
    732,
    1384,
    1384,
    1164,
    1383,
    1383,
    1384,
    731,
    732,
    1182,
    1383,
    731,
    732,
    747,
    748,
    927,
    1147,
    748,
    1388,
    1384,
    1383,
    1384,
    1384,
    1385,
    1388,
    1383,
    1383,
    1384,
    11,
    1388,
    1384,
    1385,
    1384,
    1386,
    1387,
    1384,
    1384,
    1388,
    1384,
    1386,
    1387,
    1383,
    1386,
    1384,
    1387,
    1383,
    1384,
    1387,
    1385,
    1386,
    1385,
    1384,
    1384,
    1387,
    1384,
    1388,
    1385,
    1387,
    1384,
    1386,
    1163,
    1387,
    1384,
    1165,
    1387,
    1383,
    1383,
    1387,
    1097,
    1191,
    1160,
    1160,
    1161,
    1126,
    1383,
    1163,
    1128,
    1130,
    1086,
    1087,
    1083,
    1127,
    733,
    1386,
    1387,
    1383,
    1387,
    1388,
    1387,
    1386,
    1388,
    1383,
    1386,
    1383,
    1386,
    1385,
    1386,
    1386,
    1385,
    1386,
    1385,
    1386,
    1386,
    1386,
    1388,
    1386,
    1383,
    1384,
    731,
    732,
    1386,
    747,
    748,
    1386,
    747,
    748,
    1182,
    1182,
    1387,
    1386,
    1383,
    1388,
    747,
    748,
    731,
    732,
    733,
    747,
    748,
    731,
    732,
    1387,
    1387,
    731,
    732,
    747,
    748,
    927,
    733,
    747,
    748,
    1182,
    731,
    732,
    1384,
    1386,
    1385,
    1385,
    1387,
    1384,
    1387,
    1385,
    1383,
    1387,
    1387,
    1388,
    1383,
    1388,
    1384,
    1385,
    1384,
    1388,
    1386,
    1388,
    1387,
    1384,
    1383,
    1387,
    1388,
    1386,
    1388,
    1383,
    1384,
    1387,
    731,
    732,
    1386,
    1383,
    731,
    732,
    1385,
    1182,
    1386,
    1386,
    1384,
    1386,
    1383,
    1387,
    1388,
    1384,
    1383,
    1385,
    1388,
    1387,
    1388,
    1388,
    1383,
    1098,
    1143,
    1143,
    1190,
    1162,
    1127,
    1129,
    1159,
    1160,
    1160,
    1160,
    1160,
    1161,
    1126,
    1383,
    11,
    1388,
    1388,
    1383,
    1387,
    1386,
    1384,
    1387,
    1385,
    1385,
    1387,
    1384,
    1388,
    1383,
    1385,
    1387,
    1386,
    1383,
    1384,
    1387,
    1384,
    1383,
    1165,
    1387,
    747,
    748,
    731,
    732,
    1383,
    1150,
    1151,
    927,
    1387,
    1384,
    1385,
    1386,
    1386,
    1150,
    1151,
    927,
    747,
    748,
    731,
    732,
    733,
    747,
    748,
    1383,
    1384,
    747,
    748,
    1150,
    1151,
    731,
    732,
    1182,
    731,
    732,
    747,
    748,
    731,
    732,
    1383,
    1385,
    1388,
    1383,
    1384,
    1384,
    1388,
    1165,
    1386,
    1387,
    1385,
    1383,
    1388,
    1388,
    1387,
    1388,
    1385,
    1388,
    1385,
    1164,
    1388,
    1388,
    1387,
    1388,
    1388,
    1165,
    1384,
    11,
    747,
    748,
    1182,
    1388,
    747,
    748,
    1386,
    10,
    731,
    732,
    11,
    1388,
    1386,
    1388,
    1386,
    1383,
    1164,
    1384,
    1387,
    1384,
    1383,
    1386,
    1385,
    1163,
    1096,
    1096,
    1097,
    1191,
    1160,
    1160,
    1194,
    1191,
    1179,
    1193,
    1143,
    1190,
    1162,
    1127,
    1128,
    1128,
    1165,
    1384,
    1388,
    1385,
    1386,
    1383,
    1386,
    1385,
    1388,
    1383,
    1384,
    1386,
    1387,
    1386,
    1385,
    1387,
    1386,
    1386,
    1386,
    1387,
    1386,
    1385,
    1388,
    1388,
    747,
    748,
    1384,
    1166,
    1167,
    1182,
    1383,
    1388,
    1384,
    1385,
    1386,
    1166,
    1167,
    731,
    732,
    927,
    747,
    748,
    1147,
    927,
    731,
    732,
    1386,
    1385,
    1386,
    1166,
    1167,
    747,
    748,
    1388,
    747,
    748,
    731,
    732,
    747,
    748,
    1383,
    1388,
    1386,
    1384,
    1387,
    1383,
    1385,
    1386,
    1386,
    1387,
    1384,
    1385,
    1385,
    1383,
    1385,
    1386,
    1387,
    1383,
    1387,
    1388,
    1386,
    1388,
    1388,
    1388,
    1383,
    1384,
    1384,
    1383,
    1147,
    927,
    1150,
    1151,
    1182,
    731,
    732,
    1383,
    747,
    748,
    1182,
    731,
    732,
    1384,
    1387,
    1387,
    1385,
    1385,
    1385,
    1165,
    1386,
    1387,
    1385,
    1388,
    1182,
    1164,
    1386,
    1097,
    1143,
    1143,
    1086,
    1087,
    1143,
    1087,
    1095,
    1097,
    1191,
    1160,
    1160,
    1161,
    1126,
    1383,
    1164,
    1384,
    1385,
    1384,
    1383,
    1385,
    1383,
    1386,
    1386,
    1385,
    1386,
    1388,
    1388,
    1388,
    1387,
    1384,
    1384,
    1385,
    1388,
    1388,
    1388,
    1385,
    1386,
    1383,
    731,
    732,
    1384,
    1385,
    1388,
    1388,
    1386,
    731,
    732,
    1182,
    1387,
    747,
    748,
    731,
    732,
    1384,
    1150,
    1151,
    747,
    748,
    1387,
    1387,
    1386,
    733,
    1147,
    1182,
    1385,
    731,
    732,
    927,
    747,
    748,
    1386,
    1383,
    1163,
    1165,
    1383,
    1387,
    1385,
    1383,
    1383,
    1163,
    1384,
    1383,
    1388,
    1383,
    1387,
    1388,
    1384,
    1388,
    1385,
    1386,
    1387,
    1388,
    1383,
    1386,
    1383,
    1388,
    1386,
    1182,
    1388,
    1182,
    731,
    732,
    1166,
    1167,
    1147,
    747,
    748,
    1182,
    1384,
    731,
    732,
    747,
    748,
    1387,
    1384,
    1383,
    1383,
    1385,
    1384,
    1388,
    1387,
    1386,
    1386,
    1383,
    1388,
    1383,
    1165,
    1147,
    1096,
    1096,
    1096,
    1097,
    1196,
    1094,
    1388,
    1383,
    1098,
    1143,
    1143,
    1190,
    1162,
    1127,
    1129,
    1126,
    1387,
    1384,
    1385,
    1164,
    1388,
    1387,
    1387,
    1387,
    1386,
    1387,
    1385,
    1384,
    1388,
    1384,
    1388,
    1385,
    1384,
    1386,
    1386,
    1383,
    1386,
    1384,
    747,
    748,
    1385,
    1388,
    1386,
    1388,
    1182,
    747,
    748,
    731,
    732,
    731,
    732,
    747,
    748,
    1385,
    1166,
    1167,
    1147,
    731,
    732,
    1386,
    1388,
    1384,
    1384,
    1385,
    1384,
    747,
    748,
    1384,
    1387,
    1384,
    1165,
    1387,
    1386,
    1386,
    1387,
    1387,
    1383,
    1383,
    1386,
    1385,
    1383,
    1388,
    1387,
    1386,
    1386,
    1383,
    1388,
    1387,
    1384,
    1388,
    1387,
    1385,
    1386,
    1383,
    1388,
    1384,
    1385,
    1147,
    1385,
    1147,
    747,
    748,
    1182,
    1147,
    1182,
    927,
    731,
    732,
    1384,
    747,
    748,
    1182,
    1386,
    1388,
    1385,
    1163,
    1383,
    1386,
    1385,
    1387,
    1386,
    1383,
    1387,
    1385,
    1387,
    1388,
    1383,
    1387,
    1387,
    1386,
    1384,
    1182,
    1096,
    731,
    732,
    1182,
    1164,
    1096,
    1096,
    1097,
    1191,
    1160,
    1160,
    1178,
    1111,
    1385,
    1130,
    1127,
    1385,
    1385,
    1386,
    1388,
    1383,
    1383,
    1383,
    1386,
    1384,
    1387,
    1388,
    1383,
    1388,
    1383,
    1387,
    1387,
    1386,
    1388,
    1386,
    1385,
    1385,
    1388,
    1387,
    1182,
    731,
    732,
    1182,
    747,
    748,
    747,
    748,
    1147,
    1386,
    731,
    732,
    1387,
    11,
    747,
    748,
    1387,
    1383,
    1386,
    1386,
    1388,
    1383,
    1383,
    1386,
    1383,
    1385,
    1383,
    1385,
    1383,
    1385,
    1387,
    1384,
    1386,
    1388,
    1385,
    1387,
    1387,
    1386,
    1384,
    1387,
    1386,
    1387,
    1386,
    1384,
    1383,
    1386,
    1387,
    1386,
    1387,
    1385,
    1165,
    1388,
    1385,
    1387,
    1387,
    731,
    732,
    927,
    1182,
    11,
    731,
    732,
    1147,
    747,
    748,
    1387,
    1387,
    1387,
    1384,
    1386,
    1388,
    1385,
    1388,
    1386,
    1385,
    1384,
    1387,
    1383,
    1387,
    1387,
    1386,
    1384,
    1387,
    1386,
    1386,
    1385,
    1386,
    1383,
    1388,
    1147,
    747,
    748,
    1385,
    731,
    732,
    1182,
    1386,
    1097,
    1143,
    1143,
    1094,
    1388,
    1113,
    1159,
    1162,
    1127,
    1128,
    1128,
    1383,
    1385,
    1386,
    1385,
    1387,
    1386,
    1384,
    1388,
    1385,
    1386,
    1383,
    1384,
    1385,
    1385,
    1386,
    1383,
    1388,
    1388,
    1384,
    1388,
    1384,
    747,
    748,
    1385,
    1387,
    731,
    732,
    731,
    732,
    1387,
    747,
    748,
    1385,
    731,
    732,
    927,
    1383,
    1386,
    1385,
    1384,
    1165,
    1384,
    1383,
    1388,
    1386,
    1388,
    1388,
    1384,
    1384,
    1383,
    1387,
    1384,
    1384,
    1387,
    1384,
    1388,
    1385,
    1388,
    1383,
    1383,
    1383,
    1383,
    1383,
    1387,
    1386,
    1384,
    1384,
    1387,
    1385,
    1383,
    1388,
    1387,
    1385,
    1387,
    11,
    747,
    748,
    731,
    732,
    927,
    747,
    748,
    731,
    732,
    1182,
    1385,
    1385,
    1383,
    1385,
    1388,
    1383,
    1384,
    1385,
    1386,
    1383,
    1387,
    1387,
    1387,
    1383,
    1388,
    1386,
    1387,
    1385,
    1386,
    1386,
    1386,
    1388,
    1383,
    1387,
    1385,
    1182,
    731,
    732,
    747,
    748,
    731,
    732,
    1384,
    1096,
    1096,
    1385,
    1165,
    1129,
    1191,
    1176,
    1162,
    1144,
    1087,
    1127,
    1384,
    1386,
    1387,
    1383,
    1387,
    1386,
    1384,
    1388,
    1388,
    1383,
    1384,
    1387,
    1385,
    1387,
    1385,
    1383,
    1386,
    1387,
    1388,
    1386,
    1384,
    1384,
    1388,
    1388,
    747,
    748,
    747,
    748,
    1150,
    1151,
    1385,
    1384,
    747,
    748,
    1386,
    1386,
    1383,
    1383,
    1385,
    1388,
    1388,
    1388,
    1387,
    1384,
    1385,
    1383,
    1388,
    1385,
    1383,
    1385,
    1386,
    1385,
    1384,
    1388,
    1388,
    1388,
    1386,
    1383,
    1388,
    1383,
    1383,
    1386,
    1384,
    1384,
    1388,
    1383,
    1388,
    1384,
    1383,
    1387,
    1384,
    1384,
    1386,
    1384,
    1182,
    1386,
    747,
    748,
    731,
    732,
    1182,
    747,
    748,
    1385,
    1385,
    1386,
    1386,
    1386,
    1383,
    1384,
    1388,
    1383,
    1387,
    1385,
    1386,
    1385,
    1387,
    1384,
    1386,
    1384,
    1383,
    1385,
    1383,
    1388,
    1386,
    1386,
    1384,
    1385,
    1384,
    1388,
    747,
    748,
    1163,
    1386,
    747,
    748,
    1182,
    1165,
    1388,
    1388,
    1384,
    1098,
    1083,
    1190,
    1176,
    1160,
    1160,
    1161,
    1126,
    1182,
    1385,
    1163,
    1388,
    1386,
    1388,
    1385,
    1384,
    1384,
    1383,
    1385,
    1385,
    1386,
    1384,
    1386,
    1384,
    1384,
    1386,
    1383,
    1384,
    1388,
    1387,
    1383,
    1387,
    1384,
    1386,
    1387,
    1166,
    1167,
    1387,
    1385,
    1384,
    1388,
    1388,
    1384,
    1388,
    1386,
    1385,
    1384,
    1384,
    1386,
    1384,
    1385,
    1387,
    1385,
    1386,
    1388,
    1384,
    1386,
    1383,
    1383,
    1384,
    1386,
    1387,
    1383,
    1385,
    1384,
    1383,
    1385,
    1386,
    1385,
    1388,
    1386,
    1384,
    1383,
    1387,
    1384,
    1387,
    1383,
    1385,
    1383,
    1386,
    1387,
    733,
    731,
    732,
    1147,
    747,
    748,
    11,
    1182,
    733,
    1388,
    1165,
    1387,
    1387,
    1385,
    1384,
    1386,
    1385,
    1388,
    1383,
    1386,
    1386,
    1383,
    1385,
    702,
    1386,
    1387,
    1385,
    1385,
    1383,
    1386,
    1164,
    1386,
    1387,
    1386,
    1383,
    1388,
    1385,
    1385,
    1384,
    1384,
    1388,
    1384,
    1388,
    1388,
    1383,
    1385,
    1387,
    1163,
    1096,
    1098,
    1143,
    1143,
    1143,
    1190,
    1162,
    1127,
    1128,
    1128,
    1387,
    1387,
    1385,
    1388,
    1384,
    1385,
    1384,
    1386,
    1386,
    1388,
    1385,
    1386,
    1384,
    1386,
    1387,
    1386,
    1383,
    1384,
    1383,
    1383,
    1387,
    1387,
    1386,
    1384,
    1384,
    1387,
    1385,
    1388,
    1384,
    1388,
    1383,
    1383,
    1388,
    1384,
    1384,
    1384,
    1383,
    1383,
    1384,
    1384,
    1387,
    1386,
    1384,
    1383,
    1383,
    1385,
    1383,
    1383,
    1384,
    1387,
    1386,
    1388,
    1383,
    1164,
    1386,
    1386,
    1388,
    1388,
    1387,
    1384,
    1165,
    1383,
    1388,
    1383,
    1386,
    1384,
    1385,
    1387,
    1387,
    1147,
    1388,
    747,
    748,
    1182,
    733,
    1182,
    733,
    1387,
    1385,
    1387,
    1384,
    1386,
    1384,
    1384,
    1384,
    1386,
    1384,
    1388,
    1383,
    1384,
    1385,
    1388,
    1384,
    1387,
    702,
    1385,
    1388,
    1386,
    1384,
    1387,
    1385,
    1384,
    1383,
    1388,
    1384,
    1384,
    1383,
    1387,
    1388,
    1385,
    1385,
    1388,
    1384,
    1387,
    1386,
    1383,
    1387,
    1386,
    1182,
    1386,
    1096,
    1096,
    1096,
    1097,
    1191,
    1160,
    1160,
    1161,
    1126,
    1383,
    1165,
    1385,
    1383,
    1385,
    1387,
    1386,
    1383,
    1388,
    1387,
    1387,
    1386,
    1383,
    1386,
    1388,
    1386,
    1385,
    1388,
    1387,
    1388,
    1383,
    1387,
    1387,
    1387,
    1383,
    1387,
    1383,
    1383,
    1387,
    1386,
    1383,
    1387,
    1383,
    1388,
    1388,
    1384,
    1385,
    1386,
    1388,
    1388,
    1386,
    1384,
    1385,
    1384,
    1388,
    1385,
    1383,
    1165,
    1386,
    1387,
    1388,
    1386,
    1386,
    1384,
    1387,
    1385,
    1384,
    1388,
    1383,
    1387,
    1385,
    1386,
    1385,
    1384,
    1386,
    1388,
    1383,
    1388,
    1385,
    1386,
    11,
    1182,
    1384,
    1386,
    1387,
    1387,
    1388,
    1384,
    1387,
    1385,
    1387,
    1385,
    1388,
    1384,
    1385,
    1387,
    1385,
    1388,
    1386,
    1387,
    1388,
    1163,
    1385,
    1385,
    1387,
    1387,
    1388,
    1388,
    1388,
    1386,
    1384,
    1383,
    1387,
    1385,
    1165,
    1386,
    733,
    731,
    732,
    1182,
    1388,
    1384,
    1383,
    1385,
    1387,
    1386,
    1384,
    1385,
    1163,
    1387,
    1385,
    1386,
    1383,
    1098,
    1143,
    1143,
    1190,
    1162,
    1127,
    1384,
    1385,
    1385,
    1384,
    1383,
    1388,
    1385,
    1386,
    1388,
    1385,
    1386,
    1384,
    1384,
    1386,
    1383,
    1383,
    1385,
    1387,
    1383,
    1384,
    1384,
    1388,
    1384,
    1388,
    1388,
    1383,
    1383,
    1383,
    1165,
    1387,
    1388,
    1386,
    1385,
    1383,
    1385,
    1386,
    1387,
    1384,
    1388,
    1163,
    1388,
    1387,
    1388,
    1387,
    1388,
    1386,
    1386,
    1387,
    1386,
    1386,
    1388,
    1384,
    1386,
    1386,
    1383,
    1386,
    1388,
    1388,
    1384,
    1383,
    1387,
    1386,
    1388,
    1385,
    1164,
    1386,
    1383,
    1384,
    1386,
    1385,
    1383,
    1387,
    1385,
    1385,
    1388,
    1388,
    1385,
    1385,
    1384,
    1385,
    1388,
    1383,
    1164,
    1388,
    1387,
    1387,
    1385,
    1385,
    1387,
    1385,
    1384,
    1388,
    1386,
    1385,
    1385,
    1387,
    1383,
    1383,
    1383,
    1385,
    1386,
    1387,
    1385,
    1388,
    731,
    732,
    747,
    748,
    1383,
    1387,
    1384,
    1383,
    1164,
    1385,
    1385,
    1387,
    1388,
    1385,
    1384,
    1387,
    1388,
    1147,
    1387,
    1096,
    1096,
    1097,
    1191,
    1162,
    1126,
    1387,
    1385,
    1164,
    1385,
    1384,
    1388,
    1383,
    1385,
    1387,
    1385,
    1385,
    1383,
    1385,
    1385,
    1388,
    1386,
    1387,
    1386,
    1384,
    1387,
    1386,
    1386,
    1385,
    1387,
    1384,
    1385,
    1383,
    1383,
    1384,
    1384,
    1383,
    1384,
    1387,
    1387,
    1384,
    1383,
    1387,
    1387,
    1386,
    1383,
    1383,
    1387,
    1384,
    1387,
    1385,
    1385,
    1387,
    1386,
    1386,
    1387,
    1385,
    1387,
    1386,
    1384,
    1386,
    1165,
    1385,
    1387,
    1388,
    1383,
    1387,
    1387,
    1384,
    1384,
    1387,
    1387,
    1388,
    1386,
    1387,
    1383,
    1387,
    1385,
    1387,
    1385,
    1386,
    1383,
    1384,
    1388,
    1388,
    1386,
    1387,
    1388,
    1384,
    1388,
    1384,
    1384,
    1386,
    1388,
    1388,
    1386,
    1383,
    1385,
    1385,
    1385,
    1387,
    1385,
    1388,
    1384,
    1387,
    1386,
    1387,
    1383,
    1388,
    747,
    748,
    731,
    732,
    1182,
    1388,
    1147,
    1387,
    1385,
    1386,
    1384,
    1385,
    1388,
    1383,
    1387,
    1384,
    1383,
    1385,
    1388,
    1387,
    1164,
    1386,
    1097,
    1191,
    1161,
    1127,
    1387,
    1387,
    1386,
    1386,
    1388,
    1384,
    1383,
    1387,
    1383,
    1384,
    1384,
    1383,
    1386,
    1385,
    1387,
    1387,
    1386,
    1388,
    1387,
    1383,
    1384,
    1384,
    1383,
    1388,
    1386,
    1384,
    1387,
    1387,
    1383,
    1386,
    1383,
    1383,
    1383,
    1387,
    1388,
    1385,
    1387,
    1384,
    1387,
    1383,
    1386,
    1386,
    1387,
    1383,
    1386,
    1383,
    1386,
    1387,
    1385,
    1387,
    1388,
    1387,
    1384,
    1384,
    1388,
    1385,
    1388,
    1386,
    1384,
    1385,
    1387,
    1387,
    1386,
    1385,
    1387,
    1388,
    1386,
    1385,
    1388,
    1387,
    1383,
    1384,
    1387,
    1384,
    1386,
    1385,
    1383,
    1385,
    1384,
    1386,
    1388,
    1387,
    1385,
    1387,
    1385,
    1386,
    1386,
    1383,
    1385,
    1383,
    1385,
    1385,
    1388,
    1383,
    1385,
    1385,
    1388,
    1384,
    1387,
    733,
    1383,
    731,
    732,
    1388,
    747,
    748,
    1384,
    731,
    732,
    1387,
    1388,
    1386,
    1386,
    1387,
    1383,
    1384,
    1383,
    1388,
    1383,
    1386,
    1383,
    1388,
    1383,
    1384,
    1165,
    1098,
    1190,
    1162,
    1126,
    1388,
    1388,
    1384,
    1387,
    1384,
    1384,
    1388,
    1384,
    1384,
    1386,
    1385,
    1385,
    1387,
    1388,
    1387,
    1386,
    1165,
    1383,
    1383,
    1388,
    1386,
    1387,
    1383,
    1384,
    1383,
    1163,
    1386,
    1386,
    1387,
    1387,
    1388,
    1387,
    1385,
    1165,
    1386,
    1385,
    1386,
    1385,
    1387,
    1386,
    1387,
    1388,
    1385,
    1388,
    1388,
    1386,
    1387,
    1386,
    1385,
    1386,
    1386,
    1384,
    1384,
    1384,
    1385,
    1386,
    1386,
    1383,
    1387,
    1388,
    1387,
    1387,
    1387,
    1385,
    1384,
    1383,
    1387,
    1385,
    1384,
    1386,
    1384,
    1385,
    1387,
    1385,
    1383,
    1384,
    1387,
    1384,
    1385,
    1383,
    1386,
    1388,
    1383,
    1383,
    1384,
    1386,
    1387,
    1385,
    1384,
    1386,
    1388,
    1165,
    1388,
    1384,
    1385,
    1385,
    1387,
    1387,
    731,
    732,
    747,
    748,
    1388,
    11,
    1150,
    1151,
    747,
    748,
    1385,
    1147,
    1384,
    1388,
    1385,
    1386,
    1388,
    1384,
    1383,
    1388,
    1163,
    1388,
    1388,
    1384,
    1386,
    1383,
    1384,
    1097,
    1191,
    1162,
    1127,
    1384,
    1386,
    1384,
    1385,
    1388,
    1383,
    1387,
    1384,
    1385,
    1383,
    1388,
    1386,
    1384,
    1384,
    1385,
    1386,
    1388,
    1386,
    1386,
    1388,
    1387,
    1385,
    1385,
    1385,
    1384,
    1384,
    1385,
    1388,
    1384,
    1383,
    1383,
    1388,
    1388,
    1383,
    1386,
    1388,
    1384,
    1386,
    1383,
    1384,
    1386,
    1383,
    1384,
    1385,
    1388,
    1386,
    1385,
    1383,
    1388,
    1384,
    1388,
    1384,
    1384,
    1384,
    1385,
    1384,
    1387,
    1383,
    1384,
    1385,
    1387,
    1384,
    1385,
    1385,
    1384,
    1384,
    1386,
    1386,
    1388,
    1386,
    1383,
    1387,
    1388,
    1383,
    1388,
    1386,
    1388,
    1385,
    1388,
    1385,
    1383,
    1384,
    1387,
    1384,
    1384,
    1383,
    1387,
    1383,
    1388,
    1384,
    1385,
    1383,
    1383,
    1386,
    1147,
    1388,
    1385,
    747,
    748,
    1147,
    731,
    732,
    1182,
    1166,
    1167,
    1388,
    1182,
    731,
    732,
    1388,
    1386,
    1383,
    1384,
    1387,
    1383,
    1385,
    1386,
    1387,
    1386,
    1386,
    1387,
    1384,
    1387,
    1182,
    1386,
    1098,
    1191,
    1161,
    1126,
    1386,
    1163,
    1388,
    1163,
    1384,
    1386,
    1387,
    1383,
    1383,
    1383,
    1384,
    1388,
    1386,
    1386,
    1383,
    1384,
    1387,
    1388,
    1387,
    1387,
    1386,
    1385,
    1383,
    1385,
    1385,
    1388,
    1387,
    1387,
    1386,
    1388,
    1388,
    1388,
    1385,
    1387,
    1383,
    1385,
    1387,
    1384,
    1384,
    1384,
    1383,
    1383,
    1386,
    1387,
    1388,
    1384,
    1384,
    1385,
    1383,
    1387,
    1384,
    1387,
    1384,
    1384,
    1384,
    1386,
    1387,
    1384,
    1387,
    1388,
    1386,
    1383,
    1384,
    1387,
    1386,
    1387,
    1383,
    1383,
    1386,
    1388,
    1388,
    1384,
    1386,
    1388,
    1385,
    1164,
    1384,
    1384,
    1383,
    1163,
    1387,
    1386,
    1385,
    1383,
    1388,
    1384,
    1385,
    1383,
    1386,
    1383,
    1387,
    1384,
    731,
    732,
    1385,
    1383,
    1388,
    731,
    732,
    747,
    748,
    731,
    732,
    1386,
    731,
    732,
    747,
    748,
    1147,
    1385,
    1385,
    1383,
    1387,
    1385,
    1388,
    1385,
    1386,
    1383,
    1384,
    1383,
    1385,
    1385,
    1386,
    1164,
    1383,
    1097,
    1190,
    1161,
    1127,
    1128,
    1128,
    1128,
    1128,
    1383,
    1164,
    1386,
    1385,
    1387,
    1386,
    1388,
    1383,
    1385,
    1388,
    1388,
    1384,
    1385,
    1385,
    1383,
    1383,
    1388,
    1385,
    1384,
    1383,
    1384,
    1386,
    1385,
    1384,
    1386,
    1385,
    1386,
    1385,
    1384,
    1388,
    1387,
    1385,
    1388,
    1384,
    1386,
    1388,
    1383,
    1387,
    1384,
    1384,
    1384,
    1388,
    1387,
    1385,
    1384,
    1386,
    1386,
    1387,
    1386,
    1385,
    1384,
    1385,
    1387,
    1388,
    1387,
    1386,
    1386,
    1383,
    1383,
    1386,
    1385,
    1385,
    1386,
    1384,
    1385,
    1386,
    1387,
    1388,
    1388,
    1387,
    1383,
    1386,
    1384,
    1385,
    1388,
    1384,
    1387,
    1385,
    1387,
    1385,
    1164,
    1385,
    1386,
    1384,
    1387,
    1387,
    1387,
    747,
    748,
    1385,
    1165,
    1387,
    747,
    748,
    1384,
    1386,
    747,
    748,
    1386,
    747,
    748,
    1383,
    1388,
    1383,
    1388,
    1387,
    1384,
    1388,
    1386,
    1385,
    1387,
    1387,
    1388,
    1386,
    1384,
    1386,
    1384,
    1387,
    1387,
    1385,
    1386,
    1098,
    1190,
    1162,
    1144,
    1079,
    1079,
    1083,
    1127,
    1384,
    1386,
    1387,
    1383,
    1387,
    1388,
    1387,
    1386,
    1383,
    1385,
    1385,
    1388,
    1387,
    1387,
    1384,
    1385,
    1386,
    1386,
    1388,
    1388,
    1385,
    1384,
    1383,
    1387,
    1386,
    1383,
    1387,
    1383,
    1385,
    1388,
    1383,
    1165,
    1386,
    1385,
    1385,
    1383,
    1383,
    1386,
    1384,
    1384,
    1388,
    1384,
    1383,
    1385,
    1387,
    1387,
    1383,
    1388,
    1386,
    1385,
    1383,
    1165,
    1383,
    1383,
    1387,
    1388,
    1387,
    1386,
    1386,
    1383,
    1386,
    1387,
    1388,
    1383,
    1385,
    1384,
    1388,
    1388,
    1386,
    1386,
    1384,
    1385,
    1383,
    1385,
    1388,
    1384,
    1385,
    1384,
    1384,
    1383,
    1385,
    731,
    732,
    927,
    1384,
    1384,
    1388,
    731,
    732,
    1383,
    1387,
    1384,
    1387,
    1386,
    1182,
    1386,
    731,
    732,
    1385,
    1383,
    1384,
    1384,
    1387,
    1387,
    1383,
    1387,
    1388,
    1386,
    1387,
    1387,
    1384,
    1383,
    1388,
    1383,
    1386,
    1387,
    733,
    927,
    1387,
    1165,
    1385,
    1097,
    1191,
    1160,
    1160,
    1160,
    1160,
    1161,
    1126,
    1383,
    1385,
    1388,
    1388,
    1383,
    1387,
    1386,
    1385,
    1386,
    1388,
    1386,
    1387,
    1388,
    1385,
    1387,
    1387,
    1387,
    1383,
    1387,
    1383,
    1385,
    1384,
    1385,
    1388,
    1388,
    1384,
    1383,
    1387,
    1387,
    1388,
    1383,
    1384,
    1384,
    1383,
    1387,
    1385,
    1384,
    1387,
    1383,
    1388,
    1385,
    1388,
    1383,
    1387,
    1385,
    1387,
    1386,
    1386,
    1386,
    1385,
    1388,
    1385,
    1388,
    1383,
    1385,
    1388,
    1386,
    1388,
    1388,
    1385,
    1388,
    1388,
    1384,
    1385,
    1387,
    1386,
    1387,
    1387,
    1388,
    1383,
    1383,
    1388,
    1383,
    1384,
    1386,
    1385,
    1387,
    1384,
    1388,
    1383,
    747,
    748,
    731,
    732,
    1383,
    1385,
    747,
    748,
    927,
    1386,
    1387,
    1385,
    1386,
    1383,
    1385,
    747,
    748,
    1384,
    1386,
    1386,
    1383,
    1387,
    1383,
    1384,
    1387,
    1163,
    1384,
    1383,
    1386,
    1386,
    1383,
    1383,
    1386,
    1384,
    1383,
    1387,
    1182,
    1150,
    1151,
    1182,
    1386,
    1098,
    1143,
    1143,
    1143,
    1143,
    1190,
    1162,
    1127,
    1128,
    1128,
    1387,
    1384,
    1388,
    1385,
    1388,
    1383,
    1386,
    1388,
    1384,
    1384,
    1387,
    1388,
    1384,
    1383,
    1383,
    1385,
    1387,
    1384,
    1383,
    1387,
    1386,
    1383,
    1387,
    1384,
    1384,
    1385,
    1385,
    1383,
    1386,
    1385,
    1383,
    1387,
    1384,
    1384,
    1387,
    1383,
    1385,
    1383,
    1383,
    1388,
    1388,
    1383,
    1384,
    1385,
    1387,
    1383,
    1386,
    1386,
    1388,
    1383,
    1383,
    1383,
    1385,
    1384,
    1388,
    1384,
    1388,
    1388,
    1384,
    1385,
    1385,
    1388,
    1386,
    1384,
    1388,
    1384,
    1386,
    1388,
    1387,
    1385,
    1388,
    1385,
    1386,
    1385,
    1384,
    1388,
    1385,
    731,
    732,
    747,
    748,
    1164,
    1386,
    1388,
    1182,
    927,
    1182,
    1383,
    1165,
    1383,
    1385,
    1384,
    1386,
    1385,
    1387,
    1385,
    1387,
    1387,
    1385,
    1385,
    1388,
    1387,
    1386,
    1388,
    1387,
    1383,
    1388,
    1387,
    1387,
    1386,
    1385,
    1384,
    1383,
    1388,
    1166,
    1167,
    1383,
    11,
    1182,
    1096,
    1096,
    1096,
    1096,
    1097,
    1191,
    1160,
    1160,
    1161,
    1126,
    1163,
    1385,
    1384,
    1383,
    1384,
    1385,
    1385,
    1385,
    1388,
    1386,
    1388,
    1383,
    1385,
    1385,
    1385,
    1383,
    1386,
    1386,
    1388,
    1388,
    1388,
    11,
    1385,
    1384,
    1383,
    1385,
    1387,
    1384,
    1383,
    1388,
    1388,
    1387,
    1384,
    1384,
    1388,
    1386,
    1164,
    1385,
    1386,
    1384,
    1388,
    1386,
    1385,
    1386,
    1385,
    11,
    1388,
    1384,
    1388,
    1385,
    1384,
    1384,
    1388,
    1383,
    1387,
    1386,
    1387,
    1384,
    1383,
    1388,
    1383,
    1386,
    1388,
    1384,
    1387,
    1387,
    1388,
    1387,
    1383,
    1388,
    1384,
    1385,
    1388,
    1384,
    1385,
    1386,
    747,
    748,
    1182,
    1388,
    733,
    1384,
    1386,
    1387,
    1383,
    1182,
    1384,
    1384,
    1385,
    1388,
    1385,
    1386,
    1387,
    1384,
    1386,
    1383,
    1386,
    1383,
    1388,
    1387,
    1386,
    1383,
    1384,
    1388,
    1388,
    1383,
    1384,
    1383,
    1387,
    1163,
    1385,
    1384,
    1385,
    1384,
    1385,
    1385,
    1182,
    1383,
    1387,
    1383,
    733,
    1388,
    1182,
    1098,
    1143,
    1143,
    1190,
    1162,
    1127,
    1129,
    1126,
    1385,
    1386,
    1128,
    1383,
    1165,
    1385,
    1383,
    1388,
    1385,
    1384,
    1385,
    1387,
    1384,
    1384,
    1388,
    1387,
    1387,
    1386,
    1385,
    1387,
    1385,
    1383,
    1387,
    1386,
    1387,
    1384,
    1387,
    1384,
    1387,
    1388,
    1388,
    1388,
    1385,
    1387,
    1385,
    1386,
    1384,
    1388,
    1383,
    1384,
    1384,
    1387,
    1385,
    1387,
    1384,
    1387,
    1383,
    1385,
    1386,
    1388,
    1385,
    1385,
    1383,
    1388,
    1386,
    1387,
    1384,
    1385,
    1387,
    1385,
    1384,
    1388,
    1385,
    1387,
    1385,
    1388,
    1386,
    1388,
    1387,
    1388,
    1388,
    1384,
    1385,
    1182,
    1150,
    1151,
    927,
    1182,
    1384,
    1386,
    1384,
    1383,
    1386,
    1388,
    731,
    732,
    1384,
    1386,
    1384,
    1384,
    1387,
    1387,
    1383,
    1383,
    1383,
    1383,
    1384,
    1386,
    1387,
    1385,
    1385,
    1383,
    1386,
    1383,
    1386,
    1384,
    1383,
    1386,
    1384,
    1385,
    1385,
    1165,
    1384,
    1385,
    1384,
    1387,
    1386,
    731,
    732,
    1385,
    1387,
    1096,
    1096,
    1097,
    1191,
    1160,
    1160,
    1178,
    1111,
    1130,
    1083,
    1127,
    1384,
    1387,
    1388,
    1386,
    1383,
    1383,
    1387,
    1386,
    1384,
    1388,
    1384,
    1385,
    1388,
    1387,
    1386,
    1385,
    1384,
    1388,
    1384,
    1383,
    1386,
    1384,
    1385,
    1385,
    1385,
    1384,
    1384,
    1386,
    1386,
    1385,
    1383,
    1387,
    1385,
    1387,
    1388,
    1388,
    1384,
    1385,
    1387,
    1386,
    1387,
    1388,
    1386,
    1383,
    1387,
    1387,
    1384,
    1386,
    1384,
    1383,
    1383,
    1388,
    1384,
    1387,
    1388,
    1386,
    1383,
    1388,
    1386,
    1388,
    1383,
    1383,
    1387,
    1388,
    1163,
    1383,
    1383,
    1388,
    1387,
    1385,
    1166,
    1167,
    1383,
    731,
    732,
    1385,
    1384,
    1388,
    1385,
    1388,
    747,
    748,
    1383,
    1388,
    1386,
    1383,
    1385,
    1385,
    1388,
    1388,
    1386,
    1387,
    1385,
    1388,
    1383,
    1388,
    1384,
    1385,
    1385,
    1387,
    1385,
    1383,
    1385,
    1386,
    1384,
    1387,
    1388,
    1388,
    1388,
    1385,
    1384,
    1384,
    1182,
    747,
    748,
    927,
    731,
    732,
    1182,
    1163,
    1097,
    1143,
    1143,
    1094,
    1113,
    1174,
    1160,
    1161,
    1126,
    1386,
    1182,
    1386,
    1387,
    1387,
    1383,
    1386,
    1385,
    1385,
    1387,
    1383,
    1383,
    1385,
    1387,
    1383,
    1387,
    1385,
    1386,
    1384,
    1384,
    1384,
    1383,
    1387,
    1383,
    1386,
    1388,
    1387,
    1388,
    1385,
    1383,
    1387,
    1386,
    1385,
    1383,
    1383,
    1386,
    1388,
    1385,
    1387,
    1384,
    1383,
    1388,
    1387,
    1387,
    1384,
    1383,
    1383,
    1388,
    1387,
    1387,
    1385,
    1385,
    1388,
    1383,
    1383,
    1386,
    1165,
    1383,
    1384,
    1386,
    1384,
    1385,
    1386,
    1384,
    1385,
    1386,
    1388,
    1387,
    731,
    732,
    1386,
    1182,
    747,
    748,
    1383,
    1386,
    1384,
    1383,
    1388,
    1387,
    1388,
    1384,
    1387,
    1384,
    1383,
    1163,
    1385,
    1384,
    1383,
    1385,
    1387,
    1384,
    1386,
    1383,
    1386,
    1385,
    1385,
    1387,
    1385,
    1385,
    1383,
    1383,
    1387,
    1385,
    1386,
    1388,
    1387,
    1388,
    1387,
    1384,
    731,
    732,
    1385,
    731,
    732,
    747,
    748,
    733,
    731,
    732,
    1096,
    1096,
    1385,
    1384,
    1098,
    1143,
    1191,
    1162,
    1127,
    1383,
    1163,
    1385,
    1383,
    1385,
    1386,
    1387,
    1387,
    1386,
    1385,
    1385,
    1387,
    1386,
    1383,
    1388,
    1386,
    1387,
    1388,
    1384,
    1387,
    1387,
    1385,
    1385,
    1386,
    1384,
    1384,
    1385,
    1384,
    1386,
    1386,
    1385,
    1387,
    1388,
    1383,
    1386,
    1386,
    1388,
    1385,
    1384,
    1386,
    1387,
    1386,
    1384,
    1387,
    1387,
    1386,
    1383,
    1383,
    1386,
    1386,
    1182,
    1383,
    1387,
    1384,
    1383,
    1385,
    1383,
    1387,
    1385,
    1384,
    1384,
    1384,
    1387,
    1383,
    1387,
    1386,
    1386,
    747,
    748,
    731,
    732,
    1182,
    1384,
    1385,
    1164,
    1383,
    1385,
    1388,
    1387,
    1383,
    1383,
    1386,
    1383,
    1386,
    1385,
    1385,
    1384,
    1384,
    1386,
    1384,
    1387,
    1385,
    1383,
    1163,
    1384,
    1385,
    1388,
    1383,
    1388,
    1386,
    1386,
    1387,
    1386,
    1384,
    1384,
    1385,
    1384,
    1386,
    1384,
    747,
    748,
    927,
    747,
    748,
    1387,
    731,
    732,
    747,
    748,
    1182,
    1387,
    1384,
    1387,
    1163,
    1096,
    1097,
    1190,
    1161,
    1126,
    1163,
    1385,
    1383,
    1386,
    1384,
    1386,
    1384,
    1383,
    1384,
    1386,
    1385,
    1387,
    1386,
    1384,
    1164,
    1385,
    1388,
    1386,
    1388,
    1385,
    1388,
    1384,
    1384,
    1384,
    1384,
    1384,
    1386,
    1388,
    1384,
    1384,
    1388,
    1383,
    1385,
    1388,
    1386,
    1385,
    1386,
    1386,
    1385,
    1387,
    1385,
    1383,
    1388,
    1388,
    1383,
    1388,
    1386,
    1384,
    731,
    732,
    1385,
    1387,
    1388,
    1383,
    1386,
    1384,
    1384,
    1387,
    1386,
    1384,
    1387,
    1384,
    1388,
    1386,
    1387,
    1384,
    1387,
    1182,
    747,
    748,
    1383,
    1384,
    1384,
    1384,
    1387,
    1383,
    1388,
    1387,
    1386,
    1384,
    1387,
    1383,
    1385,
    1386,
    1383,
    1383,
    1388,
    1387,
    1387,
    1386,
    1387,
    1383,
    1383,
    1384,
    1387,
    1385,
    1383,
    1383,
    1388,
    1387,
    1387,
    1386,
    1388,
    1384,
    1384,
    1386,
    1383,
    1387,
    1386,
    1384,
    1182,
    1388,
    1385,
    927,
    747,
    748,
    1385,
    11,
    1384,
    1385,
    1164,
    1386,
    11,
    1182,
    1113,
    1174,
    1177,
    1178,
    1127,
    1386,
    1386,
    1387,
    1383,
    1383,
    1385,
    1383,
    1385,
    1387,
    1387,
    1385,
    1383,
    1388,
    1388,
    1387,
    1388,
    1387,
    1163,
    1388,
    1387,
    1388,
    1383,
    1388,
    1384,
    1387,
    1388,
    1387,
    1383,
    1388,
    1386,
    1388,
    1163,
    1386,
    1387,
    1383,
    1386,
    1388,
    1385,
    1387,
    1384,
    1384,
    1388,
    1383,
    1386,
    1386,
    1388,
    1385,
    747,
    748,
    733,
    1383,
    1387,
    1383,
    1385,
    1388,
    1388,
    1163,
    1386,
    1385,
    1383,
    1385,
    1386,
    1386,
    1388,
    1385,
    1388,
    1383,
    1386,
    1182,
    1387,
    1387,
    1385,
    1388,
    1385,
    1387,
    1388,
    1386,
    1387,
    1383,
    1386,
    1383,
    1385,
    1388,
    1385,
    1384,
    1385,
    1384,
    1386,
    1385,
    1388,
    1387,
    1383,
    1383,
    1384,
    1386,
    1387,
    1388,
    1383,
    1163,
    1384,
    1386,
    1387,
    1383,
    1387,
    1385,
    1388,
    1383,
    1384,
    1388,
    1388,
    1383,
    733,
    1385,
    1383,
    1386,
    1388,
    1388,
    1384,
    1385,
    1384,
    1385,
    731,
    732,
    1113,
    1174,
    1175,
    1178,
    1095,
    1383,
    1387,
    1385,
    1383,
    1386,
    1383,
    1387,
    1163,
    1386,
    1383,
    1388,
    1383,
    1165,
    1388,
    1385,
    1387,
    1385,
    1387,
    1388,
    1386,
    1387,
    1388,
    1386,
    1387,
    1387,
    1386,
    1387,
    1385,
    1386,
    1388,
    1385,
    1385,
    1383,
    1384,
    1388,
    1388,
    1387,
    1386,
    1385,
    1383,
    1163,
    1385,
    1383,
    1385,
    1383,
    1182,
    1150,
    1151,
    731,
    732,
    731,
    732,
    1388,
    1387,
    1384,
    1387,
    1388,
    1386,
    1387,
    1385,
    1385,
    1386,
    1387,
    1384,
    1386,
    1385,
    1384,
    1384,
    1384,
    1384,
    1383,
    1387,
    1384,
    1388,
    1384,
    1388,
    1163,
    1383,
    1385,
    1383,
    1385,
    1388,
    1386,
    1163,
    1384,
    1384,
    1386,
    1388,
    1384,
    1386,
    1384,
    1388,
    1385,
    1387,
    1388,
    1388,
    1387,
    1384,
    1386,
    1386,
    1386,
    1387,
    1385,
    1388,
    1385,
    1383,
    1386,
    1388,
    1386,
    1385,
    1386,
    1384,
    1387,
    1383,
    1386,
    1386,
    1385,
    1384,
    731,
    732,
    1182,
    747,
    748,
    1386,
    1098,
    1191,
    1161,
    1126,
    1164,
    1182,
    1388,
    1383,
    1386,
    1383,
    1384,
    1388,
    1386,
    1383,
    1384,
    1383,
    1384,
    1388,
    1388,
    1384,
    1383,
    1388,
    1387,
    1386,
    1383,
    1165,
    1387,
    1385,
    1387,
    1387,
    1384,
    1385,
    1385,
    1384,
    1386,
    1385,
    1387,
    1387,
    1385,
    1385,
    1384,
    1385,
    1387,
    1386,
    1384,
    1388,
    1387,
    1383,
    731,
    732,
    1166,
    1167,
    747,
    748,
    747,
    748,
    1182,
    1386,
    733,
    1385,
    1384,
    1383,
    1384,
    1385,
    1385,
    1388,
    1388,
    1384,
    1388,
    1383,
    1383,
    1384,
    1387,
    1383,
    1385,
    1385,
    1383,
    1385,
    1385,
    1384,
    1386,
    1386,
    1386,
    1387,
    1385,
    1386,
    1387,
    1387,
    1386,
    1388,
    1385,
    1388,
    1388,
    1384,
    1384,
    1387,
    1385,
    1385,
    1387,
    1385,
    1383,
    1385,
    1388,
    1385,
    1387,
    1383,
    1384,
    1383,
    1383,
    1384,
    1385,
    1386,
    1387,
    1388,
    1383,
    1385,
    1384,
    1387,
    1388,
    731,
    732,
    1182,
    747,
    748,
    1388,
    1182,
    1387,
    1387,
    1163,
    1097,
    1190,
    1161,
    1127,
    1128,
    1128,
    1386,
    1386,
    1385,
    1386,
    1386,
    1386,
    1386,
    1388,
    1385,
    1386,
    1386,
    1388,
    1387,
    1387,
    1383,
    11,
    1385,
    1384,
    1384,
    1385,
    1384,
    1386,
    1388,
    1385,
    1384,
    1384,
    1387,
    1388,
    1383,
    1387,
    1387,
    1385,
    1387,
    1383,
    1387,
    1386,
    1385,
    1384,
    1388,
    1384,
    1383,
    747,
    748,
    1385,
    1182,
    1386,
    731,
    732,
    731,
    732,
    1387,
    1182,
    1384,
    731,
    732,
    1387,
    1383,
    1386,
    1386,
    1385,
    1165,
    1386,
    1383,
    1387,
    1383,
    1386,
    1386,
    1388,
    1385,
    1388,
    1387,
    1387,
    1384,
    1388,
    1386,
    1386,
    1384,
    1386,
    1385,
    1386,
    1388,
    1384,
    1388,
    1383,
    1383,
    1386,
    1385,
    1386,
    1383,
    1385,
    1385,
    1383,
    1386,
    1386,
    1385,
    1383,
    1383,
    1386,
    1386,
    1387,
    1384,
    1388,
    1387,
    1163,
    1386,
    1384,
    1388,
    1385,
    1385,
    1388,
    1385,
    1388,
    747,
    748,
    1150,
    1151,
    927,
    731,
    732,
    927,
    731,
    732,
    1386,
    1098,
    1190,
    1162,
    1144,
    1079,
    1126,
    1163,
    1384,
    1388,
    1386,
    1384,
    1388,
    1388,
    1386,
    1383,
    1386,
    1384,
    1383,
    1182,
    1147,
    1385,
    1385,
    1388,
    1385,
    1163,
    1386,
    1384,
    1165,
    1387,
    1387,
    1388,
    1387,
    1383,
    1386,
    1388,
    1384,
    1387,
    1388,
    1388,
    1386,
    1383,
    1386,
    1385,
    1388,
    1384,
    1384,
    1385,
    1182,
    1386,
    1387,
    1147,
    747,
    748,
    747,
    748,
    1385,
    731,
    732,
    747,
    748,
    1384,
    1383,
    1388,
    1385,
    1385,
    1385,
    1384,
    1384,
    1383,
    1385,
    1387,
    1386,
    1387,
    1384,
    1384,
    1384,
    1386,
    1383,
    1384,
    1388,
    1383,
    1388,
    1387,
    1385,
    1387,
    1387,
    1387,
    1385,
    1387,
    1383,
    1383,
    1388,
    1387,
    1387,
    1386,
    1387,
    1164,
    1388,
    1385,
    1165,
    1384,
    1386,
    1384,
    1385,
    1386,
    1387,
    1387,
    1383,
    1383,
    1384,
    1387,
    1387,
    1384,
    1385,
    1384,
    1384,
    1387,
    1385,
    1182,
    1166,
    1167,
    1182,
    747,
    748,
    927,
    747,
    748,
    1386,
    1388,
    1097,
    1191,
    1160,
    1160,
    1161,
    1127,
    1383,
    1386,
    1388,
    1384,
    1388,
    1384,
    1387,
    1384,
    1165,
    1387,
    1388,
    1388,
    733,
    1182,
    1164,
    1128,
    1130,
    1126,
    1128,
    1128,
    1385,
    1386,
    1386,
    1384,
    1388,
    1385,
    1383,
    1384,
    1386,
    1383,
    1384,
    1383,
    1384,
    1384,
    1387,
    1386,
    1387,
    1385,
    1383,
    1383,
    1387,
    1386,
    1384,
    731,
    732,
    1147,
    731,
    732,
    1182,
    747,
    748,
    1385,
    1384,
    1384,
    1383,
    1387,
    1384,
    731,
    732,
    1387,
    1384,
    1387,
    1388,
    1388,
    1386,
    1384,
    1387,
    1386,
    1383,
    1385,
    1384,
    1386,
    1383,
    1388,
    1164,
    1384,
    1388,
    1384,
    1386,
    1388,
    1386,
    1385,
    1388,
    11,
    1384,
    1385,
    1385,
    1384,
    1387,
    1387,
    1385,
    1387,
    1387,
    1386,
    1388,
    1385,
    1386,
    1385,
    1388,
    1383,
    1384,
    1385,
    1387,
    1385,
    1385,
    1383,
    1385,
    1383,
    1383,
    1383,
    1384,
    1383,
    1384,
    731,
    732,
    1182,
    1182,
    731,
    732,
    927,
    1385,
    1386,
    1165,
    1098,
    1143,
    1143,
    1191,
    1162,
    1126,
    1383,
    1388,
    1385,
    1383,
    1383,
    1384,
    1130,
    1127,
    1130,
    1126,
    1163,
    1386,
    1386,
    1130,
    12,
    1087,
    1180,
    1086,
    1086,
    1126,
    1388,
    1163,
    1388,
    1388,
    1383,
    1388,
    1386,
    1386,
    1385,
    1383,
    1385,
    1388,
    1384,
    1383,
    1383,
    1387,
    1386,
    1386,
    1387,
    1386,
    1387,
    1388,
    747,
    748,
    1384,
    747,
    748,
    1147,
    733,
    731,
    732,
    1387,
    1385,
    1384,
    731,
    732,
    747,
    748,
    1386,
    1387,
    1385,
    1164,
    1383,
    1385,
    1385,
    1385,
    1388,
    1384,
    1387,
    1383,
    1387,
    1387,
    1388,
    1383,
    1387,
    1383,
    1383,
    1385,
    1385,
    1387,
    1383,
    1388,
    1385,
    1384,
    1384,
    1387,
    1385,
    1384,
    1388,
    1383,
    1386,
    1383,
    1384,
    1387,
    1384,
    1388,
    1383,
    1383,
    1387,
    1384,
    1383,
    1383,
    1385,
    1383,
    1387,
    1387,
    1163,
    1388,
    1388,
    1387,
    1385,
    1386,
    747,
    748,
    731,
    732,
    747,
    748,
    927,
    927,
    1386,
    1388,
    1385,
    1096,
    1096,
    1097,
    1190,
    1161,
    1127,
    1164,
    1385,
    1383,
    1385,
    1165,
    1114,
    1086,
    1087,
    1195,
    1127,
    1388,
    1388,
    1098,
    1117,
    1086,
    1087,
    1083,
    1087,
    1144,
    1127,
    1386,
    1388,
    1385,
    1383,
    1388,
    731,
    732,
    1147,
    1385,
    731,
    732,
    1165,
    1387,
    1383,
    1388,
    1388,
    1386,
    1388,
    1383,
    1182,
    1387,
    1387,
    1147,
    1150,
    1151,
    733,
    1182,
    1387,
    747,
    748,
    1383,
    1387,
    1387,
    747,
    748,
    1384,
    1150,
    1151,
    1386,
    1383,
    1387,
    1384,
    1386,
    1163,
    1385,
    1386,
    1387,
    1384,
    1388,
    1384,
    1388,
    1386,
    1387,
    1385,
    1388,
    1384,
    1388,
    1388,
    1387,
    1383,
    1383,
    1384,
    1385,
    1385,
    1384,
    1384,
    1383,
    1385,
    1383,
    1384,
    1387,
    1385,
    1383,
    1383,
    1388,
    1384,
    1383,
    1385,
    1387,
    1384,
    1388,
    1384,
    1387,
    1387,
    1383,
    1383,
    1385,
    1386,
    1388,
    1387,
    1388,
    1163,
    1182,
    747,
    748,
    11,
    1182,
    731,
    732,
    1387,
    1384,
    1386,
    1385,
    1163,
    1113,
    1174,
    1177,
    1178,
    1111,
    1386,
    1163,
    1388,
    1129,
    1117,
    1086,
    1087,
    1083,
    1087,
    1126,
    1383,
    1165,
    1097,
    1080,
    1117,
    1159,
    1160,
    1160,
    1161,
    1126,
    1383,
    1165,
    1387,
    1386,
    747,
    748,
    731,
    732,
    747,
    748,
    731,
    732,
    1387,
    1388,
    1384,
    1385,
    1163,
    1385,
    1386,
    731,
    732,
    1387,
    1166,
    1167,
    1384,
    1383,
    1383,
    1386,
    1384,
    1384,
    1165,
    1384,
    1384,
    1383,
    1385,
    1166,
    1167,
    1385,
    1387,
    1384,
    1388,
    1386,
    1388,
    1385,
    1387,
    1388,
    1387,
    1386,
    1387,
    1386,
    1388,
    1387,
    1383,
    1386,
    1387,
    1388,
    1388,
    1386,
    1386,
    1388,
    1388,
    1384,
    1385,
    1385,
    1388,
    1386,
    1383,
    1385,
    1387,
    1387,
    1385,
    1384,
    1385,
    1385,
    1383,
    1384,
    1386,
    1165,
    1388,
    1384,
    1387,
    1388,
    1388,
    1386,
    1383,
    1383,
    1383,
    1388,
    1385,
    1385,
    1383,
    731,
    732,
    927,
    731,
    732,
    747,
    748,
    1383,
    927,
    1385,
    1383,
    1383,
    1113,
    1174,
    1175,
    1178,
    1111,
    1383,
    1387,
    1129,
    1086,
    1086,
    1087,
    1117,
    1083,
    1087,
    1095,
    1164,
    1384,
    1129,
    1087,
    1158,
    1319,
    1319,
    703,
    703,
    1162,
    1127,
    1128,
    1384,
    1388,
    1387,
    11,
    747,
    748,
    11,
    1182,
    747,
    748,
    731,
    732,
    1387,
    1385,
    1385,
    1386,
    1388,
    747,
    748,
    1386,
    1388,
    1182,
    1386,
    1182,
    731,
    732,
    1387,
    1384,
    1385,
    1387,
    1387,
    733,
    731,
    732,
    1385,
    1388,
    1385,
    1384,
    1383,
    1385,
    1386,
    1384,
    1383,
    1383,
    1387,
    1387,
    1385,
    1384,
    1385,
    1384,
    1385,
    1388,
    1387,
    1387,
    1386,
    1386,
    1387,
    1388,
    1388,
    1385,
    1383,
    1385,
    1385,
    1387,
    1386,
    1385,
    1387,
    1387,
    1385,
    1386,
    1388,
    1383,
    1385,
    1384,
    1387,
    1383,
    1388,
    1383,
    1383,
    1384,
    1387,
    1388,
    1388,
    1383,
    1387,
    1387,
    1386,
    1386,
    1384,
    747,
    748,
    1384,
    747,
    748,
    1182,
    1150,
    1151,
    1182,
    1383,
    1385,
    1384,
    1383,
    1098,
    1191,
    1161,
    1126,
    733,
    1113,
    1114,
    1086,
    1144,
    1180,
    1086,
    1087,
    1083,
    1127,
    1128,
    1129,
    1087,
    1159,
    703,
    1304,
    1192,
    719,
    719,
    1304,
    1161,
    1083,
    1126,
    1163,
    1384,
    1150,
    1151,
    1384,
    1147,
    731,
    732,
    1147,
    747,
    748,
    1388,
    1385,
    1385,
    1383,
    1383,
    1147,
    1386,
    1385,
    1182,
    1386,
    731,
    732,
    747,
    748,
    1383,
    1388,
    1383,
    1386,
    731,
    732,
    747,
    748,
    1386,
    1384,
    1388,
    1385,
    1387,
    1388,
    1387,
    1383,
    1387,
    1386,
    1387,
    1387,
    1383,
    1386,
    1383,
    1388,
    1384,
    1386,
    1384,
    1385,
    1384,
    1385,
    1385,
    1384,
    1383,
    1383,
    1388,
    1388,
    1386,
    1383,
    1384,
    1384,
    1383,
    1388,
    1165,
    1388,
    1388,
    1386,
    1383,
    1386,
    1386,
    1384,
    1383,
    1384,
    1385,
    1387,
    1385,
    1386,
    1388,
    1387,
    1387,
    1383,
    1386,
    1383,
    1387,
    1386,
    1383,
    1388,
    1388,
    731,
    732,
    1166,
    1167,
    731,
    732,
    1387,
    1385,
    1385,
    1383,
    1097,
    1190,
    1161,
    1127,
    1129,
    1087,
    1159,
    1160,
    1160,
    1162,
    1086,
    1087,
    1086,
    1079,
    1117,
    1174,
    1175,
    719,
    1194,
    1180,
    1190,
    367,
    368,
    703,
    1162,
    1144,
    1127,
    1128,
    1166,
    1167,
    731,
    732,
    747,
    748,
    1182,
    1182,
    731,
    732,
    1383,
    1388,
    1386,
    1384,
    1386,
    733,
    731,
    732,
    1147,
    747,
    748,
    1147,
    1387,
    1387,
    1388,
    1387,
    1385,
    747,
    748,
    1386,
    731,
    732,
    1383,
    1385,
    1388,
    1387,
    1385,
    1386,
    1387,
    1384,
    1388,
    1385,
    1384,
    1383,
    1387,
    1383,
    1387,
    1385,
    1383,
    1383,
    1383,
    1384,
    1385,
    1387,
    1385,
    1385,
    1384,
    1383,
    1387,
    1385,
    1384,
    1388,
    1383,
    1386,
    1385,
    1383,
    1385,
    1385,
    1383,
    1387,
    1384,
    1388,
    1388,
    1386,
    1384,
    1383,
    1388,
    1386,
    1385,
    1383,
    1383,
    1384,
    1384,
    1384,
    1387,
    1388,
    1387,
    1386,
    1384,
    1386,
    747,
    748,
    1387,
    1385,
    747,
    748,
    1385,
    1388,
    1182,
    731,
    732,
    1098,
    1190,
    1162,
    1144,
    1158,
    1179,
    703,
    703,
    1304,
    1161,
    1086,
    1117,
    1086,
    1087,
    1159,
    1319,
    1320,
    1162,
    1144,
    1158,
    383,
    1319,
    1320,
    703,
    1160,
    1161,
    1083,
    1127,
    1165,
    747,
    748,
    1182,
    731,
    732,
    1386,
    747,
    748,
    1387,
    1387,
    1384,
    1384,
    1386,
    1388,
    747,
    748,
    927,
    1182,
    731,
    732,
    1385,
    1388,
    1388,
    1386,
    1150,
    1151,
    733,
    1147,
    747,
    748,
    1387,
    1383,
    1383,
    1384,
    1387,
    1383,
    1388,
    1386,
    1384,
    1385,
    1383,
    1387,
    1388,
    1386,
    1383,
    1385,
    1385,
    1385,
    1388,
    1384,
    1385,
    1386,
    1385,
    1386,
    1388,
    1383,
    1386,
    1384,
    1383,
    1384,
    1385,
    1384,
    1385,
    1386,
    1385,
    1387,
    1385,
    1387,
    1384,
    1388,
    1387,
    1384,
    1388,
    1386,
    1165,
    1383,
    1385,
    1383,
    1386,
    1383,
    1385,
    1385,
    1384,
    1388,
    1386,
    1384,
    1387,
    1383,
    1387,
    1383,
    1385,
    1388,
    1385,
    733,
    1387,
    1182,
    1388,
    747,
    748,
    1385,
    1097,
    1191,
    1160,
    1303,
    1304,
    719,
    719,
    1320,
    703,
    1162,
    1180,
    12,
    1158,
    1303,
    1304,
    1304,
    1304,
    1160,
    1319,
    703,
    719,
    384,
    719,
    368,
    703,
    1178,
    1083,
    1127,
    1385,
    1182,
    1147,
    747,
    748,
    1182,
    1165,
    1387,
    1388,
    1384,
    1384,
    1388,
    1385,
    1384,
    1383,
    1385,
    731,
    732,
    747,
    748,
    1388,
    1386,
    1163,
    1385,
    1166,
    1167,
    1383,
    731,
    732,
    1384,
    1383,
    1386,
    1383,
    1383,
    1164,
    1388,
    1387,
    1386,
    1384,
    1385,
    1387,
    1385,
    1163,
    1383,
    1388,
    1388,
    1388,
    1386,
    1385,
    1384,
    1388,
    1383,
    1388,
    1388,
    1384,
    1387,
    1388,
    1386,
    1388,
    1164,
    1387,
    1386,
    1388,
    1386,
    1384,
    1383,
    1164,
    1387,
    1383,
    1383,
    1383,
    1388,
    1383,
    1385,
    1383,
    1385,
    1384,
    1385,
    1384,
    1387,
    1386,
    1383,
    1388,
    1383,
    1385,
    1385,
    1386,
    1163,
    1388,
    1387,
    1388,
    1388,
    1387,
    1383,
    1384,
    1383,
    1386,
    1388,
    1386,
    1182,
    1165,
    1097,
    1190,
    1319,
    1320,
    703,
    1320,
    703,
    719,
    1304,
    1160,
    1160,
    1319,
    1320,
    703,
    1304,
    1194,
    1143,
    1191,
    719,
    399,
    703,
    719,
    368,
    719,
    1161,
    1086,
    1087,
    1126,
    1385,
    731,
    732,
    1150,
    1151,
    11,
    1385,
    1386,
    1387,
    1388,
    1388,
    1388,
    1386,
    731,
    732,
    747,
    748,
    1147,
    1383,
    1387,
    1386,
    1388,
    1385,
    1387,
    731,
    732,
    747,
    748,
    1147,
    1383,
    1388,
    1385,
    1388,
    1384,
    1387,
    1383,
    1387,
    1387,
    1386,
    1386,
    1388,
    1388,
    1388,
    1385,
    1385,
    1387,
    1388,
    1386,
    1387,
    1387,
    1385,
    1384,
    1388,
    1388,
    1384,
    1383,
    1383,
    1388,
    1383,
    1387,
    1383,
    1384,
    1384,
    1385,
    1385,
    1387,
    1383,
    1383,
    1385,
    1383,
    1388,
    1387,
    1386,
    1388,
    1383,
    1383,
    1388,
    1385,
    1385,
    1385,
    1384,
    1385,
    1384,
    1387,
    1386,
    1385,
    1388,
    1385,
    1385,
    1385,
    1387,
    1384,
    1385,
    1385,
    1385,
    1388,
    1384,
    1164,
    1383,
    733,
    1113,
    1174,
    703,
    1319,
    719,
    1304,
    1319,
    1320,
    703,
    367,
    1319,
    1320,
    703,
    719,
    1193,
    1083,
    1086,
    1087,
    1190,
    367,
    719,
    1319,
    1320,
    719,
    1193,
    1083,
    1117,
    1094,
    1182,
    747,
    748,
    1166,
    1167,
    1383,
    1387,
    1385,
    1383,
    1165,
    1384,
    1385,
    1182,
    747,
    748,
    1387,
    1182,
    731,
    732,
    1384,
    1388,
    1384,
    731,
    732,
    747,
    748,
    731,
    732,
    1388,
    1384,
    1386,
    1383,
    1387,
    1388,
    1383,
    1385,
    1385,
    1386,
    1383,
    1385,
    1385,
    1387,
    1388,
    1383,
    1388,
    1384,
    1388,
    1385,
    1388,
    1386,
    1388,
    1388,
    1388,
    1385,
    1386,
    1385,
    1385,
    1386,
    1383,
    1385,
    1385,
    1388,
    1384,
    1388,
    1383,
    1388,
    1387,
    1386,
    1386,
    1388,
    1386,
    1385,
    1387,
    1388,
    1384,
    1384,
    1383,
    1384,
    1385,
    1383,
    1165,
    1385,
    1388,
    1386,
    1386,
    1387,
    1388,
    1383,
    1386,
    1387,
    1383,
    1383,
    1388,
    1385,
    1385,
    1383,
    1388,
    1387,
    1388,
    1163,
    1113,
    1174,
    719,
    703,
    367,
    368,
    1304,
    367,
    703,
    383,
    703,
    703,
    719,
    1194,
    1086,
    1087,
    1083,
    1117,
    1158,
    383,
    703,
    703,
    719,
    1194,
    1086,
    1087,
    1095,
    731,
    732,
    1182,
    10,
    1182,
    1147,
    1164,
    1386,
    1387,
    1388,
    1384,
    1388,
    1386,
    731,
    732,
    1385,
    1150,
    1151,
    747,
    748,
    1385,
    1383,
    1388,
    747,
    748,
    731,
    732,
    747,
    748,
    1387,
    1388,
    1383,
    1386,
    1387,
    1383,
    1386,
    1385,
    1384,
    1387,
    1385,
    1384,
    1386,
    1384,
    1388,
    1384,
    1383,
    1386,
    1387,
    1385,
    1383,
    1383,
    1388,
    1385,
    1383,
    1388,
    1385,
    1387,
    1388,
    1386,
    1384,
    1384,
    1385,
    1384,
    1386,
    1387,
    1383,
    1384,
    1384,
    1388,
    1383,
    1383,
    1386,
    1388,
    1384,
    1384,
    1388,
    1386,
    1383,
    1388,
    1388,
    1386,
    1385,
    1384,
    1388,
    1384,
    1387,
    1383,
    1386,
    1383,
    1388,
    1386,
    1384,
    1165,
    1388,
    1384,
    1384,
    1383,
    1383,
    1383,
    1384,
    1386,
    1385,
    1097,
    1191,
    719,
    383,
    384,
    703,
    383,
    719,
    367,
    368,
    367,
    368,
    1162,
    1083,
    1117,
    1144,
    1158,
    368,
    367,
    368,
    719,
    1303,
    1162,
    1083,
    1110,
    1385,
    747,
    748,
    1182,
    731,
    732,
    1383,
    1388,
    1384,
    1386,
    1388,
    1383,
    1383,
    1385,
    747,
    748,
    1182,
    1166,
    1167,
    1385,
    1387,
    1165,
    1383,
    1386,
    1387,
    1147,
    747,
    748,
    1383,
    1147,
    1388,
    1384,
    1386,
    1384,
    1386,
    1385,
    1387,
    1385,
    1385,
    1383,
    1385,
    1388,
    1386,
    1388,
    1387,
    1388,
    1387,
    1388,
    1388,
    1387,
    1387,
    1388,
    1384,
    1385,
    1386,
    1386,
    1386,
    1387,
    1387,
    1386,
    1386,
    1386,
    1386,
    1387,
    1387,
    1383,
    1386,
    1386,
    1383,
    1386,
    1388,
    1384,
    1384,
    1385,
    1383,
    1385,
    1386,
    1384,
    1388,
    1384,
    1386,
    1383,
    1385,
    1386,
    1383,
    1386,
    1387,
    1383,
    1387,
    1387,
    1384,
    1386,
    1388,
    1386,
    1384,
    1385,
    1385,
    1383,
    1383,
    1383,
    1385,
    1386,
    1384,
    1165,
    1098,
    1190,
    399,
    400,
    719,
    703,
    367,
    368,
    367,
    368,
    703,
    719,
    1162,
    1158,
    1160,
    383,
    1319,
    383,
    1304,
    1320,
    719,
    1177,
    1178,
    1095,
    1165,
    1385,
    1182,
    1147,
    747,
    748,
    1182,
    1388,
    1386,
    1386,
    1383,
    1385,
    1182,
    1385,
    1182,
    1386,
    731,
    732,
    1147,
    1383,
    1386,
    1388,
    1165,
    1387,
    731,
    732,
    1383,
    1383,
    1150,
    1151,
    1182,
    1384,
    1385,
    1388,
    1386,
    1388,
    1384,
    1383,
    1383,
    1386,
    1388,
    1386,
    1385,
    1386,
    1384,
    1383,
    1387,
    1164,
    1388,
    1388,
    1384,
    1387,
    1383,
    1387,
    1386,
    1383,
    1385,
    1388,
    1385,
    1388,
    1386,
    1388,
    1385,
    1388,
    1385,
    1388,
    1386,
    1386,
    1386,
    1388,
    1384,
    1387,
    1384,
    1388,
    1383,
    1384,
    1383,
    1386,
    1384,
    1385,
    1384,
    1388,
    1123,
    1385,
    1165,
    1384,
    11,
    1388,
    1384,
    1387,
    1387,
    1384,
    1385,
    1387,
    1383,
    1386,
    1384,
    1385,
    1386,
    1386,
    1388,
    1383,
    1383,
    1387,
    1165,
    1097,
    1191,
    1304,
    367,
    719,
    383,
    384,
    383,
    703,
    719,
    703,
    383,
    703,
    703,
    703,
    703,
    1304,
    400,
    1304,
    719,
    1193,
    1095,
    1164,
    1388,
    1388,
    1387,
    1163,
    1388,
    1182,
    1388,
    1384,
    1387,
    1384,
    1384,
    731,
    732,
    1182,
    731,
    732,
    747,
    748,
    731,
    732,
    1386,
    1383,
    1386,
    1383,
    747,
    748,
    1147,
    1182,
    1166,
    1167,
    1387,
    1386,
    1384,
    1387,
    1385,
    1384,
    1387,
    1386,
    1383,
    1387,
    1386,
    1385,
    1384,
    1388,
    1383,
    1385,
    1386,
    1385,
    1386,
    1386,
    1384,
    1386,
    1384,
    1387,
    1385,
    1383,
    1385,
    1386,
    1387,
    1384,
    1383,
    1385,
    1387,
    1383,
    1387,
    1386,
    1386,
    1383,
    1386,
    1385,
    1165,
    1384,
    1384,
    1388,
    1383,
    1387,
    1164,
    1383,
    1388,
    1384,
    1383,
    1125,
    15,
    1122,
    1383,
    1385,
    1384,
    1384,
    1384,
    1386,
    1384,
    1387,
    1384,
    1387,
    1385,
    1388,
    1383,
    1385,
    1385,
    1386,
    1388,
    1386,
    1386,
    1385,
    1388,
    1388,
    1097,
    1190,
    383,
    703,
    399,
    703,
    399,
    719,
    703,
    703,
    703,
    719,
    1319,
    1320,
    719,
    367,
    368,
    719,
    1194,
    1110,
    1383,
    1388,
    1383,
    1388,
    1386,
    1383,
    1386,
    1386,
    1384,
    1384,
    1386,
    1163,
    1385,
    747,
    748,
    1387,
    747,
    748,
    1182,
    1385,
    747,
    748,
    1182,
    1386,
    1387,
    1383,
    1386,
    1182,
    1385,
    731,
    732,
    1383,
    1384,
    1386,
    1388,
    1384,
    1384,
    1386,
    1388,
    1388,
    11,
    1385,
    1164,
    1384,
    1383,
    1383,
    1387,
    1386,
    1387,
    1386,
    1388,
    1387,
    1388,
    1383,
    1385,
    1386,
    1388,
    1385,
    1386,
    1385,
    1384,
    1384,
    1387,
    1385,
    1388,
    1388,
    1385,
    1384,
    1383,
    1383,
    1385,
    1385,
    1386,
    1388,
    1386,
    1385,
    1383,
    1383,
    1383,
    1385,
    1123,
    1123,
    1124,
    8,
    31,
    32,
    1122,
    1123,
    1385,
    1386,
    1384,
    1384,
    1384,
    1388,
    1386,
    1383,
    1385,
    1386,
    1386,
    1388,
    1386,
    1384,
    1384,
    1386,
    1385,
    1383,
    1383,
    1164,
    1113,
    1174,
    399,
    719,
    703,
    719,
    703,
    383,
    719,
    703,
    719,
    703,
    1319,
    703,
    719,
    1319,
    1320,
    1304,
    1178,
    1110,
    1386,
    1385,
    1386,
    1388,
    1388,
    1387,
    1387,
    1385,
    1384,
    1385,
    1387,
    1384,
    1388,
    1386,
    1182,
    1150,
    1151,
    731,
    732,
    1147,
    1182,
    731,
    732,
    1383,
    1386,
    1383,
    1388,
    1387,
    1383,
    747,
    748,
    1182,
    1384,
    1388,
    1388,
    1387,
    1163,
    1383,
    1385,
    1383,
    1386,
    1384,
    1383,
    1383,
    1387,
    1383,
    1385,
    1385,
    1384,
    1384,
    1384,
    1385,
    1385,
    1385,
    1386,
    1387,
    1384,
    1386,
    1388,
    1385,
    1388,
    1385,
    1387,
    1388,
    1386,
    1384,
    1388,
    1387,
    1386,
    1384,
    1385,
    1383,
    1383,
    1383,
    1386,
    1387,
    1386,
    1385,
    1384,
    1125,
    1074,
    1074,
    843,
    844,
    911,
    912,
    839,
    840,
    1121,
    1383,
    1164,
    1384,
    1384,
    1383,
    1383,
    1386,
    1386,
    1388,
    1386,
    1385,
    1385,
    1386,
    1385,
    1383,
    1388,
    1383,
    1387,
    1386,
    1113,
    1174,
    1319,
    1319,
    719,
    368,
    719,
    703,
    367,
    703,
    703,
    719,
    368,
    719,
    703,
    703,
    1319,
    1320,
    1178,
    1110,
    1163,
    1384,
    1388,
    1385,
    1386,
    1385,
    1386,
    1165,
    1386,
    1383,
    1383,
    1388,
    1388,
    1386,
    1147,
    1166,
    1167,
    747,
    748,
    731,
    732,
    747,
    748,
    1386,
    1383,
    1386,
    1387,
    1388,
    1384,
    1182,
    1386,
    1388,
    1387,
    1388,
    1386,
    1388,
    1383,
    1387,
    1386,
    1385,
    1387,
    1385,
    1388,
    1385,
    1387,
    1388,
    1388,
    1383,
    1383,
    1383,
    1384,
    1387,
    1384,
    1384,
    1383,
    1383,
    1387,
    1383,
    1384,
    1387,
    1388,
    1386,
    1387,
    1384,
    1383,
    1385,
    1384,
    1385,
    1384,
    1385,
    1388,
    1383,
    1386,
    1387,
    1385,
    1385,
    1123,
    1123,
    1124,
    1,
    7,
    870,
    859,
    860,
    13,
    1,
    855,
    856,
    1105,
    1106,
    1383,
    1385,
    1388,
    1387,
    1383,
    1387,
    1386,
    1383,
    1387,
    1387,
    1385,
    1386,
    1388,
    1387,
    1387,
    1383,
    1163,
    1388,
    1129,
    1087,
    1191,
    1179,
    383,
    703,
    703,
    719,
    383,
    719,
    719,
    703,
    384,
    703,
    1319,
    1320,
    719,
    1193,
    1083,
    1094,
    1386,
    1385,
    1386,
    1388,
    1383,
    1386,
    1383,
    1386,
    1386,
    1383,
    1385,
    1387,
    1147,
    1386,
    1388,
    1182,
    731,
    732,
    733,
    747,
    748,
    1147,
    1385,
    1182,
    1384,
    1383,
    1164,
    1388,
    1387,
    1387,
    1385,
    1388,
    1385,
    1387,
    1386,
    1383,
    1385,
    1386,
    1385,
    1387,
    1385,
    1383,
    1383,
    1388,
    1383,
    1385,
    1385,
    1165,
    1388,
    1386,
    1383,
    1383,
    1388,
    1386,
    1388,
    1383,
    1388,
    1384,
    1386,
    1388,
    1383,
    1388,
    1383,
    1386,
    1386,
    1387,
    1388,
    1387,
    1386,
    1383,
    1386,
    1386,
    1386,
    1164,
    1387,
    1125,
    843,
    844,
    911,
    912,
    885,
    886,
    15,
    16,
    1090,
    1092,
    785,
    786,
    787,
    1122,
    1384,
    1383,
    1387,
    1388,
    1386,
    1388,
    1388,
    1384,
    1164,
    1383,
    1386,
    1384,
    1383,
    1164,
    1388,
    1130,
    1126,
    1129,
    1086,
    1086,
    1087,
    1190,
    399,
    719,
    719,
    383,
    703,
    703,
    719,
    719,
    703,
    1319,
    1320,
    719,
    1194,
    1095,
    1096,
    1164,
    1384,
    1384,
    1385,
    1383,
    1383,
    1388,
    1384,
    1383,
    1388,
    1384,
    1388,
    1182,
    1147,
    731,
    732,
    1147,
    747,
    748,
    1147,
    1384,
    1386,
    1386,
    1182,
    1386,
    1388,
    1383,
    1386,
    1386,
    1387,
    1386,
    1387,
    1388,
    1388,
    1383,
    1386,
    1385,
    1383,
    1385,
    1387,
    1386,
    1163,
    1386,
    1387,
    1387,
    1383,
    1383,
    1386,
    1388,
    1384,
    1387,
    1388,
    1386,
    1387,
    1385,
    1388,
    1383,
    1387,
    1386,
    1388,
    1386,
    1387,
    1385,
    1385,
    1385,
    1385,
    1387,
    1387,
    1383,
    1386,
    1383,
    1388,
    1385,
    1387,
    1123,
    1124,
    870,
    859,
    1090,
    1092,
    7,
    901,
    1090,
    1091,
    1091,
    1386,
    1108,
    801,
    802,
    803,
    1105,
    1106,
    1388,
    1386,
    1385,
    1386,
    1383,
    1383,
    1385,
    1387,
    1383,
    1383,
    1388,
    1387,
    1386,
    1113,
    12,
    1087,
    1180,
    12,
    1087,
    1095,
    1097,
    1191,
    1319,
    1319,
    399,
    719,
    719,
    703,
    703,
    719,
    1192,
    1192,
    1193,
    1094,
    1387,
    1165,
    1384,
    1384,
    1386,
    1388,
    1383,
    1387,
    1385,
    1387,
    1383,
    1386,
    1386,
    1385,
    1386,
    1182,
    747,
    748,
    1182,
    1384,
    733,
    1386,
    1182,
    1386,
    1384,
    1387,
    1388,
    1387,
    1387,
    1385,
    1386,
    1386,
    1385,
    1165,
    1384,
    1384,
    1388,
    1388,
    1383,
    1383,
    1385,
    1385,
    1388,
    1387,
    1385,
    1383,
    1383,
    1383,
    1383,
    1384,
    1387,
    1386,
    1384,
    1385,
    1386,
    1384,
    1386,
    1383,
    1385,
    1388,
    1384,
    1387,
    1384,
    1383,
    1385,
    1384,
    1384,
    1387,
    1388,
    1387,
    1388,
    1388,
    1385,
    1383,
    1388,
    1125,
    884,
    885,
    886,
    1089,
    1387,
    1385,
    1091,
    1091,
    1387,
    1386,
    1164,
    1384,
    1108,
    817,
    818,
    819,
    1090,
    1385,
    1388,
    1385,
    1383,
    1385,
    1384,
    1384,
    1386,
    1387,
    1165,
    1386,
    1384,
    1387,
    1388,
    1113,
    1114,
    1086,
    1087,
    1083,
    1095,
    1383,
    1385,
    1098,
    1191,
    1192,
    1192,
    1304,
    719,
    719,
    719,
    1194,
    1095,
    1096,
    1096,
    1386,
    1383,
    1386,
    1387,
    1387,
    1388,
    1388,
    1387,
    1383,
    1384,
    1388,
    1388,
    1383,
    1383,
    1388,
    1383,
    1386,
    1387,
    1383,
    1385,
    1384,
    1387,
    1386,
    1384,
    1388,
    1387,
    1388,
    1388,
    1383,
    1383,
    1385,
    1387,
    1385,
    1384,
    1385,
    1383,
    1383,
    1384,
    1385,
    1384,
    1388,
    1387,
    1385,
    1387,
    1388,
    1385,
    1388,
    1385,
    1387,
    1386,
    1388,
    1387,
    1385,
    1387,
    1383,
    1386,
    1384,
    1383,
    1387,
    1385,
    1386,
    1388,
    1385,
    1385,
    1385,
    1385,
    1383,
    1388,
    1388,
    1387,
    1385,
    1387,
    1388,
    1386,
    1165,
    1124,
    880,
    900,
    901,
    1090,
    1388,
    1388,
    1386,
    1163,
    1384,
    1386,
    1386,
    1383,
    1384,
    1124,
    796,
    797,
    1090,
    1388,
    1387,
    1386,
    1387,
    1385,
    1383,
    1384,
    1384,
    1384,
    1385,
    1385,
    1386,
    1384,
    1387,
    1383,
    1165,
    1097,
    1080,
    1094,
    1096,
    1383,
    1383,
    1165,
    1385,
    1097,
    1143,
    1083,
    1191,
    1192,
    1179,
    1193,
    1094,
    1387,
    1163,
    1384,
    1384,
    1386,
    1387,
    1163,
    1383,
    1384,
    1387,
    1387,
    1386,
    1387,
    1383,
    1388,
    1383,
    1388,
    1165,
    1384,
    1383,
    1383,
    1383,
    1164,
    1384,
    1383,
    1386,
    1384,
    1385,
    1385,
    1163,
    1387,
    1385,
    1386,
    1383,
    1386,
    1383,
    1385,
    1383,
    1388,
    1384,
    1385,
    1164,
    1388,
    1388,
    1388,
    1387,
    1385,
    1383,
    1383,
    1163,
    1385,
    1385,
    1384,
    1384,
    1386,
    1383,
    1383,
    1388,
    1388,
    1388,
    1385,
    1387,
    1383,
    1383,
    1386,
    1164,
    1384,
    1384,
    1388,
    1386,
    1386,
    1387,
    1386,
    1386,
    1386,
    1387,
    1384,
    1125,
    895,
    896,
    1090,
    1091,
    1383,
    1387,
    1386,
    1384,
    1383,
    1386,
    1386,
    1384,
    1387,
    1108,
    1389,
    812,
    813,
    1106,
    1164,
    1388,
    1387,
    1383,
    1384,
    1385,
    1386,
    1386,
    1383,
    1387,
    1387,
    1383,
    1388,
    1383,
    1384,
    1384,
    1385,
    1096,
    1163,
    1387,
    1384,
    1383,
    1388,
    1388,
    1385,
    1096,
    1096,
    1096,
    1097,
    1143,
    1095,
    1388,
    1383,
    1385,
    1387,
    1383,
    1384,
    1383,
    1385,
    1383,
    1385,
    1383,
    1385,
    1388,
    1383,
    1383,
    1385,
    1386,
    1384,
    1388,
    1384,
    1388,
    1383,
    1385,
    1383,
    1386,
    1385,
    1388,
    1388,
    1386,
    1385,
    1388,
    1388,
    1387,
    1387,
    1387,
    1386,
    1385,
    1385,
    1385,
    1388,
    702,
    1387,
    1383,
    1386,
    1383,
    1387,
    1385,
    1385,
    1387,
    1388,
    1386,
    1385,
    1386,
    1386,
    1383,
    1383,
    1387,
    1383,
    1388,
    1383,
    1385,
    1388,
    1384,
    1388,
    1384,
    1383,
    1385,
    1387,
    1383,
    1386,
    1383,
    1386,
    1387,
    1383,
    1385,
    1388,
    1164,
    1108,
    1109,
    798,
    799,
    1106,
    1386,
    1384,
    1387,
    1383,
    1387,
    1388,
    1386,
    1386,
    1383,
    1123,
    1124,
    1405,
    828,
    1090,
    1383,
    1388,
    1388,
    1384,
    1384,
    1388,
    1388,
    1387,
    1386,
    1384,
    1386,
    1163,
    1384,
    1388,
    1387,
    1388,
    1388,
    1386,
    1387,
    1386,
    1386,
    1384,
    1386,
    1386,
    1384,
    1388,
    1383,
    1387,
    1163,
    1383,
    1096,
    1386,
    1165,
    1386,
    1383,
    1386,
    1387,
    1387,
    1388,
    1384,
    1386,
    1385,
    1388,
    1384,
    1383,
    1385,
    1164,
    1385,
    1384,
    1388,
    1383,
    1386,
    1386,
    1387,
    1387,
    1383,
    1388,
    731,
    732,
    1388,
    1385,
    1386,
    1386,
    1387,
    1387,
    1384,
    1388,
    1164,
    1387,
    1385,
    1387,
    1387,
    1384,
    1383,
    1385,
    1388,
    1386,
    1383,
    1383,
    1385,
    1384,
    1387,
    1386,
    1383,
    1385,
    1386,
    1383,
    1386,
    1386,
    1386,
    1386,
    1387,
    1385,
    1384,
    1388,
    1383,
    1383,
    1384,
    1384,
    1386,
    1388,
    1388,
    1387,
    1388,
    1163,
    1383,
    1387,
    1383,
    1385,
    1108,
    1109,
    814,
    815,
    1122,
    1386,
    1165,
    1387,
    1385,
    1385,
    1383,
    1386,
    1123,
    1124,
    1023,
    1024,
    1421,
    1089,
    1388,
    1385,
    1384,
    1383,
    1387,
    1383,
    1386,
    1384,
    1387,
    1385,
    1383,
    1385,
    1387,
    1383,
    1383,
    1383,
    1388,
    1384,
    1383,
    1388,
    1387,
    1383,
    1384,
    1385,
    1384,
    1385,
    1385,
    1388,
    1387,
    1386,
    1386,
    1386,
    1386,
    1383,
    1386,
    1387,
    1383,
    1383,
    1385,
    1385,
    1386,
    1385,
    1386,
    1386,
    1385,
    1387,
    1387,
    1384,
    1384,
    1383,
    1383,
    1386,
    1383,
    1182,
    1383,
    731,
    732,
    1182,
    747,
    748,
    733,
    1182,
    1383,
    1387,
    1384,
    1386,
    1386,
    1385,
    1386,
    1387,
    1387,
    1383,
    1383,
    1388,
    1383,
    1383,
    1383,
    1383,
    1387,
    1385,
    1385,
    1383,
    1386,
    1388,
    1383,
    1388,
    733,
    1385,
    1383,
    1387,
    1385,
    1386,
    1384,
    1388,
    1387,
    1387,
    1383,
    1385,
    1387,
    1388,
    1182,
    1384,
    1383,
    1384,
    1387,
    1386,
    1385,
    1385,
    1387,
    1384,
    1108,
    1109,
    830,
    831,
    1090,
    1383,
    1386,
    1384,
    1383,
    1384,
    1387,
    1124,
    789,
    790,
    1039,
    1040,
    1090,
    1383,
    1385,
    1383,
    1383,
    1385,
    1384,
    1388,
    1385,
    1383,
    1385,
    1386,
    1387,
    1387,
    1385,
    1384,
    1385,
    1383,
    1386,
    1388,
    1383,
    1387,
    1384,
    1386,
    1164,
    1386,
    1385,
    1387,
    1384,
    1388,
    1385,
    1386,
    1385,
    1383,
    1386,
    1385,
    1387,
    1385,
    1388,
    1385,
    1386,
    1383,
    1384,
    1388,
    1388,
    1386,
    1388,
    1387,
    1387,
    1385,
    1388,
    1388,
    1386,
    1385,
    1388,
    1387,
    1182,
    747,
    748,
    1384,
    1147,
    1182,
    731,
    732,
    1386,
    733,
    1385,
    1386,
    1385,
    1384,
    1384,
    1384,
    1383,
    1384,
    1386,
    1387,
    1385,
    1387,
    1387,
    1385,
    1387,
    1386,
    1388,
    1387,
    1386,
    1386,
    733,
    1386,
    1387,
    731,
    732,
    1147,
    1384,
    1387,
    1383,
    1385,
    1385,
    1387,
    1385,
    1386,
    1386,
    731,
    732,
    1386,
    1383,
    1385,
    1385,
    1386,
    1387,
    1386,
    1384,
    1386,
    1387,
    1092,
    779,
    780,
    1106,
    1384,
    1385,
    1384,
    1164,
    1384,
    1124,
    804,
    805,
    806,
    1055,
    1089,
    1388,
    1387,
    1388,
    1388,
    1386,
    1386,
    1163,
    1386,
    1384,
    1387,
    1384,
    1384,
    1385,
    1388,
    1383,
    1385,
    1384,
    1388,
    1388,
    1384,
    1383,
    1387,
    1386,
    1386,
    1387,
    1383,
    1387,
    1383,
    1387,
    1387,
    1388,
    1386,
    1387,
    1388,
    1384,
    1385,
    1384,
    1388,
    1388,
    1387,
    1385,
    1386,
    1386,
    1383,
    1165,
    1386,
    1383,
    1385,
    1387,
    1387,
    1387,
    1386,
    1385,
    1388,
    1387,
    1383,
    731,
    732,
    1383,
    731,
    732,
    1384,
    747,
    748,
    1182,
    1165,
    1385,
    1387,
    1387,
    1386,
    1384,
    1384,
    1383,
    1384,
    1383,
    1164,
    1387,
    1383,
    1387,
    1383,
    1387,
    1384,
    1387,
    1385,
    1383,
    1150,
    1151,
    1147,
    1182,
    747,
    748,
    1182,
    731,
    732,
    1387,
    1387,
    1385,
    1384,
    1388,
    1388,
    1383,
    747,
    748,
    1148,
    1386,
    1385,
    1386,
    1385,
    1384,
    1383,
    1388,
    1385,
    1384,
    1108,
    735,
    736,
    1122,
    1123,
    1123,
    1383,
    1385,
    1108,
    1109,
    820,
    821,
    822,
    1090,
    1384,
    1388,
    1387,
    1383,
    1388,
    1383,
    1383,
    1388,
    1385,
    1386,
    1388,
    1388,
    1388,
    1164,
    1385,
    1387,
    1384,
    1165,
    1385,
    1388,
    1384,
    1384,
    1386,
    1388,
    1387,
    1387,
    1387,
    1384,
    1385,
    1383,
    1385,
    1387,
    1386,
    1383,
    1383,
    1385,
    1386,
    1387,
    1164,
    1385,
    1387,
    1383,
    1386,
    1383,
    1387,
    1385,
    1387,
    1383,
    1384,
    1383,
    1387,
    1386,
    1383,
    1388,
    1386,
    1383,
    1385,
    747,
    748,
    1147,
    747,
    748,
    1147,
    1385,
    1182,
    731,
    732,
    1182,
    1385,
    1383,
    1165,
    1388,
    1388,
    731,
    732,
    1387,
    1147,
    1147,
    1387,
    1383,
    1383,
    1383,
    1385,
    1384,
    1387,
    1383,
    1166,
    1167,
    1182,
    731,
    732,
    1182,
    733,
    747,
    748,
    1147,
    1387,
    1384,
    1163,
    1386,
    1388,
    1385,
    1182,
    10,
    1384,
    11,
    1387,
    1385,
    1387,
    731,
    732,
    1385,
    1387,
    1388,
    1108,
    1390,
    1391,
    1392,
    875,
    876,
    1122,
    1387,
    1388,
    1092,
    785,
    786,
    787,
    1106,
    1164,
    1385,
    1385,
    1383,
    1386,
    1385,
    1387,
    1385,
    1384,
    1387,
    1386,
    1387,
    1387,
    1384,
    1386,
    1384,
    1383,
    1385,
    1387,
    1386,
    1384,
    1388,
    1387,
    1385,
    1386,
    1387,
    1387,
    1384,
    1386,
    1388,
    1385,
    1385,
    1388,
    1387,
    1388,
    1383,
    1386,
    1386,
    1388,
    1384,
    1384,
    1384,
    1385,
    1384,
    1387,
    1387,
    1386,
    1384,
    1385,
    1387,
    1386,
    1386,
    1388,
    1163,
    1383,
    1386,
    1384,
    1383,
    1385,
    1182,
    1199,
    1200,
    731,
    732,
    1383,
    747,
    748,
    1383,
    1387,
    1388,
    1386,
    731,
    732,
    747,
    748,
    731,
    732,
    1383,
    733,
    1386,
    1384,
    1388,
    1387,
    1384,
    1388,
    1147,
    1387,
    927,
    927,
    747,
    748,
    731,
    732,
    1182,
    1147,
    731,
    732,
    1384,
    1388,
    1386,
    1384,
    1388,
    1383,
    731,
    732,
    1386,
    1384,
    1384,
    1387,
    747,
    748,
    1384,
    1384,
    1163,
    1108,
    1406,
    1407,
    1408,
    891,
    892,
    893,
    1122,
    1388,
    1108,
    801,
    802,
    803,
    1106,
    1386,
    1386,
    1384,
    1385,
    1387,
    1385,
    1385,
    1387,
    1385,
    1385,
    1383,
    1384,
    1383,
    1385,
    1383,
    1386,
    1384,
    1383,
    1386,
    1384,
    1385,
    1384,
    1385,
    1388,
    1383,
    1384,
    1384,
    1383,
    1386,
    1387,
    1387,
    1383,
    1385,
    1387,
    1387,
    1384,
    1385,
    1383,
    1388,
    1387,
    1383,
    1383,
    1386,
    1385,
    1383,
    1388,
    1384,
    1384,
    1386,
    1387,
    1384,
    1385,
    1384,
    1387,
    1385,
    1384,
    1384,
    1384,
    1388,
    1385,
    1215,
    1216,
    747,
    748,
    1147,
    1387,
    1182,
    731,
    732,
    1385,
    1385,
    747,
    748,
    1386,
    1147,
    747,
    748,
    1147,
    1385,
    1163,
    1388,
    1388,
    1385,
    1165,
    1387,
    731,
    732,
    1182,
    731,
    732,
    1147,
    747,
    748,
    731,
    732,
    747,
    748,
    1387,
    1384,
    1387,
    1388,
    1383,
    1147,
    747,
    748,
    1388,
    1386,
    1387,
    1388,
    1385,
    731,
    732,
    1387,
    1386,
    1383,
    1092,
    1423,
    1424,
    907,
    908,
    909,
    910,
    1106,
    1108,
    817,
    818,
    819,
    1106,
    1387,
    1386,
    1387,
    1384,
    1386,
    1165,
    1388,
    1386,
    1383,
    1386,
    1384,
    1384,
    1386,
    1385,
    1387,
    1383,
    1385,
    1385,
    1163,
    1385,
    1387,
    1387,
    1387,
    1165,
    1388,
    1384,
    1386,
    1388,
    1163,
    1387,
    1383,
    1383,
    1383,
    1386,
    1388,
    1387,
    1386,
    1384,
    1384,
    1388,
    1385,
    1388,
    1386,
    1383,
    1387,
    1386,
    1386,
    1386,
    1384,
    1387,
    1385,
    1387,
    1387,
    1383,
    1383,
    1386,
    1388,
    1387,
    1384,
    1386,
    1388,
    1386,
    1383,
    1387,
    1384,
    731,
    732,
    747,
    748,
    1182,
    731,
    732,
    1147,
    731,
    732,
    1150,
    1151,
    731,
    732,
    1147,
    733,
    1386,
    1384,
    1383,
    1386,
    747,
    748,
    1147,
    747,
    748,
    1182,
    1150,
    1151,
    747,
    748,
    1182,
    1385,
    1387,
    1384,
    1388,
    1385,
    1383,
    1385,
    1387,
    1182,
    1387,
    1386,
    1386,
    1164,
    1387,
    747,
    748,
    1387,
    731,
    732,
    1388,
    1091,
    1092,
    1,
    924,
    925,
    926,
    1122,
    1124,
    796,
    797,
    1090,
    1388,
    1384,
    1387,
    1388,
    1384,
    1384,
    1386,
    1384,
    1386,
    1383,
    1384,
    1385,
    1386,
    1384,
    1384,
    1384,
    1384,
    1385,
    1387,
    1384,
    1386,
    1388,
    1385,
    1388,
    1386,
    1387,
    1384,
    1383,
    1387,
    1384,
    1383,
    1384,
    1383,
    1386,
    1384,
    1384,
    1383,
    1385,
    1383,
    1384,
    1384,
    1384,
    1383,
    1386,
    1384,
    1388,
    1164,
    1386,
    1385,
    1384,
    1385,
    1387,
    1387,
    1383,
    1387,
    1385,
    1388,
    1388,
    1388,
    1388,
    1384,
    1384,
    1164,
    1388,
    1384,
    1384,
    747,
    748,
    731,
    732,
    1386,
    747,
    748,
    1386,
    747,
    748,
    1166,
    1167,
    747,
    748,
    733,
    731,
    732,
    1388,
    1383,
    1386,
    1386,
    731,
    732,
    11,
    1182,
    1147,
    1166,
    1167,
    731,
    732,
    1182,
    1384,
    1387,
    1383,
    1165,
    1388,
    1384,
    1384,
    1388,
    1384,
    1385,
    1385,
    1386,
    1384,
    1385,
    1385,
    1385,
    1388,
    747,
    748,
    1387,
    1385,
    1385,
    1093,
    1,
    1390,
    1391,
    1392,
    795,
    812,
    813,
    1106,
    1388,
    1385,
    1386,
    1385,
    1386,
    1388,
    1384,
    1385,
    1383,
    1383,
    1388,
    1385,
    1383,
    1384,
    1383,
    1388,
    1384,
    1387,
    1385,
    1383,
    1388,
    1388,
    1388,
    1387,
    1383,
    1384,
    1386,
    1383,
    1385,
    1385,
    1388,
    1385,
    1388,
    1387,
    1388,
    1383,
    1384,
    1385,
    1384,
    1386,
    1388,
    1386,
    1388,
    1384,
    1383,
    1388,
    1383,
    1385,
    1386,
    1386,
    1386,
    1384,
    1383,
    1387,
    1383,
    1388,
    11,
    1388,
    1386,
    1386,
    1384,
    1385,
    1387,
    1383,
    1386,
    1386,
    1387,
    1147,
    747,
    748,
    1147,
    731,
    732,
    1182,
    1388,
    1147,
    731,
    732,
    733,
    1182,
    11,
    747,
    748,
    1387,
    1387,
    1383,
    1386,
    747,
    748,
    733,
    731,
    732,
    1387,
    1182,
    747,
    748,
    1387,
    1386,
    1387,
    1384,
    1385,
    1387,
    1386,
    1385,
    1385,
    1385,
    1386,
    1386,
    1386,
    1384,
    1385,
    1384,
    1386,
    1384,
    1386,
    1385,
    1386,
    1383,
    1386,
    1383,
    1092,
    1406,
    1407,
    1408,
    811,
    828,
    1090,
    1384,
    1388,
    1385,
    1387,
    1387,
    1388,
    1385,
    1387,
    1384,
    1383,
    1386,
    1387,
    1383,
    1385,
    1387,
    1385,
    1383,
    1386,
    1383,
    1385,
    1383,
    1385,
    1384,
    1386,
    1386,
    1385,
    1383,
    1388,
    1386,
    1384,
    1387,
    1388,
    1385,
    1384,
    1388,
    1163,
    1386,
    1387,
    1385,
    1387,
    1385,
    1383,
    1386,
    1387,
    1386,
    1384,
    1387,
    1388,
    1387,
    1387,
    1383,
    1386,
    1383,
    1388,
    1388,
    731,
    732,
    1384,
    1384,
    1182,
    733,
    1182,
    1386,
    1384,
    1383,
    1388,
    1386,
    731,
    732,
    733,
    731,
    732,
    747,
    748,
    1383,
    1150,
    1151,
    747,
    748,
    1147,
    731,
    732,
    733,
    1150,
    1151,
    1385,
    1387,
    1386,
    1386,
    1387,
    1387,
    747,
    748,
    1147,
    1385,
    1385,
    1147,
    1383,
    1386,
    1386,
    1164,
    1386,
    1383,
    11,
    1388,
    1385,
    1388,
    1384,
    1384,
    1386,
    1384,
    1386,
    1388,
    1386,
    1386,
    1384,
    1385,
    1164,
    1388,
    1388,
    1386,
    1385,
    1093,
    1423,
    1424,
    827,
    1089,
    1164,
    1386,
    1388,
    1385,
    1384,
    1385,
    1386,
    1387,
    1383,
    1388,
    1384,
    1386,
    1388,
    1385,
    1388,
    1383,
    1383,
    1384,
    1383,
    1386,
    1385,
    1384,
    1387,
    1387,
    1388,
    1385,
    1383,
    1383,
    1384,
    1387,
    1386,
    731,
    732,
    1383,
    1388,
    1387,
    1388,
    1383,
    1383,
    1388,
    1385,
    1384,
    1383,
    1384,
    1385,
    1386,
    1383,
    1386,
    1383,
    1383,
    1387,
    1385,
    1182,
    1388,
    1147,
    1387,
    747,
    748,
    1383,
    1387,
    10,
    1147,
    731,
    732,
    1387,
    1386,
    1385,
    1387,
    747,
    748,
    1147,
    747,
    748,
    1147,
    731,
    732,
    1166,
    1167,
    1386,
    1147,
    1182,
    747,
    748,
    1386,
    1166,
    1167,
    1388,
    1385,
    1385,
    1387,
    1383,
    1383,
    1383,
    1147,
    731,
    732,
    1182,
    1383,
    1387,
    1388,
    1383,
    1383,
    1383,
    1147,
    1384,
    1386,
    1386,
    1387,
    1386,
    1385,
    1385,
    1388,
    1385,
    1385,
    1387,
    1387,
    1385,
    1150,
    1151,
    731,
    732,
    733,
    1384,
    1384,
    1091,
    1091,
    1091,
    1388,
    1388,
    1387,
    1384,
    1164,
    1387,
    1383,
    1384,
    1384,
    1385,
    1386,
    1383,
    1384,
    1388,
    1387,
    1383,
    1385,
    1388,
    1384,
    1388,
    1385,
    1386,
    1383,
    1385,
    1383,
    1383,
    1150,
    1151,
    1385,
    1383,
    1388,
    1384,
    747,
    748,
    1385,
    731,
    732,
    1386,
    1385,
    1383,
    1387,
    1383,
    1383,
    1385,
    1384,
    1385,
    1383,
    1387,
    733,
    731,
    732,
    1386,
    1388,
    1387,
    1384,
    731,
    732,
    1386,
    1147,
    1182,
    11,
    1182,
    733,
    747,
    748,
    1383,
    1388,
    1384,
    1386,
    11,
    733,
    731,
    732,
    1182,
    11,
    747,
    748,
    1182,
    731,
    732,
    1182,
    733,
    1147,
    10,
    1147,
    1383,
    1385,
    1182,
    1386,
    1387,
    1383,
    1165,
    1383,
    1388,
    1383,
    747,
    748,
    1386,
    1383,
    1388,
    1384,
    1388,
    1387,
    1386,
    1386,
    1388,
    1383,
    1164,
    1387,
    1386,
    1385,
    1383,
    1384,
    1386,
    1385,
    927,
    1385,
    1387,
    1166,
    1167,
    747,
    748,
    1384,
    731,
    732,
    1383,
    731,
    732,
    1387,
    1383,
    1383,
    733,
    1385,
    1386,
    1385,
    1387,
    1383,
    1383,
    1383,
    1384,
    1385,
    1385,
    1388,
    1386,
    1388,
    1384,
    1385,
    1386,
    1388,
    1387,
    1385,
    10,
    1385,
    1387,
    1166,
    1167,
    1147,
    1387,
    1383,
    1387,
    1147,
    1388,
    1386,
    747,
    748,
    1388,
    1387,
    1388,
    1383,
    1383,
    1388,
    1384,
    1383,
    1385,
    731,
    732,
    1388,
    747,
    748,
    11,
    731,
    732,
    1147,
    747,
    748,
    11,
    1385,
    733,
    731,
    732,
    1182,
    1147,
    1384,
    1386,
    1165,
    1387,
    733,
    1147,
    1182,
    747,
    748,
    733,
    1150,
    1151,
    1147,
    1386,
    747,
    748,
    731,
    11,
    733,
    731,
    732,
    1182,
    733,
    1385,
    731,
    732,
    1383,
    1387,
    1388,
    1384,
    1383,
    1388,
    1387,
    1383,
    1164,
    1388,
    1385,
    1388,
    1387,
    1388,
    1383,
    1383,
    1384,
    1387,
    1384,
    1385,
    1383,
    1387,
    1383,
    1386,
    1388,
    1387,
    1387,
    1386,
    927,
    731,
    732,
    927,
    1182,
    747,
    748,
    927,
    747,
    748,
    731,
    732,
    927,
    1386,
    1384,
    733,
    1386,
    1384,
    1182,
    1388,
    1385,
    1386,
    731,
    732,
    1387,
    1384,
    1385,
    731,
    732,
    1386,
    1386,
    1385,
    1383,
    1386,
    1387,
    731,
    732,
    1147,
    1182,
    1387,
    731,
    732,
    11,
    1150,
    1151,
    1147,
    10,
    1386,
    1387,
    1383,
    1383,
    1386,
    1384,
    1383,
    731,
    732,
    747,
    748,
    1182,
    1182,
    731,
    732,
    747,
    748,
    1150,
    1151,
    731,
    732,
    1182,
    1147,
    747,
    748,
    733,
    1385,
    1387,
    1387,
    1388,
    1385,
    731,
    732,
    1147,
    1150,
    1151,
    1147,
    1166,
    1167,
    731,
    732,
    1385,
    1182,
    747,
    1182,
    733,
    747,
    748,
    731,
    732,
    11,
    747,
    748,
    731,
    732,
    1384,
    1384,
    1383,
    1384,
    1388,
    1388,
    1386,
    1386,
    1383,
    1386,
    1384,
    1388,
    1383,
    1387,
    1383,
    1383,
    1385,
    1387,
    1385,
    1384,
    1388,
    1386,
    1388,
    1147,
    1383,
    731,
    732,
    747,
    748,
    731,
    732,
    927,
    1182,
    731,
    732,
    1182,
    747,
    748,
    1182,
    731,
    732,
    927,
    731,
    732,
    1388,
    1384,
    1182,
    1388,
    747,
    748,
    731,
    732,
    1384,
    747,
    748,
    1147,
    1386,
    1182,
    731,
    732,
    1182,
    747,
    748,
    1182,
    1147,
    1384,
    747,
    748,
    1182,
    1166,
    1167,
    1383,
    731,
    732,
    1387,
    1384,
    1388,
    1388,
    1386,
    733,
    747,
    748,
    1182,
    731,
    732,
    1147,
    747,
    748,
    1383,
    1182,
    1166,
    1167,
    747,
    748,
    1384,
    731,
    732,
    1150,
    1151,
    1384,
    1388,
    1386,
    1384,
    1387,
    747,
    748,
    733,
    1166,
    1167,
    731,
    732,
    1182,
    747,
    748,
    1147,
    731,
    732,
    1150,
    1151,
    1147,
    733,
    747,
    748,
    731,
    732,
    733,
    747,
    748,
    1383,
    1387,
    1388,
    1163,
    1386,
    1388,
    1387,
    1383,
    1383,
    1165,
    1388,
    1384,
    1388,
    1386,
    1388,
    1387,
    1385,
    1383,
    1383,
    1386,
    733,
    1385,
    1386,
    731,
    732,
    747,
    748,
    1182,
    733,
    747,
    748,
    1182,
    10,
    747,
    748,
    927,
    733,
    731,
    732,
    747,
    748,
    1384,
    747,
    748,
    927,
    1182,
    731,
    732,
    1150,
    1151,
    747,
    748,
    1386,
    1385,
    1182,
    731,
    732,
    1147,
    747,
    748,
    1386,
    11,
    1147,
    1385,
    731,
    732,
    1387,
    1182,
    1385,
    1165,
    1148,
    1182,
    747,
    748,
    1386,
    1388,
    1383,
    1387,
    1387,
    1388,
    1182,
    11,
    1147,
    747,
    748,
    731,
    732,
    10,
    1182,
    1147,
    731,
    732,
    731,
    732,
    11,
    747,
    748,
    1166,
    1167,
    1385,
    1383,
    1387,
    1383,
    1147,
    1182,
    1147,
    1386,
    731,
    732,
    747,
    748,
    1147,
    1182,
    731,
    732,
    747,
    748,
    1166,
    1167,
    1182,
    731,
    732,
    1147,
    747,
    748,
    927,
    733,
    1147,
    731,
    732,
    1384,
    1385,
    1383,
    1386,
    1387,
    1385,
    1385,
    1384,
    1388,
    1384,
    1387,
    1387,
    1388,
    1384,
    1388,
    1387,
    1385,
    1383,
    1386,
    1384,
    927,
    747,
    748,
    927,
    731,
    732,
    1182,
    1147,
    731,
    732,
    733,
    927,
    731,
    732,
    927,
    747,
    748,
    927,
    731,
    732,
    1182,
    927,
    731,
    732,
    747,
    748,
    1166,
    1167,
    1385,
    731,
    732,
    1147,
    1385,
    747,
    748,
    1384,
    1388,
    1182,
    1182,
    731,
    732,
    1182,
    747,
    748,
    1147,
    1387,
    731,
    732,
    1147,
    1150,
    1151,
    1383,
    1388,
    1383,
    1385,
    1385,
    1163,
    733,
    1384,
    731,
    732,
    731,
    732,
    747,
    748,
    1388,
    731,
    732,
    747,
    748,
    747,
    748,
    1182,
    10,
    1182,
    1384,
    1388,
    1386,
    1386,
    733,
    1388,
    1387,
    1385,
    1385,
    1147,
    747,
    748,
    1147,
    731,
    732,
    1386,
    747,
    748,
    1383,
    1386,
    1386,
    733,
    1182,
    747,
    748,
    927,
    1150,
    1151,
    1147,
    731,
    732,
    747,
    748,
    1387,
    731,
    732,
    1383,
    1386,
    1384,
    1383,
    1385,
    1384,
    1383,
    1386,
    1165,
    1385,
    1384,
    1385,
    1388,
    1387,
    1385,
    1383,
    731,
    732,
    733,
    731,
    732,
    747,
    748,
    731,
    732,
    747,
    748,
    731,
    732,
    747,
    748,
    731,
    732,
    1150,
    1151,
    747,
    748,
    731,
    732,
    747,
    748,
    1383,
    1182,
    731,
    732,
    1182,
    747,
    748,
    1385,
    927,
    1150,
    1151,
    1385,
    731,
    732,
    1147,
    747,
    748,
    1147,
    1182,
    731,
    732,
    10,
    747,
    748,
    1182,
    1166,
    1167,
    1384,
    1385,
    1384,
    1383,
    1388,
    1387,
    1383,
    1386,
    747,
    748,
    747,
    748,
    1182,
    1182,
    11,
    747,
    748,
    1387,
    1182,
    731,
    732,
    1388,
    1147,
    731,
    732,
    1384,
    1386,
    1383,
    1385,
    1147,
    1385,
    1150,
    1151,
    11,
    1147,
    731,
    732,
    747,
    748,
    10,
    1182,
    1147,
    1182,
    1150,
    1182,
    1147,
    1150,
    1151,
    733,
    10,
    1166,
    1167,
    927,
    747,
    748,
    1182,
    733,
    1147,
    747,
    748,
    1384,
    1383,
    1147,
    1388,
    1387,
    1388,
    1383,
    1386,
    1384,
    1385,
    1387,
    702,
    1383,
    1387,
    1387,
    733,
    747,
    748,
    11,
    747,
    748,
    927,
    927,
    747,
    748,
    1386,
    927,
    747,
    748,
    733,
    1383,
    747,
    748,
    1166,
    1167,
    1387,
    927,
    747,
    748,
    1182,
    1385,
    927,
    1388,
    747,
    748,
    11,
    927,
    1182,
    731,
    732,
    1166,
    1167,
    1147,
    747,
    748,
    1388,
    1182,
    11,
    731,
    732,
    747,
    748,
    1182,
    1386,
    731,
    732,
    1182,
    1387,
    1384,
    1383,
    1388,
    1387,
    1383,
    1383,
    1383,
    1383,
    1388,
    1383,
    1385,
    1150,
    1151,
    1384,
    731,
    732,
    1383,
    11,
    1383,
    747,
    748,
    731,
    732,
    747,
    748,
    1383,
    1385,
    1385,
    1383,
    1383,
    1182,
    1166,
    1167,
    1182,
    1383,
    747,
    748,
    1147,
    1182,
    731,
    732,
    1383,
    1384,
    1166
   ]
  },
  {
   "id": 2,
   "name": "spawns",
   "type": "objectgroup",
   "x": 0,
   "y": 0,
   "width": 0,
   "height": 0,
   "opacity": 1,
   "visible": true,
   "draworder": "topdown",
   "objects": [
    {
     "height": 0,
     "id": 1,
     "name": "edge-1",
     "point": true,
     "rotation": 0,
     "type": "",
     "visible": true,
     "width": 0,
     "x": 1140,
     "y": 60
    },
    {
     "height": 0,
     "id": 2,
     "name": "edge-2",
     "point": true,
     "rotation": 0,
     "type": "",
     "visible": true,
     "width": 0,
     "x": 5060,
     "y": 780
    },
    {
     "height": 0,
     "id": 3,
     "name": "edge-3",
     "point": true,
     "rotation": 0,
     "type": "",
     "visible": true,
     "width": 0,
     "x": 5060,
     "y": 2420
    },
    {
     "height": 0,
     "id": 4,
     "name": "edge-4",
     "point": true,
     "rotation": 0,
     "type": "",
     "visible": true,
     "width": 0,
     "x": 60,
     "y": 2500
    },
    {
     "height": 0,
     "id": 5,
     "name": "edge-5",
     "point": true,
     "rotation": 0,
     "type": "",
     "visible": true,
     "width": 0,
     "x": 5060,
     "y": 4300
    },
    {
     "height": 0,
     "id": 6,
     "name": "edge-6",
     "point": true,
     "rotation": 0,
     "type": "",
     "visible": true,
     "width": 0,
     "x": 1100,
     "y": 5060
    }
   ]
  },
  {
   "id": 3,
   "name": "collision",
   "type": "tilelayer",
   "x": 0,
   "y": 0,
   "width": 128,
   "height": 128,
   "opacity": 1,
   "visible": false,
   "data": [
    1552,
    1552,
    1552,
    1552,
    1552,
    1552,
    1552,
    1552,
    0,
    0,
    0,
    0,
    0,
    0,
    0,
    0,
    0,
    0,
    0,
    0,
    0,
    0,
    0,
    0,
    0,
    0,
    0,
    0,
    1552,
    0,
    0,
    0,
    0,
    0,
    0,
    0,
    0,
    0,
    0,
    0,
    0,
    0,
    0,
    0,
    1552,
    1552,
    0,
    1552,
    0,
    0,
    0,
    0,
    0,
    0,
    0,
    0,
    0,
    0,
    0,
    0,
    0,
    0,
    0,
    0,
    0,
    0,
    0,
    0,
    0,
    0,
    0,
    0,
    0,
    0,
    0,
    0,
    0,
    0,
    0,
    0,
    0,
    0,
    0,
    0,
    0,
    0,
    0,
    0,
    0,
    0,
    0,
    0,
    0,
    0,
    0,
    0,
    0,
    0,
    0,
    0,
    0,
    0,
    0,
    0,
    0,
    0,
    0,
    0,
    0,
    0,
    0,
    0,
    0,
    0,
    0,
    0,
    0,
    0,
    0,
    0,
    0,
    0,
    0,
    1552,
    1552,
    1552,
    1552,
    1552,
    0,
    1552,
    1552,
    1552,
    1552,
    1552,
    1552,
    1552,
    1552,
    0,
    0,
    1552,
    1552,
    0,
    0,
    0,
    0,
    0,
    0,
    0,
    0,
    0,
    0,
    0,
    0,
    0,
    0,
    0,
    0,
    0,
    0,
    0,
    0,
    0,
    0,
    0,
    0,
    0,
    0,
    0,
    0,
    0,
    1552,
    1552,
    1552,
    1552,
    1552,
    1552,
    0,
    0,
    0,
    0,
    0,
    0,
    0,
    0,
    0,
    0,
    0,
    0,
    0,
    0,
    0,
    0,
    0,
    0,
    0,
    0,
    0,
    0,
    0,
    0,
    0,
    0,
    0,
    0,
    0,
    0,
    0,
    0,
    0,
    0,
    0,
    0,
    0,
    0,
    0,
    0,
    0,
    0,
    0,
    0,
    0,
    0,
    0,
    0,
    0,
    0,
    0,
    0,
    0,
    0,
    0,
    0,
    0,
    0,
    0,
    0,
    0,
    0,
    0,
    0,
    0,
    0,
    0,
    0,
    0,
    0,
    0,
    0,
    0,
    0,
    1552,
    1552,
    1552,
    1552,
    1552,
    1552,
    1552,
    1552,
    1552,
    1552,
    1552,
    1552,
    1552,
    1552,
    1552,
    1552,
    0,
    0,
    0,
    0,
    0,
    0,
    0,
    0,
    0,
    0,
    0,
    0,
    0,
    0,
    0,
    0,
    0,
    0,
    0,
    0,
    0,
    0,
    0,
    0,
    0,
    0,
    0,
    0,
    0,
    0,
    1552,
    1552,
    1552,
    1552,
    1552,
    1552,
    1552,
    1552,
    0,
    0,
    0,
    0,
    0,
    0,
    0,
    0,
    0,
    0,
    0,
    0,
    0,
    0,
    0,
    0,
    0,
    0,
    0,
    0,
    0,
    0,
    0,
    0,
    0,
    0,
    0,
    0,
    0,
    0,
    0,
    0,
    0,
    0,
    0,
    0,
    0,
    0,
    0,
    0,
    0,
    0,
    0,
    0,
    0,
    0,
    0,
    0,
    0,
    0,
    0,
    0,
    0,
    0,
    0,
    1552,
    0,
    0,
    0,
    0,
    0,
    0,
    0,
    0,
    0,
    0,
    0,
    0,
    0,
    0,
    0,
    0,
    1552,
    1552,
    1552,
    1552,
    1552,
    1552,
    1552,
    1552,
    1552,
    1552,
    1552,
    1552,
    1552,
    0,
    1552,
    1552,
    1552,
    1552,
    0,
    0,
    0,
    0,
    0,
    0,
    0,
    0,
    0,
    0,
    0,
    0,
    0,
    0,
    0,
    0,
    0,
    0,
    0,
    0,
    0,
    0,
    0,
    0,
    0,
    0,
    0,
    0,
    1552,
    1552,
    1552,
    1552,
    1552,
    1552,
    1552,
    1552,
    0,
    0,
    0,
    0,
    0,
    0,
    0,
    0,
    0,
    0,
    0,
    0,
    0,
    0,
    0,
    0,
    0,
    0,
    0,
    0,
    0,
    0,
    0,
    0,
    0,
    0,
    0,
    0,
    0,
    0,
    0,
    0,
    0,
    0,
    0,
    0,
    0,
    0,
    0,
    0,
    0,
    0,
    0,
    0,
    0,
    0,
    0,
    0,
    0,
    0,
    0,
    0,
    0,
    0,
    0,
    0,
    0,
    0,
    0,
    0,
    0,
    0,
    0,
    0,
    0,
    0,
    0,
    0,
    0,
    0,
    0,
    0,
    0,
    0,
    1552,
    1552,
    1552,
    1552,
    1552,
    0,
    1552,
    1552,
    0,
    1552,
    1552,
    0,
    1552,
    1552,
    1552,
    1552,
    1552,
    1552,
    0,
    1552,
    0,
    0,
    0,
    0,
    0,
    0,
    0,
    0,
    0,
    0,
    0,
    0,
    0,
    0,
    0,
    0,
    0,
    0,
    0,
    0,
    0,
    0,
    0,
    0,
    0,
    1552,
    1552,
    1552,
    1552,
    1552,
    1552,
    1552,
    1552,
    1552,
    0,
    0,
    0,
    0,
    0,
    0,
    1552,
    1552,
    0,
    0,
    0,
    0,
    0,
    0,
    0,
    0,
    0,
    0,
    0,
    0,
    0,
    0,
    0,
    0,
    0,
    0,
    0,
    0,
    0,
    0,
    0,
    0,
    0,
    0,
    0,
    0,
    0,
    0,
    0,
    0,
    0,
    0,
    0,
    0,
    0,
    0,
    0,
    0,
    0,
    0,
    0,
    0,
    0,
    0,
    0,
    0,
    0,
    0,
    0,
    0,
    0,
    0,
    0,
    0,
    0,
    0,
    0,
    0,
    0,
    0,
    0,
    0,
    0,
    0,
    1552,
    1552,
    1552,
    1552,
    1552,
    0,
    1552,
    1552,
    1552,
    1552,
    1552,
    1552,
    1552,
    1552,
    1552,
    1552,
    1552,
    1552,
    0,
    0,
    0,
    0,
    0,
    0,
    0,
    0,
    0,
    0,
    0,
    1552,
    0,
    0,
    0,
    0,
    0,
    0,
    0,
    0,
    0,
    0,
    0,
    0,
    0,
    0,
    0,
    0,
    1552,
    1552,
    1552,
    1552,
    1552,
    1552,
    1552,
    0,
    0,
    0,
    0,
    0,
    0,
    0,
    1552,
    0,
    0,
    0,
    0,
    0,
    0,
    0,
    0,
    0,
    0,
    0,
    0,
    0,
    0,
    0,
    0,
    0,
    0,
    0,
    0,
    0,
    0,
    0,
    0,
    0,
    0,
    0,
    0,
    0,
    0,
    0,
    0,
    0,
    0,
    0,
    0,
    0,
    0,
    0,
    0,
    0,
    0,
    0,
    0,
    0,
    0,
    0,
    0,
    0,
    0,
    0,
    0,
    0,
    0,
    0,
    0,
    0,
    0,
    0,
    0,
    0,
    0,
    0,
    0,
    0,
    0,
    0,
    0,
    1552,
    1552,
    1552,
    0,
    1552,
    1552,
    1552,
    0,
    1552,
    1552,
    1552,
    1552,
    1552,
    1552,
    1552,
    1552,
    1552,
    1552,
    1552,
    0,
    0,
    0,
    0,
    0,
    0,
    0,
    0,
    0,
    0,
    0,
    0,
    0,
    0,
    0,
    0,
    0,
    0,
    0,
    0,
    0,
    0,
    0,
    0,
    0,
    0,
    0,
    1552,
    1552,
    1552,
    0,
    1552,
    1552,
    0,
    0,
    0,
    0,
    0,
    0,
    0,
    0,
    1552,
    0,
    0,
    0,
    0,
    0,
    0,
    0,
    0,
    0,
    0,
    0,
    0,
    0,
    0,
    0,
    0,
    0,
    0,
    0,
    0,
    0,
    0,
    0,
    0,
    0,
    0,
    0,
    0,
    0,
    0,
    0,
    0,
    0,
    0,
    0,
    0,
    0,
    0,
    0,
    0,
    0,
    0,
    0,
    0,
    0,
    0,
    0,
    0,
    0,
    0,
    0,
    0,
    0,
    0,
    0,
    0,
    0,
    0,
    0,
    0,
    0,
    0,
    0,
    0,
    0,
    0,
    0,
    1552,
    1552,
    0,
    1552,
    1552,
    1552,
    1552,
    1552,
    1552,
    1552,
    0,
    1552,
    1552,
    0,
    1552,
    1552,
    1552,
    1552,
    0,
    0,
    0,
    0,
    0,
    0,
    0,
    0,
    1552,
    1552,
    1552,
    1552,
    1552,
    0,
    0,
    0,
    0,
    0,
    0,
    0,
    0,
    0,
    0,
    0,
    0,
    0,
    0,
    0,
    0,
    0,
    0,
    0,
    1552,
    0,
    0,
    0,
    0,
    0,
    0,
    0,
    0,
    0,
    0,
    0,
    0,
    0,
    0,
    0,
    0,
    0,
    0,
    0,
    0,
    0,
    0,
    0,
    0,
    0,
    0,
    0,
    0,
    0,
    0,
    0,
    0,
    0,
    0,
    0,
    0,
    1552,
    0,
    0,
    0,
    0,
    0,
    0,
    0,
    0,
    0,
    0,
    0,
    0,
    0,
    0,
    0,
    0,
    0,
    0,
    0,
    0,
    0,
    0,
    0,
    0,
    0,
    0,
    0,
    0,
    0,
    0,
    0,
    0,
    0,
    0,
    0,
    0,
    0,
    0,
    0,
    1552,
    1552,
    0,
    0,
    1552,
    1552,
    1552,
    1552,
    1552,
    1552,
    1552,
    1552,
    1552,
    1552,
    1552,
    1552,
    1552,
    0,
    0,
    0,
    0,
    0,
    0,
    0,
    0,
    0,
    0,
    1552,
    1552,
    1552,
    1552,
    1552,
    1552,
    0,
    0,
    0,
    0,
    0,
    0,
    0,
    0,
    0,
    0,
    0,
    0,
    0,
    0,
    0,
    0,
    0,
    0,
    0,
    0,
    0,
    0,
    0,
    0,
    0,
    0,
    0,
    0,
    0,
    0,
    0,
    0,
    0,
    0,
    0,
    0,
    0,
    0,
    0,
    0,
    0,
    0,
    0,
    0,
    0,
    0,
    0,
    0,
    0,
    0,
    0,
    0,
    0,
    0,
    0,
    0,
    0,
    0,
    0,
    0,
    0,
    0,
    0,
    0,
    0,
    0,
    0,
    0,
    0,
    0,
    0,
    0,
    0,
    0,
    0,
    0,
    0,
    0,
    0,
    0,
    0,
    0,
    0,
    0,
    0,
    0,
    0,
    0,
    0,
    0,
    0,
    1552,
    0,
    0,
    0,
    1552,
    1552,
    0,
    1552,
    1552,
    1552,
    1552,
    1552,
    0,
    1552,
    1552,
    1552,
    1552,
    1552,
    1552,
    1552,
    0,
    1552,
    1552,
    0,
    0,
    0,
    0,
    0,
    0,
    1552,
    1552,
    1552,
    1552,
    0,
    0,
    0,
    1552,
    0,
    0,
    0,
    0,
    1552,
    0,
    1552,
    1552,
    0,
    0,
    0,
    0,
    0,
    0,
    0,
    0,
    0,
    0,
    0,
    0,
    0,
    0,
    0,
    0,
    0,
    0,
    0,
    0,
    0,
    0,
    0,
    0,
    0,
    0,
    0,
    0,
    0,
    0,
    0,
    0,
    0,
    0,
    0,
    0,
    0,
    0,
    0,
    0,
    0,
    0,
    0,
    0,
    0,
    0,
    0,
    0,
    0,
    0,
    0,
    0,
    0,
    0,
    0,
    0,
    0,
    0,
    0,
    0,
    0,
    0,
    0,
    0,
    0,
    0,
    0,
    0,
    0,
    0,
    0,
    0,
    0,
    0,
    0,
    0,
    0,
    0,
    0,
    0,
    0,
    0,
    0,
    0,
    0,
    1552,
    0,
    0,
    0,
    0,
    0,
    1552,
    1552,
    1552,
    1552,
    1552,
    1552,
    1552,
    1552,
    1552,
    1552,
    1552,
    1552,
    1552,
    0,
    0,
    0,
    0,
    0,
    0,
    0,
    1552,
    1552,
    1552,
    1552,
    0,
    0,
    0,
    0,
    0,
    0,
    0,
    0,
    1552,
    1552,
    1552,
    1552,
    1552,
    0,
    1552,
    0,
    0,
    0,
    0,
    0,
    0,
    0,
    0,
    0,
    0,
    0,
    0,
    0,
    0,
    0,
    0,
    0,
    0,
    0,
    0,
    0,
    0,
    0,
    0,
    0,
    0,
    0,
    0,
    0,
    0,
    0,
    0,
    0,
    0,
    0,
    0,
    0,
    0,
    0,
    0,
    0,
    0,
    0,
    0,
    0,
    0,
    0,
    0,
    0,
    0,
    0,
    0,
    0,
    0,
    0,
    0,
    0,
    0,
    0,
    0,
    0,
    0,
    0,
    0,
    0,
    0,
    0,
    0,
    0,
    0,
    0,
    0,
    0,
    0,
    0,
    0,
    0,
    0,
    0,
    0,
    1552,
    0,
    0,
    0,
    0,
    0,
    0,
    0,
    0,
    0,
    0,
    0,
    1552,
    1552,
    1552,
    1552,
    1552,
    1552,
    1552,
    0,
    1552,
    1552,
    0,
    0,
    0,
    0,
    0,
    0,
    0,
    1552,
    1552,
    1552,
    0,
    0,
    0,
    0,
    0,
    0,
    0,
    0,
    0,
    1552,
    1552,
    0,
    1552,
    1552,
    1552,
    1552,
    1552,
    0,
    1552,
    0,
    0,
    0,
    0,
    0,
    0,
    0,
    0,
    0,
    0,
    0,
    0,
    0,
    0,
    0,
    0,
    0,
    0,
    0,
    0,
    0,
    0,
    0,
    0,
    0,
    0,
    0,
    0,
    0,
    0,
    0,
    0,
    0,
    0,
    0,
    0,
    0,
    0,
    0,
    0,
    0,
    0,
    0,
    0,
    0,
    0,
    0,
    0,
    0,
    0,
    0,
    0,
    0,
    0,
    0,
    0,
    0,
    0,
    0,
    0,
    0,
    0,
    0,
    0,
    0,
    0,
    0,
    0,
    0,
    0,
    0,
    0,
    0,
    0,
    0,
    0,
    0,
    0,
    0,
    0,
    0,
    0,
    0,
    0,
    0,
    0,
    0,
    0,
    0,
    0,
    0,
    1552,
    1552,
    1552,
    1552,
    1552,
    1552,
    1552,
    0,
    0,
    0,
    0,
    0,
    0,
    1552,
    0,
    0,
    1552,
    0,
    0,
    0,
    0,
    0,
    0,
    0,
    0,
    0,
    0,
    0,
    0,
    0,
    1552,
    1552,
    0,
    1552,
    1552,
    1552,
    1552,
    0,
    0,
    0,
    0,
    0,
    0,
    0,
    0,
    0,
    0,
    0,
    0,
    0,
    0,
    0,
    0,
    0,
    0,
    0,
    0,
    0,
    0,
    0,
    0,
    0,
    0,
    0,
    0,
    0,
    0,
    0,
    0,
    0,
    0,
    0,
    0,
    0,
    0,
    0,
    0,
    0,
    0,
    0,
    0,
    0,
    0,
    0,
    0,
    0,
    0,
    0,
    0,
    0,
    0,
    0,
    0,
    0,
    0,
    0,
    0,
    0,
    0,
    0,
    0,
    0,
    0,
    0,
    0,
    0,
    0,
    0,
    0,
    0,
    0,
    0,
    0,
    0,
    0,
    0,
    0,
    0,
    0,
    0,
    0,
    0,
    0,
    0,
    0,
    0,
    0,
    1552,
    1552,
    1552,
    1552,
    1552,
    1552,
    1552,
    1552,
    0,
    0,
    0,
    0,
    0,
    0,
    0,
    0,
    1552,
    1552,
    1552,
    0,
    0,
    0,
    0,
    0,
    1552,
    0,
    0,
    0,
    0,
    0,
    0,
    0,
    0,
    0,
    0,
    0,
    1552,
    1552,
    1552,
    1552,
    0,
    0,
    0,
    0,
    0,
    0,
    0,
    0,
    0,
    0,
    0,
    0,
    0,
    0,
    0,
    0,
    0,
    0,
    0,
    0,
    0,
    0,
    0,
    0,
    0,
    0,
    0,
    0,
    0,
    0,
    0,
    0,
    0,
    0,
    0,
    0,
    0,
    0,
    0,
    0,
    0,
    0,
    0,
    0,
    0,
    0,
    0,
    0,
    0,
    0,
    0,
    0,
    0,
    0,
    0,
    0,
    0,
    0,
    0,
    0,
    0,
    0,
    0,
    0,
    0,
    0,
    0,
    0,
    0,
    0,
    0,
    0,
    0,
    0,
    0,
    0,
    0,
    0,
    0,
    0,
    0,
    0,
    0,
    0,
    0,
    0,
    0,
    0,
    1552,
    1552,
    1552,
    1552,
    1552,
    1552,
    0,
    1552,
    0,
    0,
    0,
    0,
    0,
    0,
    1552,
    1552,
    1552,
    1552,
    0,
    0,
    0,
    0,
    0,
    0,
    1552,
    1552,
    1552,
    1552,
    1552,
    1552,
    1552,
    0,
    0,
    0,
    0,
    1552,
    1552,
    0,
    1552,
    1552,
    0,
    0,
    0,
    0,
    0,
    0,
    0,
    0,
    0,
    0,
    0,
    0,
    0,
    0,
    0,
    0,
    0,
    0,
    0,
    0,
    0,
    0,
    0,
    0,
    0,
    0,
    0,
    0,
    0,
    0,
    0,
    0,
    0,
    0,
    0,
    0,
    0,
    0,
    0,
    0,
    1552,
    1552,
    0,
    0,
    0,
    0,
    0,
    0,
    0,
    0,
    0,
    0,
    0,
    0,
    0,
    0,
    0,
    0,
    0,
    0,
    0,
    0,
    0,
    0,
    0,
    0,
    0,
    0,
    0,
    0,
    0,
    0,
    0,
    0,
    0,
    0,
    0,
    0,
    0,
    0,
    0,
    0,
    0,
    0,
    0,
    0,
    0,
    0,
    1552,
    1552,
    1552,
    1552,
    0,
    0,
    0,
    0,
    0,
    0,
    0,
    0,
    1552,
    0,
    1552,
    1552,
    1552,
    0,
    0,
    0,
    1552,
    1552,
    0,
    0,
    0,
    0,
    0,
    0,
    0,
    0,
    1552,
    1552,
    0,
    0,
    0,
    1552,
    1552,
    1552,
    1552,
    0,
    0,
    0,
    0,
    0,
    0,
    0,
    0,
    0,
    0,
    0,
    0,
    0,
    0,
    0,
    0,
    0,
    0,
    0,
    0,
    0,
    0,
    0,
    0,
    0,
    0,
    0,
    0,
    0,
    0,
    0,
    0,
    0,
    0,
    0,
    0,
    0,
    0,
    0,
    1552,
    1552,
    1552,
    0,
    0,
    0,
    0,
    0,
    0,
    0,
    0,
    0,
    0,
    0,
    0,
    0,
    0,
    0,
    0,
    0,
    0,
    0,
    0,
    0,
    0,
    0,
    0,
    0,
    0,
    0,
    0,
    0,
    0,
    0,
    0,
    0,
    0,
    0,
    0,
    0,
    0,
    0,
    0,
    0,
    0,
    0,
    0,
    0,
    0,
    0,
    0,
    1552,
    1552,
    0,
    1552,
    0,
    0,
    0,
    0,
    0,
    0,
    0,
    0,
    1552,
    0,
    1552,
    0,
    0,
    0,
    1552,
    1552,
    0,
    0,
    0,
    0,
    0,
    0,
    0,
    0,
    0,
    0,
    1552,
    0,
    0,
    0,
    0,
    0,
    1552,
    1552,
    1552,
    1552,
    0,
    0,
    0,
    0,
    0,
    0,
    0,
    0,
    0,
    0,
    0,
    0,
    0,
    0,
    0,
    0,
    0,
    0,
    0,
    0,
    0,
    0,
    0,
    0,
    0,
    0,
    0,
    0,
    0,
    0,
    0,
    0,
    0,
    0,
    0,
    0,
    1552,
    1552,
    0,
    0,
    0,
    1552,
    0,
    0,
    0,
    0,
    0,
    0,
    0,
    0,
    0,
    0,
    0,
    0,
    0,
    0,
    0,
    0,
    0,
    0,
    0,
    0,
    0,
    0,
    0,
    0,
    0,
    0,
    0,
    0,
    0,
    0,
    0,
    0,
    0,
    0,
    0,
    0,
    0,
    0,
    0,
    0,
    0,
    0,
    0,
    0,
    0,
    0,
    1552,
    1552,
    0,
    0,
    0,
    0,
    0,
    0,
    0,
    0,
    0,
    0,
    0,
    0,
    0,
    0,
    0,
    0,
    1552,
    0,
    0,
    0,
    0,
    0,
    0,
    0,
    0,
    0,
    0,
    0,
    0,
    1552,
    1552,
    0,
    0,
    0,
    0,
    1552,
    1552,
    0,
    0,
    0,
    0,
    0,
    0,
    0,
    0,
    0,
    0,
    0,
    0,
    0,
    0,
    0,
    0,
    0,
    0,
    0,
    0,
    0,
    0,
    0,
    0,
    0,
    0,
    0,
    0,
    0,
    0,
    0,
    0,
    0,
    0,
    0,
    0,
    0,
    1552,
    1552,
    1552,
    1552,
    0,
    0,
    0,
    0,
    0,
    0,
    0,
    0,
    0,
    0,
    0,
    0,
    0,
    0,
    0,
    0,
    0,
    0,
    0,
    0,
    0,
    0,
    0,
    0,
    0,
    0,
    0,
    0,
    0,
    0,
    0,
    0,
    0,
    0,
    0,
    0,
    1552,
    0,
    1552,
    0,
    0,
    0,
    0,
    0,
    0,
    0,
    0,
    1552,
    0,
    0,
    0,
    0,
    0,
    0,
    0,
    0,
    0,
    0,
    0,
    0,
    0,
    0,
    0,
    0,
    1552,
    1552,
    0,
    0,
    0,
    0,
    0,
    0,
    0,
    0,
    0,
    0,
    0,
    0,
    0,
    0,
    1552,
    1552,
    0,
    0,
    0,
    1552,
    1552,
    0,
    0,
    0,
    0,
    0,
    0,
    0,
    0,
    0,
    0,
    0,
    0,
    0,
    0,
    0,
    0,
    0,
    0,
    0,
    0,
    0,
    0,
    0,
    0,
    0,
    0,
    0,
    0,
    0,
    0,
    0,
    0,
    0,
    0,
    0,
    0,
    0,
    0,
    0,
    1552,
    0,
    0,
    0,
    0,
    0,
    0,
    0,
    0,
    0,
    0,
    0,
    0,
    0,
    0,
    0,
    0,
    0,
    0,
    0,
    0,
    0,
    0,
    0,
    0,
    0,
    0,
    0,
    0,
    0,
    0,
    0,
    0,
    0,
    0,
    0,
    0,
    1552,
    1552,
    1552,
    0,
    0,
    0,
    0,
    0,
    0,
    0,
    0,
    0,
    0,
    0,
    0,
    0,
    0,
    0,
    0,
    0,
    0,
    0,
    0,
    0,
    0,
    0,
    0,
    0,
    1552,
    1552,
    0,
    0,
    0,
    0,
    0,
    0,
    0,
    0,
    0,
    0,
    0,
    0,
    0,
    0,
    0,
    0,
    1552,
    0,
    0,
    0,
    0,
    0,
    0,
    0,
    0,
    0,
    0,
    0,
    0,
    0,
    0,
    0,
    0,
    0,
    0,
    0,
    0,
    0,
    0,
    0,
    0,
    0,
    0,
    0,
    0,
    0,
    0,
    0,
    0,
    0,
    0,
    0,
    0,
    0,
    0,
    0,
    0,
    0,
    0,
    0,
    0,
    0,
    0,
    0,
    0,
    0,
    0,
    0,
    0,
    0,
    0,
    0,
    0,
    0,
    0,
    0,
    0,
    0,
    0,
    0,
    0,
    0,
    0,
    0,
    0,
    0,
    0,
    0,
    0,
    0,
    0,
    0,
    0,
    0,
    0,
    0,
    0,
    0,
    0,
    1552,
    1552,
    1552,
    0,
    0,
    0,
    0,
    0,
    0,
    0,
    1552,
    0,
    1552,
    1552,
    1552,
    0,
    0,
    0,
    0,
    0,
    0,
    0,
    0,
    0,
    0,
    1552,
    1552,
    0,
    0,
    0,
    0,
    1552,
    1552,
    1552,
    1552,
    1552,
    1552,
    1552,
    1552,
    1552,
    1552,
    0,
    0,
    0,
    0,
    0,
    1552,
    1552,
    0,
    0,
    0,
    0,
    0,
    0,
    0,
    0,
    0,
    0,
    0,
    0,
    0,
    0,
    0,
    0,
    0,
    0,
    0,
    0,
    0,
    0,
    0,
    0,
    0,
    0,
    0,
    0,
    0,
    0,
    0,
    0,
    0,
    0,
    0,
    0,
    0,
    0,
    0,
    0,
    0,
    0,
    0,
    0,
    0,
    0,
    0,
    0,
    0,
    0,
    0,
    0,
    0,
    0,
    0,
    0,
    0,
    0,
    0,
    0,
    0,
    0,
    0,
    0,
    0,
    0,
    0,
    0,
    0,
    0,
    0,
    0,
    0,
    0,
    0,
    0,
    0,
    0,
    0,
    1552,
    1552,
    1552,
    0,
    0,
    0,
    0,
    0,
    0,
    0,
    0,
    0,
    1552,
    1552,
    1552,
    1552,
    1552,
    0,
    0,
    0,
    0,
    0,
    0,
    0,
    0,
    1552,
    0,
    0,
    0,
    0,
    0,
    1552,
    1552,
    0,
    0,
    0,
    0,
    0,
    0,
    1552,
    1552,
    0,
    0,
    0,
    0,
    0,
    0,
    0,
    1552,
    1552,
    0,
    0,
    0,
    0,
    0,
    0,
    0,
    0,
    0,
    0,
    0,
    0,
    0,
    0,
    1552,
    0,
    0,
    0,
    0,
    0,
    0,
    0,
    0,
    0,
    0,
    0,
    0,
    0,
    0,
    0,
    0,
    0,
    0,
    0,
    0,
    0,
    0,
    0,
    0,
    0,
    0,
    0,
    0,
    0,
    0,
    0,
    0,
    0,
    0,
    0,
    0,
    0,
    0,
    0,
    0,
    0,
    0,
    0,
    0,
    0,
    0,
    0,
    0,
    0,
    0,
    0,
    0,
    0,
    0,
    0,
    0,
    0,
    0,
    0,
    0,
    0,
    1552,
    0,
    1552,
    0,
    1552,
    0,
    0,
    0,
    0,
    0,
    0,
    0,
    0,
    0,
    1552,
    1552,
    1552,
    1552,
    1552,
    0,
    0,
    0,
    0,
    0,
    0,
    0,
    0,
    1552,
    0,
    0,
    0,
    0,
    0,
    1552,
    0,
    0,
    0,
    0,
    0,
    0,
    0,
    0,
    0,
    0,
    0,
    0,
    0,
    0,
    0,
    0,
    1552,
    1552,
    0,
    0,
    0,
    0,
    0,
    0,
    0,
    0,
    0,
    0,
    0,
    0,
    0,
    0,
    1552,
    1552,
    0,
    0,
    0,
    0,
    0,
    0,
    0,
    0,
    0,
    0,
    0,
    0,
    0,
    0,
    0,
    0,
    0,
    0,
    0,
    0,
    0,
    0,
    0,
    0,
    0,
    0,
    0,
    0,
    0,
    0,
    0,
    0,
    0,
    0,
    0,
    0,
    0,
    0,
    0,
    0,
    0,
    0,
    0,
    0,
    0,
    0,
    0,
    0,
    0,
    0,
    0,
    0,
    0,
    0,
    0,
    0,
    0,
    0,
    0,
    0,
    0,
    0,
    0,
    0,
    0,
    0,
    0,
    0,
    0,
    0,
    0,
    0,
    0,
    0,
    1552,
    1552,
    1552,
    0,
    1552,
    1552,
    0,
    0,
    0,
    0,
    0,
    0,
    1552,
    1552,
    0,
    0,
    0,
    0,
    1552,
    1552,
    0,
    0,
    1552,
    0,
    0,
    1552,
    0,
    1552,
    1552,
    0,
    0,
    0,
    0,
    0,
    0,
    0,
    1552,
    1552,
    0,
    0,
    0,
    0,
    0,
    0,
    0,
    0,
    0,
    0,
    0,
    0,
    0,
    0,
    0,
    0,
    0,
    0,
    0,
    0,
    0,
    0,
    0,
    0,
    0,
    0,
    0,
    0,
    0,
    0,
    0,
    0,
    0,
    0,
    0,
    0,
    0,
    0,
    0,
    0,
    0,
    0,
    0,
    0,
    0,
    0,
    0,
    0,
    0,
    0,
    0,
    0,
    0,
    0,
    0,
    0,
    0,
    0,
    0,
    0,
    0,
    0,
    0,
    0,
    0,
    0,
    0,
    0,
    0,
    0,
    0,
    0,
    0,
    0,
    0,
    0,
    0,
    0,
    1552,
    0,
    1552,
    1552,
    0,
    0,
    0,
    0,
    0,
    0,
    0,
    0,
    0,
    1552,
    1552,
    1552,
    0,
    0,
    0,
    0,
    0,
    0,
    0,
    0,
    1552,
    1552,
    0,
    0,
    0,
    0,
    1552,
    1552,
    0,
    0,
    0,
    1552,
    1552,
    1552,
    0,
    1552,
    1552,
    0,
    0,
    0,
    0,
    0,
    0,
    0,
    1552,
    1552,
    0,
    0,
    0,
    0,
    0,
    0,
    0,
    0,
    0,
    0,
    0,
    0,
    0,
    0,
    0,
    0,
    0,
    0,
    0,
    0,
    0,
    0,
    0,
    0,
    0,
    0,
    0,
    0,
    0,
    0,
    0,
    0,
    0,
    0,
    0,
    0,
    0,
    0,
    0,
    0,
    0,
    0,
    0,
    0,
    0,
    0,
    0,
    0,
    0,
    0,
    0,
    0,
    0,
    0,
    0,
    0,
    0,
    0,
    0,
    0,
    0,
    0,
    0,
    0,
    0,
    0,
    0,
    0,
    0,
    0,
    0,
    0,
    0,
    0,
    0,
    0,
    0,
    0,
    0,
    0,
    1552,
    1552,
    0,
    0,
    0,
    0,
    0,
    0,
    0,
    0,
    1552,
    1552,
    1552,
    1552,
    1552,
    1552,
    0,
    0,
    0,
    0,
    0,
    0,
    1552,
    1552,
    0,
    0,
    0,
    0,
    1552,
    1552,
    0,
    0,
    1552,
    0,
    1552,
    1552,
    1552,
    1552,
    0,
    1552,
    0,
    0,
    0,
    0,
    0,
    0,
    1552,
    1552,
    0,
    0,
    0,
    0,
    0,
    0,
    0,
    0,
    0,
    0,
    0,
    0,
    0,
    0,
    0,
    0,
    0,
    0,
    0,
    0,
    0,
    0,
    0,
    0,
    0,
    0,
    0,
    0,
    0,
    0,
    0,
    0,
    0,
    0,
    0,
    0,
    0,
    0,
    0,
    0,
    0,
    0,
    0,
    0,
    0,
    0,
    0,
    0,
    0,
    0,
    0,
    0,
    0,
    0,
    0,
    0,
    0,
    0,
    0,
    0,
    0,
    0,
    0,
    0,
    0,
    0,
    0,
    0,
    0,
    0,
    0,
    0,
    0,
    0,
    0,
    0,
    0,
    0,
    0,
    0,
    1552,
    1552,
    1552,
    0,
    0,
    0,
    0,
    0,
    0,
    0,
    0,
    1552,
    1552,
    1552,
    1552,
    0,
    1552,
    0,
    0,
    0,
    0,
    0,
    0,
    1552,
    1552,
    0,
    0,
    0,
    0,
    1552,
    1552,
    0,
    0,
    0,
    1552,
    1552,
    1552,
    1552,
    0,
    0,
    0,
    0,
    0,
    0,
    0,
    1552,
    1552,
    0,
    0,
    0,
    0,
    0,
    0,
    0,
    0,
    0,
    0,
    0,
    0,
    0,
    0,
    0,
    0,
    0,
    0,
    0,
    0,
    0,
    0,
    0,
    0,
    0,
    0,
    0,
    0,
    0,
    0,
    0,
    0,
    0,
    0,
    0,
    0,
    0,
    0,
    0,
    0,
    0,
    0,
    0,
    0,
    0,
    0,
    0,
    0,
    0,
    0,
    0,
    0,
    0,
    0,
    0,
    0,
    0,
    0,
    0,
    0,
    0,
    0,
    0,
    0,
    0,
    0,
    0,
    0,
    0,
    0,
    0,
    0,
    0,
    0,
    0,
    0,
    0,
    0,
    0,
    0,
    0,
    0,
    1552,
    1552,
    0,
    0,
    0,
    0,
    0,
    0,
    0,
    1552,
    1552,
    1552,
    1552,
    1552,
    0,
    0,
    0,
    0,
    0,
    1552,
    0,
    0,
    1552,
    1552,
    1552,
    0,
    0,
    0,
    1552,
    1552,
    1552,
    0,
    1552,
    0,
    1552,
    1552,
    0,
    1552,
    0,
    0,
    0,
    0,
    1552,
    1552,
    1552,
    1552,
    0,
    0,
    0,
    0,
    0,
    0,
    0,
    0,
    0,
    0,
    0,
    0,
    0,
    0,
    0,
    0,
    0,
    0,
    0,
    0,
    0,
    0,
    0,
    0,
    0,
    0,
    0,
    0,
    0,
    0,
    0,
    0,
    0,
    0,
    0,
    0,
    0,
    0,
    0,
    0,
    0,
    0,
    0,
    0,
    0,
    0,
    0,
    0,
    0,
    0,
    0,
    0,
    0,
    0,
    0,
    0,
    0,
    0,
    0,
    0,
    0,
    0,
    0,
    0,
    0,
    0,
    0,
    0,
    0,
    0,
    0,
    0,
    0,
    0,
    0,
    0,
    0,
    0,
    0,
    0,
    0,
    0,
    0,
    1552,
    0,
    0,
    0,
    0,
    0,
    0,
    0,
    0,
    0,
    1552,
    0,
    0,
    0,
    0,
    0,
    0,
    0,
    1552,
    1552,
    1552,
    0,
    1552,
    1552,
    0,
    0,
    1552,
    0,
    1552,
    1552,
    0,
    0,
    0,
    1552,
    1552,
    0,
    0,
    0,
    0,
    0,
    1552,
    1552,
    1552,
    0,
    0,
    0,
    0,
    0,
    0,
    0,
    0,
    0,
    0,
    0,
    0,
    0,
    0,
    0,
    0,
    0,
    0,
    0,
    0,
    0,
    0,
    0,
    0,
    0,
    0,
    0,
    0,
    0,
    0,
    0,
    0,
    0,
    0,
    0,
    0,
    0,
    0,
    0,
    0,
    0,
    0,
    0,
    0,
    0,
    0,
    0,
    0,
    0,
    0,
    0,
    0,
    0,
    1552,
    0,
    1552,
    0,
    0,
    0,
    0,
    0,
    0,
    0,
    0,
    0,
    0,
    0,
    0,
    0,
    0,
    0,
    0,
    0,
    0,
    0,
    0,
    0,
    0,
    0,
    0,
    0,
    0,
    0,
    0,
    0,
    0,
    0,
    0,
    0,
    0,
    0,
    0,
    0,
    0,
    0,
    0,
    0,
    0,
    0,
    0,
    0,
    0,
    0,
    0,
    1552,
    1552,
    0,
    1552,
    1552,
    1552,
    1552,
    1552,
    0,
    1552,
    1552,
    0,
    0,
    0,
    0,
    0,
    1552,
    0,
    0,
    0,
    0,
    1552,
    0,
    0,
    0,
    0,
    0,
    0,
    0,
    0,
    0,
    0,
    0,
    0,
    0,
    0,
    0,
    0,
    0,
    0,
    0,
    0,
    0,
    0,
    0,
    0,
    0,
    0,
    0,
    0,
    0,
    0,
    0,
    0,
    0,
    0,
    0,
    0,
    0,
    0,
    0,
    0,
    0,
    0,
    0,
    0,
    0,
    0,
    0,
    0,
    0,
    0,
    0,
    0,
    0,
    0,
    0,
    0,
    0,
    1552,
    1552,
    0,
    0,
    0,
    0,
    0,
    0,
    0,
    0,
    0,
    0,
    0,
    0,
    0,
    0,
    0,
    0,
    0,
    0,
    0,
    0,
    0,
    0,
    0,
    0,
    0,
    0,
    0,
    0,
    0,
    0,
    0,
    0,
    0,
    0,
    0,
    0,
    0,
    0,
    0,
    0,
    0,
    0,
    0,
    0,
    0,
    0,
    1552,
    0,
    0,
    0,
    0,
    1552,
    1552,
    1552,
    0,
    0,
    1552,
    1552,
    0,
    0,
    1552,
    0,
    0,
    0,
    0,
    0,
    0,
    0,
    0,
    0,
    0,
    0,
    0,
    0,
    0,
    0,
    0,
    0,
    0,
    0,
    0,
    0,
    0,
    0,
    0,
    0,
    0,
    0,
    0,
    0,
    0,
    0,
    0,
    0,
    0,
    0,
    0,
    0,
    0,
    0,
    0,
    0,
    0,
    0,
    0,
    0,
    0,
    0,
    0,
    0,
    0,
    0,
    0,
    0,
    0,
    0,
    0,
    0,
    0,
    0,
    0,
    0,
    0,
    0,
    0,
    0,
    0,
    0,
    0,
    0,
    0,
    0,
    0,
    0,
    0,
    0,
    0,
    0,
    0,
    0,
    0,
    0,
    0,
    0,
    0,
    0,
    0,
    0,
    0,
    0,
    0,
    0,
    0,
    0,
    0,
    0,
    0,
    0,
    0,
    0,
    0,
    0,
    0,
    0,
    0,
    0,
    0,
    0,
    0,
    0,
    0,
    0,
    0,
    0,
    0,
    0,
    0,
    1552,
    0,
    0,
    0,
    0,
    0,
    0,
    1552,
    1552,
    0,
    0,
    0,
    0,
    0,
    0,
    1552,
    0,
    0,
    0,
    0,
    0,
    0,
    0,
    0,
    0,
    0,
    0,
    0,
    0,
    0,
    0,
    0,
    0,
    0,
    1552,
    0,
    0,
    0,
    0,
    1552,
    0,
    0,
    1552,
    0,
    0,
    0,
    0,
    0,
    0,
    0,
    0,
    0,
    0,
    1552,
    0,
    0,
    0,
    0,
    0,
    0,
    0,
    0,
    0,
    0,
    0,
    0,
    0,
    0,
    0,
    0,
    0,
    0,
    0,
    0,
    0,
    0,
    0,
    0,
    0,
    0,
    0,
    0,
    0,
    0,
    0,
    0,
    0,
    0,
    0,
    0,
    0,
    0,
    0,
    0,
    0,
    0,
    0,
    0,
    0,
    0,
    0,
    0,
    0,
    0,
    0,
    0,
    0,
    0,
    0,
    0,
    0,
    0,
    0,
    0,
    0,
    0,
    0,
    0,
    0,
    0,
    0,
    0,
    0,
    1552,
    0,
    0,
    0,
    0,
    0,
    0,
    0,
    0,
    0,
    0,
    0,
    1552,
    1552,
    0,
    0,
    0,
    0,
    0,
    1552,
    1552,
    0,
    0,
    0,
    0,
    0,
    0,
    0,
    0,
    0,
    0,
    0,
    0,
    0,
    0,
    0,
    0,
    0,
    0,
    0,
    0,
    0,
    1552,
    1552,
    0,
    1552,
    1552,
    0,
    0,
    0,
    0,
    0,
    0,
    0,
    0,
    0,
    0,
    0,
    0,
    0,
    0,
    0,
    0,
    0,
    0,
    0,
    0,
    0,
    0,
    0,
    0,
    0,
    0,
    0,
    0,
    0,
    0,
    0,
    0,
    0,
    0,
    0,
    0,
    0,
    0,
    0,
    0,
    0,
    0,
    0,
    0,
    0,
    0,
    0,
    0,
    0,
    0,
    0,
    0,
    0,
    0,
    0,
    0,
    0,
    0,
    0,
    0,
    0,
    0,
    0,
    0,
    0,
    0,
    0,
    0,
    0,
    0,
    0,
    0,
    0,
    0,
    0,
    0,
    0,
    0,
    0,
    0,
    1552,
    1552,
    0,
    0,
    0,
    0,
    0,
    0,
    0,
    0,
    0,
    0,
    0,
    1552,
    1552,
    0,
    0,
    0,
    0,
    1552,
    1552,
    0,
    0,
    0,
    0,
    0,
    0,
    0,
    0,
    0,
    0,
    0,
    0,
    0,
    0,
    0,
    0,
    0,
    0,
    1552,
    0,
    1552,
    1552,
    1552,
    1552,
    1552,
    1552,
    1552,
    1552,
    1552,
    1552,
    1552,
    0,
    0,
    0,
    0,
    0,
    0,
    0,
    0,
    0,
    0,
    0,
    0,
    0,
    0,
    0,
    0,
    0,
    0,
    0,
    0,
    0,
    0,
    0,
    0,
    0,
    0,
    0,
    0,
    0,
    0,
    0,
    0,
    0,
    0,
    0,
    0,
    0,
    0,
    0,
    0,
    0,
    0,
    0,
    0,
    0,
    0,
    0,
    0,
    0,
    0,
    0,
    0,
    0,
    0,
    0,
    0,
    0,
    0,
    0,
    0,
    0,
    0,
    0,
    0,
    0,
    0,
    0,
    0,
    0,
    0,
    0,
    0,
    0,
    0,
    0,
    0,
    0,
    0,
    0,
    0,
    0,
    0,
    0,
    0,
    0,
    0,
    0,
    0,
    0,
    1552,
    1552,
    0,
    0,
    0,
    0,
    1552,
    1552,
    0,
    0,
    0,
    0,
    0,
    0,
    0,
    0,
    0,
    0,
    0,
    0,
    0,
    0,
    0,
    0,
    0,
    0,
    0,
    1552,
    1552,
    1552,
    0,
    1552,
    1552,
    1552,
    1552,
    1552,
    1552,
    1552,
    1552,
    0,
    1552,
    0,
    0,
    0,
    0,
    0,
    0,
    0,
    0,
    0,
    0,
    0,
    0,
    0,
    0,
    0,
    0,
    0,
    0,
    0,
    0,
    0,
    0,
    0,
    0,
    0,
    0,
    0,
    0,
    0,
    0,
    0,
    0,
    0,
    0,
    0,
    0,
    0,
    0,
    0,
    0,
    0,
    0,
    0,
    0,
    0,
    0,
    0,
    0,
    0,
    0,
    0,
    0,
    0,
    0,
    0,
    0,
    0,
    0,
    0,
    0,
    0,
    0,
    0,
    0,
    0,
    0,
    0,
    0,
    0,
    0,
    0,
    0,
    0,
    0,
    0,
    0,
    0,
    0,
    0,
    0,
    0,
    0,
    0,
    0,
    0,
    0,
    0,
    0,
    1552,
    1552,
    0,
    0,
    0,
    1552,
    1552,
    0,
    0,
    1552,
    0,
    0,
    0,
    0,
    0,
    0,
    0,
    0,
    0,
    1552,
    0,
    0,
    0,
    1552,
    0,
    1552,
    1552,
    1552,
    1552,
    1552,
    1552,
    1552,
    1552,
    1552,
    1552,
    0,
    1552,
    1552,
    1552,
    1552,
    0,
    0,
    0,
    0,
    0,
    0,
    0,
    0,
    0,
    0,
    0,
    0,
    0,
    0,
    0,
    0,
    0,
    0,
    0,
    0,
    0,
    0,
    0,
    0,
    0,
    0,
    0,
    0,
    0,
    0,
    0,
    0,
    0,
    0,
    0,
    0,
    0,
    0,
    0,
    0,
    0,
    0,
    0,
    0,
    0,
    0,
    0,
    0,
    0,
    0,
    0,
    0,
    0,
    0,
    0,
    0,
    0,
    0,
    0,
    0,
    0,
    0,
    0,
    0,
    0,
    1552,
    1552,
    0,
    0,
    0,
    0,
    0,
    0,
    0,
    0,
    0,
    0,
    0,
    0,
    0,
    0,
    0,
    0,
    0,
    0,
    0,
    0,
    0,
    1552,
    1552,
    1552,
    0,
    0,
    1552,
    1552,
    0,
    0,
    0,
    0,
    0,
    0,
    1552,
    0,
    0,
    0,
    0,
    0,
    0,
    0,
    0,
    0,
    0,
    1552,
    1552,
    1552,
    0,
    1552,
    1552,
    0,
    1552,
    1552,
    1552,
    1552,
    0,
    1552,
    1552,
    1552,
    1552,
    0,
    0,
    0,
    0,
    0,
    0,
    0,
    0,
    0,
    0,
    0,
    0,
    0,
    0,
    0,
    0,
    0,
    0,
    0,
    0,
    0,
    0,
    0,
    0,
    0,
    0,
    0,
    0,
    0,
    0,
    0,
    0,
    0,
    0,
    0,
    0,
    0,
    0,
    0,
    0,
    0,
    0,
    0,
    0,
    0,
    0,
    0,
    0,
    0,
    0,
    0,
    0,
    0,
    0,
    0,
    0,
    0,
    0,
    0,
    0,
    0,
    0,
    0,
    0,
    0,
    1552,
    1552,
    0,
    0,
    0,
    0,
    0,
    0,
    0,
    0,
    0,
    0,
    0,
    0,
    1552,
    0,
    0,
    0,
    0,
    0,
    0,
    0,
    0,
    0,
    1552,
    1552,
    0,
    0,
    1552,
    1552,
    0,
    0,
    0,
    0,
    0,
    0,
    0,
    0,
    0,
    1552,
    1552,
    0,
    1552,
    1552,
    0,
    0,
    0,
    0,
    0,
    1552,
    1552,
    1552,
    1552,
    1552,
    1552,
    1552,
    0,
    1552,
    1552,
    0,
    1552,
    1552,
    1552,
    1552,
    0,
    0,
    0,
    0,
    0,
    0,
    0,
    0,
    0,
    0,
    0,
    0,
    0,
    0,
    0,
    0,
    0,
    0,
    0,
    0,
    0,
    0,
    0,
    0,
    0,
    0,
    0,
    0,
    0,
    0,
    0,
    0,
    0,
    0,
    0,
    0,
    0,
    0,
    0,
    0,
    0,
    0,
    0,
    0,
    0,
    0,
    0,
    0,
    0,
    0,
    0,
    0,
    0,
    0,
    0,
    0,
    0,
    0,
    0,
    0,
    0,
    0,
    0,
    1552,
    1552,
    1552,
    0,
    0,
    0,
    0,
    0,
    0,
    0,
    0,
    0,
    0,
    0,
    0,
    0,
    0,
    0,
    0,
    0,
    0,
    0,
    0,
    0,
    0,
    1552,
    1552,
    1552,
    1552,
    1552,
    0,
    0,
    0,
    0,
    0,
    1552,
    0,
    0,
    0,
    0,
    1552,
    1552,
    0,
    1552,
    1552,
    1552,
    1552,
    0,
    0,
    1552,
    1552,
    1552,
    1552,
    1552,
    1552,
    1552,
    0,
    1552,
    1552,
    1552,
    1552,
    1552,
    1552,
    1552,
    1552,
    1552,
    0,
    0,
    0,
    0,
    0,
    0,
    0,
    0,
    0,
    0,
    0,
    0,
    0,
    0,
    0,
    0,
    0,
    0,
    0,
    0,
    0,
    0,
    0,
    0,
    0,
    0,
    0,
    0,
    0,
    0,
    0,
    0,
    0,
    0,
    0,
    0,
    0,
    0,
    0,
    0,
    0,
    0,
    0,
    0,
    0,
    0,
    0,
    0,
    0,
    0,
    0,
    0,
    0,
    0,
    0,
    0,
    0,
    1552,
    0,
    1552,
    0,
    1552,
    1552,
    1552,
    1552,
    0,
    0,
    0,
    0,
    0,
    0,
    0,
    0,
    0,
    0,
    0,
    0,
    0,
    0,
    0,
    0,
    0,
    0,
    0,
    0,
    0,
    0,
    0,
    1552,
    1552,
    1552,
    1552,
    0,
    0,
    0,
    0,
    0,
    0,
    0,
    0,
    0,
    1552,
    0,
    1552,
    1552,
    0,
    1552,
    1552,
    1552,
    0,
    0,
    0,
    0,
    0,
    1552,
    1552,
    1552,
    1552,
    1552,
    1552,
    1552,
    1552,
    1552,
    0,
    1552,
    0,
    1552,
    1552,
    0,
    1552,
    0,
    0,
    0,
    0,
    0,
    0,
    0,
    0,
    0,
    0,
    0,
    0,
    0,
    0,
    0,
    0,
    0,
    0,
    0,
    0,
    0,
    0,
    0,
    0,
    0,
    0,
    0,
    0,
    0,
    0,
    0,
    0,
    0,
    0,
    0,
    0,
    0,
    0,
    0,
    0,
    0,
    0,
    0,
    0,
    0,
    0,
    0,
    0,
    0,
    0,
    0,
    0,
    0,
    0,
    0,
    0,
    0,
    0,
    1552,
    1552,
    1552,
    1552,
    1552,
    0,
    0,
    0,
    0,
    0,
    0,
    0,
    0,
    0,
    0,
    0,
    0,
    0,
    0,
    0,
    0,
    0,
    0,
    0,
    0,
    0,
    0,
    0,
    0,
    0,
    0,
    0,
    0,
    0,
    0,
    0,
    0,
    0,
    0,
    0,
    0,
    0,
    1552,
    1552,
    1552,
    1552,
    1552,
    1552,
    1552,
    1552,
    0,
    0,
    0,
    0,
    1552,
    1552,
    1552,
    1552,
    1552,
    1552,
    1552,
    1552,
    1552,
    1552,
    1552,
    1552,
    1552,
    1552,
    1552,
    0,
    1552,
    1552,
    0,
    0,
    0,
    0,
    0,
    0,
    0,
    0,
    0,
    0,
    0,
    0,
    0,
    0,
    0,
    0,
    0,
    0,
    0,
    0,
    0,
    0,
    0,
    0,
    0,
    0,
    0,
    0,
    0,
    0,
    0,
    0,
    0,
    0,
    0,
    0,
    0,
    0,
    0,
    0,
    0,
    0,
    0,
    0,
    0,
    0,
    0,
    0,
    0,
    0,
    0,
    0,
    0,
    0,
    0,
    1552,
    1552,
    1552,
    1552,
    1552,
    1552,
    0,
    0,
    0,
    0,
    0,
    0,
    0,
    0,
    0,
    0,
    0,
    0,
    0,
    0,
    0,
    0,
    0,
    0,
    0,
    0,
    0,
    0,
    0,
    0,
    0,
    0,
    0,
    0,
    0,
    0,
    0,
    0,
    0,
    0,
    0,
    1552,
    1552,
    1552,
    1552,
    1552,
    1552,
    1552,
    1552,
    1552,
    0,
    1552,
    1552,
    1552,
    0,
    0,
    0,
    0,
    1552,
    1552,
    1552,
    1552,
    1552,
    1552,
    1552,
    1552,
    1552,
    1552,
    1552,
    1552,
    0,
    1552,
    1552,
    0,
    0,
    0,
    0,
    0,
    0,
    0,
    0,
    0,
    0,
    0,
    0,
    0,
    0,
    0,
    0,
    0,
    0,
    0,
    0,
    0,
    0,
    0,
    0,
    0,
    0,
    0,
    0,
    0,
    0,
    0,
    0,
    0,
    0,
    0,
    0,
    0,
    0,
    0,
    0,
    0,
    0,
    0,
    0,
    0,
    0,
    0,
    0,
    0,
    0,
    0,
    0,
    0,
    0,
    0,
    1552,
    1552,
    0,
    1552,
    1552,
    1552,
    0,
    0,
    0,
    0,
    0,
    0,
    0,
    0,
    0,
    0,
    0,
    0,
    0,
    0,
    0,
    0,
    0,
    0,
    0,
    0,
    0,
    0,
    0,
    0,
    0,
    0,
    0,
    0,
    0,
    0,
    0,
    0,
    0,
    0,
    0,
    0,
    0,
    0,
    1552,
    1552,
    1552,
    1552,
    1552,
    1552,
    1552,
    1552,
    1552,
    1552,
    1552,
    0,
    0,
    0,
    0,
    1552,
    1552,
    1552,
    1552,
    1552,
    1552,
    1552,
    1552,
    1552,
    1552,
    1552,
    1552,
    1552,
    0,
    1552,
    1552,
    0,
    0,
    0,
    0,
    0,
    0,
    0,
    0,
    0,
    0,
    0,
    0,
    0,
    0,
    0,
    0,
    0,
    0,
    0,
    0,
    0,
    0,
    0,
    0,
    0,
    0,
    0,
    0,
    0,
    0,
    0,
    0,
    0,
    0,
    0,
    0,
    0,
    0,
    0,
    0,
    0,
    0,
    0,
    0,
    0,
    0,
    0,
    0,
    0,
    0,
    0,
    0,
    1552,
    1552,
    1552,
    1552,
    1552,
    1552,
    0,
    0,
    0,
    0,
    0,
    0,
    0,
    0,
    0,
    0,
    0,
    0,
    0,
    0,
    0,
    0,
    0,
    0,
    0,
    0,
    0,
    0,
    0,
    0,
    0,
    0,
    0,
    0,
    0,
    0,
    0,
    0,
    0,
    0,
    0,
    0,
    1552,
    0,
    0,
    0,
    1552,
    1552,
    1552,
    1552,
    1552,
    1552,
    1552,
    1552,
    1552,
    1552,
    1552,
    0,
    1552,
    0,
    0,
    0,
    1552,
    1552,
    1552,
    1552,
    1552,
    1552,
    1552,
    1552,
    1552,
    1552,
    1552,
    0,
    1552,
    1552,
    0,
    0,
    0,
    0,
    0,
    0,
    0,
    0,
    0,
    0,
    0,
    0,
    0,
    0,
    0,
    0,
    0,
    0,
    0,
    0,
    0,
    0,
    0,
    0,
    0,
    0,
    0,
    0,
    0,
    0,
    0,
    0,
    0,
    0,
    0,
    0,
    0,
    0,
    0,
    0,
    0,
    0,
    0,
    0,
    0,
    0,
    0,
    0,
    0,
    0,
    0,
    1552,
    0,
    1552,
    1552,
    1552,
    1552,
    1552,
    1552,
    1552,
    0,
    0,
    0,
    0,
    0,
    0,
    0,
    0,
    0,
    0,
    0,
    0,
    0,
    0,
    0,
    0,
    0,
    0,
    0,
    0,
    0,
    0,
    0,
    0,
    0,
    0,
    0,
    0,
    0,
    0,
    0,
    0,
    0,
    0,
    0,
    0,
    0,
    1552,
    1552,
    1552,
    1552,
    1552,
    0,
    1552,
    1552,
    1552,
    1552,
    1552,
    1552,
    1552,
    1552,
    1552,
    1552,
    0,
    0,
    1552,
    1552,
    1552,
    1552,
    1552,
    1552,
    1552,
    1552,
    1552,
    0,
    1552,
    1552,
    0,
    0,
    0,
    0,
    0,
    0,
    0,
    0,
    0,
    0,
    0,
    0,
    0,
    0,
    0,
    0,
    0,
    0,
    0,
    0,
    0,
    0,
    0,
    0,
    0,
    0,
    0,
    0,
    0,
    0,
    0,
    0,
    0,
    0,
    0,
    0,
    0,
    0,
    0,
    0,
    0,
    0,
    0,
    0,
    0,
    0,
    0,
    0,
    0,
    0,
    0,
    0,
    0,
    0,
    0,
    1552,
    0,
    1552,
    1552,
    1552,
    0,
    1552,
    1552,
    0,
    0,
    0,
    0,
    0,
    0,
    0,
    0,
    0,
    0,
    0,
    0,
    0,
    0,
    0,
    0,
    0,
    0,
    0,
    0,
    0,
    0,
    0,
    0,
    0,
    0,
    0,
    0,
    0,
    0,
    0,
    0,
    0,
    0,
    0,
    0,
    0,
    0,
    0,
    1552,
    1552,
    1552,
    1552,
    1552,
    1552,
    1552,
    1552,
    1552,
    1552,
    1552,
    1552,
    1552,
    0,
    0,
    1552,
    1552,
    1552,
    1552,
    1552,
    1552,
    1552,
    1552,
    0,
    1552,
    1552,
    0,
    0,
    0,
    0,
    0,
    0,
    0,
    0,
    0,
    0,
    0,
    0,
    0,
    0,
    0,
    0,
    0,
    0,
    0,
    0,
    0,
    0,
    0,
    0,
    0,
    0,
    0,
    0,
    0,
    0,
    0,
    0,
    0,
    0,
    0,
    0,
    0,
    0,
    0,
    0,
    0,
    0,
    0,
    0,
    0,
    0,
    0,
    0,
    0,
    0,
    0,
    0,
    0,
    1552,
    0,
    1552,
    1552,
    1552,
    1552,
    1552,
    1552,
    1552,
    1552,
    0,
    0,
    0,
    0,
    0,
    0,
    0,
    0,
    0,
    0,
    0,
    0,
    0,
    0,
    0,
    0,
    0,
    0,
    0,
    0,
    0,
    0,
    0,
    0,
    0,
    0,
    0,
    0,
    0,
    0,
    0,
    0,
    0,
    0,
    0,
    1552,
    1552,
    0,
    1552,
    1552,
    1552,
    1552,
    1552,
    1552,
    1552,
    1552,
    1552,
    1552,
    1552,
    1552,
    1552,
    1552,
    0,
    0,
    0,
    0,
    0,
    1552,
    1552,
    1552,
    1552,
    0,
    1552,
    1552,
    1552,
    0,
    0,
    0,
    0,
    0,
    0,
    0,
    0,
    0,
    0,
    0,
    0,
    0,
    0,
    0,
    0,
    0,
    0,
    0,
    0,
    0,
    0,
    0,
    0,
    0,
    0,
    0,
    0,
    0,
    0,
    0,
    0,
    0,
    0,
    0,
    0,
    0,
    0,
    0,
    0,
    0,
    0,
    0,
    0,
    0,
    0,
    0,
    0,
    0,
    0,
    0,
    0,
    0,
    0,
    0,
    1552,
    1552,
    1552,
    1552,
    1552,
    1552,
    1552,
    1552,
    0,
    0,
    1552,
    0,
    0,
    0,
    0,
    0,
    0,
    0,
    1552,
    0,
    0,
    0,
    0,
    0,
    0,
    0,
    0,
    0,
    0,
    0,
    0,
    0,
    0,
    0,
    0,
    0,
    0,
    0,
    0,
    0,
    0,
    0,
    0,
    1552,
    1552,
    0,
    0,
    0,
    1552,
    1552,
    1552,
    1552,
    1552,
    1552,
    1552,
    1552,
    1552,
    1552,
    1552,
    0,
    1552,
    1552,
    0,
    0,
    1552,
    1552,
    1552,
    1552,
    1552,
    1552,
    1552,
    1552,
    0,
    0,
    1552,
    1552,
    0,
    0,
    0,
    0,
    0,
    1552,
    0,
    0,
    0,
    0,
    0,
    0,
    0,
    0,
    0,
    0,
    0,
    0,
    0,
    0,
    0,
    0,
    0,
    0,
    0,
    0,
    0,
    0,
    0,
    0,
    0,
    0,
    0,
    0,
    0,
    0,
    0,
    0,
    0,
    0,
    0,
    0,
    0,
    0,
    0,
    0,
    0,
    0,
    0,
    0,
    0,
    0,
    0,
    1552,
    1552,
    1552,
    1552,
    1552,
    1552,
    1552,
    1552,
    0,
    0,
    1552,
    0,
    0,
    0,
    0,
    0,
    0,
    0,
    0,
    0,
    0,
    0,
    0,
    0,
    0,
    0,
    0,
    0,
    0,
    0,
    0,
    0,
    0,
    0,
    0,
    0,
    0,
    0,
    0,
    0,
    0,
    0,
    0,
    0,
    1552,
    0,
    0,
    1552,
    1552,
    1552,
    1552,
    1552,
    1552,
    1552,
    1552,
    1552,
    1552,
    1552,
    0,
    0,
    0,
    0,
    0,
    1552,
    1552,
    1552,
    1552,
    1552,
    1552,
    1552,
    1552,
    0,
    0,
    1552,
    1552,
    1552,
    1552,
    1552,
    0,
    0,
    0,
    0,
    0,
    0,
    0,
    0,
    0,
    0,
    0,
    0,
    0,
    0,
    0,
    0,
    0,
    0,
    0,
    0,
    0,
    0,
    0,
    0,
    0,
    0,
    0,
    0,
    0,
    0,
    0,
    0,
    0,
    0,
    0,
    0,
    0,
    0,
    0,
    0,
    0,
    0,
    0,
    0,
    0,
    0,
    0,
    1552,
    0,
    1552,
    0,
    1552,
    1552,
    0,
    0,
    1552,
    0,
    1552,
    1552,
    1552,
    1552,
    0,
    0,
    0,
    0,
    0,
    0,
    0,
    0,
    0,
    0,
    0,
    0,
    0,
    0,
    0,
    0,
    0,
    0,
    0,
    0,
    0,
    0,
    0,
    0,
    0,
    0,
    0,
    0,
    0,
    0,
    0,
    0,
    0,
    0,
    0,
    1552,
    1552,
    1552,
    1552,
    1552,
    1552,
    1552,
    1552,
    1552,
    1552,
    0,
    1552,
    0,
    1552,
    1552,
    0,
    0,
    0,
    0,
    1552,
    1552,
    1552,
    1552,
    1552,
    0,
    0,
    1552,
    1552,
    1552,
    1552,
    1552,
    1552,
    0,
    0,
    0,
    0,
    0,
    0,
    0,
    0,
    0,
    0,
    0,
    0,
    0,
    0,
    0,
    0,
    0,
    0,
    0,
    0,
    0,
    0,
    0,
    0,
    0,
    0,
    0,
    0,
    0,
    0,
    0,
    0,
    0,
    0,
    0,
    0,
    0,
    0,
    0,
    0,
    0,
    0,
    0,
    0,
    0,
    0,
    0,
    0,
    0,
    0,
    0,
    0,
    0,
    1552,
    1552,
    0,
    0,
    1552,
    1552,
    1552,
    1552,
    1552,
    1552,
    1552,
    0,
    1552,
    0,
    0,
    0,
    0,
    0,
    0,
    0,
    0,
    0,
    0,
    0,
    0,
    0,
    0,
    0,
    0,
    0,
    0,
    0,
    0,
    0,
    0,
    0,
    0,
    0,
    0,
    0,
    0,
    0,
    0,
    1552,
    1552,
    1552,
    1552,
    1552,
    1552,
    1552,
    1552,
    1552,
    1552,
    1552,
    0,
    0,
    1552,
    1552,
    1552,
    1552,
    0,
    0,
    0,
    1552,
    1552,
    1552,
    0,
    0,
    0,
    1552,
    1552,
    1552,
    1552,
    1552,
    1552,
    1552,
    0,
    1552,
    1552,
    0,
    0,
    0,
    0,
    0,
    0,
    0,
    0,
    0,
    0,
    0,
    0,
    0,
    0,
    0,
    0,
    0,
    0,
    0,
    0,
    0,
    0,
    0,
    0,
    0,
    0,
    0,
    0,
    0,
    0,
    0,
    0,
    0,
    0,
    0,
    0,
    0,
    0,
    0,
    0,
    0,
    0,
    0,
    0,
    0,
    0,
    0,
    0,
    0,
    0,
    1552,
    1552,
    0,
    0,
    0,
    1552,
    1552,
    0,
    1552,
    1552,
    0,
    0,
    0,
    1552,
    0,
    0,
    0,
    0,
    0,
    0,
    0,
    0,
    0,
    0,
    0,
    0,
    0,
    0,
    0,
    0,
    0,
    0,
    0,
    0,
    0,
    0,
    0,
    0,
    0,
    0,
    0,
    0,
    0,
    1552,
    1552,
    1552,
    1552,
    1552,
    1552,
    1552,
    1552,
    1552,
    1552,
    0,
    1552,
    1552,
    1552,
    1552,
    1552,
    1552,
    1552,
    0,
    0,
    0,
    0,
    0,
    0,
    1552,
    1552,
    1552,
    0,
    1552,
    1552,
    1552,
    1552,
    1552,
    1552,
    1552,
    0,
    0,
    0,
    0,
    0,
    0,
    0,
    0,
    0,
    0,
    1552,
    0,
    0,
    0,
    0,
    0,
    0,
    0,
    0,
    0,
    0,
    0,
    0,
    0,
    0,
    0,
    0,
    0,
    0,
    0,
    0,
    0,
    0,
    0,
    0,
    0,
    0,
    0,
    0,
    0,
    0,
    0,
    0,
    0,
    0,
    0,
    0,
    0,
    0,
    0,
    0,
    1552,
    1552,
    1552,
    1552,
    0,
    0,
    0,
    0,
    0,
    0,
    0,
    0,
    0,
    1552,
    0,
    0,
    0,
    0,
    0,
    0,
    0,
    0,
    0,
    0,
    0,
    0,
    0,
    0,
    0,
    0,
    0,
    0,
    0,
    0,
    0,
    0,
    0,
    0,
    0,
    1552,
    1552,
    0,
    1552,
    1552,
    0,
    1552,
    1552,
    1552,
    1552,
    0,
    0,
    0,
    0,
    1552,
    1552,
    1552,
    1552,
    1552,
    1552,
    1552,
    1552,
    1552,
    0,
    0,
    1552,
    1552,
    1552,
    1552,
    1552,
    1552,
    1552,
    1552,
    1552,
    1552,
    1552,
    0,
    0,
    0,
    0,
    0,
    0,
    0,
    0,
    0,
    0,
    0,
    0,
    0,
    0,
    0,
    0,
    0,
    0,
    0,
    0,
    0,
    0,
    0,
    0,
    0,
    0,
    0,
    0,
    0,
    0,
    1552,
    1552,
    0,
    0,
    1552,
    1552,
    0,
    1552,
    0,
    0,
    0,
    0,
    0,
    0,
    0,
    0,
    0,
    0,
    0,
    0,
    0,
    0,
    0,
    0,
    0,
    0,
    1552,
    1552,
    0,
    0,
    1552,
    1552,
    1552,
    1552,
    1552,
    1552,
    0,
    0,
    1552,
    0,
    0,
    0,
    0,
    0,
    0,
    0,
    0,
    0,
    0,
    0,
    0,
    0,
    0,
    0,
    0,
    0,
    0,
    0,
    0,
    0,
    0,
    0,
    1552,
    1552,
    1552,
    1552,
    0,
    1552,
    1552,
    1552,
    0,
    0,
    0,
    0,
    0,
    1552,
    1552,
    1552,
    1552,
    1552,
    1552,
    1552,
    1552,
    1552,
    1552,
    0,
    0,
    1552,
    1552,
    1552,
    1552,
    1552,
    1552,
    1552,
    1552,
    1552,
    1552,
    1552,
    1552,
    1552,
    0,
    0,
    0,
    0,
    0,
    0,
    0,
    0,
    0,
    0,
    0,
    0,
    0,
    0,
    0,
    0,
    0,
    0,
    0,
    0,
    0,
    0,
    0,
    0,
    0,
    0,
    0,
    1552,
    1552,
    1552,
    1552,
    0,
    1552,
    1552,
    0,
    1552,
    1552,
    1552,
    1552,
    0,
    0,
    0,
    0,
    0,
    0,
    0,
    0,
    0,
    0,
    0,
    0,
    0,
    0,
    0,
    0,
    1552,
    1552,
    1552,
    1552,
    1552,
    1552,
    1552,
    0,
    1552,
    1552,
    0,
    0,
    0,
    0,
    0,
    0,
    0,
    0,
    0,
    0,
    0,
    0,
    0,
    0,
    0,
    0,
    0,
    0,
    0,
    0,
    0,
    0,
    0,
    0,
    0,
    0,
    0,
    1552,
    1552,
    0,
    1552,
    1552,
    1552,
    0,
    0,
    0,
    0,
    0,
    1552,
    1552,
    1552,
    1552,
    1552,
    1552,
    1552,
    1552,
    1552,
    1552,
    1552,
    0,
    0,
    0,
    1552,
    1552,
    1552,
    1552,
    0,
    1552,
    1552,
    1552,
    1552,
    1552,
    1552,
    0,
    0,
    0,
    0,
    0,
    0,
    0,
    0,
    0,
    0,
    0,
    0,
    0,
    0,
    0,
    0,
    0,
    0,
    0,
    0,
    0,
    0,
    0,
    0,
    0,
    0,
    0,
    0,
    1552,
    1552,
    1552,
    1552,
    1552,
    1552,
    1552,
    0,
    1552,
    1552,
    1552,
    1552,
    1552,
    0,
    0,
    0,
    0,
    0,
    0,
    0,
    0,
    0,
    0,
    0,
    1552,
    0,
    0,
    0,
    0,
    0,
    0,
    0,
    0,
    0,
    0,
    0,
    1552,
    1552,
    1552,
    1552,
    0,
    0,
    0,
    0,
    0,
    0,
    0,
    0,
    0,
    0,
    0,
    0,
    0,
    0,
    0,
    0,
    0,
    0,
    0,
    0,
    0,
    0,
    0,
    0,
    0,
    0,
    1552,
    1552,
    0,
    0,
    0,
    0,
    0,
    1552,
    1552,
    1552,
    0,
    1552,
    1552,
    1552,
    1552,
    0,
    1552,
    1552,
    1552,
    1552,
    0,
    0,
    0,
    1552,
    1552,
    1552,
    0,
    1552,
    1552,
    1552,
    1552,
    1552,
    0,
    0,
    0,
    0,
    0,
    0,
    0,
    0,
    0,
    0,
    0,
    0,
    0,
    0,
    0,
    0,
    0,
    0,
    0,
    0,
    0,
    0,
    0,
    0,
    0,
    0,
    0,
    1552,
    0,
    1552,
    1552,
    1552,
    1552,
    1552,
    1552,
    1552,
    1552,
    1552,
    0,
    1552,
    1552,
    1552,
    1552,
    0,
    0,
    0,
    0,
    0,
    0,
    0,
    0,
    0,
    0,
    0,
    0,
    0,
    0,
    1552,
    0,
    0,
    0,
    0,
    1552,
    0,
    0,
    0,
    0,
    0,
    0,
    1552,
    1552,
    0,
    0,
    0,
    0,
    0,
    0,
    0,
    0,
    0,
    0,
    0,
    0,
    0,
    0,
    0,
    0,
    0,
    0,
    0,
    0,
    0,
    0,
    0,
    0,
    0,
    1552,
    1552,
    0,
    0,
    0,
    0,
    1552,
    1552,
    1552,
    1552,
    1552,
    1552,
    1552,
    1552,
    1552,
    0,
    1552,
    1552,
    1552,
    1552,
    1552,
    0,
    0,
    0,
    0,
    0,
    0,
    1552,
    1552,
    0,
    0,
    0,
    0,
    0,
    0,
    0,
    0,
    0,
    0,
    0,
    0,
    0,
    0,
    0,
    0,
    0,
    0,
    0,
    0,
    0,
    0,
    0,
    0,
    0,
    0,
    0,
    0,
    0,
    0,
    1552,
    0,
    1552,
    1552,
    1552,
    1552,
    1552,
    1552,
    1552,
    1552,
    1552,
    0,
    1552,
    1552,
    1552,
    0,
    0,
    0,
    0,
    0,
    0,
    0,
    0,
    0,
    0,
    0,
    0,
    0,
    0,
    0,
    0,
    0,
    0,
    0,
    1552,
    0,
    1552,
    1552,
    1552,
    0,
    0,
    0,
    0,
    1552,
    1552,
    1552,
    1552,
    0,
    0,
    0,
    0,
    0,
    0,
    0,
    0,
    0,
    0,
    0,
    0,
    0,
    0,
    0,
    0,
    0,
    0,
    0,
    0,
    0,
    0,
    0,
    0,
    0,
    0,
    0,
    1552,
    1552,
    1552,
    1552,
    1552,
    1552,
    1552,
    1552,
    1552,
    0,
    1552,
    1552,
    0,
    1552,
    1552,
    1552,
    0,
    0,
    0,
    0,
    0,
    0,
    0,
    0,
    0,
    0,
    0,
    0,
    0,
    0,
    0,
    0,
    0,
    0,
    0,
    0,
    0,
    0,
    0,
    0,
    0,
    0,
    0,
    0,
    0,
    0,
    0,
    0,
    0,
    0,
    0,
    0,
    0,
    0,
    0,
    1552,
    1552,
    1552,
    1552,
    1552,
    1552,
    1552,
    1552,
    1552,
    1552,
    0,
    0,
    0,
    0,
    0,
    0,
    0,
    0,
    0,
    0,
    0,
    0,
    0,
    0,
    0,
    0,
    0,
    0,
    0,
    0,
    0,
    0,
    0,
    0,
    1552,
    1552,
    1552,
    0,
    1552,
    1552,
    1552,
    0,
    0,
    0,
    0,
    0,
    0,
    0,
    1552,
    1552,
    0,
    0,
    0,
    0,
    0,
    0,
    0,
    0,
    0,
    0,
    0,
    0,
    0,
    0,
    0,
    0,
    0,
    0,
    0,
    0,
    0,
    0,
    0,
    0,
    1552,
    1552,
    0,
    0,
    1552,
    1552,
    1552,
    1552,
    0,
    1552,
    1552,
    0,
    1552,
    1552,
    1552,
    0,
    0,
    0,
    0,
    0,
    0,
    0,
    0,
    0,
    0,
    0,
    0,
    0,
    0,
    0,
    0,
    0,
    0,
    0,
    0,
    0,
    0,
    0,
    0,
    0,
    0,
    0,
    0,
    0,
    0,
    0,
    0,
    0,
    0,
    0,
    0,
    0,
    0,
    1552,
    1552,
    1552,
    1552,
    1552,
    1552,
    1552,
    1552,
    1552,
    1552,
    1552,
    0,
    0,
    0,
    0,
    0,
    0,
    0,
    0,
    0,
    0,
    0,
    0,
    0,
    0,
    0,
    0,
    0,
    0,
    0,
    0,
    0,
    0,
    0,
    0,
    0,
    1552,
    1552,
    1552,
    1552,
    1552,
    1552,
    1552,
    0,
    0,
    0,
    0,
    0,
    0,
    1552,
    1552,
    1552,
    0,
    0,
    0,
    0,
    0,
    0,
    0,
    0,
    0,
    0,
    0,
    0,
    0,
    0,
    0,
    0,
    0,
    0,
    0,
    0,
    0,
    0,
    0,
    0,
    0,
    0,
    0,
    1552,
    1552,
    1552,
    1552,
    1552,
    1552,
    0,
    0,
    1552,
    1552,
    0,
    0,
    0,
    0,
    0,
    0,
    0,
    0,
    0,
    0,
    0,
    0,
    0,
    0,
    0,
    0,
    0,
    0,
    0,
    0,
    0,
    0,
    0,
    0,
    0,
    0,
    0,
    0,
    0,
    0,
    0,
    0,
    0,
    0,
    0,
    0,
    0,
    0,
    0,
    0,
    1552,
    0,
    1552,
    1552,
    1552,
    1552,
    1552,
    1552,
    1552,
    0,
    0,
    0,
    0,
    0,
    0,
    0,
    0,
    0,
    0,
    0,
    0,
    0,
    0,
    0,
    0,
    0,
    0,
    0,
    0,
    0,
    0,
    0,
    0,
    0,
    0,
    0,
    1552,
    1552,
    0,
    0,
    1552,
    1552,
    1552,
    0,
    0,
    0,
    0,
    0,
    0,
    1552,
    1552,
    1552,
    1552,
    1552,
    0,
    1552,
    0,
    0,
    0,
    0,
    0,
    0,
    0,
    0,
    0,
    0,
    0,
    0,
    0,
    0,
    0,
    0,
    0,
    0,
    0,
    0,
    0,
    0,
    0,
    0,
    0,
    0,
    1552,
    1552,
    0,
    0,
    0,
    0,
    0,
    0,
    0,
    0,
    0,
    0,
    0,
    0,
    0,
    0,
    0,
    0,
    0,
    0,
    0,
    0,
    0,
    0,
    0,
    0,
    0,
    0,
    0,
    0,
    0,
    0,
    0,
    0,
    0,
    0,
    0,
    0,
    0,
    0,
    0,
    0,
    0,
    0,
    0,
    0,
    1552,
    1552,
    1552,
    1552,
    1552,
    1552,
    1552,
    1552,
    1552,
    0,
    0,
    0,
    0,
    0,
    0,
    0,
    0,
    0,
    0,
    0,
    0,
    0,
    0,
    1552,
    0,
    0,
    0,
    0,
    0,
    0,
    0,
    0,
    0,
    0,
    0,
    0,
    0,
    0,
    0,
    0,
    0,
    0,
    0,
    0,
    0,
    0,
    0,
    0,
    0,
    0,
    0,
    0,
    0,
    1552,
    1552,
    0,
    0,
    0,
    0,
    0,
    0,
    0,
    0,
    0,
    0,
    0,
    0,
    0,
    0,
    0,
    0,
    0,
    0,
    0,
    0,
    0,
    0,
    0,
    0,
    0,
    0,
    0,
    0,
    0,
    0,
    0,
    0,
    0,
    0,
    0,
    0,
    0,
    0,
    0,
    0,
    0,
    0,
    0,
    0,
    0,
    0,
    0,
    0,
    0,
    0,
    0,
    0,
    0,
    0,
    0,
    0,
    0,
    0,
    0,
    0,
    0,
    0,
    0,
    0,
    0,
    0,
    0,
    0,
    0,
    0,
    0,
    0,
    1552,
    0,
    1552,
    1552,
    1552,
    1552,
    1552,
    1552,
    0,
    0,
    0,
    0,
    0,
    0,
    0,
    0,
    0,
    0,
    0,
    0,
    0,
    0,
    0,
    0,
    0,
    1552,
    0,
    0,
    0,
    0,
    0,
    0,
    0,
    0,
    0,
    0,
    0,
    0,
    0,
    0,
    0,
    0,
    0,
    0,
    0,
    0,
    0,
    0,
    0,
    1552,
    0,
    0,
    0,
    0,
    0,
    1552,
    1552,
    1552,
    1552,
    0,
    0,
    0,
    0,
    0,
    0,
    0,
    0,
    0,
    0,
    0,
    0,
    0,
    0,
    0,
    0,
    0,
    0,
    0,
    0,
    0,
    0,
    0,
    0,
    0,
    0,
    0,
    0,
    0,
    0,
    0,
    0,
    0,
    0,
    0,
    0,
    0,
    0,
    0,
    0,
    0,
    0,
    0,
    0,
    0,
    0,
    0,
    0,
    0,
    0,
    0,
    0,
    0,
    0,
    0,
    0,
    0,
    0,
    0,
    0,
    0,
    0,
    0,
    0,
    0,
    0,
    0,
    0,
    0,
    0,
    0,
    1552,
    1552,
    0,
    0,
    0,
    0,
    0,
    0,
    0,
    0,
    0,
    0,
    0,
    0,
    0,
    0,
    0,
    0,
    0,
    0,
    0,
    0,
    0,
    0,
    0,
    0,
    0,
    0,
    0,
    0,
    0,
    0,
    0,
    0,
    0,
    0,
    1552,
    1552,
    1552,
    1552,
    0,
    0,
    0,
    0,
    0,
    0,
    0,
    0,
    0,
    0,
    0,
    0,
    0,
    0,
    0,
    0,
    1552,
    1552,
    0,
    0,
    0,
    0,
    0,
    0,
    0,
    0,
    0,
    0,
    0,
    0,
    0,
    0,
    0,
    0,
    0,
    0,
    0,
    0,
    0,
    0,
    0,
    0,
    0,
    0,
    0,
    0,
    0,
    0,
    0,
    0,
    0,
    0,
    0,
    0,
    0,
    0,
    0,
    0,
    0,
    0,
    0,
    0,
    0,
    0,
    0,
    0,
    0,
    0,
    0,
    0,
    0,
    0,
    0,
    0,
    0,
    0,
    0,
    0,
    0,
    0,
    0,
    0,
    0,
    0,
    0,
    0,
    0,
    0,
    0,
    0,
    0,
    0,
    0,
    0,
    0,
    0,
    0,
    0,
    0,
    0,
    0,
    0,
    0,
    0,
    0,
    0,
    0,
    0,
    0,
    0,
    0,
    0,
    0,
    0,
    0,
    0,
    0,
    0,
    0,
    0,
    0,
    0,
    0,
    1552,
    1552,
    1552,
    1552,
    0,
    0,
    0,
    0,
    0,
    0,
    0,
    0,
    0,
    0,
    0,
    0,
    0,
    1552,
    0,
    0,
    0,
    0,
    1552,
    1552,
    0,
    0,
    0,
    0,
    0,
    0,
    0,
    0,
    0,
    0,
    0,
    0,
    0,
    0,
    0,
    0,
    0,
    0,
    0,
    0,
    0,
    0,
    0,
    0,
    0,
    0,
    0,
    0,
    0,
    0,
    0,
    0,
    0,
    0,
    0,
    0,
    0,
    0,
    0,
    0,
    0,
    0,
    0,
    0,
    0,
    0,
    0,
    0,
    0,
    0,
    0,
    0,
    0,
    0,
    0,
    0,
    0,
    0,
    0,
    0,
    0,
    0,
    0,
    0,
    0,
    0,
    0,
    0,
    0,
    0,
    0,
    0,
    0,
    0,
    0,
    0,
    0,
    0,
    0,
    0,
    0,
    0,
    0,
    0,
    0,
    0,
    0,
    0,
    0,
    0,
    0,
    0,
    0,
    0,
    0,
    0,
    0,
    0,
    0,
    0,
    0,
    0,
    0,
    0,
    1552,
    1552,
    1552,
    1552,
    1552,
    0,
    1552,
    0,
    0,
    0,
    0,
    0,
    0,
    0,
    0,
    0,
    0,
    0,
    0,
    0,
    0,
    0,
    0,
    1552,
    1552,
    0,
    0,
    0,
    0,
    0,
    0,
    0,
    0,
    0,
    0,
    0,
    0,
    0,
    0,
    0,
    0,
    0,
    0,
    0,
    0,
    0,
    0,
    0,
    0,
    0,
    0,
    0,
    0,
    0,
    0,
    0,
    0,
    0,
    0,
    0,
    0,
    0,
    0,
    0,
    0,
    0,
    0,
    0,
    0,
    0,
    0,
    0,
    0,
    0,
    0,
    0,
    0,
    0,
    0,
    0,
    0,
    0,
    0,
    0,
    0,
    0,
    0,
    0,
    0,
    0,
    0,
    0,
    0,
    0,
    0,
    0,
    0,
    0,
    0,
    0,
    0,
    0,
    0,
    0,
    0,
    0,
    0,
    0,
    0,
    0,
    0,
    0,
    0,
    0,
    0,
    0,
    0,
    0,
    0,
    0,
    0,
    0,
    0,
    0,
    0,
    1552,
    0,
    1552,
    1552,
    0,
    1552,
    1552,
    0,
    1552,
    1552,
    0,
    0,
    0,
    0,
    0,
    0,
    0,
    0,
    0,
    0,
    0,
    0,
    0,
    0,
    0,
    0,
    0,
    1552,
    1552,
    0,
    0,
    0,
    0,
    0,
    0,
    0,
    0,
    0,
    0,
    0,
    0,
    0,
    0,
    0,
    0,
    0,
    0,
    0,
    0,
    0,
    0,
    0,
    0,
    0,
    0,
    0,
    0,
    0,
    0,
    0,
    0,
    0,
    0,
    0,
    0,
    0,
    0,
    0,
    0,
    0,
    0,
    0,
    0,
    0,
    0,
    0,
    0,
    0,
    0,
    0,
    0,
    0,
    0,
    0,
    0,
    0,
    0,
    0,
    0,
    0,
    0,
    0,
    0,
    0,
    0,
    0,
    0,
    0,
    0,
    0,
    0,
    0,
    0,
    0,
    0,
    0,
    0,
    0,
    0,
    0,
    0,
    0,
    0,
    0,
    0,
    0,
    0,
    0,
    0,
    0,
    0,
    0,
    0,
    0,
    0,
    0,
    0,
    0,
    1552,
    1552,
    1552,
    1552,
    0,
    1552,
    1552,
    1552,
    1552,
    1552,
    0,
    1552,
    0,
    0,
    0,
    0,
    0,
    0,
    0,
    0,
    0,
    0,
    0,
    0,
    0,
    0,
    0,
    0,
    1552,
    1552,
    0,
    0,
    0,
    0,
    0,
    0,
    0,
    0,
    0,
    0,
    0,
    0,
    0,
    0,
    0,
    0,
    0,
    0,
    0,
    0,
    0,
    0,
    0,
    0,
    0,
    0,
    0,
    0,
    0,
    0,
    0,
    0,
    0,
    0,
    0,
    0,
    0,
    0,
    0,
    0,
    0,
    0,
    0,
    0,
    0,
    0,
    0,
    0,
    0,
    0,
    0,
    0,
    0,
    0,
    0,
    0,
    0,
    0,
    0,
    0,
    0,
    0,
    0,
    0,
    0,
    0,
    0,
    0,
    0,
    0,
    0,
    0,
    0,
    0,
    0,
    0,
    0,
    0,
    0,
    0,
    0,
    0,
    0,
    0,
    0,
    0,
    0,
    0,
    0,
    0,
    0,
    0,
    0,
    0,
    0,
    1552,
    0,
    0,
    1552,
    1552,
    1552,
    1552,
    1552,
    1552,
    1552,
    1552,
    0,
    1552,
    1552,
    1552,
    0,
    0,
    0,
    0,
    0,
    0,
    0,
    0,
    0,
    0,
    0,
    0,
    0,
    0,
    1552,
    0,
    0,
    1552,
    1552,
    0,
    0,
    0,
    0,
    0,
    0,
    0,
    0,
    0,
    0,
    0,
    0,
    0,
    0,
    0,
    0,
    0,
    0,
    0,
    0,
    0,
    0,
    0,
    0,
    0,
    0,
    0,
    0,
    0,
    0,
    0,
    0,
    0,
    0,
    0,
    0,
    0,
    0,
    0,
    0,
    0,
    0,
    0,
    0,
    0,
    0,
    0,
    0,
    0,
    0,
    0,
    0,
    0,
    0,
    0,
    0,
    0,
    0,
    0,
    0,
    0,
    0,
    0,
    0,
    0,
    0,
    0,
    0,
    0,
    0,
    0,
    0,
    0,
    0,
    0,
    0,
    0,
    0,
    0,
    0,
    0,
    0,
    0,
    0,
    0,
    0,
    0,
    0,
    0,
    0,
    0,
    0,
    0,
    1552,
    1552,
    0,
    0,
    0,
    1552,
    1552,
    1552,
    1552,
    1552,
    1552,
    0,
    1552,
    1552,
    1552,
    1552,
    1552,
    0,
    0,
    0,
    0,
    0,
    0,
    0,
    0,
    0,
    0,
    0,
    0,
    0,
    0,
    0,
    0,
    0,
    1552,
    1552,
    0,
    0,
    0,
    0,
    0,
    0,
    0,
    0,
    0,
    0,
    0,
    0,
    0,
    0,
    0,
    0,
    0,
    0,
    0,
    0,
    0,
    0,
    0,
    0,
    0,
    0,
    0,
    0,
    0,
    0,
    0,
    0,
    0,
    0,
    0,
    0,
    0,
    0,
    0,
    0,
    0,
    0,
    0,
    0,
    0,
    0,
    0,
    0,
    0,
    0,
    0,
    0,
    0,
    0,
    0,
    0,
    0,
    0,
    0,
    0,
    0,
    0,
    0,
    0,
    0,
    0,
    0,
    0,
    0,
    0,
    0,
    0,
    0,
    0,
    0,
    0,
    0,
    0,
    0,
    0,
    0,
    0,
    0,
    0,
    0,
    0,
    0,
    0,
    0,
    0,
    0,
    0,
    1552,
    1552,
    0,
    0,
    0,
    1552,
    1552,
    0,
    0,
    1552,
    1552,
    0,
    1552,
    1552,
    0,
    0,
    0,
    0,
    0,
    0,
    0,
    0,
    0,
    0,
    0,
    0,
    0,
    0,
    0,
    0,
    0,
    0,
    0,
    0,
    0,
    1552,
    1552,
    0,
    0,
    0,
    0,
    0,
    0,
    0,
    0,
    0,
    0,
    0,
    0,
    0,
    0,
    0,
    0,
    0,
    0,
    0,
    0,
    0,
    0,
    0,
    0,
    0,
    0,
    0,
    0,
    0,
    0,
    0,
    0,
    0,
    0,
    0,
    0,
    0,
    0,
    0,
    0,
    0,
    0,
    0,
    0,
    0,
    0,
    0,
    0,
    0,
    0,
    0,
    0,
    0,
    0,
    0,
    0,
    0,
    0,
    0,
    0,
    0,
    0,
    0,
    0,
    0,
    0,
    0,
    0,
    0,
    0,
    0,
    0,
    0,
    0,
    0,
    0,
    0,
    0,
    0,
    0,
    0,
    0,
    0,
    0,
    0,
    0,
    1552,
    1552,
    1552,
    0,
    0,
    0,
    1552,
    1552,
    0,
    0,
    0,
    0,
    0,
    1552,
    0,
    1552,
    1552,
    0,
    0,
    0,
    0,
    0,
    0,
    0,
    0,
    0,
    0,
    0,
    0,
    0,
    0,
    0,
    0,
    0,
    0,
    1552,
    1552,
    0,
    0,
    0,
    0,
    1552,
    1552,
    1552,
    1552,
    1552,
    1552,
    0,
    0,
    0,
    0,
    0,
    0,
    0,
    0,
    0,
    0,
    0,
    0,
    0,
    0,
    0,
    0,
    0,
    0,
    0,
    0,
    0,
    0,
    0,
    0,
    0,
    0,
    0,
    0,
    0,
    0,
    0,
    0,
    0,
    0,
    0,
    0,
    0,
    0,
    0,
    0,
    0,
    0,
    0,
    0,
    0,
    0,
    0,
    0,
    0,
    0,
    0,
    0,
    0,
    0,
    0,
    0,
    0,
    0,
    0,
    0,
    0,
    0,
    0,
    0,
    0,
    0,
    0,
    0,
    0,
    0,
    0,
    0,
    0,
    0,
    0,
    0,
    0,
    0,
    0,
    0,
    0,
    1552,
    1552,
    1552,
    1552,
    0,
    0,
    1552,
    1552,
    1552,
    0,
    0,
    0,
    0,
    0,
    0,
    1552,
    1552,
    0,
    0,
    0,
    0,
    0,
    0,
    0,
    0,
    0,
    0,
    0,
    0,
    0,
    0,
    0,
    0,
    0,
    0,
    0,
    1552,
    1552,
    1552,
    1552,
    0,
    0,
    0,
    0,
    0,
    0,
    1552,
    1552,
    0,
    0,
    0,
    0,
    0,
    0,
    0,
    0,
    0,
    0,
    0,
    0,
    0,
    0,
    0,
    0,
    0,
    0,
    0,
    0,
    0,
    0,
    0,
    0,
    0,
    0,
    0,
    0,
    0,
    0,
    0,
    0,
    0,
    0,
    0,
    0,
    0,
    0,
    0,
    0,
    0,
    0,
    0,
    0,
    0,
    0,
    0,
    0,
    0,
    0,
    0,
    0,
    0,
    0,
    0,
    0,
    0,
    0,
    0,
    0,
    0,
    0,
    0,
    0,
    0,
    0,
    0,
    0,
    0,
    0,
    0,
    0,
    0,
    0,
    0,
    0,
    0,
    0,
    0,
    0,
    1552,
    1552,
    1552,
    1552,
    0,
    0,
    0,
    1552,
    1552,
    1552,
    0,
    0,
    0,
    0,
    0,
    0,
    0,
    0,
    0,
    0,
    0,
    0,
    0,
    0,
    0,
    0,
    0,
    0,
    0,
    0,
    0,
    0,
    0,
    0,
    0,
    0,
    0,
    1552,
    1552,
    0,
    1552,
    1552,
    0,
    0,
    0,
    0,
    0,
    1552,
    1552,
    1552,
    1552,
    0,
    0,
    0,
    0,
    0,
    0,
    0,
    0,
    0,
    0,
    0,
    0,
    0,
    0,
    0,
    0,
    0,
    0,
    0,
    0,
    0,
    0,
    1552,
    0,
    0,
    0,
    0,
    0,
    0,
    0,
    0,
    0,
    0,
    0,
    0,
    0,
    0,
    0,
    0,
    0,
    0,
    0,
    0,
    0,
    0,
    0,
    1552,
    0,
    0,
    0,
    0,
    0,
    0,
    0,
    0,
    0,
    0,
    0,
    0,
    0,
    0,
    0,
    0,
    0,
    0,
    0,
    0,
    0,
    0,
    0,
    0,
    0,
    0,
    0,
    0,
    0,
    0,
    1552,
    1552,
    1552,
    0,
    1552,
    0,
    0,
    0,
    0,
    1552,
    0,
    0,
    0,
    0,
    0,
    0,
    0,
    0,
    0,
    0,
    0,
    0,
    0,
    0,
    0,
    0,
    0,
    0,
    0,
    0,
    0,
    0,
    0,
    0,
    0,
    0,
    0,
    0,
    0,
    0,
    1552,
    0,
    0,
    0,
    1552,
    0,
    1552,
    0,
    0,
    0,
    1552,
    1552,
    0,
    0,
    0,
    0,
    0,
    0,
    0,
    0,
    0,
    0,
    0,
    0,
    0,
    0,
    0,
    0,
    0,
    0,
    0,
    0,
    0,
    0,
    0,
    0,
    0,
    0,
    0,
    0,
    0,
    0,
    0,
    0,
    0,
    0,
    0,
    0,
    0,
    0,
    0,
    0,
    0,
    0,
    0,
    0,
    0,
    0,
    0,
    0,
    0,
    0,
    0,
    0,
    0,
    0,
    0,
    0,
    0,
    0,
    0,
    0,
    0,
    0,
    0,
    0,
    0,
    0,
    0,
    0,
    0,
    0,
    0,
    0,
    0,
    0,
    0,
    0,
    1552,
    1552,
    1552,
    1552,
    1552,
    0,
    0,
    0,
    0,
    0,
    0,
    1552,
    1552,
    0,
    0,
    0,
    0,
    0,
    0,
    0,
    0,
    0,
    0,
    0,
    0,
    0,
    0,
    0,
    0,
    0,
    0,
    0,
    0,
    0,
    0,
    0,
    0,
    0,
    0,
    0,
    0,
    0,
    0,
    0,
    1552,
    1552,
    0,
    0,
    0,
    0,
    0,
    1552,
    1552,
    1552,
    1552,
    0,
    0,
    0,
    0,
    0,
    0,
    0,
    0,
    0,
    0,
    0,
    0,
    0,
    0,
    0,
    0,
    0,
    0,
    0,
    0,
    0,
    0,
    0,
    0,
    0,
    0,
    0,
    0,
    0,
    0,
    0,
    0,
    0,
    0,
    0,
    0,
    0,
    0,
    0,
    0,
    0,
    0,
    0,
    0,
    0,
    0,
    0,
    0,
    0,
    0,
    0,
    0,
    0,
    0,
    0,
    0,
    0,
    0,
    0,
    0,
    0,
    0,
    0,
    0,
    0,
    0,
    0,
    0,
    0,
    0,
    0,
    0,
    0,
    0,
    1552,
    1552,
    0,
    1552,
    1552,
    0,
    0,
    0,
    0,
    0,
    1552,
    1552,
    0,
    0,
    0,
    0,
    0,
    0,
    0,
    0,
    0,
    0,
    0,
    0,
    0,
    0,
    0,
    0,
    0,
    0,
    0,
    0,
    0,
    0,
    0,
    0,
    0,
    0,
    0,
    0,
    0,
    0,
    1552,
    1552,
    1552,
    1552,
    1552,
    1552,
    1552,
    0,
    0,
    0,
    0,
    0,
    0,
    1552,
    1552,
    1552,
    0,
    0,
    1552,
    0,
    0,
    0,
    0,
    0,
    0,
    0,
    0,
    0,
    0,
    0,
    0,
    0,
    0,
    0,
    0,
    0,
    0,
    0,
    0,
    0,
    0,
    0,
    0,
    0,
    0,
    0,
    0,
    0,
    0,
    0,
    0,
    0,
    0,
    0,
    0,
    0,
    0,
    0,
    0,
    0,
    0,
    0,
    0,
    0,
    0,
    0,
    0,
    0,
    0,
    0,
    0,
    0,
    0,
    0,
    0,
    0,
    0,
    0,
    0,
    0,
    0,
    0,
    0,
    0,
    0,
    1552,
    1552,
    0,
    1552,
    1552,
    1552,
    0,
    0,
    0,
    0,
    0,
    0,
    0,
    0,
    0,
    0,
    0,
    0,
    0,
    0,
    0,
    0,
    0,
    0,
    0,
    0,
    0,
    0,
    0,
    0,
    0,
    0,
    0,
    0,
    0,
    0,
    0,
    0,
    0,
    0,
    0,
    0,
    1552,
    1552,
    0,
    1552,
    1552,
    1552,
    1552,
    1552,
    1552,
    1552,
    0,
    0,
    0,
    0,
    0,
    0,
    1552,
    1552,
    0,
    0,
    0,
    0,
    0,
    0,
    0,
    0,
    0,
    0,
    0,
    0,
    0,
    0,
    0,
    0,
    0,
    0,
    0,
    0,
    0,
    0,
    0,
    0,
    0,
    0,
    0,
    0,
    0,
    0,
    0,
    0,
    0,
    0,
    0,
    0,
    0,
    0,
    0,
    0,
    0,
    0,
    0,
    0,
    0,
    0,
    0,
    0,
    0,
    0,
    0,
    1552,
    0,
    0,
    0,
    0,
    0,
    0,
    0,
    0,
    0,
    0,
    0,
    0,
    0,
    0,
    0,
    0,
    1552,
    1552,
    1552,
    1552,
    1552,
    0,
    0,
    0,
    0,
    0,
    0,
    0,
    0,
    0,
    0,
    0,
    0,
    0,
    0,
    0,
    0,
    0,
    0,
    0,
    0,
    0,
    0,
    0,
    0,
    0,
    0,
    0,
    0,
    0,
    0,
    0,
    0,
    0,
    0,
    0,
    0,
    0,
    1552,
    1552,
    1552,
    1552,
    1552,
    0,
    1552,
    1552,
    1552,
    1552,
    1552,
    0,
    0,
    0,
    0,
    0,
    0,
    1552,
    1552,
    0,
    0,
    0,
    0,
    0,
    0,
    0,
    0,
    0,
    0,
    0,
    0,
    0,
    0,
    0,
    0,
    0,
    0,
    0,
    0,
    0,
    0,
    0,
    0,
    0,
    0,
    0,
    0,
    0,
    0,
    0,
    0,
    0,
    0,
    0,
    0,
    0,
    0,
    0,
    0,
    0,
    0,
    0,
    0,
    0,
    0,
    0,
    0,
    0,
    1552,
    1552,
    0,
    0,
    0,
    0,
    0,
    0,
    0,
    0,
    0,
    0,
    0,
    0,
    0,
    0,
    0,
    0,
    0,
    1552,
    1552,
    1552,
    0,
    0,
    0,
    0,
    0,
    0,
    0,
    0,
    0,
    0,
    0,
    0,
    0,
    0,
    0,
    0,
    0,
    0,
    0,
    0,
    0,
    0,
    0,
    0,
    0,
    0,
    0,
    0,
    0,
    0,
    0,
    0,
    0,
    0,
    0,
    0,
    0,
    0,
    0,
    0,
    1552,
    0,
    0,
    1552,
    1552,
    1552,
    0,
    1552,
    0,
    0,
    0,
    0,
    1552,
    1552,
    0,
    1552,
    1552,
    1552,
    0,
    0,
    0,
    0,
    0,
    0,
    0,
    0,
    0,
    0,
    0,
    0,
    0,
    0,
    0,
    0,
    0,
    0,
    0,
    0,
    0,
    0,
    0,
    0,
    0,
    0,
    0,
    0,
    0,
    0,
    0,
    0,
    0,
    0,
    0,
    0,
    0,
    0,
    0,
    0,
    0,
    0,
    0,
    0,
    0,
    0,
    0,
    0,
    1552,
    1552,
    1552,
    0,
    0,
    0,
    0,
    0,
    0,
    0,
    0,
    0,
    0,
    0,
    0,
    0,
    0,
    0,
    0,
    0,
    0,
    1552,
    0,
    0,
    0,
    0,
    0,
    0,
    0,
    0,
    0,
    0,
    0,
    0,
    0,
    0,
    0,
    0,
    0,
    0,
    0,
    0,
    0,
    0,
    0,
    0,
    0,
    0,
    0,
    0,
    0,
    0,
    0,
    0,
    0,
    0,
    0,
    0,
    0,
    0,
    0,
    0,
    0,
    0,
    1552,
    0,
    0,
    0,
    0,
    0,
    0,
    0,
    0,
    0,
    1552,
    1552,
    0,
    1552,
    1552,
    1552,
    0,
    0,
    0,
    0,
    0,
    0,
    0,
    0,
    0,
    0,
    0,
    0,
    0,
    0,
    0,
    0,
    0,
    0,
    0,
    0,
    0,
    0,
    0,
    0,
    0,
    0,
    0,
    0,
    0,
    0,
    0,
    0,
    0,
    0,
    0,
    0,
    0,
    0,
    0,
    0,
    0,
    0,
    0,
    0,
    0,
    0,
    1552,
    1552,
    1552,
    1552,
    1552,
    1552,
    1552,
    0,
    0,
    0,
    0,
    0,
    0,
    0,
    0,
    0,
    0,
    0,
    0,
    0,
    0,
    0,
    0,
    0,
    0,
    0,
    0,
    0,
    0,
    0,
    0,
    0,
    0,
    0,
    0,
    0,
    0,
    0,
    0,
    0,
    0,
    0,
    0,
    0,
    0,
    0,
    0,
    0,
    0,
    0,
    0,
    0,
    0,
    0,
    0,
    0,
    0,
    0,
    0,
    0,
    0,
    0,
    0,
    0,
    0,
    0,
    0,
    0,
    0,
    0,
    0,
    0,
    0,
    1552,
    1552,
    1552,
    1552,
    1552,
    0,
    0,
    1552,
    1552,
    0,
    0,
    1552,
    0,
    0,
    0,
    0,
    0,
    0,
    0,
    0,
    0,
    0,
    0,
    0,
    0,
    0,
    0,
    0,
    0,
    0,
    0,
    0,
    0,
    0,
    0,
    0,
    0,
    0,
    0,
    0,
    0,
    0,
    0,
    0,
    0,
    0,
    0,
    0,
    0,
    0,
    0,
    0,
    0,
    0,
    1552,
    1552,
    1552,
    1552,
    1552,
    1552,
    1552,
    1552,
    1552,
    0,
    1552,
    0,
    0,
    0,
    0,
    0,
    0,
    0,
    0,
    0,
    0,
    0,
    0,
    0,
    0,
    0,
    0,
    0,
    0,
    0,
    0,
    0,
    0,
    0,
    0,
    0,
    0,
    0,
    0,
    0,
    0,
    0,
    0,
    0,
    0,
    0,
    0,
    0,
    0,
    0,
    0,
    0,
    0,
    0,
    0,
    0,
    0,
    0,
    0,
    0,
    0,
    0,
    0,
    0,
    0,
    0,
    0,
    0,
    0,
    0,
    0,
    1552,
    1552,
    1552,
    1552,
    1552,
    0,
    1552,
    0,
    0,
    0,
    0,
    1552,
    1552,
    0,
    0,
    0,
    0,
    0,
    0,
    0,
    0,
    0,
    0,
    0,
    0,
    0,
    0,
    0,
    0,
    0,
    0,
    1552,
    0,
    0,
    0,
    0,
    0,
    0,
    0,
    0,
    0,
    0,
    0,
    0,
    0,
    0,
    0,
    0,
    0,
    0,
    0,
    0,
    0,
    0,
    0,
    0,
    0,
    1552,
    1552,
    0,
    1552,
    0,
    1552,
    1552,
    1552,
    1552,
    0,
    1552,
    0,
    1552,
    1552,
    0,
    0,
    0,
    0,
    0,
    0,
    0,
    0,
    0,
    0,
    0,
    0,
    0,
    0,
    0,
    0,
    0,
    0,
    0,
    0,
    0,
    0,
    0,
    0,
    0,
    0,
    0,
    0,
    0,
    0,
    0,
    0,
    0,
    0,
    0,
    0,
    0,
    0,
    0,
    0,
    0,
    0,
    0,
    0,
    0,
    0,
    0,
    0,
    0,
    0,
    0,
    0,
    0,
    0,
    0,
    0,
    0,
    1552,
    1552,
    1552,
    1552,
    1552,
    1552,
    1552,
    1552,
    1552,
    1552,
    0,
    0,
    1552,
    1552,
    0,
    0,
    0,
    0,
    0,
    0,
    0,
    0,
    0,
    0,
    0,
    0,
    0,
    0,
    0,
    1552,
    1552,
    0,
    0,
    0,
    0,
    0,
    0,
    0,
    0,
    0,
    0,
    0,
    0,
    0,
    0,
    0,
    0,
    0,
    0,
    0,
    0,
    0,
    0,
    0,
    0,
    0,
    0,
    0,
    1552,
    0,
    0,
    1552,
    1552,
    1552,
    1552,
    1552,
    0,
    1552,
    1552,
    1552,
    1552,
    0,
    0,
    0,
    0,
    0,
    0,
    0,
    0,
    0,
    0,
    0,
    0,
    0,
    0,
    0,
    0,
    0,
    0,
    0,
    0,
    0,
    0,
    0,
    0,
    0,
    0,
    0,
    0,
    0,
    0,
    0,
    0,
    0,
    0,
    0,
    0,
    0,
    0,
    0,
    0,
    0,
    0,
    0,
    0,
    0,
    0,
    0,
    0,
    0,
    0,
    0,
    0,
    0,
    0,
    0,
    0,
    0,
    0,
    1552,
    1552,
    1552,
    1552,
    1552,
    1552,
    1552,
    1552,
    1552,
    0,
    0,
    0,
    1552,
    1552,
    1552,
    1552,
    0,
    0,
    0,
    0,
    0,
    0,
    0,
    0,
    0,
    0,
    0,
    0,
    0,
    1552,
    1552,
    0,
    0,
    0,
    0,
    0,
    0,
    0,
    0,
    0,
    0,
    0,
    0,
    0,
    0,
    0,
    0,
    0,
    0,
    0,
    0,
    0,
    0,
    0,
    0,
    0,
    0,
    0,
    0,
    0,
    1552,
    1552,
    1552,
    1552,
    1552,
    1552,
    1552,
    1552,
    0,
    0,
    0,
    0,
    0,
    0,
    1552,
    1552,
    0,
    0,
    0,
    0,
    0,
    0,
    0,
    0,
    0,
    0,
    0,
    0,
    0,
    0,
    0,
    0,
    0,
    0,
    0,
    0,
    0,
    0,
    0,
    0,
    1552,
    0,
    0,
    0,
    0,
    0,
    0,
    0,
    0,
    0,
    0,
    0,
    0,
    0,
    0,
    0,
    0,
    0,
    0,
    0,
    0,
    0,
    0,
    0,
    0,
    0,
    0,
    0,
    0,
    0,
    1552,
    1552,
    1552,
    1552,
    1552,
    1552,
    1552,
    0,
    0,
    0,
    0,
    0,
    0,
    1552,
    1552,
    0,
    0,
    0,
    0,
    0,
    0,
    0,
    0,
    0,
    0,
    0,
    0,
    0,
    0,
    0,
    1552,
    0,
    0,
    0,
    0,
    0,
    0,
    0,
    0,
    0,
    0,
    0,
    0,
    0,
    0,
    0,
    0,
    0,
    0,
    0,
    0,
    0,
    0,
    0,
    0,
    0,
    0,
    0,
    1552,
    1552,
    0,
    1552,
    1552,
    1552,
    1552,
    1552,
    1552,
    0,
    0,
    0,
    1552,
    1552,
    1552,
    1552,
    0,
    0,
    0,
    0,
    0,
    0,
    0,
    0,
    0,
    0,
    0,
    0,
    0,
    0,
    0,
    0,
    0,
    0,
    0,
    0,
    0,
    0,
    0,
    0,
    0,
    0,
    0,
    0,
    0,
    0,
    0,
    0,
    0,
    0,
    0,
    0,
    0,
    0,
    0,
    0,
    0,
    0,
    0,
    0,
    0,
    0,
    0,
    0,
    0,
    0,
    0,
    0,
    0,
    0,
    1552,
    1552,
    1552,
    1552,
    1552,
    1552,
    1552,
    1552,
    0,
    0,
    0,
    0,
    0,
    0,
    1552,
    1552,
    0,
    0,
    0,
    0,
    0,
    0,
    0,
    0,
    0,
    0,
    0,
    0,
    0,
    0,
    0,
    0,
    0,
    0,
    0,
    0,
    0,
    0,
    0,
    0,
    0,
    0,
    1552,
    1552,
    1552,
    0,
    1552,
    1552,
    0,
    0,
    0,
    0,
    0,
    0,
    0,
    0,
    1552,
    0,
    0,
    1552,
    1552,
    1552,
    1552,
    1552,
    0,
    1552,
    1552,
    0,
    0,
    0,
    1552,
    1552,
    0,
    1552,
    1552,
    0,
    0,
    0,
    0,
    0,
    0,
    0,
    0,
    0,
    0,
    0,
    0,
    0,
    0,
    0,
    0,
    0,
    0,
    0,
    0,
    0,
    0,
    0,
    0,
    0,
    0,
    0,
    0,
    0,
    0,
    0,
    0,
    0,
    0,
    0,
    0,
    0,
    0,
    0,
    0,
    0,
    0,
    0,
    0,
    0,
    0,
    0,
    0,
    0,
    0,
    0,
    0,
    0,
    0,
    1552,
    1552,
    1552,
    1552,
    1552,
    1552,
    1552,
    0,
    0,
    0,
    0,
    0,
    0,
    1552,
    1552,
    1552,
    0,
    0,
    0,
    0,
    0,
    0,
    0,
    0,
    0,
    0,
    0,
    0,
    0,
    0,
    0,
    0,
    1552,
    1552,
    1552,
    1552,
    0,
    0,
    0,
    0,
    0,
    1552,
    1552,
    1552,
    1552,
    1552,
    1552,
    1552,
    1552,
    0,
    0,
    0,
    0,
    0,
    0,
    0,
    1552,
    1552,
    0,
    1552,
    1552,
    0,
    0,
    0,
    0,
    0,
    0,
    0,
    0,
    0,
    0,
    0,
    1552,
    1552,
    0,
    0,
    0,
    0,
    0,
    0,
    0,
    0,
    0,
    0,
    0,
    0,
    0,
    0,
    0,
    0,
    0,
    0,
    0,
    0,
    0,
    0,
    0,
    0,
    0,
    0,
    0,
    0,
    0,
    0,
    0,
    0,
    0,
    0,
    0,
    0,
    0,
    0,
    0,
    0,
    0,
    0,
    0,
    0,
    0,
    0,
    0,
    0,
    0,
    0,
    0,
    0,
    0,
    0,
    1552,
    1552,
    1552,
    1552,
    1552,
    1552,
    1552,
    0,
    1552,
    0,
    0,
    0,
    0,
    1552,
    1552,
    1552,
    0,
    0,
    0,
    0,
    0,
    0,
    0,
    0,
    0,
    0,
    0,
    0,
    0,
    0,
    0,
    1552,
    1552,
    1552,
    1552,
    1552,
    1552,
    0,
    0,
    0,
    0,
    0,
    1552,
    1552,
    1552,
    1552,
    1552,
    1552,
    1552,
    1552,
    1552,
    0,
    0,
    0,
    0,
    0,
    1552,
    1552,
    0,
    0,
    1552,
    0,
    1552,
    1552,
    1552,
    0,
    0,
    0,
    0,
    0,
    1552,
    1552,
    1552,
    0,
    0,
    0,
    0,
    0,
    0,
    0,
    0,
    0,
    0,
    0,
    0,
    0,
    0,
    0,
    0,
    0,
    0,
    0,
    0,
    0,
    0,
    0,
    0,
    0,
    0,
    0,
    0,
    0,
    0,
    0,
    0,
    0,
    0,
    0,
    0,
    0,
    0,
    0,
    0,
    0,
    0,
    0,
    0,
    0,
    0,
    0,
    0,
    0,
    0,
    0,
    0,
    0,
    0,
    0,
    1552,
    1552,
    0,
    1552,
    1552,
    1552,
    1552,
    1552,
    1552,
    0,
    0,
    0,
    0,
    0,
    1552,
    1552,
    0,
    1552,
    0,
    0,
    0,
    0,
    0,
    0,
    0,
    0,
    0,
    0,
    0,
    0,
    1552,
    1552,
    1552,
    1552,
    1552,
    1552,
    1552,
    1552,
    0,
    0,
    0,
    0,
    1552,
    1552,
    0,
    1552,
    1552,
    1552,
    1552,
    1552,
    1552,
    0,
    0,
    0,
    0,
    0,
    1552,
    0,
    0,
    1552,
    0,
    1552,
    1552,
    1552,
    1552,
    0,
    0,
    0,
    0,
    1552,
    1552,
    1552,
    1552,
    0,
    0,
    0,
    0,
    0,
    0,
    0,
    0,
    0,
    0,
    0,
    0,
    0,
    0,
    0,
    0,
    0,
    0,
    0,
    0,
    0,
    0,
    0,
    0,
    0,
    0,
    0,
    0,
    0,
    0,
    0,
    0,
    0,
    0,
    0,
    0,
    0,
    0,
    0,
    0,
    0,
    0,
    0,
    0,
    0,
    0,
    0,
    0,
    0,
    0,
    0,
    0,
    0,
    0,
    0,
    0,
    0,
    0,
    0,
    1552,
    1552,
    1552,
    1552,
    1552,
    1552,
    0,
    0,
    0,
    0,
    0,
    1552,
    1552,
    0,
    0,
    0,
    1552,
    1552,
    1552,
    1552,
    0,
    0,
    0,
    0,
    0,
    1552,
    1552,
    1552,
    1552,
    1552,
    1552,
    1552,
    1552,
    1552,
    1552,
    0,
    0,
    0,
    1552,
    1552,
    1552,
    1552,
    1552,
    1552,
    1552,
    1552,
    1552,
    1552,
    0,
    0,
    0,
    0,
    0,
    1552,
    1552,
    1552,
    1552,
    1552,
    1552,
    1552,
    0,
    0,
    0,
    0,
    0,
    1552,
    1552,
    0,
    1552,
    1552,
    0,
    0,
    0,
    0,
    0,
    0,
    0,
    0,
    0,
    0,
    0,
    0,
    0,
    0,
    0,
    0,
    0,
    0,
    0,
    0,
    0,
    0,
    0,
    0,
    0,
    0,
    0,
    0,
    0,
    0,
    0,
    0,
    0,
    0,
    0,
    0,
    0,
    0,
    0,
    0,
    0,
    0,
    0,
    0,
    0,
    0,
    0,
    0,
    0,
    0,
    0,
    0,
    0,
    0,
    0,
    0,
    0,
    0,
    1552,
    1552,
    0,
    0,
    1552,
    1552,
    0,
    0,
    1552,
    1552,
    1552,
    0,
    1552,
    1552,
    0,
    1552,
    1552,
    1552,
    1552,
    1552,
    1552,
    0,
    0,
    0,
    0,
    1552,
    1552,
    1552,
    1552,
    1552,
    1552,
    1552,
    1552,
    1552,
    1552,
    1552,
    1552,
    0,
    0,
    0,
    1552,
    1552,
    1552,
    1552,
    1552,
    0,
    1552,
    1552,
    0,
    0,
    0,
    0,
    0,
    0,
    1552,
    1552,
    1552,
    1552,
    1552,
    1552,
    0,
    0,
    0,
    0,
    1552,
    1552,
    1552,
    1552,
    1552,
    1552,
    0,
    0,
    0,
    0,
    0,
    0,
    0,
    0,
    0,
    0,
    0,
    0,
    0,
    0,
    0,
    0,
    0,
    0,
    0,
    0,
    0,
    0,
    0,
    0,
    0,
    0,
    0,
    0,
    0,
    0,
    0,
    0,
    0,
    0,
    0,
    0,
    0,
    0,
    0,
    0,
    0,
    0,
    0,
    0,
    0,
    0,
    0,
    0,
    0,
    0,
    0,
    0,
    0,
    0,
    0,
    0,
    0,
    0,
    0,
    0,
    0,
    0,
    0,
    1552,
    0,
    1552,
    0,
    1552,
    1552,
    0,
    0,
    1552,
    1552,
    1552,
    1552,
    1552,
    1552,
    1552,
    1552,
    1552,
    0,
    1552,
    1552,
    1552,
    1552,
    1552,
    1552,
    1552,
    1552,
    1552,
    1552,
    1552,
    1552,
    1552,
    1552,
    1552,
    0,
    0,
    0,
    1552,
    1552,
    1552,
    1552,
    1552,
    0,
    0,
    0,
    0,
    0,
    0,
    0,
    0,
    0,
    0,
    1552,
    1552,
    1552,
    1552,
    0,
    0,
    0,
    0,
    1552,
    1552,
    0,
    1552,
    1552,
    0,
    0,
    0,
    0,
    0,
    0,
    0,
    0,
    0,
    0,
    0,
    0,
    0,
    0,
    0,
    0,
    0,
    0,
    0,
    0,
    0,
    0,
    0,
    0,
    0,
    0,
    0,
    0,
    0,
    0,
    0,
    0,
    0,
    0,
    0,
    0,
    0,
    0,
    0,
    0,
    0,
    0,
    0,
    0,
    0,
    0,
    0,
    0,
    0,
    0,
    0,
    0,
    0,
    0,
    0,
    0,
    0,
    0,
    0,
    0,
    0,
    0,
    0,
    0,
    0,
    0,
    0,
    0,
    0,
    0,
    1552,
    0,
    0,
    1552,
    1552,
    1552,
    1552,
    1552,
    1552,
    1552,
    1552,
    1552,
    1552,
    1552,
    1552,
    1552,
    1552,
    1552,
    1552,
    1552,
    1552,
    1552,
    1552,
    1552,
    1552,
    1552,
    1552,
    0,
    0,
    0,
    0,
    1552,
    1552,
    1552,
    1552,
    1552,
    0,
    0,
    0,
    0,
    0,
    0,
    0,
    1552,
    1552,
    1552,
    1552,
    1552,
    0,
    0,
    0,
    0,
    0,
    0,
    1552,
    1552,
    1552,
    1552,
    1552,
    0,
    0,
    0,
    0,
    0,
    0,
    0,
    0,
    0,
    0,
    0,
    0,
    0,
    0,
    0,
    0,
    0,
    0,
    0,
    0,
    0,
    0,
    0,
    0,
    0,
    0,
    0,
    0,
    0,
    0,
    0,
    0,
    0,
    0,
    0,
    0,
    0,
    0,
    0,
    0,
    0,
    0,
    0,
    0,
    0,
    0,
    0,
    0,
    0,
    0,
    0,
    0,
    0,
    0,
    0,
    0,
    0,
    0,
    0,
    0,
    0,
    0,
    0,
    0,
    0,
    0,
    0,
    0,
    0,
    0,
    1552,
    0,
    1552,
    1552,
    1552,
    1552,
    1552,
    1552,
    1552,
    1552,
    1552,
    1552,
    1552,
    1552,
    1552,
    1552,
    1552,
    1552,
    1552,
    1552,
    1552,
    1552,
    1552,
    1552,
    1552,
    1552,
    0,
    0,
    0,
    1552,
    1552,
    1552,
    1552,
    1552,
    0,
    0,
    0,
    0,
    0,
    0,
    0,
    1552,
    1552,
    1552,
    0,
    1552,
    1552,
    1552,
    0,
    0,
    0,
    1552,
    1552,
    1552,
    1552,
    1552,
    1552,
    0,
    0,
    0,
    0,
    0,
    0,
    0,
    0,
    0,
    0,
    0,
    0,
    0,
    0,
    0,
    0,
    0,
    0,
    0,
    0,
    0,
    0,
    0,
    0,
    0,
    0,
    0,
    0,
    0,
    0,
    0,
    0,
    0,
    0,
    0,
    0,
    0,
    0,
    0,
    0,
    0,
    0,
    0,
    0,
    0,
    0,
    0,
    0,
    0,
    0,
    0,
    0,
    0,
    0,
    0,
    0,
    0,
    0,
    0,
    0,
    0,
    0,
    0,
    0,
    0,
    0,
    0,
    0,
    0,
    0,
    0,
    0,
    0,
    1552,
    1552,
    1552,
    1552,
    1552,
    1552,
    1552,
    1552,
    1552,
    1552,
    1552,
    1552,
    1552,
    1552,
    1552,
    1552,
    1552,
    1552,
    1552,
    1552,
    1552,
    1552,
    1552,
    0,
    0,
    0,
    1552,
    1552,
    1552,
    1552,
    1552,
    1552,
    0,
    0,
    0,
    0,
    0,
    0,
    0,
    1552,
    1552,
    0,
    1552,
    1552,
    1552,
    1552,
    0,
    0,
    0,
    1552,
    1552,
    1552,
    1552,
    1552,
    1552,
    0,
    0,
    0,
    0,
    0,
    0,
    0,
    0,
    0,
    0,
    0,
    0,
    0,
    0,
    0,
    0,
    0,
    0,
    0,
    0,
    0,
    0,
    0,
    0,
    0,
    0,
    0,
    0,
    0,
    0,
    0,
    0,
    0,
    0,
    0,
    0,
    0,
    0,
    0,
    0,
    0,
    0,
    0,
    0,
    0,
    0,
    0,
    0,
    0,
    0,
    0,
    0,
    0,
    0,
    0,
    0,
    0,
    0,
    0,
    0,
    0,
    0,
    0,
    0,
    0,
    0,
    0,
    0,
    0,
    0,
    0,
    0,
    0,
    0,
    1552,
    1552,
    1552,
    1552,
    1552,
    1552,
    1552,
    1552,
    1552,
    1552,
    1552,
    1552,
    1552,
    1552,
    1552,
    1552,
    1552,
    1552,
    1552,
    1552,
    1552,
    1552,
    0,
    0,
    0,
    1552,
    1552,
    1552,
    1552,
    1552,
    0,
    0,
    0,
    0,
    0,
    0,
    0,
    0,
    1552,
    1552,
    1552,
    1552,
    1552,
    0,
    0,
    0,
    0,
    0,
    0,
    1552,
    1552,
    1552,
    0,
    1552,
    0,
    0,
    0,
    0,
    0,
    0,
    0,
    0,
    0,
    0,
    0,
    0,
    0,
    0,
    0,
    0,
    0,
    0,
    0,
    0,
    0,
    0,
    0,
    0,
    0,
    0,
    0,
    0,
    0,
    0,
    0,
    0,
    0,
    0,
    0,
    0,
    0,
    0,
    0,
    0,
    0,
    0,
    0,
    0,
    0,
    0,
    0,
    0,
    0,
    0,
    0,
    0,
    0,
    0,
    0,
    0,
    0,
    0,
    0,
    0,
    0,
    0,
    0,
    0,
    0,
    0,
    0,
    0,
    0,
    0,
    0,
    0,
    0,
    0,
    0,
    1552,
    1552,
    1552,
    1552,
    1552,
    1552,
    1552,
    1552,
    1552,
    1552,
    1552,
    1552,
    1552,
    1552,
    1552,
    1552,
    1552,
    1552,
    1552,
    1552,
    1552,
    1552,
    0,
    0,
    0,
    1552,
    1552,
    1552,
    1552,
    1552,
    0,
    0,
    0,
    0,
    0,
    1552,
    0,
    1552,
    0,
    1552,
    1552,
    1552,
    0,
    0,
    0,
    0,
    0,
    1552,
    1552,
    0,
    0,
    1552,
    1552,
    1552,
    0,
    0,
    0,
    0,
    0,
    0,
    0,
    0,
    0,
    0,
    0,
    0,
    0,
    0,
    0,
    0,
    0,
    0,
    0,
    0,
    0,
    0,
    0,
    0,
    0,
    0,
    0,
    0,
    0,
    0,
    0,
    0,
    0,
    0,
    0,
    0,
    0,
    0,
    0,
    0,
    0,
    0,
    0,
    0,
    0,
    0,
    0,
    0,
    0,
    0,
    0,
    0,
    0,
    0,
    0,
    1552,
    0,
    0,
    0,
    0,
    0,
    0,
    0,
    0,
    0,
    0,
    0,
    0,
    0,
    0,
    0,
    0,
    0,
    0,
    0,
    1552,
    1552,
    1552,
    1552,
    1552,
    1552,
    1552,
    1552,
    1552,
    1552,
    1552,
    1552,
    1552,
    1552,
    1552,
    1552,
    1552,
    1552,
    1552,
    1552,
    0,
    0,
    0,
    0,
    0,
    0,
    0,
    1552,
    0,
    0,
    0,
    0,
    0,
    1552,
    1552,
    1552,
    1552,
    1552,
    1552,
    1552,
    1552,
    1552,
    0,
    0,
    0,
    0,
    1552,
    1552,
    1552,
    1552,
    1552,
    1552,
    0,
    0,
    0,
    0,
    0,
    0,
    0,
    0,
    0,
    0,
    0,
    0,
    0,
    0,
    0,
    0,
    0,
    0,
    0,
    0,
    0,
    0,
    0,
    0,
    0,
    0,
    0,
    0,
    0,
    0,
    0,
    0,
    0,
    0,
    0,
    0,
    0,
    0,
    0,
    0,
    0,
    0,
    0,
    0,
    0,
    0,
    0,
    0,
    0,
    0,
    0,
    0,
    0,
    0,
    0,
    0,
    0,
    0,
    0,
    0,
    0,
    0,
    0,
    0,
    0,
    0,
    0,
    0,
    0,
    0,
    0,
    0,
    0,
    0,
    0,
    0,
    0,
    1552,
    1552,
    1552,
    1552,
    1552,
    1552,
    1552,
    1552,
    1552,
    1552,
    1552,
    1552,
    1552,
    1552,
    1552,
    1552,
    1552,
    1552,
    0,
    0,
    0,
    0,
    0,
    0,
    0,
    0,
    0,
    0,
    0,
    0,
    0,
    0,
    1552,
    1552,
    0,
    1552,
    1552,
    1552,
    0,
    1552,
    1552,
    1552,
    0,
    0,
    0,
    0,
    1552,
    0,
    1552,
    1552,
    0,
    0,
    0,
    0,
    0,
    0,
    0,
    0,
    0,
    1552,
    0,
    0,
    0,
    0,
    0,
    0,
    0,
    0,
    0,
    0,
    0,
    0,
    0,
    0,
    0,
    0,
    0,
    0,
    0,
    0,
    0,
    0,
    0,
    0,
    0,
    0,
    0,
    0,
    0,
    0,
    0,
    0,
    0,
    0,
    0,
    0,
    0,
    0,
    0,
    0,
    0,
    0,
    1552,
    0,
    0,
    0,
    0,
    0,
    0,
    0,
    0,
    0,
    0,
    0,
    0,
    0,
    0,
    0,
    0,
    0,
    0,
    0,
    0,
    0,
    0,
    0,
    0,
    0,
    1552,
    1552,
    1552,
    1552,
    1552,
    1552,
    1552,
    1552,
    1552,
    1552,
    1552,
    1552,
    1552,
    1552,
    1552,
    1552,
    1552,
    1552,
    0,
    0,
    0,
    0,
    0,
    0,
    0,
    0,
    0,
    0,
    0,
    0,
    0,
    0,
    0,
    1552,
    1552,
    1552,
    1552,
    1552,
    1552,
    1552,
    1552,
    1552,
    0,
    0,
    0,
    0,
    0,
    0,
    1552,
    1552,
    1552,
    0,
    0,
    0,
    0,
    0,
    0,
    0,
    0,
    0,
    0,
    0,
    0,
    0,
    0,
    0,
    0,
    0,
    0,
    0,
    0,
    0,
    0,
    0,
    0,
    0,
    0,
    0,
    0,
    0,
    0,
    0,
    0,
    0,
    0,
    0,
    0,
    0,
    0,
    0,
    0,
    0,
    0,
    0,
    0,
    0,
    0,
    0,
    0,
    0,
    0,
    1552,
    1552,
    1552,
    1552,
    1552,
    0,
    0,
    0,
    0,
    0,
    0,
    0,
    0,
    0,
    0,
    0,
    0,
    0,
    0,
    0,
    0,
    0,
    0,
    0,
    0,
    0,
    0,
    1552,
    1552,
    1552,
    1552,
    1552,
    1552,
    1552,
    1552,
    1552,
    1552,
    1552,
    1552,
    1552,
    1552,
    1552,
    1552,
    1552,
    1552,
    0,
    0,
    0,
    0,
    0,
    0,
    0,
    0,
    0,
    0,
    0,
    0,
    0,
    0,
    0,
    1552,
    1552,
    1552,
    1552,
    1552,
    1552,
    1552,
    1552,
    1552,
    0,
    0,
    0,
    0,
    0,
    0,
    1552,
    0,
    0,
    0,
    0,
    0,
    0,
    0,
    0,
    0,
    0,
    0,
    0,
    0,
    0,
    0,
    0,
    0,
    0,
    0,
    0,
    0,
    0,
    0,
    0,
    0,
    0,
    0,
    0,
    0,
    0,
    0,
    0,
    0,
    0,
    0,
    0,
    0,
    0,
    0,
    0,
    0,
    0,
    0,
    0,
    0,
    0,
    0,
    0,
    0,
    0,
    0,
    1552,
    1552,
    0,
    0,
    0,
    1552,
    1552,
    0,
    0,
    0,
    0,
    0,
    0,
    0,
    0,
    0,
    0,
    0,
    0,
    0,
    0,
    0,
    0,
    0,
    0,
    0,
    0,
    0,
    0,
    1552,
    1552,
    1552,
    1552,
    1552,
    1552,
    1552,
    1552,
    1552,
    1552,
    1552,
    1552,
    1552,
    1552,
    1552,
    1552,
    0,
    0,
    0,
    0,
    0,
    0,
    0,
    0,
    0,
    0,
    0,
    0,
    0,
    0,
    1552,
    0,
    0,
    1552,
    1552,
    1552,
    1552,
    1552,
    1552,
    1552,
    0,
    1552,
    0,
    0,
    0,
    0,
    0,
    0,
    0,
    0,
    0,
    0,
    0,
    0,
    0,
    0,
    0,
    0,
    0,
    0,
    0,
    0,
    0,
    0,
    0,
    0,
    0,
    0,
    0,
    0,
    0,
    0,
    0,
    0,
    0,
    0,
    0,
    0,
    0,
    0,
    0,
    0,
    0,
    0,
    0,
    0,
    0,
    0,
    0,
    0,
    0,
    0,
    0,
    0,
    1552,
    1552,
    1552,
    1552,
    1552,
    0,
    0,
    0,
    0,
    0,
    1552,
    1552,
    0,
    0,
    0,
    0,
    0,
    0,
    0,
    0,
    0,
    0,
    0,
    0,
    0,
    0,
    0,
    0,
    0,
    0,
    0,
    0,
    0,
    0,
    0,
    1552,
    1552,
    1552,
    1552,
    1552,
    1552,
    1552,
    1552,
    1552,
    1552,
    1552,
    1552,
    1552,
    1552,
    0,
    0,
    0,
    0,
    0,
    0,
    0,
    0,
    0,
    0,
    0,
    0,
    0,
    0,
    1552,
    1552,
    1552,
    1552,
    1552,
    1552,
    1552,
    1552,
    0,
    0,
    0,
    1552,
    0,
    0,
    0,
    0,
    0,
    0,
    0,
    0,
    0,
    0,
    0,
    0,
    0,
    0,
    0,
    0,
    0,
    0,
    0,
    0,
    0,
    0,
    0,
    0,
    0,
    0,
    0,
    0,
    0,
    0,
    0,
    0,
    0,
    0,
    0,
    0,
    0,
    0,
    0,
    0,
    0,
    0,
    0,
    0,
    0,
    0,
    0,
    0,
    0,
    0,
    0,
    0,
    1552,
    1552,
    0,
    0,
    0,
    0,
    0,
    0,
    0,
    0,
    0,
    1552,
    1552,
    0,
    0,
    0,
    0,
    0,
    0,
    0,
    0,
    0,
    0,
    0,
    0,
    0,
    0,
    0,
    0,
    0,
    1552,
    0,
    0,
    1552,
    0,
    0,
    0,
    1552,
    1552,
    1552,
    1552,
    1552,
    1552,
    1552,
    1552,
    1552,
    1552,
    1552,
    1552,
    0,
    0,
    0,
    0,
    0,
    0,
    0,
    0,
    0,
    0,
    0,
    0,
    0,
    0,
    0,
    0,
    1552,
    1552,
    1552,
    1552,
    0,
    1552,
    0,
    1552,
    0,
    0,
    0,
    0,
    0,
    0,
    0,
    0,
    0,
    0,
    0,
    0,
    0,
    0,
    0,
    0,
    0,
    0,
    0,
    0,
    0,
    0,
    0,
    0,
    0,
    0,
    0,
    0,
    0,
    0,
    0,
    0,
    0,
    0,
    0,
    0,
    0,
    0,
    0,
    0,
    0,
    0,
    0,
    0,
    0,
    0,
    0,
    0,
    0,
    0,
    0,
    0,
    0,
    1552,
    1552,
    0,
    0,
    0,
    0,
    0,
    0,
    0,
    0,
    0,
    0,
    0,
    1552,
    1552,
    0,
    0,
    0,
    0,
    0,
    0,
    0,
    0,
    0,
    0,
    0,
    0,
    0,
    0,
    0,
    0,
    0,
    0,
    0,
    0,
    0,
    0,
    0,
    0,
    0,
    1552,
    1552,
    1552,
    1552,
    1552,
    1552,
    1552,
    1552,
    0,
    0,
    0,
    0,
    0,
    0,
    0,
    0,
    0,
    0,
    0,
    0,
    0,
    0,
    0,
    0,
    0,
    0,
    0,
    0,
    0,
    0,
    0,
    0,
    0,
    0,
    0,
    0,
    0,
    0,
    0,
    0,
    0,
    0,
    0,
    0,
    0,
    0,
    0,
    0,
    0,
    0,
    0,
    0,
    0,
    0,
    0,
    0,
    0,
    0,
    0,
    0,
    0,
    0,
    0,
    0,
    0,
    0,
    0,
    0,
    0,
    0,
    0,
    0,
    0,
    0,
    0,
    0,
    0,
    0,
    0,
    0,
    0,
    0,
    0,
    0,
    0,
    0,
    0,
    1552,
    0,
    0,
    0,
    0,
    0,
    0,
    0,
    0,
    0,
    0,
    0,
    0,
    0,
    1552,
    1552,
    0,
    0,
    0,
    0,
    0,
    0,
    0,
    0,
    0,
    0,
    0,
    0,
    0,
    0,
    0,
    0,
    0,
    0,
    0,
    0,
    0,
    0,
    0,
    0,
    0,
    0,
    0,
    0,
    1552,
    1552,
    1552,
    1552,
    0,
    0,
    0,
    0,
    0,
    0,
    0,
    0,
    0,
    0,
    0,
    0,
    0,
    0,
    0,
    0,
    0,
    0,
    0,
    0,
    0,
    0,
    0,
    0,
    0,
    0,
    0,
    0,
    0,
    0,
    0,
    0,
    0,
    0,
    0,
    0,
    0,
    0,
    0,
    0,
    0,
    0,
    0,
    0,
    0,
    0,
    0,
    0,
    0,
    0,
    0,
    0,
    0,
    0,
    0,
    0,
    0,
    0,
    0,
    0,
    0,
    0,
    0,
    0,
    0,
    0,
    0,
    0,
    0,
    0,
    0,
    0,
    0,
    0,
    0,
    0,
    0,
    0,
    0,
    0,
    1552,
    0,
    0,
    0,
    0,
    0,
    0,
    0,
    0,
    0,
    0,
    0,
    0,
    1552,
    1552,
    0,
    0,
    0,
    0,
    0,
    0,
    0,
    0,
    0,
    0,
    0,
    0,
    0,
    0,
    0,
    0,
    0,
    0,
    0,
    0,
    0,
    0,
    0,
    0,
    0,
    0,
    0,
    0,
    0,
    0,
    0,
    0,
    0,
    0,
    0,
    0,
    0,
    0,
    0,
    0,
    0,
    0,
    0,
    0,
    0,
    0,
    0,
    0,
    0,
    0,
    0,
    0,
    0,
    0,
    0,
    0,
    0,
    0,
    0,
    0,
    0,
    0,
    0,
    0,
    0,
    0,
    0,
    0,
    0,
    0,
    0,
    0,
    0,
    1552,
    0,
    0,
    0,
    0,
    0,
    0,
    0,
    0,
    0,
    0,
    0,
    0,
    0,
    0,
    0,
    0,
    0,
    0,
    0,
    0,
    0,
    0,
    0,
    0,
    0,
    0,
    0,
    0,
    0,
    0,
    0,
    0,
    0,
    0,
    0,
    0,
    0,
    0,
    1552,
    1552,
    0,
    0,
    0,
    0,
    0,
    0,
    0,
    0,
    0,
    0,
    0,
    0,
    1552,
    1552,
    0,
    0,
    0,
    0,
    0,
    0,
    0,
    0,
    0,
    0,
    0,
    0,
    0,
    0,
    0,
    0,
    0,
    0,
    0,
    0,
    0,
    0,
    0,
    0,
    0,
    0,
    0,
    0,
    0,
    0,
    0,
    0,
    0,
    0,
    0,
    0,
    0,
    0,
    0,
    0,
    0,
    0,
    0,
    0,
    0,
    0,
    0,
    0,
    0,
    0,
    0,
    0,
    0,
    0,
    0,
    0,
    0,
    0,
    1552,
    1552,
    0,
    0,
    0,
    0,
    0,
    0,
    0,
    0,
    0,
    0,
    0,
    0,
    0,
    0,
    0,
    0,
    0,
    0,
    0,
    0,
    0,
    0,
    0,
    0,
    0,
    0,
    0,
    0,
    0,
    0,
    0,
    0,
    0,
    0,
    0,
    0,
    0,
    0,
    0,
    0,
    0,
    0,
    0,
    0,
    0,
    0,
    0,
    0,
    0,
    0,
    0,
    0,
    1552,
    1552,
    0,
    0,
    0,
    0,
    0,
    0,
    0,
    0,
    0,
    0,
    1552,
    1552,
    0,
    0,
    0,
    0,
    0,
    0,
    0,
    0,
    0,
    0,
    0,
    0,
    0,
    0,
    0,
    0,
    0,
    0,
    0,
    0,
    0,
    0,
    0,
    0,
    0,
    0,
    0,
    0,
    0,
    0,
    0,
    0,
    0,
    0,
    0,
    0,
    0,
    0,
    0,
    0,
    0,
    0,
    0,
    0,
    0,
    0,
    0,
    0,
    0,
    0,
    0,
    0,
    0,
    0,
    0,
    1552,
    0,
    1552,
    1552,
    1552,
    1552,
    1552,
    1552,
    1552,
    0,
    0,
    0,
    0,
    0,
    0,
    0,
    0,
    0,
    0,
    0,
    0,
    0,
    0,
    0,
    0,
    0,
    0,
    0,
    0,
    0,
    0,
    0,
    0,
    1552,
    0,
    0,
    0,
    0,
    0,
    0,
    0,
    0,
    0,
    0,
    0,
    0,
    0,
    1552,
    0,
    0,
    0,
    0,
    0,
    0,
    0,
    0,
    0,
    0,
    0,
    1552,
    1552,
    0,
    0,
    0,
    0,
    0,
    0,
    0,
    0,
    0,
    1552,
    1552,
    0,
    0,
    0,
    0,
    0,
    0,
    0,
    0,
    0,
    0,
    0,
    0,
    0,
    0,
    0,
    0,
    0,
    0,
    0,
    0,
    0,
    0,
    0,
    0,
    0,
    0,
    0,
    0,
    0,
    0,
    0,
    0,
    0,
    0,
    0,
    0,
    0,
    0,
    0,
    0,
    0,
    0,
    0,
    0,
    0,
    0,
    0,
    0,
    0,
    0,
    0,
    0,
    0,
    0,
    0,
    0,
    0,
    1552,
    1552,
    1552,
    0,
    1552,
    1552,
    1552,
    1552,
    0,
    1552,
    0,
    0,
    0,
    0,
    0,
    0,
    0,
    0,
    0,
    0,
    0,
    0,
    0,
    0,
    0,
    0,
    0,
    0,
    0,
    0,
    1552,
    0,
    0,
    1552,
    1552,
    1552,
    0,
    0,
    0,
    0,
    0,
    0,
    0,
    0,
    0,
    1552,
    1552,
    0,
    0,
    0,
    0,
    0,
    0,
    0,
    0,
    0,
    0,
    0,
    0,
    0,
    0,
    0,
    0,
    0,
    0,
    0,
    0,
    0,
    1552,
    1552,
    1552,
    0,
    0,
    0,
    0,
    0,
    0,
    0,
    0,
    0,
    0,
    0,
    0,
    0,
    0,
    0,
    0,
    0,
    0,
    0,
    0,
    0,
    0,
    0,
    0,
    0,
    0,
    0,
    0,
    0,
    0,
    0,
    0,
    0,
    0,
    0,
    0,
    0,
    0,
    0,
    0,
    0,
    0,
    0,
    0,
    0,
    0,
    0,
    0,
    0,
    0,
    0,
    0,
    0,
    0,
    0,
    0,
    0,
    1552,
    1552,
    0,
    1552,
    1552,
    0,
    1552,
    1552,
    1552,
    0,
    0,
    0,
    0,
    0,
    0,
    0,
    0,
    0,
    0,
    0,
    0,
    0,
    0,
    0,
    0,
    0,
    0,
    0,
    0,
    1552,
    1552,
    1552,
    1552,
    1552,
    1552,
    1552,
    1552,
    1552,
    0,
    0,
    0,
    0,
    0,
    0,
    0,
    1552,
    1552,
    1552,
    0,
    0,
    0,
    0,
    0,
    0,
    0,
    0,
    0,
    0,
    0,
    1552,
    0,
    0,
    0,
    0,
    0,
    0,
    0,
    1552,
    1552,
    0,
    0,
    0,
    0,
    0,
    0,
    0,
    0,
    0,
    0,
    0,
    0,
    0,
    0,
    0,
    0,
    0,
    0,
    0,
    0,
    0,
    0,
    0,
    0,
    0,
    0,
    0,
    0,
    0,
    0,
    0,
    0,
    0,
    0,
    0,
    0,
    0,
    0,
    0,
    0,
    0,
    0,
    0,
    0,
    0,
    0,
    0,
    0,
    0,
    0,
    0,
    0,
    0,
    0,
    0,
    0,
    0,
    0,
    0,
    1552,
    1552,
    1552,
    1552,
    1552,
    1552,
    0,
    1552,
    1552,
    1552,
    1552,
    0,
    0,
    0,
    0,
    0,
    1552,
    1552,
    0,
    1552,
    1552,
    0,
    0,
    0,
    0,
    0,
    0,
    0,
    0,
    1552,
    1552,
    1552,
    1552,
    1552,
    1552,
    1552,
    1552,
    1552,
    1552,
    0,
    0,
    0,
    0,
    0,
    0,
    1552,
    1552,
    0,
    1552,
    0,
    0,
    0,
    1552,
    1552,
    0,
    0,
    0,
    0,
    1552,
    1552,
    1552,
    1552,
    0,
    0,
    0,
    0,
    0,
    1552,
    1552,
    0,
    0,
    0,
    0,
    0,
    0,
    0,
    0,
    0,
    0,
    0,
    0,
    0,
    0,
    0,
    0,
    0,
    0,
    0,
    0,
    0,
    0,
    0,
    0,
    0,
    0,
    0,
    0,
    0,
    0,
    0,
    0,
    0,
    0,
    0,
    0,
    0,
    0,
    0,
    0,
    0,
    0,
    0,
    0,
    0,
    0,
    0,
    0,
    0,
    0,
    0,
    0,
    0,
    0,
    0,
    0,
    0,
    0,
    0,
    0,
    0,
    1552,
    1552,
    1552,
    1552,
    1552,
    0,
    1552,
    1552,
    0,
    0,
    0,
    0,
    1552,
    1552,
    1552,
    1552,
    1552,
    1552,
    0,
    1552,
    0,
    0,
    0,
    0,
    0,
    0,
    1552,
    0,
    1552,
    1552,
    1552,
    1552,
    1552,
    1552,
    1552,
    1552,
    1552,
    1552,
    0,
    0,
    0,
    0,
    0,
    0,
    1552,
    1552,
    0,
    0,
    0,
    0,
    1552,
    1552,
    0,
    0,
    0,
    0,
    0,
    1552,
    1552,
    1552,
    1552,
    0,
    0,
    0,
    0,
    1552,
    1552,
    0,
    0,
    0,
    0,
    0,
    0,
    0,
    0,
    0,
    0,
    0,
    0,
    0,
    0,
    0,
    0,
    0,
    0,
    0,
    0,
    0,
    0,
    0,
    0,
    0,
    0,
    0,
    0,
    0,
    0,
    0,
    0,
    0,
    0,
    0,
    0,
    0,
    0,
    0,
    0,
    0,
    0,
    0,
    0,
    0,
    0,
    0,
    0,
    0,
    0,
    0,
    0,
    0,
    0,
    0,
    0,
    0,
    0,
    0,
    0,
    0,
    0,
    1552,
    1552,
    1552,
    1552,
    1552,
    0,
    1552,
    1552,
    1552,
    0,
    0,
    1552,
    1552,
    0,
    1552,
    1552,
    1552,
    1552,
    0,
    0,
    0,
    0,
    0,
    0,
    0,
    1552,
    1552,
    1552,
    1552,
    1552,
    1552,
    1552,
    1552,
    1552,
    1552,
    1552,
    1552,
    0,
    0,
    0,
    0,
    0,
    1552,
    1552,
    1552,
    0,
    0,
    0,
    0,
    0,
    1552,
    1552,
    0,
    0,
    0,
    0,
    0,
    0,
    1552,
    1552,
    1552,
    0,
    0,
    0,
    1552,
    1552,
    0,
    0,
    0,
    0,
    0,
    0,
    0,
    0,
    0,
    0,
    0,
    0,
    0,
    0,
    0,
    0,
    0,
    0,
    0,
    0,
    0,
    0,
    0,
    0,
    0,
    0,
    0,
    0,
    0,
    0,
    0,
    0,
    0,
    0,
    0,
    0,
    0,
    0,
    0,
    0,
    0,
    0,
    0,
    0,
    0,
    0,
    0,
    0,
    0,
    0,
    0,
    0,
    0,
    0,
    0,
    0,
    0,
    0,
    0,
    0,
    0,
    0,
    0,
    0,
    0,
    0,
    0,
    1552,
    1552,
    1552,
    1552,
    1552,
    1552,
    1552,
    1552,
    1552,
    1552,
    1552,
    1552,
    1552,
    1552,
    1552,
    1552,
    0,
    0,
    0,
    0,
    1552,
    1552,
    1552,
    1552,
    1552,
    1552,
    1552,
    1552,
    1552,
    1552,
    1552,
    0,
    0,
    0,
    0,
    0,
    0,
    0,
    0,
    1552,
    0,
    0,
    0,
    0,
    0,
    1552,
    1552,
    0,
    1552,
    1552,
    0,
    0,
    0,
    0,
    0,
    1552,
    1552,
    0,
    0,
    1552,
    1552,
    0,
    0,
    0,
    0,
    0,
    0,
    0,
    0,
    0,
    0,
    0,
    0,
    0,
    0,
    0,
    0,
    0,
    0,
    0,
    0,
    0,
    0,
    0,
    0,
    0,
    0,
    0,
    0,
    0,
    0,
    0,
    0,
    0,
    0,
    0,
    0,
    0,
    0,
    0,
    0,
    0,
    0,
    0,
    0,
    0,
    0,
    0,
    0,
    0,
    0,
    0,
    0,
    0,
    0,
    0,
    0,
    0,
    0,
    0,
    0,
    0,
    0,
    0,
    0,
    0,
    0,
    0,
    1552,
    1552,
    1552,
    1552,
    0,
    1552,
    1552,
    0,
    1552,
    1552,
    1552,
    1552,
    1552,
    1552,
    1552,
    1552,
    1552,
    0,
    0,
    0,
    0,
    1552,
    1552,
    1552,
    1552,
    1552,
    1552,
    1552,
    1552,
    1552,
    1552,
    0,
    0,
    0,
    0,
    0,
    0,
    0,
    0,
    0,
    0,
    0,
    0,
    0,
    0,
    0,
    0,
    0,
    1552,
    1552,
    0,
    0,
    0,
    0,
    0,
    1552,
    1552,
    1552,
    1552,
    1552,
    0,
    0,
    0,
    0,
    0,
    0,
    0,
    0,
    0,
    0,
    0,
    0,
    0,
    0,
    0,
    0,
    0,
    0,
    0,
    0,
    0,
    0,
    0,
    0,
    0,
    0,
    0,
    0,
    0,
    0,
    0,
    0,
    0,
    0,
    0,
    0,
    0,
    0,
    0,
    0,
    0,
    0,
    0,
    0,
    0,
    0,
    0,
    0,
    0,
    0,
    0,
    0,
    0,
    0,
    0,
    0,
    0,
    0,
    1552,
    0,
    0,
    0,
    0,
    0,
    0,
    0,
    0,
    0,
    0,
    1552,
    1552,
    1552,
    1552,
    1552,
    1552,
    1552,
    0,
    1552,
    1552,
    1552,
    1552,
    1552,
    1552,
    1552,
    1552,
    0,
    0,
    0,
    0,
    1552,
    1552,
    1552,
    1552,
    1552,
    0,
    1552,
    1552,
    1552,
    0,
    0,
    0,
    0,
    0,
    0,
    0,
    0,
    0,
    0,
    0,
    0,
    0,
    0,
    0,
    0,
    0,
    0,
    0,
    0,
    0,
    0,
    0,
    0,
    0,
    0,
    1552,
    1552,
    1552,
    1552,
    0,
    0,
    0,
    0,
    0,
    0,
    0,
    0,
    0,
    0,
    0,
    0,
    0,
    0,
    0,
    0,
    0,
    0,
    0,
    0,
    0,
    0,
    0,
    0,
    0,
    0,
    0,
    0,
    0,
    0,
    0,
    0,
    0,
    0,
    0,
    0,
    0,
    0,
    0,
    0,
    0,
    0,
    0,
    0,
    0,
    0,
    0,
    0,
    0,
    0,
    0,
    0,
    0,
    0,
    0,
    0,
    1552,
    1552,
    0,
    0,
    1552,
    1552,
    1552,
    0,
    0,
    0,
    0,
    0,
    1552,
    1552,
    1552,
    1552,
    1552,
    1552,
    1552,
    0,
    1552,
    1552,
    1552,
    1552,
    1552,
    1552,
    1552,
    1552,
    1552,
    1552,
    0,
    0,
    0,
    0,
    0,
    0,
    1552,
    1552,
    1552,
    0,
    0,
    1552,
    0,
    0,
    0,
    0,
    0,
    0,
    1552,
    0,
    0,
    0,
    0,
    0,
    0,
    0,
    0,
    0,
    0,
    0,
    0,
    0,
    0,
    0,
    0,
    0,
    0,
    0,
    0,
    0,
    0,
    0,
    0,
    0,
    0,
    0,
    0,
    0,
    0,
    0,
    0,
    0,
    0,
    0,
    0,
    0,
    0,
    0,
    0,
    0,
    0,
    0,
    0,
    0,
    0,
    0,
    0,
    0,
    0,
    0,
    0,
    0,
    0,
    1552,
    1552,
    0,
    0,
    0,
    0,
    0,
    0,
    0,
    0,
    0,
    0,
    0,
    0,
    0,
    0,
    0,
    0,
    0,
    0,
    0,
    1552,
    0,
    1552,
    0,
    1552,
    1552,
    0,
    0,
    1552,
    1552,
    1552,
    1552,
    0,
    0,
    0,
    0,
    1552,
    1552,
    1552,
    1552,
    1552,
    1552,
    1552,
    1552,
    1552,
    1552,
    0,
    1552,
    1552,
    1552,
    1552,
    0,
    1552,
    1552,
    0,
    0,
    0,
    0,
    0,
    0,
    0,
    1552,
    1552,
    1552,
    1552,
    0,
    0,
    0,
    0,
    0,
    0,
    1552,
    0,
    0,
    0,
    0,
    0,
    0,
    0,
    0,
    0,
    0,
    0,
    0,
    0,
    1552,
    1552,
    1552,
    1552,
    1552,
    0,
    0,
    0,
    0,
    0,
    0,
    0,
    0,
    0,
    0,
    0,
    0,
    0,
    0,
    0,
    0,
    0,
    0,
    0,
    0,
    0,
    0,
    0,
    0,
    0,
    0,
    0,
    0,
    0,
    0,
    0,
    1552,
    1552,
    0,
    0,
    0,
    0,
    1552,
    1552,
    0,
    1552,
    1552,
    0,
    0,
    0,
    0,
    0,
    0,
    0,
    0,
    0,
    0,
    0,
    1552,
    1552,
    1552,
    0,
    0,
    0,
    0,
    1552,
    1552,
    0,
    1552,
    1552,
    1552,
    1552,
    1552,
    1552,
    1552,
    0,
    0,
    0,
    0,
    1552,
    1552,
    1552,
    1552,
    1552,
    1552,
    1552,
    1552,
    1552,
    1552,
    1552,
    1552,
    1552,
    1552,
    1552,
    1552,
    0,
    0,
    1552,
    0,
    0,
    0,
    0,
    0,
    0,
    0,
    1552,
    1552,
    0,
    0,
    0,
    0,
    0,
    0,
    0,
    0,
    0,
    0,
    0,
    0,
    0,
    0,
    0,
    0,
    0,
    0,
    1552,
    0,
    0,
    1552,
    1552,
    1552,
    1552,
    0,
    1552,
    1552,
    0,
    1552,
    1552,
    0,
    0,
    0,
    1552,
    0,
    0,
    0,
    0,
    0,
    0,
    0,
    0,
    0,
    0,
    0,
    0,
    0,
    0,
    0,
    0,
    0,
    0,
    0,
    1552,
    0,
    0,
    1552,
    1552,
    1552,
    0,
    0,
    0,
    1552,
    0,
    0,
    1552,
    1552,
    0,
    0,
    0,
    0,
    0,
    0,
    0,
    0,
    0,
    1552,
    1552,
    0,
    1552,
    1552,
    1552,
    1552,
    1552,
    1552,
    1552,
    1552,
    1552,
    0,
    1552,
    1552,
    1552,
    1552,
    1552,
    0,
    0,
    0,
    0,
    1552,
    1552,
    1552,
    1552,
    1552,
    1552,
    1552,
    1552,
    1552,
    0,
    1552,
    1552,
    1552,
    1552,
    1552,
    1552,
    1552,
    1552,
    1552,
    0,
    1552,
    1552,
    0,
    0,
    0,
    0,
    0,
    0,
    0,
    0,
    0,
    0,
    0,
    0,
    0,
    0,
    0,
    0,
    0,
    0,
    0,
    0,
    0,
    0,
    0,
    0,
    0,
    0,
    0,
    0,
    1552,
    1552,
    1552,
    1552,
    1552,
    1552,
    1552,
    1552,
    1552,
    1552,
    1552,
    1552,
    1552,
    0,
    0,
    1552,
    0,
    0,
    1552,
    0,
    0,
    0,
    1552,
    1552,
    0,
    0,
    0,
    1552,
    1552,
    0,
    0,
    0,
    0,
    0,
    0,
    1552,
    1552,
    1552,
    1552,
    0,
    1552,
    1552,
    1552,
    1552,
    1552,
    1552,
    1552,
    0,
    0,
    0,
    0,
    0,
    0,
    0,
    1552,
    1552,
    1552,
    1552,
    1552,
    1552,
    1552,
    1552,
    1552,
    1552,
    1552,
    1552,
    1552,
    1552,
    1552,
    1552,
    1552,
    1552,
    1552,
    0,
    0,
    0,
    0,
    0,
    1552,
    1552,
    1552,
    1552,
    1552,
    1552,
    1552,
    1552,
    1552,
    1552,
    0,
    1552,
    1552,
    1552,
    1552,
    1552,
    1552,
    1552,
    1552,
    1552,
    1552,
    1552,
    1552,
    1552,
    0,
    0,
    0,
    0,
    0,
    0,
    0,
    0,
    0,
    0,
    0,
    0,
    0,
    0,
    0,
    0,
    0,
    0,
    0,
    0,
    0,
    0,
    0,
    1552,
    0,
    1552,
    1552,
    1552,
    1552,
    1552,
    1552,
    1552,
    1552,
    1552,
    1552,
    1552,
    1552,
    1552,
    1552,
    1552,
    1552,
    1552,
    1552,
    1552,
    0,
    0,
    1552,
    0,
    1552,
    1552,
    1552,
    1552,
    0,
    1552,
    1552,
    1552,
    0,
    1552,
    1552,
    1552,
    1552,
    1552,
    1552,
    1552,
    1552,
    0,
    1552,
    1552,
    1552,
    1552,
    1552,
    0,
    1552,
    1552,
    0,
    0,
    0,
    0,
    0,
    1552,
    1552,
    1552,
    1552,
    1552,
    1552,
    1552,
    1552,
    1552,
    0,
    1552,
    1552,
    1552,
    1552,
    1552,
    0,
    1552,
    1552,
    1552,
    1552,
    0,
    0,
    0,
    0,
    0,
    1552,
    1552,
    1552,
    1552,
    1552,
    1552,
    1552,
    1552,
    1552,
    1552,
    1552,
    1552,
    1552,
    1552,
    1552,
    1552,
    1552,
    1552,
    1552,
    1552,
    1552,
    1552,
    1552,
    1552,
    0,
    0,
    0,
    0,
    0,
    0,
    0,
    0,
    0,
    0,
    0,
    0,
    0,
    0,
    0,
    0,
    0,
    0,
    0,
    0,
    1552,
    0,
    0,
    1552,
    1552,
    1552,
    1552,
    1552,
    1552,
    1552,
    1552,
    1552,
    1552,
    1552,
    1552,
    1552,
    1552,
    1552,
    1552,
    1552,
    1552,
    0,
    1552,
    1552,
    1552,
    1552,
    1552,
    1552,
    1552,
    1552,
    1552,
    1552,
    0,
    0,
    1552,
    1552,
    1552,
    1552,
    1552,
    1552,
    0,
    1552,
    1552,
    0,
    1552,
    1552,
    0,
    1552,
    0,
    0,
    1552,
    1552,
    1552,
    1552,
    0,
    0,
    0,
    0,
    0,
    0,
    1552,
    1552,
    1552,
    1552,
    1552,
    1552,
    1552,
    1552,
    1552,
    1552,
    1552,
    1552,
    1552,
    1552,
    1552,
    1552,
    1552,
    1552,
    1552,
    0,
    0,
    0,
    0,
    1552,
    1552,
    1552,
    0,
    1552,
    1552,
    1552,
    1552,
    1552,
    1552,
    1552,
    1552,
    1552,
    1552,
    1552,
    1552,
    1552,
    1552,
    1552,
    1552,
    1552,
    1552,
    1552,
    1552,
    1552,
    1552,
    1552,
    0,
    0,
    0,
    0,
    0,
    0,
    0,
    0,
    0,
    0,
    0,
    0,
    0,
    0,
    0,
    0,
    0,
    0,
    0,
    0,
    1552,
    1552,
    1552,
    1552,
    1552,
    1552,
    1552,
    1552,
    1552,
    1552,
    1552,
    1552,
    1552,
    1552,
    1552,
    1552,
    1552,
    1552,
    1552,
    1552,
    1552,
    1552,
    1552,
    1552,
    1552,
    1552,
    1552,
    1552,
    0,
    1552,
    1552,
    1552,
    0,
    1552,
    1552,
    0,
    0,
    1552,
    1552,
    1552,
    1552,
    1552,
    1552,
    1552,
    1552,
    0,
    1552,
    1552,
    1552,
    1552,
    1552,
    0,
    0,
    0,
    0,
    0,
    0,
    1552,
    0,
    1552,
    1552,
    1552,
    1552,
    1552,
    1552,
    0,
    1552,
    1552,
    1552,
    1552,
    1552,
    1552,
    1552,
    1552,
    1552,
    0,
    0,
    0,
    0,
    1552,
    0,
    0,
    0,
    0,
    1552,
    1552,
    1552,
    1552,
    1552,
    1552,
    0,
    1552,
    1552,
    0,
    0,
    0,
    1552,
    1552,
    1552,
    1552,
    1552,
    1552,
    1552,
    1552,
    1552,
    1552,
    1552,
    1552,
    0,
    1552,
    1552,
    0,
    0,
    0,
    0,
    0,
    0,
    0,
    0,
    0,
    0,
    0,
    0,
    0,
    0,
    0,
    0,
    1552,
    1552,
    1552,
    1552,
    1552,
    1552,
    1552,
    1552,
    1552,
    1552,
    1552,
    1552,
    1552,
    1552,
    1552,
    1552,
    1552,
    1552,
    1552,
    1552,
    1552,
    1552,
    1552,
    1552,
    1552,
    0,
    1552,
    1552,
    1552,
    1552,
    1552,
    1552,
    0,
    1552,
    1552,
    1552,
    0,
    1552,
    1552,
    1552,
    1552,
    1552,
    1552,
    1552,
    1552,
    1552,
    1552,
    1552,
    1552,
    1552,
    1552,
    1552,
    0,
    0,
    0,
    0,
    0,
    0,
    0,
    0,
    1552,
    1552,
    1552,
    1552,
    1552,
    1552,
    1552,
    1552,
    1552,
    0,
    1552,
    1552,
    1552,
    0,
    1552,
    1552,
    1552,
    0,
    0,
    0,
    0,
    1552,
    0,
    1552,
    1552,
    1552,
    1552,
    1552,
    1552,
    1552,
    1552,
    1552,
    1552,
    1552,
    1552,
    1552,
    1552,
    1552,
    1552,
    1552,
    1552,
    1552,
    1552,
    1552,
    1552,
    1552,
    1552,
    1552,
    1552,
    1552,
    1552,
    1552,
    0,
    0,
    1552,
    0,
    0,
    0,
    0,
    0,
    0,
    0,
    0,
    1552,
    0,
    0,
    0,
    1552,
    1552,
    1552,
    1552,
    1552,
    1552,
    1552,
    1552,
    1552,
    1552,
    0,
    1552,
    1552,
    1552,
    1552,
    0,
    1552,
    1552,
    1552,
    1552,
    0,
    1552,
    1552,
    1552,
    1552,
    0,
    1552,
    0,
    1552,
    1552,
    1552,
    1552,
    1552,
    1552,
    1552,
    1552,
    1552,
    1552,
    1552,
    1552,
    0,
    1552,
    1552,
    1552,
    1552,
    1552,
    1552,
    1552,
    0,
    1552,
    1552,
    1552,
    0,
    0,
    0,
    0,
    0,
    0,
    0,
    0,
    0,
    0,
    0,
    0,
    1552,
    1552,
    0,
    1552,
    1552,
    0,
    1552,
    0,
    1552,
    1552,
    1552,
    1552,
    1552,
    1552,
    0,
    0,
    0,
    0,
    0,
    1552,
    1552,
    1552,
    1552,
    0,
    1552,
    1552,
    1552,
    1552,
    1552,
    1552,
    0,
    0,
    1552
   ]
  },
  {
   "id": 4,
   "name": "constructions",
   "type": "objectgroup",
   "x": 0,
   "y": 0,
   "width": 0,
   "height": 0,
   "opacity": 1,
   "visible": true,
   "draworder": "topdown",
   "objects": [
    {
     "height": 0,
     "id": 7,
     "name": "bridge-1",
     "point": true,
     "properties": [
      {
       "name": "footprint:wood",
       "type": "string",
       "value": "32,62,1,2"
      },
      {
       "name": "levels",
       "type": "string",
       "value": "wood"
      },
      {
       "name": "orientation",
       "type": "string",
       "value": "vertical"
      }
     ],
     "rotation": 0,
     "type": "bridge",
     "visible": true,
     "width": 0,
     "x": 1300,
     "y": 2520
    },
    {
     "height": 0,
     "id": 8,
     "name": "bridge-2",
     "point": true,
     "properties": [
      {
       "name": "footprint:stone",
       "type": "string",
       "value": "43,70,2,3"
      },
      {
       "name": "footprint:wood",
       "type": "string",
       "value": "43,70,1,3"
      },
      {
       "name": "levels",
       "type": "string",
       "value": "wood,stone"
      },
      {
       "name": "orientation",
       "type": "string",
       "value": "vertical"
      }
     ],
     "rotation": 0,
     "type": "bridge",
     "visible": true,
     "width": 0,
     "x": 1740,
     "y": 2860
    },
    {
     "height": 0,
     "id": 9,
     "name": "bridge-3",
     "point": true,
     "properties": [
      {
       "name": "footprint:stone",
       "type": "string",
       "value": "64,83,2,3"
      },
      {
       "name": "footprint:wood",
       "type": "string",
       "value": "64,83,1,3"
      },
      {
       "name": "levels",
       "type": "string",
       "value": "wood,stone"
      },
      {
       "name": "orientation",
       "type": "string",
       "value": "vertical"
      }
     ],
     "rotation": 0,
     "type": "bridge",
     "visible": true,
     "width": 0,
     "x": 2580,
     "y": 3380
    },
    {
     "height": 0,
     "id": 10,
     "name": "bridge-4",
     "point": true,
     "properties": [
      {
       "name": "footprint:stone",
       "type": "string",
       "value": "10,52,2,5"
      },
      {
       "name": "footprint:wood",
       "type": "string",
       "value": "10,52,1,4"
      },
      {
       "name": "levels",
       "type": "string",
       "value": "wood,stone"
      },
      {
       "name": "orientation",
       "type": "string",
       "value": "vertical"
      }
     ],
     "rotation": 0,
     "type": "bridge",
     "visible": true,
     "width": 0,
     "x": 420,
     "y": 2160
    },
    {
     "height": 0,
     "id": 11,
     "name": "tower-1",
     "point": true,
     "properties": [
      {
       "name": "footprint:grass",
       "type": "string",
       "value": "24,8,2,3"
      },
      {
       "name": "levels",
       "type": "string",
       "value": "grass"
      }
     ],
     "rotation": 0,
     "type": "tower",
     "visible": true,
     "width": 0,
     "x": 1000,
     "y": 380
    },
    {
     "height": 0,
     "id": 12,
     "name": "tower-2",
     "point": true,
     "properties": [
      {
       "name": "footprint:grass",
       "type": "string",
       "value": "12,15,2,3"
      },
      {
       "name": "levels",
       "type": "string",
       "value": "grass"
      }
     ],
     "rotation": 0,
     "type": "tower",
     "visible": true,
     "width": 0,
     "x": 520,
     "y": 660
    },
    {
     "height": 0,
     "id": 13,
     "name": "tower-3",
     "point": true,
     "properties": [
      {
       "name": "footprint:grass",
       "type": "string",
       "value": "20,52,2,3"
      },
      {
       "name": "levels",
       "type": "string",
       "value": "grass"
      }
     ],
     "rotation": 0,
     "type": "tower",
     "visible": true,
     "width": 0,
     "x": 840,
     "y": 2140
    },
    {
     "height": 0,
     "id": 14,
     "name": "tower-4",
     "point": true,
     "properties": [
      {
       "name": "footprint:grass",
       "type": "string",
       "value": "12,47,2,3"
      },
      {
       "name": "levels",
       "type": "string",
       "value": "grass"
      }
     ],
     "rotation": 0,
     "type": "tower",
     "visible": true,
     "width": 0,
     "x": 520,
     "y": 1940
    },
    {
     "height": 0,
     "id": 15,
     "name": "tower-5",
     "point": true,
     "properties": [
      {
       "name": "footprint:grass",
       "type": "string",
       "value": "8,57,2,3"
      },
      {
       "name": "levels",
       "type": "string",
       "value": "grass"
      }
     ],
     "rotation": 0,
     "type": "tower",
     "visible": true,
     "width": 0,
     "x": 360,
     "y": 2340
    },
    {
     "height": 0,
     "id": 16,
     "name": "tower-6",
     "point": true,
     "properties": [
      {
       "name": "footprint:grass",
       "type": "string",
       "value": "11,74,2,3"
      },
      {
       "name": "levels",
       "type": "string",
       "value": "grass"
      }
     ],
     "rotation": 0,
     "type": "tower",
     "visible": true,
     "width": 0,
     "x": 480,
     "y": 3020
    },
    {
     "height": 0,
     "id": 17,
     "name": "tower-7",
     "point": true,
     "properties": [
      {
       "name": "footprint:grass",
       "type": "string",
       "value": "3,113,2,3"
      },
      {
       "name": "levels",
       "type": "string",
       "value": "grass"
      }
     ],
     "rotation": 0,
     "type": "tower",
     "visible": true,
     "width": 0,
     "x": 160,
     "y": 4580
    },
    {
     "height": 0,
     "id": 18,
     "name": "tower-8",
     "point": true,
     "properties": [
      {
       "name": "footprint:grass",
       "type": "string",
       "value": "19,110,2,3"
      },
      {
       "name": "levels",
       "type": "string",
       "value": "grass"
      }
     ],
     "rotation": 0,
     "type": "tower",
     "visible": true,
     "width": 0,
     "x": 800,
     "y": 4460
    },
    {
     "height": 0,
     "id": 19,
     "name": "tower-9",
     "point": true,
     "properties": [
      {
       "name": "footprint:grass",
       "type": "string",
       "value": "32,112,2,3"
      },
      {
       "name": "levels",
       "type": "string",
       "value": "grass"
      }
     ],
     "rotation": 0,
     "type": "tower",
     "visible": true,
     "width": 0,
     "x": 1320,
     "y": 4540
    },
    {
     "height": 0,
     "id": 20,
     "name": "tower-10",
     "point": true,
     "properties": [
      {
       "name": "footprint:grass",
       "type": "string",
       "value": "50,119,2,3"
      },
      {
       "name": "levels",
       "type": "string",
       "value": "grass"
      }
     ],
     "rotation": 0,
     "type": "tower",
     "visible": true,
     "width": 0,
     "x": 2040,
     "y": 4820
    },
    {
     "height": 0,
     "id": 21,
     "name": "tower-11",
     "point": true,
     "properties": [
      {
       "name": "footprint:grass",
       "type": "string",
       "value": "20,62,2,3"
      },
      {
       "name": "levels",
       "type": "string",
       "value": "grass"
      }
     ],
     "rotation": 0,
     "type": "tower",
     "visible": true,
     "width": 0,
     "x": 840,
     "y": 2540
    },
    {
     "height": 0,
     "id": 22,
     "name": "tower-12",
     "point": true,
     "properties": [
      {
       "name": "footprint:grass",
       "type": "string",
       "value": "32,57,2,3"
      },
      {
       "name": "levels",
       "type": "string",
       "value": "grass"
      }
     ],
     "rotation": 0,
     "type": "tower",
     "visible": true,
     "width": 0,
     "x": 1320,
     "y": 2340
    },
    {
     "height": 0,
     "id": 23,
     "name": "tower-13",
     "point": true,
     "properties": [
      {
       "name": "footprint:grass",
       "type": "string",
       "value": "47,67,2,3"
      },
      {
       "name": "levels",
       "type": "string",
       "value": "grass"
      }
     ],
     "rotation": 0,
     "type": "tower",
     "visible": true,
     "width": 0,
     "x": 1920,
     "y": 2740
    },
    {
     "height": 0,
     "id": 24,
     "name": "tower-14",
     "point": true,
     "properties": [
      {
       "name": "footprint:grass",
       "type": "string",
       "value": "53,70,2,3"
      },
      {
       "name": "levels",
       "type": "string",
       "value": "grass"
      }
     ],
     "rotation": 0,
     "type": "tower",
     "visible": true,
     "width": 0,
     "x": 2160,
     "y": 2860
    },
    {
     "height": 0,
     "id": 25,
     "name": "tower-15",
     "point": true,
     "properties": [
      {
       "name": "footprint:grass",
       "type": "string",
       "value": "64,79,2,3"
      },
      {
       "name": "levels",
       "type": "string",
       "value": "grass"
      }
     ],
     "rotation": 0,
     "type": "tower",
     "visible": true,
     "width": 0,
     "x": 2600,
     "y": 3220
    },
    {
     "height": 0,
     "id": 26,
     "name": "tower-16",
     "point": true,
     "properties": [
      {
       "name": "footprint:grass",
       "type": "string",
       "value": "71,84,2,3"
      },
      {
       "name": "levels",
       "type": "string",
       "value": "grass"
      }
     ],
     "rotation": 0,
     "type": "tower",
     "visible": true,
     "width": 0,
     "x": 2880,
     "y": 3420
    },
    {
     "height": 0,
     "id": 27,
     "name": "tower-17",
     "point": true,
     "properties": [
      {
       "name": "footprint:grass",
       "type": "string",
       "value": "43,7,2,3"
      },
      {
       "name": "levels",
       "type": "string",
       "value": "grass"
      }
     ],
     "rotation": 0,
     "type": "tower",
     "visible": true,
     "width": 0,
     "x": 1760,
     "y": 340
    },
    {
     "height": 0,
     "id": 28,
     "name": "tower-18",
     "point": true,
     "properties": [
      {
       "name": "footprint:grass",
       "type": "string",
       "value": "117,15,2,3"
      },
      {
       "name": "levels",
       "type": "string",
       "value": "grass"
      }
     ],
     "rotation": 0,
     "type": "tower",
     "visible": true,
     "width": 0,
     "x": 4720,
     "y": 660
    },
    {
     "height": 0,
     "id": 29,
     "name": "tower-19",
     "point": true,
     "properties": [
      {
       "name": "footprint:grass",
       "type": "string",
       "value": "117,51,2,3"
      },
      {
       "name": "levels",
       "type": "string",
       "value": "grass"
      }
     ],
     "rotation": 0,
     "type": "tower",
     "visible": true,
     "width": 0,
     "x": 4720,
     "y": 2100
    },
    {
     "height": 0,
     "id": 30,
     "name": "tower-20",
     "point": true,
     "properties": [
      {
       "name": "footprint:grass",
       "type": "string",
       "value": "123,85,2,3"
      },
      {
       "name": "levels",
       "type": "string",
       "value": "grass"
      }
     ],
     "rotation": 0,
     "type": "tower",
     "visible": true,
     "width": 0,
     "x": 4960,
     "y": 3460
    },
    {
     "height": 0,
     "id": 31,
     "name": "tower-21",
     "point": true,
     "properties": [
      {
       "name": "footprint:grass",
       "type": "string",
       "value": "121,97,2,3"
      },
      {
       "name": "levels",
       "type": "string",
       "value": "grass"
      }
     ],
     "rotation": 0,
     "type": "tower",
     "visible": true,
     "width": 0,
     "x": 4880,
     "y": 3940
    },
    {
     "height": 0,
     "id": 32,
     "name": "tower-22",
     "point": true,
     "properties": [
      {
       "name": "footprint:grass",
       "type": "string",
       "value": "107,107,2,3"
      },
      {
       "name": "levels",
       "type": "string",
       "value": "grass"
      }
     ],
     "rotation": 0,
     "type": "tower",
     "visible": true,
     "width": 0,
     "x": 4320,
     "y": 4340
    },
    {
     "height": 0,
     "id": 33,
     "name": "tower-23",
     "point": true,
     "properties": [
      {
       "name": "footprint:grass",
       "type": "string",
       "value": "64,98,2,3"
      },
      {
       "name": "levels",
       "type": "string",
       "value": "grass"
      }
     ],
     "rotation": 0,
     "type": "tower",
     "visible": true,
     "width": 0,
     "x": 2600,
     "y": 3980
    },
    {
     "height": 0,
     "id": 34,
     "name": "tower-24",
     "point": true,
     "properties": [
      {
       "name": "footprint:grass",
       "type": "string",
       "value": "62,58,2,3"
      },
      {
       "name": "levels",
       "type": "string",
       "value": "grass"
      }
     ],
     "rotation": 0,
     "type": "tower",
     "visible": true,
     "width": 0,
     "x": 2520,
     "y": 2380
    },
    {
     "height": 0,
     "id": 35,
     "name": "castle-1",
     "point": true,
     "properties": [
      {
       "name": "footprint:1",
       "type": "string",
       "value": "87,19,11,11"
      },
      {
       "name": "footprint:2",
       "type": "string",
       "value": "83,16,15,15"
      },
      {
       "name": "footprint:3",
       "type": "string",
       "value": "79,13,18,19"
      },
      {
       "name": "footprint:4",
       "type": "string",
       "value": "77,11,21,21"
      },
      {
       "name": "footprint:5-moated",
       "type": "string",
       "value": "75,8,30,29"
      },
      {
       "name": "footprint:5-unmoated",
       "type": "string",
       "value": "74,7,31,27"
      },
      {
       "name": "footprint:6-moated",
       "type": "string",
       "value": "72,5,39,34"
      },
      {
       "name": "footprint:6-unmoated",
       "type": "string",
       "value": "70,3,41,40"
      },
      {
       "name": "footprint:7-moated",
       "type": "string",
       "value": "68,1,49,48"
      },
      {
       "name": "levels",
       "type": "string",
       "value": "1,2,3,4,5-unmoated,6-unmoated,5-moated,6-moated,7-moated"
      }
     ],
     "rotation": 0,
     "type": "castle",
     "visible": true,
     "width": 0,
     "x": 3700,
     "y": 980
    },
    {
     "height": 0,
     "id": 36,
     "name": "castle-2",
     "point": true,
     "properties": [
      {
       "name": "footprint:1",
       "type": "string",
       "value": "10,88,11,11"
      },
      {
       "name": "footprint:2",
       "type": "string",
       "value": "9,87,15,15"
      },
      {
       "name": "footprint:3",
       "type": "string",
       "value": "7,86,18,19"
      },
      {
       "name": "footprint:4",
       "type": "string",
       "value": "5,83,21,21"
      },
      {
       "name": "footprint:5-moated",
       "type": "string",
       "value": "3,81,30,29"
      },
      {
       "name": "levels",
       "type": "string",
       "value": "1,2,3,4,5-moated"
      }
     ],
     "rotation": 0,
     "type": "castle",
     "visible": true,
     "width": 0,
     "x": 620,
     "y": 3740
    },
    {
     "height": 0,
     "id": 37,
     "name": "castle-3",
     "point": true,
     "properties": [
      {
       "name": "footprint:1",
       "type": "string",
       "value": "72,63,11,11"
      },
      {
       "name": "footprint:2",
       "type": "string",
       "value": "70,61,15,15"
      },
      {
       "name": "footprint:3",
       "type": "string",
       "value": "68,59,18,19"
      },
      {
       "name": "levels",
       "type": "string",
       "value": "1,2,3"
      }
     ],
     "rotation": 0,
     "type": "castle",
     "visible": true,
     "width": 0,
     "x": 3100,
     "y": 2740
    },
    {
     "height": 0,
     "id": 38,
     "name": "castle-4",
     "point": true,
     "properties": [
      {
       "name": "footprint:1",
       "type": "string",
       "value": "4,35,11,11"
      },
      {
       "name": "footprint:2",
       "type": "string",
       "value": "3,33,15,15"
      },
      {
       "name": "levels",
       "type": "string",
       "value": "1,2"
      }
     ],
     "rotation": 0,
     "type": "castle",
     "visible": true,
     "width": 0,
     "x": 380,
     "y": 1620
    },
    {
     "height": 0,
     "id": 39,
     "name": "castle-5",
     "point": true,
     "properties": [
      {
       "name": "footprint:1",
       "type": "string",
       "value": "101,62,11,11"
      },
      {
       "name": "footprint:2",
       "type": "string",
       "value": "99,62,15,15"
      },
      {
       "name": "levels",
       "type": "string",
       "value": "1,2"
      }
     ],
     "rotation": 0,
     "type": "castle",
     "visible": true,
     "width": 0,
     "x": 4260,
     "y": 2700
    },
    {
     "height": 0,
     "id": 40,
     "name": "castle-6",
     "point": true,
     "properties": [
      {
       "name": "footprint:1",
       "type": "string",
       "value": "31,50,11,11"
      },
      {
       "name": "levels",
       "type": "string",
       "value": "1"
      }
     ],
     "rotation": 0,
     "type": "castle",
     "visible": true,
     "width": 0,
     "x": 1460,
     "y": 2220
    },
    {
     "height": 0,
     "id": 41,
     "name": "castle-7",
     "point": true,
     "properties": [
      {
       "name": "footprint:1",
       "type": "string",
       "value": "93,104,11,11"
      },
      {
       "name": "levels",
       "type": "string",
       "value": "1"
      }
     ],
     "rotation": 0,
     "type": "castle",
     "visible": true,
     "width": 0,
     "x": 3940,
     "y": 4380
    },
    {
     "height": 0,
     "id": 42,
     "name": "castle-8",
     "point": true,
     "properties": [
      {
       "name": "footprint:1",
       "type": "string",
       "value": "42,17,11,11"
      },
      {
       "name": "levels",
       "type": "string",
       "value": "1"
      }
     ],
     "rotation": 0,
     "type": "castle",
     "visible": true,
     "width": 0,
     "x": 1900,
     "y": 900
    }
   ]
  }
 ]
}
