{
 "type": "map",
 "version": 1.1,
 "tiledversion": "1.11.0",
 "orientation": "orthogonal",
 "renderorder": "right-down",
 "width": 128,
 "height": 128,
 "tilewidth": 40,
 "tileheight": 40,
 "infinite": false,
 "nextlayerid": 4,
 "nextobjectid": 1,
 "compressionlevel": -1,
 "properties": [],
 "tilesets": [
  {
   "firstgid": 1,
   "source": "terrain.tsx"
  }
 ],
 "layers": [
  {
   "id": 1,
   "name": "terrain",
   "type": "tilelayer",
   "x": 0,
   "y": 0,
   "width": 128,
   "height": 128,
   "opacity": 1,
   "visible": true,
   "data": [
    1384,
    1384,
    1385,
    1387,
    1384,
    1385,
    1386,
    1386,
    1388,
    1388,
    1385,
    1385,
    1388,
    1387,
    1384,
    1384,
    1387,
    1383,
    1388,
    1386,
    1387,
    1384,
    1385,
    1384,
    1387,
    1387,
    1384,
    1383,
    1387,
    1385,
    1383,
    1384,
    1165,
    1384,
    1108,
    1109,
    1,
    796,
    797,
    1,
    1090,
    1385,
    1199,
    1200,
    1093,
    31,
    32,
    833,
    834,
    835,
    1106,
    1388,
    1387,
    1092,
    785,
    786,
    787,
    1106,
    1383,
    1385,
    1388,
    1147,
    1197,
    1198,
    1147,
    1388,
    1387,
    1388,
    1383,
    1164,
    1387,
    1385,
    1387,
    1388,
    1387,
    1093,
    1075,
    1152,
    6,
    4,
    5,
    5,
    5,
    1,
    5,
    4,
    1,
    15,
    16,
    6,
    5,
    6,
    3,
    6,
    1,
    3,
    4,
    2,
    2,
    6,
    1,
    3,
    5,
    1,
    1,
    1,
    1,
    3,
    6,
    2,
    1,
    5,
    6,
    1,
    1,
    1,
    1,
    2,
    4,
    4,
    5,
    4,
    3,
    3,
    6,
    15,
    16,
    1,
    1384,
    1386,
    1385,
    1386,
    1383,
    1385,
    1387,
    1384,
    1383,
    1386,
    1163,
    1388,
    1387,
    1388,
    1165,
    1387,
    1387,
    1386,
    1383,
    1387,
    1387,
    1386,
    1383,
    1384,
    1384,
    1385,
    1387,
    1383,
    1388,
    1386,
    1388,
    1387,
    1385,
    1388,
    1124,
    789,
    790,
    812,
    813,
    1105,
    1106,
    1148,
    1215,
    1216,
    1387,
    1092,
    835,
    849,
    850,
    851,
    1122,
    1383,
    1163,
    1108,
    801,
    802,
    803,
    1106,
    1386,
    1148,
    1150,
    1151,
    1213,
    1214,
    1387,
    1182,
    1148,
    1384,
    1130,
    1127,
    1130,
    1126,
    1149,
    1197,
    1198,
    1386,
    1091,
    1092,
    1075,
    1075,
    3,
    47,
    1,
    15,
    47,
    3,
    1,
    31,
    32,
    2,
    3,
    4,
    15,
    16,
    1,
    5,
    5,
    5,
    1,
    3,
    2,
    6,
    3,
    2,
    2,
    14,
    6,
    6,
    1,
    2,
    4,
    2,
    4,
    15,
    16,
    3,
    5,
    2,
    5,
    2,
    1,
    6,
    6,
    1,
    2,
    31,
    32,
    1,
    1383,
    1383,
    1387,
    1386,
    1182,
    1388,
    1386,
    1385,
    1385,
    1383,
    1383,
    1387,
    1385,
    1383,
    1383,
    1384,
    1385,
    1384,
    1388,
    1388,
    1387,
    1385,
    1387,
    1385,
    1388,
    1383,
    1385,
    1383,
    1165,
    1387,
    1385,
    1387,
    1182,
    1125,
    804,
    805,
    806,
    828,
    1,
    1090,
    1197,
    1198,
    1147,
    1387,
    1387,
    1387,
    1092,
    3,
    796,
    797,
    1105,
    1106,
    1387,
    1108,
    817,
    818,
    819,
    1122,
    1385,
    11,
    1166,
    1167,
    1130,
    1127,
    1130,
    1126,
    1163,
    1149,
    1114,
    1086,
    1087,
    1087,
    1127,
    1213,
    1214,
    1388,
    1385,
    1384,
    1091,
    1091,
    1092,
    31,
    48,
    928,
    32,
    4,
    4,
    4,
    4,
    3,
    1,
    3,
    31,
    32,
    1,
    4,
    6,
    1,
    1,
    5,
    8,
    4,
    6,
    2,
    3,
    3,
    5,
    6,
    4,
    5,
    5,
    2,
    4,
    31,
    32,
    3,
    6,
    2,
    5,
    15,
    16,
    5,
    5,
    3,
    5,
    1152,
    2,
    3,
    1383,
    11,
    1164,
    1388,
    1384,
    1386,
    1388,
    1383,
    1386,
    1388,
    1385,
    1384,
    1388,
    1386,
    1388,
    1388,
    1387,
    1383,
    11,
    1182,
    1384,
    1383,
    1388,
    1387,
    1386,
    1388,
    1383,
    1386,
    1384,
    1388,
    1387,
    1386,
    1108,
    1109,
    820,
    821,
    822,
    1090,
    1091,
    1147,
    1213,
    1214,
    1386,
    1383,
    1387,
    1388,
    1108,
    1389,
    812,
    813,
    1105,
    1106,
    1384,
    1124,
    785,
    786,
    787,
    2,
    1121,
    1388,
    1388,
    1147,
    1114,
    12,
    1086,
    1087,
    1127,
    1129,
    1087,
    1117,
    1087,
    1086,
    1087,
    1126,
    1387,
    1383,
    1182,
    1386,
    1182,
    1383,
    1108,
    1152,
    6,
    5,
    4,
    6,
    1075,
    1152,
    5,
    5,
    3,
    15,
    16,
    6,
    2,
    4,
    3,
    2,
    2,
    1,
    3,
    2,
    1,
    5,
    1,
    1,
    1,
    5,
    6,
    6,
    2,
    4,
    6,
    4,
    2,
    1,
    6,
    1,
    6,
    31,
    32,
    6,
    2,
    6,
    1,
    1,
    1,
    3,
    1386,
    1387,
    1182,
    10,
    1384,
    1386,
    1385,
    1384,
    1388,
    1383,
    1388,
    1386,
    1384,
    1383,
    1385,
    1386,
    1388,
    1386,
    1383,
    1163,
    10,
    1388,
    1164,
    1387,
    1386,
    1387,
    1385,
    1385,
    1388,
    1384,
    1387,
    1386,
    1149,
    1092,
    785,
    786,
    787,
    1106,
    1150,
    1151,
    1148,
    1387,
    1165,
    1386,
    1386,
    1386,
    1124,
    1405,
    828,
    1088,
    1090,
    1388,
    1124,
    7,
    801,
    802,
    803,
    3,
    1089,
    1387,
    1387,
    1384,
    1098,
    1086,
    1087,
    1117,
    1087,
    1087,
    1117,
    1086,
    1087,
    1083,
    1087,
    1095,
    1148,
    1199,
    1200,
    1148,
    1388,
    1197,
    1198,
    1092,
    31,
    32,
    4,
    1090,
    1091,
    1092,
    1001,
    47,
    1,
    31,
    32,
    1075,
    1075,
    3,
    1,
    15,
    16,
    1,
    5,
    4,
    1,
    6,
    2,
    1,
    4,
    3,
    15,
    16,
    1,
    2,
    4,
    6,
    5,
    1,
    3,
    2,
    8,
    47,
    4,
    1,
    3,
    4,
    4,
    2,
    4,
    3,
    1147,
    1385,
    1384,
    1147,
    1388,
    1388,
    1384,
    1386,
    1388,
    1387,
    1383,
    1384,
    1197,
    1198,
    1388,
    1199,
    1200,
    1383,
    1386,
    1384,
    1385,
    1388,
    1388,
    1385,
    1383,
    1388,
    1385,
    1383,
    1383,
    1385,
    1182,
    11,
    1147,
    1108,
    801,
    802,
    803,
    1106,
    1166,
    1167,
    1388,
    1147,
    1386,
    1383,
    1384,
    1125,
    2,
    1421,
    3,
    1090,
    1165,
    1384,
    1092,
    7,
    817,
    818,
    819,
    1090,
    1387,
    1387,
    1384,
    1148,
    1386,
    1098,
    1117,
    1086,
    1087,
    1083,
    1117,
    1117,
    1117,
    1117,
    1117,
    1126,
    1385,
    1215,
    1216,
    1182,
    1147,
    1213,
    1214,
    1386,
    1093,
    1075,
    1089,
    1164,
    1199,
    1200,
    1091,
    1091,
    1092,
    1075,
    1090,
    1091,
    1091,
    1092,
    5,
    31,
    32,
    5,
    5,
    6,
    48,
    4,
    4,
    1,
    2,
    2,
    31,
    32,
    2,
    3,
    1,
    5,
    5,
    5,
    6,
    2,
    48,
    6,
    3,
    4,
    2,
    4,
    5,
    2,
    3,
    5,
    1385,
    1388,
    1386,
    1386,
    1388,
    1385,
    1384,
    1165,
    1383,
    1385,
    1387,
    1387,
    1213,
    1214,
    1148,
    1215,
    1216,
    1383,
    1385,
    1383,
    1385,
    1385,
    1383,
    1383,
    1386,
    1383,
    1386,
    1383,
    1384,
    1385,
    1384,
    927,
    1387,
    1108,
    817,
    818,
    819,
    1122,
    1147,
    1148,
    1385,
    1384,
    1386,
    1386,
    1124,
    3,
    4,
    3,
    2,
    1121,
    1385,
    1383,
    1388,
    1093,
    836,
    837,
    838,
    1122,
    1387,
    1147,
    1197,
    1198,
    1147,
    1384,
    1097,
    1117,
    1086,
    1086,
    1087,
    1117,
    1086,
    1083,
    1086,
    1095,
    1182,
    1147,
    1149,
    1199,
    1200,
    1148,
    1384,
    1147,
    1165,
    1091,
    1150,
    1151,
    1215,
    1216,
    1197,
    1198,
    1165,
    1091,
    1383,
    1385,
    1199,
    1200,
    1092,
    4,
    1,
    2,
    1152,
    5,
    3,
    5,
    3,
    2,
    1,
    6,
    4,
    1,
    1,
    4,
    2,
    1,
    3,
    2,
    2,
    4,
    1,
    5,
    1,
    3,
    2,
    5,
    2,
    14,
    1,
    6,
    1387,
    1386,
    1385,
    1384,
    1383,
    1387,
    1388,
    1384,
    1385,
    1386,
    1385,
    1147,
    1386,
    1388,
    1197,
    1198,
    927,
    1197,
    1198,
    1182,
    1388,
    1388,
    1384,
    1388,
    1385,
    1386,
    1383,
    1388,
    1384,
    1385,
    1385,
    1383,
    1384,
    1124,
    785,
    786,
    787,
    2,
    1121,
    1147,
    1388,
    1388,
    1384,
    1124,
    4,
    2,
    5,
    4,
    3,
    1089,
    1383,
    1387,
    1076,
    1163,
    1092,
    853,
    854,
    839,
    1122,
    1383,
    1213,
    1214,
    1197,
    1198,
    1163,
    1114,
    1083,
    1117,
    1095,
    1096,
    1097,
    1095,
    1096,
    1164,
    1147,
    1197,
    1198,
    1215,
    1216,
    1387,
    1197,
    1198,
    1388,
    1383,
    1166,
    1167,
    1386,
    1147,
    1213,
    1214,
    1149,
    1147,
    1197,
    1198,
    1215,
    1216,
    1147,
    1091,
    1091,
    1091,
    1092,
    1075,
    5,
    1075,
    1075,
    1090,
    1091,
    1092,
    1,
    4,
    3,
    4,
    3,
    6,
    5,
    4,
    15,
    16,
    4,
    5,
    1,
    2,
    6,
    3,
    6,
    5,
    6,
    3,
    1384,
    1385,
    1385,
    1383,
    1387,
    1384,
    1386,
    1386,
    1384,
    1385,
    1384,
    1386,
    1150,
    1151,
    1213,
    1214,
    1148,
    1213,
    1214,
    1384,
    1383,
    1383,
    1385,
    1387,
    1386,
    1387,
    1383,
    1385,
    1383,
    1386,
    1387,
    1383,
    1124,
    7,
    801,
    802,
    803,
    3,
    1089,
    1387,
    1387,
    1383,
    1125,
    3,
    789,
    1023,
    1024,
    2,
    1090,
    1383,
    1388,
    1383,
    1387,
    1385,
    1164,
    1092,
    1,
    855,
    856,
    1121,
    1383,
    927,
    1213,
    1214,
    1164,
    1098,
    1080,
    1095,
    1163,
    1164,
    1383,
    1383,
    1147,
    1199,
    1200,
    1213,
    1214,
    1148,
    1384,
    1149,
    1213,
    1214,
    1387,
    1386,
    1384,
    1148,
    1199,
    1200,
    1148,
    1182,
    1197,
    1198,
    1213,
    1214,
    1385,
    1148,
    1199,
    1200,
    1383,
    1147,
    1388,
    1091,
    1092,
    1090,
    1091,
    1386,
    1164,
    1383,
    1092,
    5,
    2,
    5,
    4,
    4,
    1,
    4,
    31,
    32,
    1,
    6,
    6,
    15,
    16,
    5,
    2,
    2,
    4,
    6,
    1388,
    1386,
    1386,
    1386,
    1387,
    1388,
    1383,
    1384,
    1383,
    1387,
    1387,
    1385,
    1166,
    1167,
    1147,
    1148,
    1199,
    1200,
    1388,
    1384,
    1386,
    1383,
    1383,
    1388,
    1385,
    1165,
    1385,
    1388,
    1385,
    1384,
    1385,
    1164,
    1092,
    7,
    817,
    818,
    819,
    1090,
    1387,
    1387,
    1384,
    1386,
    1092,
    804,
    805,
    1039,
    1040,
    1090,
    1383,
    1388,
    1383,
    1387,
    1384,
    1387,
    1384,
    1108,
    1109,
    785,
    786,
    787,
    1106,
    1147,
    1182,
    1147,
    1149,
    1383,
    1096,
    1386,
    1386,
    1384,
    1387,
    1385,
    1388,
    1215,
    1216,
    1387,
    1385,
    1147,
    1182,
    1383,
    1387,
    1386,
    1388,
    1199,
    1200,
    1147,
    1215,
    1216,
    1388,
    1147,
    1213,
    1214,
    733,
    1147,
    1197,
    1198,
    1215,
    1216,
    1150,
    1151,
    1388,
    1148,
    1165,
    1385,
    1387,
    1387,
    1385,
    1383,
    1108,
    996,
    3,
    2,
    3,
    4,
    5,
    3,
    1152,
    6,
    6,
    3,
    1,
    31,
    32,
    1,
    4,
    2,
    4,
    4,
    1385,
    1384,
    1388,
    1164,
    1383,
    1383,
    1387,
    1386,
    1384,
    1386,
    1197,
    1198,
    1147,
    1197,
    1198,
    11,
    1215,
    1216,
    1182,
    1148,
    1383,
    1386,
    1387,
    1388,
    1386,
    1385,
    1385,
    1387,
    1385,
    1386,
    1383,
    1388,
    1388,
    1093,
    836,
    837,
    838,
    1122,
    1387,
    1385,
    1383,
    1388,
    1108,
    820,
    821,
    1055,
    1105,
    1106,
    1388,
    1387,
    1387,
    1386,
    1387,
    1165,
    1387,
    1108,
    1109,
    801,
    802,
    803,
    1106,
    1385,
    1383,
    1387,
    1383,
    1163,
    1387,
    1387,
    1385,
    1388,
    1386,
    1386,
    1383,
    1385,
    1385,
    1387,
    1387,
    1388,
    1387,
    1384,
    1387,
    1388,
    1385,
    1215,
    1216,
    1386,
    1147,
    1385,
    1149,
    1383,
    1387,
    1383,
    1385,
    1384,
    1213,
    1214,
    1386,
    1387,
    1166,
    1167,
    1182,
    1383,
    1385,
    1163,
    1388,
    1386,
    1385,
    1387,
    1386,
    1092,
    1,
    15,
    8,
    1090,
    1091,
    1092,
    5,
    3,
    3,
    2,
    2,
    6,
    1,
    5,
    1,
    1152,
    3,
    1,
    1387,
    1387,
    1386,
    1383,
    1384,
    1388,
    1387,
    1388,
    1385,
    1387,
    1213,
    1214,
    1384,
    1213,
    1214,
    1148,
    733,
    1197,
    1198,
    1384,
    1386,
    1383,
    1386,
    1384,
    1387,
    1388,
    1385,
    1383,
    1385,
    1383,
    1385,
    1383,
    1076,
    1077,
    1092,
    853,
    854,
    5,
    1122,
    1383,
    1388,
    1387,
    1108,
    836,
    837,
    838,
    1105,
    1106,
    1164,
    1388,
    1388,
    1383,
    1386,
    1383,
    1387,
    1108,
    1109,
    817,
    818,
    819,
    1122,
    1388,
    1388,
    1383,
    1386,
    1385,
    1383,
    1385,
    1386,
    1386,
    1388,
    1384,
    1387,
    1387,
    1385,
    1388,
    1383,
    1384,
    1388,
    1388,
    1383,
    1388,
    1385,
    1383,
    1386,
    1388,
    1388,
    1387,
    1385,
    1384,
    1385,
    1387,
    1388,
    1383,
    1384,
    733,
    1147,
    1385,
    1383,
    1387,
    1385,
    1383,
    1386,
    1383,
    1387,
    1383,
    1147,
    1383,
    11,
    1147,
    1092,
    31,
    1089,
    1387,
    1385,
    1108,
    1,
    48,
    2,
    1,
    3,
    2,
    6,
    6,
    2,
    3,
    8,
    6,
    1386,
    1388,
    1385,
    1385,
    1385,
    1383,
    1386,
    1385,
    1384,
    1388,
    1385,
    1385,
    927,
    1383,
    1197,
    1198,
    1385,
    1213,
    1214,
    1385,
    1388,
    1386,
    1386,
    1383,
    1383,
    1384,
    1387,
    1385,
    1388,
    1384,
    1386,
    1387,
    1387,
    1165,
    1388,
    1092,
    2,
    6,
    3,
    1121,
    1383,
    1384,
    1383,
    1092,
    853,
    854,
    839,
    1122,
    1383,
    1388,
    1383,
    1385,
    1387,
    1384,
    1386,
    1387,
    1092,
    785,
    786,
    787,
    1090,
    1383,
    1385,
    1388,
    1384,
    1386,
    1387,
    1388,
    1383,
    1386,
    1384,
    1386,
    1387,
    1383,
    1387,
    1383,
    1386,
    1383,
    1387,
    1386,
    1388,
    1387,
    1385,
    1388,
    1385,
    1387,
    1387,
    1388,
    1386,
    1383,
    1388,
    1387,
    1384,
    1384,
    1384,
    1384,
    1383,
    1387,
    1387,
    1387,
    1384,
    1388,
    1385,
    1383,
    1385,
    1147,
    1385,
    1199,
    1200,
    1165,
    1384,
    1091,
    1386,
    1388,
    1384,
    1386,
    1092,
    6,
    47,
    4,
    1,
    1,
    47,
    4,
    6,
    6,
    3,
    4,
    1386,
    1384,
    1386,
    1386,
    1388,
    1383,
    1384,
    1388,
    1383,
    1383,
    1388,
    1165,
    1388,
    1148,
    1213,
    1214,
    1384,
    1386,
    1383,
    1383,
    1387,
    1383,
    1388,
    1383,
    1384,
    1386,
    1385,
    1386,
    1385,
    1388,
    1384,
    1385,
    1383,
    1387,
    1384,
    1108,
    1109,
    1,
    3,
    6,
    1106,
    1165,
    1388,
    1387,
    1092,
    1,
    855,
    856,
    1121,
    1123,
    1383,
    1386,
    1383,
    1387,
    1384,
    1165,
    1108,
    801,
    802,
    803,
    1106,
    1163,
    1383,
    1388,
    1383,
    1383,
    1387,
    1388,
    1385,
    1386,
    1384,
    1385,
    1384,
    1385,
    1163,
    1385,
    1384,
    1383,
    1386,
    1383,
    1386,
    1388,
    1386,
    1384,
    1385,
    1384,
    1385,
    1165,
    1385,
    1385,
    1384,
    1385,
    1383,
    1384,
    1385,
    1386,
    1386,
    1383,
    1387,
    1384,
    1386,
    1385,
    1386,
    1388,
    1386,
    1383,
    1385,
    1215,
    1216,
    1387,
    1386,
    1386,
    1147,
    1384,
    1387,
    1165,
    1388,
    1091,
    1092,
    1152,
    47,
    928,
    717,
    48,
    4,
    1090,
    1091,
    1091,
    1386,
    1384,
    1384,
    1385,
    1388,
    1385,
    1384,
    1383,
    1383,
    1386,
    1387,
    1384,
    1385,
    1384,
    1385,
    1384,
    1384,
    1384,
    1386,
    1383,
    1383,
    1388,
    1388,
    1385,
    1387,
    1386,
    1383,
    1387,
    1383,
    1388,
    1387,
    1384,
    1387,
    1386,
    1387,
    1108,
    1109,
    4,
    2,
    3,
    1106,
    1383,
    1384,
    1164,
    1124,
    7,
    785,
    786,
    787,
    1105,
    1106,
    1163,
    1387,
    1386,
    1387,
    1387,
    1108,
    817,
    818,
    819,
    1122,
    1385,
    1386,
    1385,
    1386,
    1387,
    1388,
    1383,
    1384,
    1388,
    1388,
    1384,
    1383,
    1384,
    1383,
    1386,
    1388,
    1385,
    1385,
    1384,
    1385,
    1387,
    1386,
    1384,
    1388,
    1387,
    1383,
    1388,
    1383,
    1388,
    1386,
    1383,
    1387,
    1386,
    1387,
    1385,
    1386,
    1386,
    1385,
    1384,
    1383,
    1384,
    1385,
    1385,
    1388,
    1388,
    1384,
    1384,
    1385,
    1386,
    1386,
    1197,
    1198,
    1387,
    1383,
    1147,
    1386,
    1147,
    1386,
    1091,
    1091,
    1092,
    1075,
    47,
    1090,
    1386,
    927,
    1147,
    1383,
    1388,
    1387,
    1385,
    1385,
    1387,
    1383,
    1383,
    1385,
    1386,
    1383,
    1387,
    1387,
    1388,
    1385,
    1385,
    1386,
    1386,
    1387,
    1386,
    1385,
    1385,
    1387,
    1384,
    1383,
    1386,
    1384,
    1383,
    1384,
    1387,
    1388,
    1388,
    1386,
    1383,
    1387,
    1108,
    1109,
    5,
    2,
    6,
    1122,
    1384,
    1387,
    1108,
    1109,
    7,
    801,
    802,
    803,
    1105,
    1106,
    1387,
    1388,
    1383,
    1386,
    1384,
    1124,
    785,
    786,
    787,
    2,
    1121,
    1388,
    1388,
    1383,
    1386,
    1387,
    1385,
    1387,
    1387,
    1384,
    1385,
    1385,
    1384,
    1386,
    1385,
    1387,
    1387,
    1383,
    1387,
    1388,
    1384,
    1385,
    1384,
    1383,
    1384,
    1384,
    1384,
    1386,
    1386,
    1385,
    1386,
    1386,
    1386,
    1386,
    1388,
    1385,
    1386,
    1386,
    1388,
    1387,
    1164,
    1383,
    1383,
    1385,
    1384,
    1384,
    1385,
    1384,
    1199,
    1200,
    1213,
    1214,
    1384,
    1147,
    1388,
    927,
    1387,
    731,
    732,
    1387,
    1383,
    1091,
    1091,
    1165,
    731,
    732,
    1164,
    1387,
    1383,
    1383,
    1388,
    1388,
    1388,
    1388,
    1387,
    1388,
    1387,
    1387,
    1385,
    1384,
    1386,
    1385,
    1388,
    1383,
    1388,
    1387,
    1383,
    1385,
    1388,
    1387,
    1385,
    1388,
    1385,
    1386,
    1383,
    1388,
    1385,
    1388,
    1386,
    1385,
    1384,
    1164,
    1387,
    1092,
    6,
    1,
    3,
    1090,
    1383,
    1165,
    1388,
    1092,
    14,
    817,
    818,
    819,
    1090,
    1387,
    1387,
    1383,
    1385,
    1387,
    1124,
    7,
    801,
    802,
    803,
    3,
    1089,
    1387,
    1387,
    1385,
    1386,
    1387,
    1388,
    1383,
    1385,
    1384,
    1387,
    1388,
    1384,
    1383,
    1383,
    1386,
    1388,
    1388,
    1384,
    1388,
    1388,
    1385,
    1388,
    1386,
    1387,
    1387,
    1386,
    1385,
    1387,
    1386,
    1386,
    1163,
    1384,
    1385,
    1385,
    1383,
    1385,
    1385,
    1383,
    1387,
    1384,
    1165,
    1383,
    1383,
    1387,
    1383,
    1197,
    1198,
    1215,
    1216,
    1147,
    1147,
    1387,
    1163,
    1128,
    1128,
    1386,
    747,
    748,
    11,
    1147,
    1388,
    731,
    732,
    747,
    748,
    1386,
    1383,
    1388,
    1386,
    1383,
    1165,
    1387,
    1386,
    1386,
    1386,
    1386,
    1385,
    1384,
    1388,
    1383,
    1387,
    1384,
    1164,
    1385,
    1385,
    1387,
    1385,
    1384,
    1385,
    1386,
    1388,
    1387,
    1388,
    1384,
    1387,
    1383,
    1383,
    1163,
    1387,
    1388,
    1383,
    1386,
    1108,
    839,
    840,
    3,
    1106,
    1386,
    1383,
    1388,
    1385,
    1093,
    836,
    837,
    838,
    1122,
    1165,
    1385,
    1384,
    1388,
    1164,
    1092,
    7,
    817,
    818,
    819,
    1090,
    1387,
    1387,
    1384,
    1384,
    1383,
    1383,
    1384,
    1383,
    1387,
    1385,
    1388,
    1385,
    1383,
    1385,
    1387,
    1385,
    1385,
    1387,
    1384,
    1384,
    1164,
    1388,
    1384,
    1387,
    1386,
    1383,
    1384,
    1388,
    1385,
    1387,
    1384,
    1383,
    1388,
    1388,
    1383,
    1388,
    1384,
    1384,
    1386,
    1383,
    1387,
    1388,
    1385,
    1388,
    1199,
    1200,
    1213,
    1214,
    1197,
    1198,
    1197,
    1198,
    11,
    1130,
    1180,
    1079,
    1127,
    1383,
    1163,
    927,
    1199,
    1200,
    747,
    748,
    1383,
    1386,
    1182,
    1386,
    1388,
    1147,
    1384,
    1384,
    1387,
    1383,
    1384,
    1386,
    1385,
    1385,
    1384,
    1386,
    1387,
    1386,
    1387,
    1384,
    1385,
    1384,
    1386,
    1387,
    1386,
    1383,
    1384,
    1387,
    1388,
    1385,
    1387,
    1388,
    1387,
    1383,
    1384,
    1384,
    1384,
    1385,
    1147,
    1108,
    855,
    856,
    3,
    1122,
    1385,
    1386,
    1164,
    1387,
    1384,
    1092,
    853,
    854,
    839,
    1122,
    1383,
    1387,
    1386,
    1387,
    1124,
    32,
    833,
    834,
    835,
    1106,
    1164,
    1385,
    1383,
    1386,
    1384,
    1386,
    1386,
    1163,
    1388,
    1385,
    1385,
    1384,
    1384,
    1383,
    1384,
    1386,
    10,
    1386,
    1147,
    1388,
    1385,
    1383,
    1386,
    1387,
    1386,
    1388,
    1387,
    1383,
    1388,
    1385,
    1386,
    1383,
    1386,
    1384,
    1384,
    1383,
    1388,
    1385,
    1385,
    1385,
    1383,
    1384,
    1384,
    1387,
    1215,
    1216,
    1197,
    1198,
    1213,
    1214,
    1213,
    1214,
    1129,
    1159,
    1160,
    1160,
    1161,
    1126,
    1387,
    1383,
    1215,
    1216,
    1387,
    1147,
    1165,
    1384,
    1128,
    10,
    1386,
    1182,
    1147,
    1384,
    1388,
    1383,
    1383,
    1388,
    1383,
    1388,
    1384,
    1384,
    1385,
    1388,
    1386,
    1388,
    1388,
    1385,
    1386,
    1385,
    1182,
    1383,
    1383,
    1386,
    1385,
    1384,
    1383,
    1386,
    1386,
    1383,
    1388,
    1383,
    1385,
    1383,
    1165,
    1124,
    785,
    786,
    787,
    2,
    1121,
    1387,
    1388,
    1386,
    1387,
    1388,
    1093,
    1,
    855,
    856,
    1121,
    1165,
    1077,
    1387,
    1092,
    835,
    849,
    850,
    851,
    1122,
    1383,
    1383,
    1388,
    1387,
    1387,
    1388,
    1387,
    1383,
    1386,
    1388,
    1384,
    1387,
    1388,
    1388,
    1386,
    1383,
    1386,
    1182,
    11,
    1148,
    1384,
    1385,
    1383,
    1384,
    1388,
    1387,
    1388,
    1387,
    1383,
    1388,
    1387,
    1386,
    1383,
    1383,
    1386,
    1383,
    1386,
    1388,
    1384,
    1388,
    1384,
    1387,
    1384,
    1197,
    1198,
    1147,
    1213,
    1214,
    1384,
    1387,
    1387,
    1129,
    1159,
    367,
    368,
    703,
    703,
    1162,
    1127,
    1182,
    1385,
    1383,
    1384,
    1130,
    1127,
    1130,
    1086,
    1387,
    1149,
    11,
    1148,
    733,
    1387,
    1387,
    1383,
    1388,
    1387,
    1386,
    1386,
    1388,
    1388,
    1386,
    1383,
    1388,
    1385,
    1384,
    1383,
    11,
    1147,
    1182,
    1385,
    1385,
    1387,
    1386,
    1387,
    1384,
    1386,
    1385,
    1387,
    1386,
    1384,
    1383,
    1124,
    7,
    801,
    802,
    803,
    3,
    1089,
    1387,
    1387,
    1383,
    1386,
    1383,
    1165,
    1092,
    836,
    837,
    838,
    1122,
    1384,
    1388,
    1387,
    1092,
    3,
    796,
    797,
    1105,
    1106,
    1383,
    1387,
    1384,
    1385,
    1386,
    1387,
    1387,
    1383,
    1383,
    1384,
    1387,
    1387,
    1384,
    1385,
    1384,
    1384,
    1147,
    10,
    1384,
    1147,
    1383,
    1385,
    1387,
    1388,
    1383,
    1388,
    1384,
    1383,
    1386,
    1384,
    1384,
    1384,
    1387,
    1386,
    1387,
    1385,
    1383,
    1384,
    1384,
    1387,
    1388,
    1387,
    1213,
    1214,
    1387,
    1128,
    1383,
    1147,
    1128,
    1129,
    1158,
    1304,
    383,
    384,
    719,
    719,
    703,
    1161,
    1127,
    1385,
    1385,
    1165,
    1114,
    1086,
    1087,
    1083,
    1388,
    733,
    1384,
    1387,
    1182,
    1164,
    1383,
    1384,
    1385,
    1384,
    1385,
    1388,
    1387,
    1385,
    1386,
    1387,
    1385,
    1387,
    1385,
    1384,
    1383,
    1383,
    1385,
    1388,
    1383,
    1386,
    1384,
    1384,
    1387,
    1388,
    1387,
    1384,
    1387,
    1385,
    1385,
    1092,
    7,
    817,
    818,
    819,
    1090,
    1199,
    1200,
    1387,
    1385,
    1165,
    1387,
    1383,
    1387,
    1093,
    853,
    854,
    6,
    1122,
    1383,
    1388,
    1108,
    1389,
    812,
    813,
    1105,
    1106,
    1387,
    1386,
    1387,
    1384,
    1386,
    1384,
    1387,
    1385,
    1388,
    1388,
    1387,
    1386,
    1387,
    1387,
    1388,
    1165,
    1383,
    1387,
    1385,
    1387,
    1387,
    1387,
    1385,
    1385,
    1385,
    1385,
    1388,
    1387,
    1386,
    1386,
    1384,
    1387,
    1383,
    1384,
    1385,
    1385,
    1383,
    1387,
    1387,
    1388,
    1165,
    1384,
    1387,
    1384,
    1130,
    1195,
    1127,
    1129,
    1159,
    1160,
    1304,
    703,
    399,
    400,
    1303,
    1304,
    719,
    1193,
    1083,
    1126,
    1128,
    1129,
    1117,
    1086,
    1087,
    1083,
    1386,
    1383,
    1383,
    1182,
    1147,
    1386,
    1383,
    1383,
    1384,
    1163,
    1386,
    1387,
    1384,
    1384,
    1388,
    1384,
    1384,
    1388,
    1385,
    1388,
    1385,
    1387,
    1388,
    1387,
    1388,
    1383,
    1383,
    1387,
    1384,
    1385,
    1386,
    1386,
    1388,
    1147,
    1388,
    1388,
    1093,
    836,
    837,
    838,
    1122,
    1215,
    1216,
    1182,
    11,
    1387,
    1388,
    1387,
    1383,
    1165,
    1092,
    2,
    5,
    1,
    1121,
    1123,
    1124,
    1405,
    828,
    1088,
    1090,
    1388,
    1388,
    1383,
    1386,
    1388,
    1386,
    1388,
    1386,
    1383,
    1388,
    1386,
    1387,
    1388,
    1388,
    1388,
    1388,
    1387,
    1383,
    1387,
    1384,
    1384,
    1386,
    1385,
    1385,
    1384,
    1386,
    1386,
    1386,
    1386,
    1386,
    1386,
    1387,
    1385,
    1384,
    1384,
    1386,
    1385,
    1386,
    1388,
    1384,
    1384,
    1386,
    1387,
    1387,
    1129,
    1083,
    1086,
    1087,
    1158,
    1319,
    703,
    703,
    719,
    1194,
    1190,
    1304,
    1320,
    1194,
    1086,
    1087,
    1083,
    1086,
    1087,
    1086,
    1087,
    1117,
    1083,
    1385,
    1384,
    1147,
    1148,
    1383,
    11,
    1386,
    1385,
    1386,
    1388,
    1388,
    1385,
    1383,
    1383,
    1387,
    1383,
    1383,
    1386,
    1384,
    1388,
    1383,
    1383,
    1383,
    1385,
    1387,
    1383,
    1164,
    1385,
    1386,
    1386,
    1386,
    1387,
    1383,
    1384,
    1383,
    1147,
    1077,
    1092,
    853,
    854,
    839,
    1122,
    1147,
    1197,
    1198,
    1165,
    1383,
    1388,
    1387,
    1386,
    1387,
    1093,
    1,
    2,
    1,
    1,
    2,
    1421,
    3,
    1090,
    1386,
    1165,
    1387,
    1384,
    1387,
    1388,
    1383,
    1388,
    1386,
    1163,
    1385,
    1383,
    1385,
    1388,
    1384,
    1383,
    1383,
    1387,
    1386,
    1386,
    1387,
    1386,
    1387,
    1388,
    1388,
    1384,
    1386,
    1385,
    1387,
    1384,
    1385,
    1387,
    1383,
    1384,
    1383,
    1388,
    1383,
    1386,
    1385,
    1386,
    1385,
    1385,
    1386,
    1383,
    1113,
    1114,
    1196,
    1159,
    1160,
    1319,
    1320,
    719,
    719,
    703,
    1162,
    1158,
    1319,
    1320,
    1162,
    1180,
    1087,
    1117,
    1180,
    1086,
    1144,
    1180,
    1086,
    1087,
    1383,
    1387,
    1384,
    1385,
    1385,
    1384,
    1388,
    1387,
    1384,
    1385,
    1384,
    1388,
    1387,
    1386,
    1383,
    1385,
    1385,
    1387,
    1383,
    1384,
    1383,
    1384,
    1387,
    1388,
    1388,
    1388,
    1384,
    1385,
    1165,
    1385,
    1387,
    1388,
    1385,
    1387,
    1387,
    1387,
    1199,
    1200,
    1092,
    928,
    855,
    856,
    1121,
    1213,
    1214,
    1387,
    1387,
    1164,
    1387,
    1385,
    1387,
    1388,
    1092,
    5,
    4,
    15,
    16,
    7,
    2,
    1121,
    1385,
    1387,
    1386,
    1387,
    1384,
    1387,
    1384,
    1388,
    1383,
    1383,
    1387,
    1384,
    1383,
    1383,
    1385,
    1383,
    1387,
    1387,
    1387,
    1388,
    1388,
    1387,
    1385,
    1386,
    1165,
    1383,
    1385,
    1384,
    1388,
    1385,
    1385,
    1385,
    1383,
    1388,
    1385,
    1387,
    1386,
    1383,
    1387,
    1384,
    1386,
    1385,
    1385,
    1164,
    1129,
    1083,
    1174,
    1175,
    1303,
    1304,
    1304,
    1304,
    1304,
    719,
    1320,
    703,
    703,
    367,
    368,
    1161,
    1180,
    1086,
    1087,
    1159,
    1160,
    1160,
    1162,
    1086,
    1385,
    1384,
    1388,
    1384,
    1385,
    1383,
    1387,
    1383,
    1387,
    1385,
    1383,
    1388,
    1384,
    1387,
    1388,
    1387,
    1386,
    1388,
    1386,
    1387,
    1387,
    1387,
    1386,
    1384,
    1383,
    1385,
    1384,
    1387,
    1386,
    1384,
    1383,
    1384,
    1383,
    11,
    1149,
    1383,
    1215,
    1216,
    1108,
    1109,
    785,
    786,
    787,
    1106,
    1199,
    1200,
    1130,
    1127,
    1130,
    1126,
    1163,
    1386,
    1108,
    1109,
    2,
    31,
    32,
    1152,
    3,
    1089,
    1383,
    1388,
    1383,
    1386,
    1383,
    1386,
    1383,
    1388,
    1384,
    1385,
    1387,
    1384,
    1384,
    1385,
    1388,
    1383,
    1387,
    1385,
    1385,
    1383,
    1383,
    1387,
    1383,
    1388,
    1387,
    1387,
    1383,
    1387,
    1386,
    1383,
    1388,
    1383,
    1386,
    1385,
    1163,
    1383,
    1387,
    1386,
    1386,
    1386,
    1383,
    1386,
    1385,
    1388,
    1098,
    1083,
    1174,
    1175,
    1320,
    1320,
    1304,
    1194,
    1143,
    1191,
    1192,
    719,
    719,
    383,
    384,
    1320,
    1162,
    12,
    1158,
    1179,
    703,
    703,
    1304,
    1161,
    1385,
    1383,
    1383,
    1385,
    1385,
    1388,
    1383,
    1387,
    1383,
    1165,
    1385,
    1388,
    1384,
    1384,
    1385,
    1385,
    1388,
    1384,
    1385,
    1384,
    1388,
    1384,
    1387,
    1388,
    1387,
    1383,
    1386,
    1386,
    1386,
    1386,
    1387,
    1387,
    1388,
    1385,
    1384,
    1387,
    733,
    1147,
    1108,
    1109,
    801,
    802,
    803,
    1106,
    1215,
    1216,
    1114,
    1086,
    1087,
    1087,
    1127,
    1388,
    1124,
    3,
    789,
    1023,
    1024,
    1,
    1090,
    1383,
    1388,
    1383,
    1385,
    1387,
    1383,
    1384,
    1386,
    1387,
    1385,
    1383,
    1383,
    1387,
    1388,
    1388,
    1385,
    1383,
    1384,
    1386,
    1384,
    1384,
    1388,
    1385,
    1387,
    1388,
    1388,
    1388,
    1387,
    1388,
    1385,
    1383,
    1388,
    1383,
    1387,
    1387,
    1385,
    1384,
    1387,
    1387,
    1385,
    1386,
    1386,
    1383,
    1388,
    1163,
    1388,
    1097,
    1083,
    1191,
    1192,
    1192,
    1193,
    1095,
    1096,
    1097,
    1117,
    1191,
    719,
    399,
    400,
    1303,
    1304,
    1160,
    1303,
    1304,
    719,
    719,
    703,
    703,
    1383,
    1388,
    1387,
    1388,
    1387,
    1386,
    1385,
    1383,
    1384,
    1386,
    1384,
    1383,
    1386,
    1386,
    1386,
    1383,
    1383,
    1385,
    1386,
    1385,
    1385,
    1386,
    1387,
    1388,
    1383,
    1388,
    1384,
    1384,
    1383,
    1386,
    1383,
    1384,
    1387,
    1384,
    1388,
    1148,
    1147,
    1387,
    1108,
    1109,
    817,
    818,
    819,
    1122,
    1147,
    11,
    1098,
    1086,
    1087,
    1117,
    1087,
    1126,
    1092,
    804,
    805,
    1039,
    1040,
    1090,
    1383,
    1388,
    1384,
    1383,
    1387,
    1384,
    1387,
    1385,
    1387,
    1388,
    1384,
    1385,
    1384,
    1385,
    1386,
    1387,
    1383,
    1387,
    1386,
    1384,
    1384,
    1383,
    1383,
    1386,
    1384,
    1384,
    1383,
    1384,
    1384,
    1383,
    1385,
    1384,
    1388,
    1385,
    1385,
    1383,
    1384,
    1386,
    1387,
    1385,
    1388,
    1386,
    1386,
    1383,
    1387,
    1384,
    1386,
    1164,
    1097,
    1083,
    12,
    1143,
    1094,
    1387,
    1387,
    1147,
    1098,
    12,
    1190,
    719,
    703,
    1319,
    1320,
    703,
    1319,
    1320,
    1319,
    1320,
    719,
    719,
    1388,
    1384,
    1385,
    1385,
    1388,
    1385,
    1385,
    1383,
    1388,
    1386,
    1388,
    1386,
    1383,
    1385,
    1386,
    1384,
    1387,
    1385,
    1387,
    1388,
    1388,
    1387,
    1386,
    1385,
    1387,
    1384,
    1388,
    1388,
    1386,
    1385,
    1386,
    1384,
    1383,
    1383,
    1386,
    1385,
    1384,
    1385,
    1124,
    7,
    785,
    786,
    787,
    1105,
    1106,
    1197,
    1198,
    1098,
    1117,
    1086,
    1087,
    1095,
    1108,
    820,
    821,
    1055,
    1105,
    1106,
    1388,
    1387,
    1163,
    1387,
    1386,
    1387,
    1388,
    1384,
    1385,
    1385,
    1388,
    1386,
    1383,
    1385,
    1387,
    1387,
    1385,
    1384,
    1385,
    1385,
    1383,
    1384,
    1386,
    1383,
    1388,
    1384,
    1387,
    1388,
    1388,
    1386,
    1383,
    1383,
    1383,
    1387,
    1387,
    1385,
    1384,
    1385,
    1384,
    1385,
    1388,
    1387,
    1387,
    1386,
    1386,
    1387,
    1388,
    1388,
    1147,
    1098,
    1087,
    1095,
    1164,
    1388,
    1383,
    1384,
    1388,
    1097,
    1117,
    1191,
    719,
    992,
    703,
    719,
    1319,
    719,
    1319,
    1320,
    1194,
    1191,
    1387,
    1388,
    1388,
    1383,
    1388,
    1384,
    1385,
    1388,
    1385,
    1386,
    1386,
    1386,
    1383,
    1383,
    1384,
    1387,
    1387,
    1384,
    1387,
    1387,
    1387,
    1386,
    1388,
    1384,
    1383,
    1384,
    1386,
    1384,
    1383,
    1383,
    1386,
    1387,
    1386,
    1387,
    1385,
    1387,
    1388,
    1108,
    1109,
    7,
    801,
    802,
    803,
    1105,
    1106,
    1213,
    1214,
    10,
    1097,
    1117,
    1117,
    1126,
    1108,
    836,
    837,
    838,
    1105,
    1106,
    1385,
    1388,
    1384,
    1388,
    1383,
    1386,
    1388,
    1387,
    1386,
    1383,
    1387,
    1388,
    1386,
    1387,
    1386,
    1387,
    1388,
    1387,
    1385,
    1388,
    1386,
    1388,
    1384,
    1387,
    1385,
    1388,
    1385,
    1384,
    1383,
    1385,
    1386,
    1384,
    1383,
    1383,
    1386,
    1386,
    1383,
    1388,
    1385,
    1385,
    1384,
    1385,
    1387,
    1388,
    1388,
    1383,
    1386,
    1199,
    1200,
    1388,
    1096,
    1182,
    1388,
    1147,
    1383,
    1182,
    1388,
    1165,
    1096,
    1097,
    1190,
    1008,
    719,
    1319,
    703,
    1319,
    1320,
    1194,
    1180,
    1117,
    1388,
    1387,
    1386,
    1384,
    1165,
    1384,
    1388,
    1384,
    1388,
    1164,
    1385,
    1386,
    1383,
    1383,
    1387,
    1384,
    1386,
    1384,
    1386,
    1383,
    1384,
    1387,
    1386,
    1386,
    1388,
    1384,
    1387,
    1386,
    1387,
    1388,
    1385,
    1383,
    1383,
    1383,
    1385,
    1384,
    1384,
    1164,
    1092,
    14,
    817,
    818,
    819,
    1090,
    1197,
    1198,
    1182,
    1147,
    1163,
    1097,
    1086,
    1095,
    1383,
    1092,
    853,
    854,
    839,
    1122,
    1383,
    1388,
    1388,
    1383,
    1385,
    1387,
    1387,
    1383,
    1383,
    1385,
    1385,
    1388,
    1388,
    1386,
    1388,
    1388,
    1386,
    1384,
    1164,
    1385,
    1386,
    1384,
    1383,
    1388,
    1386,
    1383,
    1386,
    1386,
    1384,
    1387,
    1386,
    1384,
    1384,
    1386,
    1388,
    1386,
    1388,
    1383,
    1387,
    1387,
    1383,
    1383,
    1388,
    1388,
    1384,
    1383,
    1147,
    1215,
    1216,
    1386,
    1147,
    731,
    732,
    1386,
    1147,
    1197,
    1198,
    1182,
    1147,
    1129,
    1117,
    1191,
    1303,
    1304,
    703,
    1304,
    1193,
    1117,
    1083,
    1095,
    1387,
    1383,
    1388,
    1387,
    1383,
    1125,
    1122,
    1123,
    1123,
    1384,
    1387,
    1386,
    1385,
    1387,
    1147,
    1165,
    1386,
    1147,
    1385,
    1387,
    1385,
    1388,
    1386,
    1384,
    1387,
    1386,
    1387,
    1388,
    1387,
    1384,
    1384,
    1383,
    1386,
    1387,
    1385,
    1384,
    1384,
    1383,
    1385,
    1093,
    836,
    837,
    838,
    1122,
    1213,
    1214,
    1199,
    1200,
    1164,
    1384,
    1096,
    1387,
    1388,
    1165,
    1092,
    1,
    855,
    856,
    1121,
    1383,
    1383,
    1386,
    1385,
    1386,
    1386,
    1383,
    1387,
    1383,
    1383,
    1388,
    1383,
    1386,
    1388,
    1383,
    1386,
    1388,
    1385,
    1386,
    1384,
    1386,
    1385,
    1387,
    1388,
    1387,
    1387,
    1385,
    1385,
    1388,
    1165,
    1383,
    1383,
    1388,
    1386,
    1384,
    1384,
    1383,
    1384,
    1385,
    1387,
    1385,
    1386,
    1388,
    1387,
    1387,
    1383,
    1386,
    1383,
    1150,
    1151,
    747,
    748,
    1197,
    1198,
    1213,
    1214,
    1147,
    1113,
    1114,
    12,
    1174,
    1319,
    1320,
    719,
    1194,
    12,
    1095,
    1096,
    1163,
    1383,
    1385,
    1388,
    1386,
    1124,
    1,
    7,
    1,
    3,
    1122,
    1123,
    1123,
    11,
    1147,
    1199,
    1200,
    1387,
    1384,
    1197,
    1198,
    1383,
    1165,
    1387,
    1386,
    1387,
    1385,
    1385,
    1387,
    1387,
    1385,
    1385,
    1387,
    1387,
    1388,
    1387,
    1384,
    1384,
    1384,
    1387,
    1384,
    1092,
    853,
    854,
    839,
    1122,
    1383,
    1215,
    1216,
    1148,
    1387,
    1165,
    1387,
    1384,
    1384,
    1387,
    1092,
    785,
    786,
    787,
    1106,
    1383,
    1385,
    1388,
    1165,
    1387,
    1387,
    1383,
    1386,
    1383,
    1388,
    1384,
    1386,
    1384,
    1385,
    1384,
    1385,
    1385,
    1384,
    1383,
    1383,
    1388,
    1388,
    1386,
    1383,
    1384,
    1384,
    1383,
    1388,
    1388,
    1388,
    1388,
    1386,
    1383,
    1386,
    1386,
    1383,
    1387,
    1385,
    1384,
    1388,
    1383,
    1386,
    1385,
    1383,
    1385,
    1385,
    1383,
    1166,
    1167,
    1163,
    1147,
    1213,
    1214,
    1182,
    1199,
    1200,
    1164,
    1097,
    1117,
    1158,
    1303,
    1304,
    1177,
    1178,
    1110,
    1111,
    1147,
    1385,
    1386,
    1163,
    1387,
    1124,
    843,
    844,
    911,
    912,
    911,
    912,
    839,
    840,
    1122,
    1383,
    1215,
    1216,
    1386,
    1147,
    1213,
    1214,
    1385,
    1199,
    1200,
    1388,
    1383,
    1383,
    1384,
    1387,
    1385,
    1388,
    1384,
    1387,
    1385,
    1387,
    1387,
    1385,
    1385,
    1384,
    1165,
    1387,
    1388,
    1093,
    1,
    855,
    856,
    1121,
    1147,
    1385,
    1388,
    1385,
    1387,
    1387,
    1385,
    1385,
    1386,
    1108,
    801,
    802,
    803,
    1106,
    1164,
    1383,
    1388,
    1387,
    1383,
    1387,
    1388,
    1387,
    1385,
    1388,
    1384,
    1383,
    1385,
    1388,
    1387,
    1385,
    1386,
    1387,
    1384,
    1388,
    1385,
    1384,
    1383,
    1387,
    1383,
    1387,
    1385,
    1383,
    1383,
    1383,
    1384,
    1385,
    1387,
    1385,
    1385,
    1384,
    1383,
    1386,
    1384,
    1387,
    1386,
    1385,
    1385,
    1384,
    1385,
    1388,
    1388,
    1387,
    1198,
    1199,
    1200,
    1182,
    1383,
    1386,
    1215,
    1216,
    1147,
    1129,
    1174,
    1179,
    1319,
    703,
    1177,
    1178,
    1117,
    1127,
    1385,
    1387,
    1384,
    1383,
    1124,
    880,
    859,
    860,
    1090,
    1092,
    1075,
    7,
    855,
    856,
    4,
    1121,
    1107,
    1148,
    1383,
    1149,
    1148,
    1386,
    1147,
    1215,
    1216,
    1147,
    1385,
    1385,
    1383,
    1387,
    1387,
    1387,
    1388,
    1383,
    1384,
    1387,
    1385,
    1388,
    1384,
    1385,
    1385,
    1386,
    1383,
    1387,
    1092,
    836,
    837,
    838,
    1122,
    1384,
    1147,
    1384,
    1387,
    1385,
    1388,
    1384,
    1387,
    1108,
    817,
    818,
    819,
    1122,
    1385,
    1386,
    1385,
    1385,
    1388,
    1386,
    1388,
    1388,
    1385,
    1386,
    1386,
    1385,
    1387,
    1386,
    1385,
    1388,
    1386,
    1384,
    1384,
    1387,
    1387,
    1386,
    1383,
    1386,
    1388,
    1388,
    1386,
    1384,
    1385,
    1384,
    1388,
    1387,
    1387,
    1388,
    1388,
    1386,
    1386,
    1385,
    1385,
    1383,
    1385,
    1383,
    1388,
    1383,
    1384,
    1388,
    1385,
    1387,
    1214,
    1215,
    1216,
    1147,
    1148,
    1199,
    1200,
    1182,
    1113,
    1114,
    1083,
    1191,
    1304,
    719,
    1179,
    1162,
    1180,
    1087,
    1126,
    1385,
    1384,
    1108,
    895,
    896,
    1090,
    1091,
    1386,
    1383,
    1091,
    1092,
    833,
    834,
    835,
    15,
    1122,
    1383,
    1147,
    1387,
    1130,
    1126,
    1129,
    1127,
    1150,
    1151,
    1384,
    1388,
    1385,
    1388,
    1387,
    1147,
    1385,
    1149,
    1383,
    1384,
    1165,
    1387,
    1388,
    1388,
    1384,
    1387,
    1387,
    1383,
    1387,
    1093,
    853,
    854,
    5,
    1122,
    1383,
    1383,
    1164,
    1386,
    1387,
    1388,
    1384,
    1124,
    785,
    786,
    787,
    2,
    1121,
    1388,
    1388,
    1386,
    1388,
    1388,
    1386,
    1388,
    1383,
    1383,
    1384,
    1385,
    1388,
    1386,
    1388,
    1386,
    1388,
    1385,
    1386,
    1385,
    1383,
    1384,
    1385,
    1388,
    1384,
    1384,
    1388,
    1387,
    1387,
    1385,
    1385,
    1383,
    1385,
    1388,
    1385,
    1388,
    1383,
    1386,
    1383,
    1384,
    1388,
    1388,
    1386,
    1386,
    1384,
    1386,
    1387,
    1384,
    1384,
    1150,
    1151,
    1197,
    1198,
    1215,
    1216,
    1388,
    1182,
    1098,
    1196,
    1174,
    1175,
    703,
    367,
    368,
    1161,
    1117,
    1110,
    1164,
    1165,
    1125,
    779,
    780,
    1122,
    1383,
    1163,
    1386,
    1388,
    1163,
    1092,
    850,
    851,
    31,
    32,
    1121,
    1107,
    1130,
    12,
    1087,
    1180,
    1110,
    1166,
    1167,
    1165,
    1384,
    1388,
    1387,
    1150,
    1151,
    1197,
    1198,
    1385,
    1388,
    1147,
    1387,
    1182,
    1387,
    1384,
    1384,
    1388,
    1387,
    1165,
    1387,
    1092,
    2,
    4,
    1,
    1121,
    1385,
    1388,
    1387,
    1387,
    1165,
    1124,
    7,
    801,
    802,
    803,
    3,
    1089,
    1387,
    1387,
    1383,
    1384,
    1387,
    1383,
    1388,
    1386,
    1384,
    1385,
    1383,
    1387,
    1388,
    1386,
    1383,
    1385,
    1385,
    1385,
    1388,
    1384,
    1385,
    1386,
    1385,
    1386,
    1388,
    1383,
    1386,
    1384,
    1383,
    1384,
    1385,
    1384,
    1385,
    1386,
    1385,
    1387,
    1385,
    1387,
    1384,
    1388,
    1387,
    1384,
    1388,
    1386,
    1164,
    1383,
    1385,
    1383,
    1166,
    1167,
    1213,
    1214,
    1384,
    1388,
    1386,
    1384,
    1387,
    1097,
    1083,
    1191,
    719,
    383,
    384,
    1177,
    1178,
    1117,
    1127,
    1124,
    15,
    3,
    2,
    16,
    1121,
    1385,
    1124,
    1122,
    1123,
    1124,
    836,
    837,
    838,
    6,
    5,
    1122,
    1098,
    1117,
    1086,
    1087,
    1094,
    1387,
    1388,
    1388,
    1387,
    1387,
    1388,
    1166,
    1167,
    1213,
    1214,
    1199,
    1200,
    1385,
    1385,
    1387,
    1387,
    11,
    1385,
    1383,
    1387,
    1384,
    1386,
    1387,
    1093,
    2,
    4,
    6,
    1122,
    1386,
    1385,
    1388,
    1385,
    1092,
    7,
    817,
    818,
    819,
    1090,
    1387,
    1387,
    1384,
    1383,
    1387,
    1383,
    1386,
    1383,
    1383,
    1388,
    1388,
    1387,
    1386,
    1384,
    1385,
    1387,
    1385,
    1385,
    1383,
    1388,
    1388,
    1388,
    1386,
    1385,
    1384,
    1388,
    1383,
    1388,
    1388,
    1384,
    1387,
    1388,
    1386,
    1388,
    1385,
    1387,
    1386,
    1388,
    1386,
    1384,
    1383,
    1386,
    1387,
    1383,
    1383,
    1383,
    1388,
    1383,
    1385,
    1383,
    1385,
    1384,
    1385,
    1384,
    1387,
    1386,
    1383,
    1388,
    1182,
    1098,
    1083,
    1190,
    399,
    400,
    1177,
    1178,
    1083,
    1094,
    3,
    2,
    3,
    31,
    32,
    1089,
    1124,
    843,
    844,
    839,
    840,
    7,
    853,
    854,
    4,
    2,
    1090,
    1386,
    1097,
    1080,
    1094,
    1386,
    1387,
    1386,
    1386,
    1165,
    1182,
    1197,
    1198,
    11,
    1165,
    1148,
    1215,
    1216,
    1148,
    1384,
    1387,
    1147,
    1388,
    1384,
    1383,
    1383,
    1387,
    1384,
    1388,
    1163,
    1092,
    3,
    4,
    2,
    1122,
    1123,
    1388,
    1388,
    1388,
    1093,
    836,
    837,
    838,
    1122,
    1165,
    1385,
    1383,
    1385,
    1385,
    1383,
    1387,
    1385,
    1388,
    1386,
    1387,
    1383,
    1386,
    1383,
    1387,
    1386,
    1383,
    1386,
    1388,
    1388,
    1388,
    1387,
    1386,
    1385,
    1383,
    1388,
    1388,
    1387,
    1386,
    1385,
    1387,
    1383,
    1383,
    1384,
    1388,
    1385,
    1383,
    1385,
    1386,
    1383,
    1384,
    1384,
    1383,
    1384,
    1386,
    1388,
    1386,
    1387,
    1387,
    1387,
    1386,
    1385,
    1388,
    1150,
    1151,
    1197,
    1198,
    1147,
    1385,
    1163,
    1097,
    1083,
    1191,
    1192,
    1193,
    1083,
    1095,
    1386,
    3,
    31,
    32,
    1090,
    1091,
    1124,
    880,
    859,
    860,
    855,
    856,
    1,
    1090,
    1092,
    15,
    16,
    1122,
    1384,
    1386,
    1096,
    1163,
    1387,
    1383,
    1385,
    1384,
    11,
    10,
    1213,
    1214,
    1197,
    1198,
    1149,
    1147,
    1197,
    1198,
    1383,
    1182,
    1386,
    1387,
    1388,
    1387,
    1387,
    1386,
    1387,
    1385,
    1384,
    1388,
    1092,
    2,
    5,
    2,
    3,
    1122,
    1383,
    1076,
    1077,
    1092,
    853,
    854,
    839,
    1122,
    1383,
    1388,
    1385,
    1388,
    1384,
    1386,
    1384,
    1384,
    1385,
    1384,
    1388,
    1384,
    1387,
    1383,
    1384,
    1387,
    1384,
    1385,
    1384,
    1385,
    1384,
    1385,
    1383,
    1385,
    1387,
    1383,
    1385,
    1388,
    1385,
    1386,
    1388,
    1388,
    1386,
    1388,
    1384,
    1386,
    1383,
    1384,
    1384,
    1383,
    1383,
    1387,
    1384,
    1388,
    1383,
    1387,
    1385,
    1383,
    1387,
    1163,
    1385,
    1182,
    1166,
    1167,
    1213,
    1214,
    1199,
    1200,
    1147,
    1383,
    1098,
    1080,
    1086,
    1087,
    1094,
    1385,
    1383,
    1,
    1152,
    1090,
    1386,
    1124,
    895,
    896,
    1090,
    1092,
    785,
    786,
    787,
    1106,
    1108,
    31,
    32,
    16,
    1122,
    1123,
    1123,
    1383,
    1383,
    1387,
    1164,
    1165,
    1199,
    1200,
    1149,
    1147,
    1213,
    1214,
    1199,
    1200,
    1213,
    1214,
    1385,
    1388,
    1387,
    1387,
    1385,
    1388,
    1388,
    1383,
    1386,
    1384,
    1388,
    1123,
    1124,
    2,
    1023,
    1024,
    3,
    1089,
    1387,
    1387,
    1385,
    1388,
    1092,
    1,
    855,
    856,
    1121,
    1383,
    1383,
    1387,
    1384,
    1388,
    1384,
    1387,
    1383,
    1387,
    1387,
    1386,
    1386,
    1388,
    1388,
    1388,
    1385,
    1385,
    1387,
    1388,
    1386,
    1387,
    1387,
    1385,
    1384,
    1388,
    1388,
    1384,
    1383,
    1383,
    1388,
    1383,
    1387,
    1383,
    1384,
    1384,
    1385,
    1385,
    1387,
    1383,
    1383,
    1385,
    1383,
    1388,
    1387,
    1386,
    1388,
    1383,
    1383,
    1388,
    1385,
    1385,
    1147,
    1197,
    1198,
    1147,
    1215,
    1216,
    1182,
    1199,
    1200,
    1096,
    1096,
    1096,
    1384,
    1385,
    1386,
    1090,
    1091,
    1386,
    1124,
    845,
    846,
    847,
    1106,
    1108,
    801,
    802,
    803,
    1122,
    1164,
    1092,
    31,
    32,
    1,
    839,
    840,
    1122,
    1387,
    1388,
    1387,
    1388,
    1215,
    1216,
    1199,
    1200,
    1149,
    1148,
    1215,
    1216,
    1150,
    1151,
    1149,
    1387,
    1383,
    1387,
    1387,
    1383,
    1383,
    1385,
    1387,
    1383,
    1125,
    3,
    789,
    790,
    1039,
    1040,
    1090,
    1383,
    1163,
    1383,
    1387,
    1163,
    1108,
    1109,
    785,
    786,
    787,
    1106,
    1165,
    1386,
    1387,
    1385,
    1388,
    1384,
    1386,
    1383,
    1387,
    1388,
    1383,
    1385,
    1385,
    1386,
    1383,
    1385,
    1385,
    1387,
    1388,
    1383,
    1388,
    1384,
    1388,
    1385,
    1388,
    1386,
    1388,
    1388,
    1388,
    1385,
    1386,
    1385,
    1385,
    1386,
    1383,
    1385,
    1385,
    1388,
    1384,
    1388,
    1383,
    1388,
    1387,
    1386,
    1386,
    1388,
    1386,
    1385,
    1387,
    1388,
    1182,
    1213,
    1214,
    1150,
    1151,
    1197,
    1198,
    1215,
    1216,
    1386,
    1386,
    1387,
    1388,
    1383,
    1383,
    1387,
    1386,
    1124,
    880,
    861,
    862,
    1090,
    1163,
    1124,
    817,
    818,
    819,
    1090,
    1387,
    1384,
    1091,
    1092,
    1,
    855,
    856,
    1,
    1122,
    1387,
    1388,
    1383,
    1388,
    1148,
    1215,
    1216,
    1165,
    1197,
    1198,
    1148,
    1166,
    1167,
    1387,
    1388,
    1387,
    1384,
    1384,
    1383,
    1386,
    1387,
    1386,
    1165,
    1092,
    804,
    805,
    806,
    1055,
    1090,
    1199,
    1200,
    1384,
    1387,
    1386,
    1387,
    1108,
    1109,
    801,
    802,
    803,
    1106,
    1388,
    1383,
    1386,
    1387,
    1384,
    1383,
    1385,
    1388,
    1385,
    1385,
    1383,
    1386,
    1386,
    1388,
    1384,
    1388,
    1387,
    1386,
    1386,
    1385,
    1386,
    1386,
    1387,
    1383,
    1383,
    1387,
    1387,
    1385,
    1384,
    1388,
    1386,
    1388,
    1384,
    1383,
    1385,
    1386,
    1388,
    1383,
    1384,
    1385,
    1385,
    1385,
    1388,
    1386,
    1383,
    1383,
    1384,
    1388,
    1384,
    1197,
    1198,
    1199,
    1200,
    1166,
    1167,
    1213,
    1214,
    1182,
    1385,
    1388,
    1383,
    1383,
    1387,
    1386,
    1387,
    1383,
    1124,
    895,
    896,
    1,
    1090,
    1387,
    1385,
    1092,
    833,
    834,
    835,
    1106,
    1383,
    1387,
    1384,
    1108,
    7,
    785,
    786,
    787,
    1105,
    1106,
    1387,
    1386,
    1387,
    1388,
    1387,
    1384,
    1148,
    1213,
    1214,
    11,
    1387,
    1147,
    1385,
    1387,
    1387,
    1385,
    1385,
    1385,
    1388,
    1384,
    1384,
    1388,
    1108,
    820,
    821,
    822,
    1105,
    1106,
    1215,
    1216,
    1388,
    1164,
    1383,
    1387,
    1108,
    1109,
    817,
    818,
    819,
    1122,
    1383,
    1385,
    1387,
    1386,
    1387,
    1384,
    1384,
    1385,
    1383,
    1388,
    1383,
    1388,
    1384,
    1384,
    1387,
    1386,
    1386,
    1383,
    1163,
    1386,
    1383,
    1387,
    1163,
    1383,
    1387,
    1387,
    1385,
    1383,
    1388,
    1385,
    1388,
    1384,
    1164,
    1383,
    1383,
    1388,
    1386,
    1384,
    1388,
    1383,
    1388,
    1383,
    1388,
    1383,
    1386,
    1385,
    1386,
    1384,
    1385,
    1213,
    1214,
    1215,
    1216,
    1199,
    1200,
    1147,
    1387,
    1387,
    1388,
    1165,
    1384,
    1386,
    1388,
    1383,
    1386,
    1107,
    1092,
    798,
    799,
    1105,
    11,
    1387,
    1148,
    1108,
    849,
    850,
    851,
    1122,
    1165,
    1386,
    1387,
    1124,
    7,
    801,
    802,
    803,
    1105,
    1106,
    1386,
    1387,
    1387,
    1387,
    1387,
    1385,
    1385,
    1164,
    1387,
    1388,
    1387,
    1384,
    1164,
    1387,
    1385,
    1388,
    1384,
    1387,
    1386,
    1385,
    1384,
    1387,
    1108,
    836,
    837,
    838,
    1105,
    1106,
    1147,
    1197,
    1198,
    1385,
    1384,
    1385,
    1124,
    7,
    785,
    786,
    787,
    1105,
    1106,
    1388,
    1388,
    1383,
    1386,
    1387,
    1388,
    1385,
    1383,
    1388,
    1385,
    1387,
    1388,
    1386,
    1384,
    1384,
    1385,
    1384,
    1386,
    1387,
    1383,
    1384,
    1384,
    1388,
    1383,
    1383,
    1386,
    1388,
    1384,
    1384,
    1388,
    1386,
    1383,
    1388,
    1388,
    1386,
    1385,
    1384,
    1388,
    1384,
    1387,
    1383,
    1386,
    1383,
    1388,
    1386,
    1384,
    1383,
    1388,
    1384,
    1384,
    1383,
    1383,
    1215,
    1216,
    1182,
    1385,
    1387,
    1387,
    1387,
    1383,
    1384,
    1388,
    1386,
    702,
    1386,
    1124,
    814,
    815,
    7,
    1122,
    1387,
    1385,
    1387,
    1092,
    836,
    837,
    838,
    1122,
    1123,
    1386,
    1092,
    14,
    817,
    818,
    819,
    1090,
    1386,
    1163,
    1388,
    1384,
    1387,
    1385,
    1388,
    1384,
    1182,
    1385,
    1387,
    1387,
    1385,
    1383,
    1384,
    1386,
    1387,
    1388,
    1385,
    1385,
    1388,
    1384,
    1384,
    1383,
    1092,
    853,
    854,
    839,
    1122,
    1383,
    1213,
    1214,
    1387,
    1388,
    1108,
    1109,
    7,
    801,
    802,
    803,
    1105,
    1106,
    1387,
    1383,
    1385,
    1387,
    1386,
    1383,
    1165,
    1385,
    1387,
    1386,
    1383,
    1384,
    1388,
    1384,
    1386,
    1384,
    1385,
    1387,
    1384,
    1385,
    1386,
    1383,
    1387,
    1386,
    1383,
    1388,
    1384,
    1386,
    1384,
    1386,
    1385,
    1387,
    1385,
    1385,
    1383,
    1385,
    1388,
    1386,
    1388,
    1387,
    1388,
    1387,
    1388,
    1388,
    1387,
    1387,
    1388,
    1384,
    1385,
    1386,
    1386,
    1386,
    1387,
    1387,
    1386,
    1386,
    1386,
    1386,
    1387,
    1387,
    1383,
    1386,
    1386,
    1387,
    1108,
    1109,
    830,
    831,
    4,
    1105,
    1106,
    1385,
    1384,
    1384,
    1092,
    853,
    854,
    839,
    840,
    1122,
    1385,
    1093,
    836,
    837,
    838,
    1122,
    1388,
    1386,
    1386,
    1383,
    1384,
    1386,
    1387,
    1388,
    1388,
    1384,
    1387,
    1385,
    1388,
    1385,
    1388,
    1387,
    1387,
    1385,
    1386,
    1383,
    1384,
    1383,
    1386,
    1388,
    1163,
    1092,
    1,
    855,
    856,
    1121,
    1383,
    1148,
    1387,
    1384,
    1164,
    1092,
    14,
    817,
    818,
    819,
    1090,
    1387,
    1387,
    1387,
    1383,
    1385,
    1387,
    1387,
    1384,
    1385,
    1384,
    1384,
    1385,
    1387,
    1388,
    1388,
    1384,
    1387,
    1384,
    1386,
    1387,
    1387,
    1383,
    1388,
    1383,
    1387,
    1385,
    1387,
    1383,
    1385,
    1384,
    1386,
    1385,
    1383,
    1383,
    1383,
    1385,
    1385,
    1384,
    1386,
    1388,
    1386,
    1384,
    1387,
    1387,
    1383,
    1387,
    1386,
    1150,
    1151,
    1385,
    1383,
    1386,
    1384,
    1388,
    1384,
    1386,
    1385,
    1383,
    1385,
    1384,
    1384,
    1388,
    1386,
    1383,
    1386,
    1108,
    1109,
    871,
    872,
    873,
    1105,
    1106,
    1165,
    1385,
    1385,
    1384,
    1091,
    1092,
    855,
    856,
    835,
    1106,
    1383,
    1092,
    853,
    854,
    839,
    1122,
    1383,
    1388,
    1385,
    1388,
    1387,
    1387,
    1385,
    1388,
    1383,
    1384,
    1386,
    1387,
    1388,
    1387,
    1385,
    1388,
    1385,
    1383,
    1383,
    1385,
    1387,
    1383,
    1386,
    1386,
    1387,
    1092,
    785,
    786,
    787,
    1106,
    1387,
    1386,
    1387,
    1383,
    1385,
    1093,
    836,
    837,
    838,
    1122,
    1164,
    1385,
    1165,
    1388,
    1148,
    1384,
    1384,
    1385,
    1387,
    1387,
    1388,
    1386,
    1165,
    1383,
    1385,
    1385,
    1385,
    1386,
    1386,
    1388,
    1383,
    1385,
    1383,
    1386,
    1388,
    1388,
    1387,
    1385,
    1386,
    1383,
    1383,
    1388,
    1387,
    1384,
    1384,
    1384,
    1386,
    1384,
    1385,
    1383,
    1386,
    1383,
    1163,
    1388,
    1383,
    1383,
    1182,
    1166,
    1167,
    1197,
    1198,
    1386,
    1384,
    1384,
    1387,
    1384,
    1388,
    1385,
    1388,
    1383,
    1387,
    1388,
    1388,
    1387,
    1384,
    1386,
    1092,
    887,
    888,
    889,
    890,
    1122,
    1384,
    1384,
    1385,
    1388,
    1163,
    1108,
    833,
    834,
    835,
    1122,
    1388,
    1165,
    1092,
    1,
    855,
    856,
    1121,
    1123,
    1383,
    1386,
    1383,
    1387,
    1384,
    1384,
    1385,
    1388,
    1387,
    1387,
    1385,
    1388,
    1385,
    1383,
    1388,
    1386,
    1387,
    1386,
    1385,
    1385,
    1388,
    1383,
    1164,
    1108,
    801,
    802,
    803,
    1106,
    1388,
    1383,
    1386,
    1384,
    1387,
    1384,
    1092,
    853,
    854,
    839,
    1122,
    1383,
    1387,
    1386,
    1387,
    1386,
    1385,
    1123,
    1388,
    1384,
    1147,
    1383,
    1384,
    1149,
    1386,
    1384,
    1385,
    1384,
    1388,
    1385,
    1385,
    1385,
    1384,
    1384,
    1388,
    1384,
    1387,
    1387,
    1384,
    1385,
    1387,
    1383,
    1386,
    1384,
    1385,
    1386,
    1386,
    1388,
    1383,
    1383,
    1387,
    1383,
    1383,
    1383,
    1388,
    1148,
    1197,
    1198,
    1149,
    1213,
    1214,
    1388,
    1182,
    1384,
    1387,
    1387,
    1387,
    1383,
    1386,
    1385,
    1386,
    1386,
    1388,
    1387,
    1387,
    1383,
    1385,
    1093,
    904,
    905,
    906,
    1105,
    1106,
    1384,
    1384,
    1386,
    1385,
    1124,
    849,
    850,
    851,
    1,
    1106,
    1385,
    1124,
    7,
    785,
    786,
    787,
    1105,
    1106,
    1388,
    1387,
    1386,
    1387,
    1388,
    1386,
    1384,
    1384,
    1384,
    1199,
    1200,
    1385,
    1388,
    1386,
    1385,
    1386,
    1383,
    1387,
    1385,
    1387,
    1385,
    1387,
    1125,
    817,
    818,
    819,
    1122,
    1182,
    1385,
    1387,
    1387,
    1384,
    1384,
    1388,
    1093,
    1,
    855,
    856,
    1121,
    1076,
    1077,
    1387,
    1386,
    1124,
    1,
    1106,
    1387,
    1386,
    1386,
    1163,
    1385,
    1388,
    1385,
    1388,
    1386,
    1388,
    1385,
    1388,
    1385,
    1383,
    1386,
    1387,
    1383,
    1387,
    1384,
    1388,
    1388,
    1386,
    1387,
    1383,
    1384,
    1386,
    1385,
    1386,
    1388,
    1386,
    1383,
    1383,
    1384,
    1388,
    1386,
    1388,
    1182,
    1213,
    1214,
    1148,
    11,
    1149,
    1199,
    1200,
    1386,
    1383,
    1387,
    1386,
    1385,
    1384,
    1388,
    1383,
    1385,
    1386,
    1385,
    1386,
    1387,
    1386,
    1383,
    1092,
    7,
    7,
    1090,
    1383,
    1386,
    1388,
    1383,
    1124,
    15,
    16,
    785,
    786,
    787,
    1122,
    1108,
    1109,
    7,
    801,
    802,
    803,
    1105,
    1106,
    1387,
    1388,
    1163,
    1386,
    1384,
    1199,
    1200,
    1147,
    1383,
    1215,
    1216,
    1383,
    1387,
    1387,
    1383,
    1383,
    1197,
    1198,
    1385,
    1388,
    1385,
    1124,
    7,
    785,
    786,
    787,
    1105,
    1106,
    1385,
    1387,
    1387,
    1385,
    1385,
    1383,
    1387,
    1092,
    836,
    837,
    838,
    1122,
    1384,
    1163,
    1108,
    839,
    840,
    1122,
    1384,
    1386,
    1383,
    1387,
    1384,
    1147,
    1383,
    1388,
    1385,
    1387,
    1384,
    1387,
    1384,
    1386,
    1384,
    1384,
    1384,
    1385,
    1383,
    1387,
    1388,
    1387,
    1383,
    1384,
    1388,
    1383,
    1385,
    1387,
    1383,
    1388,
    1384,
    1384,
    1384,
    1385,
    1386,
    1383,
    1197,
    1198,
    1149,
    1164,
    1197,
    1198,
    1215,
    1216,
    1387,
    1386,
    1385,
    1383,
    1385,
    1387,
    1384,
    1386,
    1384,
    1386,
    1386,
    1388,
    1387,
    1388,
    1165,
    1108,
    15,
    16,
    1122,
    1386,
    1386,
    1386,
    1385,
    1092,
    1152,
    32,
    801,
    802,
    803,
    1090,
    1388,
    1092,
    14,
    817,
    818,
    819,
    1090,
    1387,
    1387,
    1383,
    1385,
    1387,
    1386,
    1215,
    1216,
    1387,
    1388,
    1387,
    1388,
    1199,
    1200,
    1388,
    1197,
    1198,
    1213,
    1214,
    1388,
    1385,
    1108,
    1109,
    7,
    801,
    802,
    803,
    1105,
    1106,
    1147,
    1387,
    1165,
    1388,
    1384,
    1387,
    1383,
    1387,
    1093,
    853,
    854,
    839,
    1122,
    1123,
    1124,
    855,
    856,
    1,
    1122,
    1164,
    1199,
    1200,
    1149,
    1385,
    1199,
    1200,
    1386,
    1386,
    1385,
    1388,
    1388,
    1387,
    1386,
    1384,
    1384,
    1385,
    1386,
    1165,
    1385,
    1387,
    1385,
    1383,
    1383,
    1384,
    1386,
    1384,
    1388,
    1385,
    1386,
    1384,
    1383,
    1383,
    1388,
    1182,
    1213,
    1214,
    1197,
    1198,
    1213,
    1214,
    11,
    1386,
    1385,
    1385,
    1387,
    1388,
    1387,
    1165,
    1388,
    1388,
    1385,
    1385,
    1388,
    1386,
    1383,
    1386,
    1387,
    1124,
    31,
    32,
    1105,
    1106,
    1388,
    1149,
    1386,
    1108,
    1109,
    1,
    817,
    818,
    819,
    1122,
    1123,
    1123,
    1093,
    836,
    837,
    838,
    1122,
    1387,
    1385,
    1384,
    1388,
    1385,
    1387,
    1147,
    1150,
    1151,
    1182,
    1148,
    1388,
    1215,
    1216,
    1384,
    1213,
    1214,
    1182,
    1197,
    1198,
    1383,
    1164,
    1092,
    14,
    817,
    818,
    819,
    1090,
    1197,
    1198,
    1182,
    1386,
    1387,
    1388,
    1388,
    1387,
    1383,
    1387,
    1092,
    1,
    855,
    856,
    2,
    1152,
    833,
    834,
    835,
    1105,
    1106,
    1215,
    1216,
    1182,
    1148,
    1215,
    1216,
    1385,
    1384,
    1388,
    1388,
    1385,
    1386,
    1385,
    1386,
    1388,
    1388,
    1387,
    1387,
    1385,
    1384,
    1385,
    1387,
    1384,
    1388,
    1386,
    1384,
    1384,
    1383,
    1383,
    1383,
    1383,
    1386,
    1386,
    1387,
    1383,
    1386,
    1213,
    1214,
    1147,
    1182,
    1385,
    1384,
    1386,
    1383,
    1386,
    1386,
    1385,
    1384,
    1386,
    1383,
    1387,
    1386,
    1385,
    1388,
    1384,
    1385,
    1124,
    16,
    735,
    736,
    1105,
    1106,
    1385,
    1197,
    1198,
    1386,
    1092,
    1,
    836,
    837,
    838,
    3,
    5,
    6,
    1122,
    1092,
    853,
    854,
    839,
    1122,
    1383,
    1387,
    1386,
    1387,
    1149,
    1383,
    1166,
    1167,
    1197,
    1198,
    1385,
    1147,
    1385,
    1388,
    1387,
    1197,
    1198,
    1213,
    1214,
    1387,
    1383,
    1385,
    1093,
    836,
    837,
    838,
    1122,
    1213,
    1214,
    1199,
    1200,
    1387,
    1387,
    1383,
    1163,
    1388,
    1385,
    1388,
    1093,
    836,
    837,
    838,
    6,
    849,
    850,
    851,
    1,
    1106,
    1383,
    1148,
    1197,
    1198,
    1149,
    1147,
    1385,
    1388,
    1388,
    1384,
    1385,
    1387,
    1385,
    1384,
    1385,
    1386,
    1383,
    1383,
    1385,
    1386,
    1384,
    1384,
    1386,
    1388,
    1386,
    1386,
    1385,
    1383,
    1386,
    1388,
    1384,
    1384,
    1384,
    1386,
    1385,
    1147,
    1386,
    1387,
    1386,
    1383,
    1388,
    1387,
    1385,
    1385,
    1383,
    1383,
    1383,
    1385,
    1386,
    1388,
    1386,
    1385,
    1385,
    1384,
    1165,
    1383,
    1092,
    1152,
    798,
    799,
    1105,
    1106,
    1147,
    1213,
    1214,
    1147,
    1384,
    1091,
    1092,
    853,
    854,
    7,
    1,
    2,
    1105,
    1106,
    1093,
    1,
    855,
    856,
    1121,
    1076,
    1077,
    1387,
    1383,
    1147,
    1197,
    1198,
    1213,
    1214,
    1148,
    1197,
    1198,
    1384,
    1383,
    1213,
    1214,
    1148,
    1199,
    1200,
    1384,
    1163,
    1384,
    1092,
    853,
    854,
    839,
    1122,
    1147,
    1215,
    1216,
    1164,
    1388,
    1130,
    1126,
    1129,
    1127,
    1385,
    1386,
    1092,
    853,
    854,
    5,
    5,
    836,
    837,
    838,
    1122,
    1165,
    1388,
    1213,
    1214,
    1197,
    1198,
    1387,
    1384,
    1386,
    1383,
    1385,
    1383,
    1383,
    1387,
    1388,
    1388,
    1386,
    1388,
    1384,
    1384,
    1386,
    1388,
    1165,
    1385,
    1385,
    1386,
    1384,
    1383,
    1383,
    1387,
    1386,
    1387,
    1386,
    1388,
    1387,
    1388,
    1383,
    1385,
    1386,
    1388,
    1385,
    1386,
    1385,
    1164,
    1384,
    1387,
    1385,
    1388,
    1388,
    1385,
    1384,
    1383,
    1383,
    1387,
    1385,
    1383,
    1108,
    1109,
    814,
    815,
    1105,
    1106,
    1386,
    1387,
    1199,
    1200,
    1148,
    1386,
    1385,
    1092,
    15,
    16,
    5,
    6,
    4,
    1106,
    1163,
    1092,
    836,
    837,
    838,
    1122,
    1164,
    1388,
    1387,
    1383,
    1213,
    1214,
    1147,
    1197,
    1198,
    1213,
    1214,
    1385,
    1387,
    1388,
    1199,
    1200,
    1215,
    1216,
    1387,
    1386,
    1387,
    1388,
    1093,
    1,
    855,
    856,
    1121,
    1148,
    1077,
    1148,
    1130,
    12,
    1087,
    1180,
    1110,
    1111,
    1384,
    1388,
    1092,
    2,
    2,
    2,
    5,
    853,
    854,
    839,
    1122,
    1383,
    1182,
    1147,
    1213,
    1214,
    1388,
    1182,
    1383,
    1387,
    1383,
    1385,
    1385,
    1384,
    1384,
    1384,
    1385,
    1385,
    1385,
    1386,
    1387,
    1384,
    1386,
    1388,
    1385,
    1388,
    1385,
    1387,
    1388,
    1386,
    1384,
    1388,
    1387,
    1386,
    1384,
    1385,
    1383,
    1165,
    1383,
    1386,
    1387,
    1386,
    1385,
    1384,
    1388,
    1385,
    1386,
    1383,
    1383,
    1387,
    1383,
    1387,
    1383,
    1384,
    1163,
    1385,
    1124,
    2,
    830,
    831,
    2,
    1122,
    1386,
    1387,
    1215,
    1216,
    1197,
    1198,
    1384,
    1165,
    1093,
    32,
    849,
    4,
    5,
    1122,
    1383,
    1387,
    1093,
    853,
    854,
    839,
    1122,
    1383,
    1165,
    1383,
    1386,
    1383,
    1182,
    1213,
    1214,
    1147,
    1199,
    1200,
    1386,
    1383,
    1215,
    1216,
    1149,
    1182,
    1387,
    1383,
    1386,
    1383,
    1387,
    1092,
    836,
    837,
    838,
    1122,
    1384,
    1182,
    1098,
    1117,
    1086,
    1087,
    1094,
    1164,
    1384,
    1383,
    1388,
    1092,
    5,
    3,
    5,
    6,
    2,
    855,
    856,
    1121,
    1383,
    1199,
    1200,
    1182,
    1147,
    1385,
    1386,
    1385,
    1388,
    1384,
    1383,
    1386,
    1386,
    1387,
    1387,
    1386,
    1388,
    1383,
    1385,
    1387,
    1385,
    1388,
    1384,
    1385,
    1386,
    1384,
    1386,
    1385,
    1383,
    1385,
    1387,
    1386,
    1387,
    1383,
    1388,
    1383,
    1385,
    1386,
    1385,
    1385,
    1147,
    1388,
    1386,
    1386,
    1383,
    1383,
    1384,
    1384,
    1383,
    1383,
    1386,
    1383,
    1383,
    1383,
    1092,
    3,
    798,
    799,
    7,
    1090,
    1383,
    1386,
    1388,
    1388,
    1213,
    1214,
    1387,
    1385,
    1384,
    1092,
    7,
    1,
    839,
    840,
    1106,
    1383,
    1387,
    1092,
    3,
    3,
    7,
    1121,
    1383,
    1384,
    1383,
    1385,
    1199,
    1200,
    1147,
    11,
    1215,
    1216,
    1164,
    1199,
    1200,
    1147,
    1197,
    1198,
    10,
    1385,
    1387,
    1387,
    1383,
    1387,
    1093,
    853,
    854,
    2,
    1122,
    1383,
    1165,
    1097,
    1080,
    1094,
    1164,
    1383,
    1385,
    1386,
    1383,
    1108,
    3,
    849,
    4,
    2,
    4,
    785,
    786,
    787,
    1106,
    1215,
    1216,
    1148,
    1197,
    1198,
    1197,
    1198,
    1383,
    1383,
    1388,
    1388,
    1386,
    1385,
    1385,
    1384,
    1383,
    1385,
    1383,
    1386,
    1385,
    1384,
    1386,
    1383,
    1386,
    1387,
    1388,
    1384,
    1385,
    1386,
    1388,
    1388,
    1385,
    1387,
    1387,
    1388,
    1197,
    1198,
    1147,
    1197,
    1198,
    1150,
    1151,
    1387,
    1386,
    1387,
    1386,
    1384,
    1388,
    1386,
    1388,
    1387,
    1387,
    1383,
    1108,
    1109,
    814,
    815,
    1105,
    1106,
    1383,
    1197,
    1198,
    1147,
    1388,
    1148,
    1199,
    1200,
    1384,
    1108,
    1109,
    849,
    855,
    856,
    1122,
    1387,
    1386,
    1164,
    1093,
    1,
    6,
    787,
    1122,
    1384,
    1147,
    1388,
    1215,
    1216,
    1197,
    1198,
    1386,
    1387,
    1383,
    1215,
    1216,
    1383,
    1213,
    1214,
    1148,
    1386,
    1182,
    1388,
    1387,
    1383,
    1387,
    1092,
    1,
    15,
    16,
    1121,
    1384,
    1385,
    1096,
    1150,
    1151,
    1384,
    1388,
    1383,
    1163,
    1108,
    6,
    2,
    2,
    2,
    2,
    801,
    802,
    803,
    1106,
    1387,
    1386,
    1385,
    1213,
    1214,
    1213,
    1214,
    1383,
    1387,
    1387,
    1385,
    1386,
    1388,
    1383,
    1388,
    1386,
    1384,
    1385,
    1384,
    1385,
    1387,
    1383,
    1388,
    1388,
    1383,
    1383,
    1385,
    1387,
    1388,
    1387,
    1385,
    1384,
    1386,
    1384,
    1383,
    1213,
    1214,
    1385,
    1213,
    1214,
    1166,
    1167,
    1383,
    1386,
    1164,
    1386,
    1386,
    1383,
    1385,
    1387,
    1385,
    1387,
    1165,
    1108,
    1109,
    830,
    831,
    4,
    1122,
    1387,
    1213,
    1214,
    1385,
    1197,
    1198,
    1215,
    1216,
    1148,
    1182,
    1092,
    1,
    785,
    786,
    787,
    1122,
    1385,
    1387,
    1108,
    1,
    1,
    7,
    1105,
    1106,
    1383,
    1165,
    1387,
    1147,
    1213,
    1214,
    1197,
    1198,
    1384,
    1386,
    1197,
    1198,
    1148,
    1150,
    1151,
    1147,
    1386,
    1383,
    1388,
    1387,
    1165,
    1387,
    1093,
    31,
    15,
    2,
    1122,
    1123,
    1123,
    1166,
    1167,
    1388,
    1387,
    1387,
    1384,
    1124,
    6,
    1,
    3,
    6,
    3,
    817,
    818,
    819,
    1122,
    1387,
    1386,
    1147,
    1384,
    1387,
    1147,
    1199,
    1200,
    1385,
    1387,
    1388,
    1383,
    1385,
    1387,
    1386,
    1386,
    1387,
    1164,
    1385,
    1386,
    1386,
    1386,
    1385,
    1385,
    1387,
    1386,
    1383,
    1388,
    1385,
    1384,
    1385,
    1384,
    1385,
    1383,
    1384,
    1147,
    1197,
    1198,
    1147,
    1199,
    1200,
    1147,
    1383,
    1383,
    1384,
    1384,
    1387,
    1384,
    1383,
    1383,
    1388,
    1386,
    1386,
    1383,
    1092,
    871,
    872,
    873,
    1105,
    1106,
    1388,
    1384,
    1148,
    1213,
    1214,
    1197,
    1198,
    1197,
    1198,
    1108,
    1109,
    801,
    802,
    803,
    1090,
    1386,
    1384,
    1124,
    1152,
    1,
    2,
    1105,
    1383,
    1387,
    1383,
    1197,
    1198,
    1147,
    1148,
    1213,
    1214,
    1387,
    1383,
    1213,
    1214,
    1385,
    1166,
    1167,
    1387,
    1387,
    1383,
    1383,
    1387,
    1384,
    1388,
    1386,
    1092,
    31,
    32,
    1,
    839,
    840,
    1122,
    1182,
    1384,
    1383,
    1385,
    1124,
    1,
    3,
    6,
    4,
    1,
    2,
    785,
    786,
    787,
    2,
    1121,
    1384,
    1182,
    1199,
    1200,
    1182,
    1215,
    1216,
    1388,
    1386,
    1384,
    1388,
    1383,
    1388,
    1386,
    1388,
    1383,
    1383,
    1386,
    1388,
    1385,
    1385,
    1385,
    1383,
    1388,
    1383,
    1383,
    1385,
    1387,
    1385,
    1386,
    1385,
    1383,
    1386,
    1182,
    1388,
    1213,
    1214,
    1182,
    1215,
    1216,
    1199,
    1200,
    1163,
    1388,
    1385,
    1387,
    1388,
    1388,
    1383,
    1386,
    1385,
    1385,
    1383,
    1108,
    1109,
    888,
    889,
    890,
    1106,
    1165,
    1386,
    1388,
    1383,
    1147,
    1213,
    1214,
    1213,
    1214,
    1108,
    1109,
    817,
    818,
    819,
    1106,
    1163,
    1124,
    1,
    3,
    3,
    2,
    1090,
    1385,
    1383,
    1386,
    1213,
    1214,
    1197,
    1198,
    1147,
    1386,
    1385,
    1387,
    1383,
    1387,
    1388,
    1147,
    1386,
    1164,
    1388,
    1387,
    1387,
    1386,
    1387,
    1385,
    1384,
    1388,
    1092,
    2,
    1,
    855,
    856,
    1,
    1122,
    1385,
    1384,
    1108,
    1109,
    1,
    3,
    3,
    3,
    4,
    5,
    801,
    802,
    803,
    3,
    1089,
    1386,
    1385,
    1215,
    1216,
    1387,
    1388,
    1387,
    1386,
    1383,
    1386,
    1386,
    1163,
    1383,
    1387,
    1388,
    1386,
    1386,
    1388,
    1384,
    1385,
    1384,
    1387,
    1387,
    1384,
    1386,
    1385,
    1383,
    1383,
    1386,
    1384,
    1383,
    1387,
    1388,
    1386,
    1388,
    1388,
    1384,
    1383,
    1383,
    1182,
    1215,
    1216,
    1385,
    1387,
    1387,
    1387,
    1384,
    1383,
    1387,
    1386,
    1387,
    1388,
    1387,
    1108,
    1109,
    904,
    905,
    906,
    1122,
    1123,
    1124,
    1122,
    1386,
    1388,
    1150,
    1151,
    1147,
    1388,
    1383,
    1092,
    785,
    786,
    787,
    1122,
    1124,
    789,
    1023,
    1024,
    3,
    5,
    1106,
    1383,
    1384,
    1386,
    1384,
    1384,
    1213,
    1214,
    733,
    1387,
    1383,
    1388,
    1384,
    1384,
    1387,
    1384,
    1383,
    1388,
    1387,
    1388,
    1388,
    1383,
    1386,
    1388,
    1387,
    1387,
    1108,
    1109,
    7,
    785,
    786,
    787,
    2,
    1106,
    1388,
    1108,
    1109,
    1152,
    5,
    5,
    2,
    6,
    3,
    817,
    818,
    819,
    1090,
    1386,
    1386,
    1383,
    1386,
    1386,
    1386,
    1383,
    1388,
    1147,
    1385,
    1386,
    1386,
    1384,
    1386,
    1386,
    1386,
    1387,
    1386,
    1388,
    1388,
    1387,
    1388,
    1384,
    1388,
    1383,
    1384,
    1388,
    1383,
    1383,
    1385,
    1384,
    1384,
    1388,
    1384,
    1386,
    1386,
    1182,
    1197,
    1198,
    1197,
    1198,
    927,
    1197,
    1198,
    1385,
    1384,
    1386,
    1386,
    1387,
    1387,
    1388,
    1388,
    1385,
    1383,
    1384,
    1092,
    7,
    1390,
    1391,
    1392,
    875,
    876,
    877,
    1121,
    1383,
    1166,
    1167,
    1387,
    1385,
    1164,
    1108,
    801,
    802,
    803,
    1,
    804,
    805,
    1039,
    1040,
    2,
    1090,
    1388,
    1383,
    1384,
    1384,
    1182,
    1383,
    1384,
    1388,
    1387,
    1386,
    1383,
    1386,
    1386,
    1386,
    1387,
    1385,
    1386,
    1386,
    1383,
    1383,
    1383,
    1385,
    1387,
    1386,
    1387,
    1385,
    1108,
    1109,
    7,
    801,
    802,
    803,
    6,
    1106,
    1387,
    1383,
    1092,
    996,
    2,
    5,
    6,
    5,
    4,
    833,
    834,
    835,
    1106,
    1383,
    1388,
    1388,
    1385,
    1387,
    1199,
    1200,
    1388,
    1386,
    1386,
    1386,
    1386,
    1386,
    1385,
    1387,
    1387,
    1388,
    1387,
    1384,
    1386,
    1384,
    1386,
    1385,
    1384,
    1388,
    1388,
    1385,
    1388,
    1386,
    1385,
    1386,
    1386,
    1383,
    1387,
    1385,
    1387,
    1383,
    1213,
    1214,
    1213,
    1214,
    1147,
    1213,
    1214,
    1386,
    1384,
    1388,
    1384,
    1386,
    1386,
    1387,
    1386,
    1387,
    1387,
    1385,
    1163,
    1092,
    1406,
    1407,
    1408,
    891,
    892,
    893,
    1105,
    1106,
    1387,
    1147,
    1388,
    1386,
    1386,
    1124,
    817,
    818,
    819,
    1,
    820,
    821,
    1055,
    1090,
    1091,
    1383,
    1383,
    1383,
    1385,
    1384,
    1387,
    1388,
    1386,
    1383,
    1385,
    1383,
    1384,
    1384,
    1387,
    1386,
    1387,
    1384,
    1385,
    1386,
    1385,
    1384,
    1384,
    1387,
    1384,
    1383,
    1383,
    1385,
    1164,
    1092,
    14,
    817,
    818,
    819,
    1090,
    1387,
    1387,
    1387,
    1383,
    1091,
    1092,
    6,
    6,
    1,
    4,
    2,
    855,
    856,
    1122,
    1076,
    1148,
    1387,
    1384,
    1147,
    1215,
    1216,
    1384,
    1387,
    1386,
    1386,
    1385,
    1383,
    1384,
    1386,
    1386,
    1386,
    1384,
    1385,
    1388,
    1385,
    1383,
    1383,
    1388,
    1386,
    1385,
    1386,
    1383,
    1383,
    1385,
    1387,
    1383,
    1383,
    1388,
    1387,
    1385,
    1150,
    1151,
    1147,
    1182,
    1197,
    1198,
    1182,
    1199,
    1200,
    1388,
    1383,
    1383,
    1383,
    1163,
    1147,
    1385,
    1388,
    1383,
    1387,
    1387,
    1387,
    1093,
    1423,
    1424,
    907,
    908,
    909,
    910,
    1122,
    1385,
    1383,
    1384,
    1387,
    1125,
    1,
    796,
    797,
    1090,
    1092,
    785,
    786,
    787,
    1106,
    1163,
    1385,
    1388,
    1387,
    1385,
    1386,
    1384,
    1387,
    1385,
    1388,
    1384,
    1385,
    1387,
    1383,
    1386,
    1387,
    1165,
    1386,
    1386,
    1383,
    1385,
    1385,
    1385,
    1388,
    1383,
    1385,
    1387,
    1388,
    1383,
    1385,
    1093,
    836,
    837,
    838,
    1122,
    1387,
    1385,
    1164,
    1388,
    1385,
    1108,
    2,
    849,
    5,
    6,
    2,
    836,
    837,
    838,
    1122,
    1384,
    1147,
    1197,
    1198,
    1150,
    1151,
    1147,
    1385,
    1387,
    1385,
    1388,
    1383,
    1386,
    1387,
    1385,
    1387,
    1385,
    1385,
    1385,
    1385,
    1387,
    1386,
    1388,
    1386,
    1387,
    1383,
    1388,
    1385,
    1387,
    1386,
    1388,
    1197,
    1198,
    1388,
    1386,
    1166,
    1167,
    1182,
    1387,
    1213,
    1214,
    1147,
    1215,
    1216,
    1383,
    1385,
    1386,
    1383,
    1199,
    1200,
    1387,
    1385,
    1384,
    1383,
    1386,
    1385,
    1388,
    1091,
    1091,
    1092,
    924,
    925,
    926,
    1,
    1106,
    1387,
    1383,
    1108,
    1,
    1389,
    812,
    813,
    1106,
    1108,
    801,
    802,
    803,
    1106,
    1386,
    1383,
    1388,
    1385,
    1388,
    1388,
    1386,
    1387,
    1383,
    1386,
    1385,
    1385,
    1387,
    1385,
    1385,
    1386,
    1384,
    1384,
    1387,
    1388,
    1386,
    1388,
    1383,
    1387,
    1386,
    1388,
    1387,
    1383,
    1384,
    1387,
    1384,
    1092,
    853,
    854,
    839,
    1122,
    1383,
    1387,
    1386,
    1387,
    1165,
    1092,
    5,
    1,
    2,
    1,
    4,
    853,
    854,
    839,
    1122,
    1383,
    1213,
    1214,
    1166,
    1167,
    1147,
    1199,
    1200,
    1383,
    1387,
    1388,
    1197,
    1198,
    1388,
    1384,
    1385,
    1388,
    1387,
    1384,
    1384,
    1385,
    1383,
    1384,
    1387,
    1384,
    1388,
    1385,
    1383,
    1386,
    1384,
    1213,
    1214,
    1165,
    1386,
    1182,
    1197,
    1198,
    1147,
    1383,
    10,
    1199,
    1200,
    1388,
    1385,
    1385,
    1383,
    1383,
    1215,
    1216,
    1385,
    1386,
    1384,
    1386,
    1386,
    1383,
    1385,
    1384,
    1165,
    1147,
    1093,
    871,
    872,
    873,
    1122,
    1163,
    1385,
    1108,
    1,
    1405,
    828,
    1090,
    1163,
    1108,
    817,
    818,
    819,
    1122,
    1385,
    1386,
    1385,
    1384,
    1383,
    1383,
    1384,
    1386,
    1387,
    1383,
    1387,
    1388,
    1387,
    1386,
    1386,
    1386,
    1387,
    1387,
    1384,
    1383,
    1383,
    1163,
    1383,
    1383,
    1383,
    1385,
    1386,
    1383,
    1387,
    1386,
    1182,
    1388,
    1093,
    1,
    855,
    856,
    1121,
    1076,
    1077,
    1387,
    1386,
    1108,
    1109,
    3,
    3,
    1,
    5,
    5,
    1,
    855,
    856,
    1121,
    1383,
    1199,
    1200,
    1383,
    1149,
    1215,
    1216,
    1386,
    1386,
    1386,
    1213,
    1214,
    1383,
    1383,
    1388,
    1384,
    1383,
    1385,
    1388,
    1385,
    1383,
    1385,
    1384,
    1384,
    1386,
    1387,
    1383,
    1386,
    1164,
    1182,
    1386,
    1388,
    1387,
    1147,
    1213,
    1214,
    1199,
    1200,
    1385,
    1215,
    1216,
    1147,
    1388,
    1383,
    1385,
    1197,
    1198,
    1150,
    1385,
    1384,
    1383,
    1165,
    1387,
    1388,
    1387,
    1387,
    1383,
    1148,
    1149,
    1092,
    888,
    889,
    890,
    1122,
    1123,
    1124,
    7,
    1421,
    1090,
    1383,
    1384,
    1124,
    785,
    786,
    787,
    2,
    1121,
    1388,
    1388,
    1388,
    1385,
    1388,
    1386,
    1387,
    1385,
    1384,
    1386,
    1385,
    1387,
    1383,
    1383,
    1386,
    1387,
    1386,
    1386,
    1388,
    1384,
    1383,
    1387,
    1385,
    1388,
    1385,
    1388,
    1386,
    1387,
    1383,
    1386,
    1148,
    1387,
    1092,
    836,
    837,
    838,
    1122,
    1165,
    1388,
    1383,
    1124,
    1,
    839,
    840,
    849,
    3,
    3,
    5,
    785,
    786,
    787,
    1106,
    1215,
    1216,
    1148,
    1199,
    1200,
    1386,
    1387,
    1385,
    1197,
    1198,
    1199,
    1200,
    1182,
    1383,
    1388,
    1388,
    1387,
    1197,
    1198,
    1386,
    1387,
    1384,
    1385,
    1383,
    1387,
    1386,
    1383,
    1388,
    1148,
    1197,
    1198,
    1182,
    1199,
    1200,
    1182,
    1215,
    1216,
    1387,
    11,
    1199,
    1200,
    1386,
    1385,
    1387,
    1213,
    1214,
    1166,
    702,
    1383,
    1385,
    1388,
    1387,
    1387,
    1385,
    1387,
    1384,
    1386,
    1150,
    1151,
    1092,
    905,
    906,
    1,
    7,
    1023,
    1024,
    1090,
    1383,
    1383,
    1124,
    7,
    801,
    802,
    803,
    3,
    1089,
    1387,
    1387,
    1383,
    1386,
    1383,
    1387,
    1387,
    1385,
    1388,
    1383,
    1384,
    1385,
    1387,
    1384,
    1385,
    1387,
    1383,
    1388,
    1147,
    1388,
    1386,
    1388,
    1383,
    1385,
    1385,
    1387,
    1383,
    1387,
    1385,
    1147,
    1199,
    1200,
    1387,
    1093,
    853,
    854,
    839,
    1122,
    1383,
    1108,
    3,
    3,
    855,
    856,
    5,
    3,
    4,
    3,
    801,
    802,
    803,
    1106,
    1147,
    1197,
    1198,
    1215,
    1216,
    1387,
    1385,
    1385,
    1213,
    1214,
    1215,
    1216,
    1384,
    1386,
    1383,
    1165,
    1385,
    1213,
    1214,
    1383,
    1384,
    1388,
    1388,
    1383,
    1388,
    1383,
    1197,
    1198,
    1387,
    1213,
    1214,
    1147,
    1215,
    1216,
    1150,
    1151,
    1147,
    1384,
    1147,
    1215,
    1216,
    1387,
    1387,
    1387,
    1386,
    1199,
    1200,
    1387,
    1386,
    1386,
    1383,
    1385,
    1385,
    1164,
    1384,
    1383,
    1387,
    1166,
    1167,
    1108,
    1390,
    1391,
    1392,
    795,
    1039,
    1040,
    1106,
    1387,
    1385,
    1092,
    7,
    817,
    818,
    819,
    1090,
    1387,
    1387,
    1384,
    1386,
    1385,
    1386,
    1387,
    1384,
    1383,
    1388,
    1384,
    1384,
    1388,
    1384,
    1387,
    1383,
    1383,
    1388,
    1385,
    11,
    1387,
    1387,
    1388,
    1383,
    1386,
    1388,
    1384,
    1383,
    1385,
    1386,
    1387,
    1215,
    1216,
    1148,
    1387,
    1092,
    1,
    855,
    856,
    1121,
    1124,
    1,
    2,
    785,
    786,
    787,
    5,
    5,
    1,
    817,
    818,
    819,
    1122,
    1387,
    1213,
    1214,
    1387,
    1386,
    1386,
    1386,
    1386,
    1388,
    1199,
    1200,
    1147,
    1384,
    1386,
    1386,
    1383,
    1384,
    1199,
    1200,
    1388,
    1384,
    1388,
    1387,
    1386,
    1387,
    1385,
    1213,
    1214,
    1384,
    1197,
    1198,
    1199,
    1200,
    1147,
    1166,
    1167,
    1199,
    1200,
    1150,
    1151,
    1387,
    1388,
    1383,
    1385,
    1147,
    1215,
    1216,
    1384,
    1387,
    1385,
    1385,
    1383,
    1384,
    1387,
    1384,
    1388,
    1384,
    1385,
    11,
    1147,
    1092,
    1407,
    1408,
    811,
    1055,
    1090,
    1385,
    1383,
    1383,
    1388,
    1093,
    836,
    837,
    838,
    1122,
    1163,
    1385,
    1383,
    1383,
    1387,
    1384,
    1388,
    1386,
    1385,
    1163,
    1384,
    1388,
    1384,
    1383,
    1386,
    1387,
    1383,
    1388,
    1385,
    1385,
    1182,
    1384,
    1386,
    1384,
    1387,
    1384,
    1384,
    1384,
    1388,
    1385,
    1386,
    1147,
    1388,
    1197,
    1198,
    1387,
    1093,
    836,
    837,
    838,
    1152,
    1,
    1,
    801,
    802,
    803,
    1,
    1,
    1,
    785,
    786,
    787,
    2,
    1121,
    1384,
    1386,
    1386,
    1387,
    1385,
    1387,
    1385,
    1387,
    1215,
    1216,
    1384,
    1385,
    1385,
    1385,
    1385,
    1147,
    1215,
    1216,
    1387,
    1383,
    1384,
    1386,
    1383,
    1387,
    1385,
    1387,
    1388,
    1147,
    1213,
    1214,
    1215,
    1216,
    1182,
    11,
    1147,
    1215,
    1216,
    1166,
    1167,
    1384,
    1385,
    1386,
    1199,
    1200,
    1388,
    11,
    1122,
    1123,
    1163,
    1386,
    1383,
    1387,
    1386,
    1385,
    1387,
    1387,
    1387,
    1388,
    1164,
    1108,
    1423,
    1424,
    827,
    1090,
    1383,
    1387,
    1384,
    1383,
    1076,
    1077,
    1092,
    853,
    854,
    839,
    1122,
    1383,
    1388,
    1387,
    1386,
    1387,
    1383,
    1385,
    1386,
    1386,
    1387,
    1383,
    1388,
    1385,
    1383,
    1387,
    1385,
    1384,
    1384,
    1388,
    1385,
    1387,
    1387,
    1388,
    1383,
    1383,
    1387,
    1386,
    1384,
    1182,
    1387,
    1383,
    1163,
    1213,
    1214,
    1147,
    1386,
    1092,
    853,
    854,
    2,
    2,
    6,
    817,
    818,
    819,
    5,
    5,
    4,
    801,
    802,
    803,
    3,
    1089,
    1386,
    1387,
    1385,
    1383,
    1384,
    1386,
    1197,
    1198,
    1388,
    1164,
    1383,
    1388,
    1385,
    1384,
    1199,
    1200,
    1149,
    731,
    732,
    1386,
    1386,
    1388,
    1384,
    1384,
    1385,
    1386,
    1383,
    1199,
    1200,
    1148,
    1182,
    1148,
    1197,
    1198,
    1182,
    1150,
    1151,
    1147,
    1385,
    1385,
    1384,
    1383,
    1215,
    1216,
    1147,
    1388,
    875,
    876,
    1122,
    1123,
    1388,
    1383,
    1383,
    1383,
    1388,
    1383,
    1383,
    1383,
    1388,
    1388,
    1093,
    7,
    1089,
    1387,
    1384,
    1383,
    1385,
    1197,
    1198,
    1182,
    1388,
    1092,
    1,
    855,
    856,
    1121,
    1383,
    1388,
    1383,
    1386,
    1384,
    1387,
    1388,
    1386,
    1383,
    1384,
    1387,
    1385,
    1386,
    1385,
    1384,
    1384,
    1387,
    1384,
    1383,
    1385,
    1388,
    1387,
    1383,
    1386,
    1388,
    1384,
    1386,
    1165,
    1164,
    1383,
    1387,
    1182,
    1384,
    1199,
    1200,
    1148,
    1092,
    2,
    1090,
    1091,
    1092,
    785,
    786,
    787,
    3,
    2,
    1,
    817,
    818,
    819,
    1090,
    1386,
    1386,
    1383,
    1386,
    1384,
    1199,
    1200,
    1213,
    1214,
    1384,
    1385,
    1385,
    1388,
    1387,
    1383,
    1215,
    1216,
    1386,
    747,
    748,
    1387,
    1387,
    1383,
    1388,
    1383,
    1385,
    1385,
    1147,
    1215,
    1216,
    1197,
    1198,
    1147,
    1213,
    1214,
    1147,
    1166,
    1167,
    1147,
    1386,
    1387,
    1386,
    1388,
    1383,
    1199,
    1200,
    1147,
    891,
    892,
    893,
    894,
    1122,
    1384,
    1383,
    1384,
    1384,
    1385,
    1384,
    1385,
    1386,
    1383,
    1388,
    1091,
    1383,
    1387,
    1384,
    1383,
    1387,
    1213,
    1214,
    1147,
    1199,
    1200,
    1092,
    785,
    786,
    787,
    1122,
    1164,
    1385,
    1387,
    1387,
    1383,
    1386,
    1384,
    1387,
    1385,
    1387,
    1386,
    1386,
    1384,
    1386,
    1383,
    1387,
    1388,
    1384,
    1384,
    1386,
    1386,
    1387,
    1388,
    1385,
    1385,
    1386,
    1384,
    1385,
    1387,
    1386,
    1387,
    1147,
    1215,
    1216,
    1388,
    1387,
    1091,
    1383,
    1165,
    1108,
    801,
    802,
    803,
    2,
    2,
    1,
    833,
    834,
    835,
    1106,
    1164,
    1384,
    1386,
    1384,
    1147,
    1215,
    1216,
    1148,
    1147,
    1383,
    1384,
    1385,
    1385,
    1385,
    1197,
    1198,
    1147,
    1199,
    1200,
    1388,
    1199,
    1200,
    1388,
    1388,
    1164,
    1386,
    1383,
    1385,
    1383,
    1388,
    1213,
    1214,
    1199,
    1200,
    1182,
    1199,
    1200,
    1197,
    1198,
    1383,
    1164,
    1383,
    1385,
    1147,
    1215,
    1216,
    1149,
    907,
    908,
    909,
    910,
    1105,
    1106,
    1165,
    1384,
    1385,
    1123,
    1387,
    1384,
    1386,
    1388,
    1384,
    1383,
    1384,
    1384,
    1385,
    1387,
    1386,
    1387,
    1197,
    1198,
    1215,
    1216,
    1108,
    801,
    802,
    803,
    2,
    1106,
    1384,
    1387,
    1388,
    1384,
    1386,
    1383,
    1385,
    1385,
    1386,
    1385,
    1386,
    1383,
    1386,
    1383,
    1388,
    1386,
    1383,
    1385,
    1383,
    1385,
    1386,
    1384,
    1388,
    1386,
    1387,
    1388,
    1388,
    1388,
    1383,
    1386,
    1386,
    1387,
    1182,
    1148,
    1383,
    1383,
    1388,
    1386,
    1124,
    785,
    786,
    787,
    4,
    6,
    5,
    849,
    850,
    851,
    1122,
    1386,
    1386,
    1384,
    1199,
    1200,
    1182,
    1150,
    1151,
    1384,
    1385,
    1383,
    1388,
    1383,
    1387,
    1213,
    1214,
    1147,
    1215,
    1216,
    1149,
    1215,
    1216,
    1385,
    1383,
    1384,
    1388,
    1385,
    1386,
    1384,
    1197,
    1198,
    1147,
    1215,
    1216,
    1386,
    1215,
    1216,
    1213,
    1214,
    1387,
    1387,
    1383,
    1197,
    1198,
    1147,
    1386,
    1199,
    1092,
    924,
    925,
    926,
    1,
    1122,
    1123,
    1123,
    1124,
    1074,
    1122,
    1163,
    1385,
    1383,
    1387,
    1387,
    1388,
    1383,
    1388,
    1388,
    1383,
    1388,
    1213,
    1214,
    1147,
    1182,
    1108,
    817,
    818,
    819,
    1090,
    11,
    1386,
    1388,
    1386,
    1386,
    1386,
    1385,
    1386,
    1385,
    1386,
    1385,
    1388,
    1386,
    1383,
    1385,
    1387,
    1383,
    1388,
    1386,
    1386,
    1388,
    1388,
    1386,
    1386,
    1386,
    1387,
    1384,
    1387,
    1383,
    1385,
    1387,
    1387,
    1386,
    1386,
    1384,
    1384,
    1387,
    1386,
    1108,
    1109,
    801,
    802,
    803,
    849,
    2,
    3,
    1,
    785,
    786,
    787,
    1106,
    1384,
    1148,
    1215,
    1216,
    1148,
    1166,
    1167,
    1383,
    1388,
    1165,
    1384,
    1387,
    1383,
    1387,
    731,
    732,
    1386,
    1150,
    1151,
    731,
    732,
    1385,
    1383,
    1383,
    1388,
    1388,
    1384,
    1384,
    1213,
    1214,
    1387,
    1199,
    1200,
    1148,
    1197,
    1198,
    1388,
    1387,
    1388,
    1388,
    1386,
    1213,
    1214,
    1386,
    1384,
    1215,
    1384,
    1092,
    1390,
    1391,
    1392,
    793,
    794,
    794,
    875,
    876,
    1152,
    1122,
    1384,
    1388,
    1383,
    1387,
    1383,
    1388,
    1165,
    1383,
    1385,
    1385,
    1147,
    1387,
    1123,
    1123,
    1124,
    796,
    797,
    1105,
    1106,
    1384,
    1383,
    1385,
    1386,
    1384,
    1388,
    1387,
    1387,
    1386,
    1386,
    1386,
    1388,
    1387,
    1388,
    1165,
    1388,
    1385,
    1384,
    1388,
    1388,
    1387,
    1384,
    1384,
    1387,
    1386,
    1385,
    1388,
    1385,
    1385,
    1387,
    1385,
    1383,
    1385,
    1388,
    1386,
    1386,
    1387,
    1388,
    1124,
    1,
    817,
    818,
    819,
    6,
    4,
    2,
    5,
    785,
    786,
    787,
    1122,
    1123,
    1387,
    1147,
    1383,
    1199,
    1200,
    1149,
    1165,
    1383,
    1384,
    1388,
    1384,
    1197,
    1198,
    747,
    748,
    1147,
    1166,
    1167,
    747,
    748,
    1386,
    1385,
    1386,
    1388,
    1387,
    1385,
    1385,
    1387,
    1197,
    1198,
    1215,
    1216,
    1147,
    1213,
    1214,
    1386,
    1383,
    1383,
    1385,
    1199,
    1200,
    1147,
    1149,
    1148,
    1384,
    1383,
    1387,
    1092,
    1407,
    1408,
    809,
    810,
    810,
    891,
    892,
    893,
    1105,
    1106,
    1383,
    1386,
    1387,
    1385,
    1383,
    1388,
    1164,
    1385,
    1385,
    1388,
    1124,
    1,
    866,
    867,
    812,
    813,
    1090,
    1383,
    1386,
    1386,
    1383,
    1384,
    1384,
    1388,
    1388,
    1386,
    1387,
    1385,
    1383,
    1388,
    1383,
    1384,
    1387,
    1384,
    1387,
    1383,
    1386,
    1388,
    1386,
    1388,
    1385,
    1386,
    1383,
    1387,
    1387,
    1386,
    1387,
    1385,
    1386,
    1383,
    1387,
    1384,
    1383,
    1383,
    1384,
    1108,
    1109,
    1,
    796,
    797,
    1,
    2,
    6,
    1,
    6,
    801,
    802,
    803,
    3,
    1105,
    1106,
    1388,
    1148,
    1215,
    1216,
    1147,
    1384,
    1385,
    1386,
    1383,
    1385,
    1213,
    1214,
    1147,
    1197,
    1198,
    1147,
    1197,
    1198,
    1150,
    1151,
    1383,
    1387,
    1383,
    1387,
    1388,
    1387,
    1147,
    1213,
    1214,
    1147,
    1384,
    1199,
    1200,
    1150,
    1151,
    1385,
    1387,
    1386,
    1215,
    1216,
    1386,
    731,
    732,
    1383,
    1165,
    1387,
    1108,
    1423,
    1424,
    825,
    826,
    826,
    907,
    908,
    909,
    910,
    1106,
    1148,
    1384,
    1385,
    1383,
    1384,
    1386,
    1385,
    1383,
    1383,
    1124,
    3,
    1389,
    882,
    883,
    828,
    1090,
    1386,
    1383,
    1385,
    1385,
    1388,
    1383,
    1387,
    1384,
    1387,
    1387,
    1385,
    1385,
    1385,
    1386,
    1386,
    1386,
    1386,
    1387,
    1385,
    1386,
    1387,
    1386,
    1384,
    1383,
    1388,
    1383,
    1387,
    1386,
    1388,
    1387,
    1387,
    1387,
    1385,
    1385,
    1384,
    1384,
    1383,
    1383,
    1164,
    1124,
    866,
    867,
    812,
    813,
    1,
    2,
    2,
    4,
    5,
    817,
    818,
    819,
    2,
    1089,
    1384,
    1199,
    1200,
    1147,
    1384,
    1385,
    1383,
    1388,
    1383,
    1385,
    1199,
    1200,
    1147,
    1383,
    1213,
    1214,
    1148,
    1213,
    1214,
    1166,
    1167,
    1385,
    1384,
    1385,
    1385,
    1388,
    1387,
    1386,
    1386,
    1386,
    1199,
    1200,
    1215,
    1216,
    1166,
    1167,
    1385,
    1385,
    1386,
    1197,
    1198,
    1386,
    747,
    748,
    1148,
    1387,
    1383,
    1385,
    1092,
    7,
    1152,
    7,
    1090,
    1092,
    924,
    925,
    926,
    1122,
    1163,
    1147,
    1388,
    1386,
    1388,
    1388,
    1385,
    1123,
    1124,
    2,
    1152,
    1405,
    898,
    899,
    1089,
    1164,
    1388,
    1388,
    1388,
    1385,
    1386,
    1387,
    1384,
    1384,
    1384,
    1388,
    1388,
    1388,
    1385,
    1386,
    1387,
    1386,
    1387,
    1386,
    1388,
    1388,
    1388,
    1384,
    1383,
    1387,
    1384,
    1387,
    1383,
    1385,
    1384,
    1384,
    1388,
    1388,
    1386,
    1385,
    1385,
    1386,
    1384,
    1123,
    1124,
    1389,
    882,
    883,
    828,
    15,
    16,
    3,
    2,
    1,
    5,
    817,
    818,
    819,
    1090,
    1384,
    1182,
    1215,
    1216,
    1384,
    1383,
    1388,
    1386,
    1388,
    1164,
    1386,
    1215,
    1216,
    1197,
    1198,
    1148,
    1199,
    1200,
    1147,
    1197,
    1198,
    1147,
    1386,
    1385,
    1386,
    1165,
    1384,
    1387,
    1383,
    1197,
    1198,
    1215,
    1216,
    1388,
    1384,
    1383,
    1383,
    1384,
    1383,
    1386,
    1213,
    1214,
    1149,
    1384,
    1199,
    1200,
    1150,
    1151,
    1199,
    1200,
    1091,
    1091,
    1091,
    1388,
    1385,
    1093,
    871,
    872,
    873,
    1122,
    1149,
    1199,
    1200,
    1386,
    1385,
    1124,
    3,
    15,
    15,
    16,
    1421,
    914,
    1090,
    1388,
    1385,
    1384,
    1385,
    1388,
    1388,
    1383,
    1384,
    1385,
    1385,
    1385,
    1383,
    1384,
    1385,
    1384,
    1384,
    1383,
    1386,
    1384,
    1388,
    1385,
    1384,
    1385,
    1388,
    1384,
    1384,
    1387,
    1384,
    1383,
    1388,
    1385,
    1387,
    1383,
    1383,
    1385,
    1385,
    1383,
    1384,
    1125,
    4,
    7,
    1405,
    898,
    899,
    2,
    31,
    32,
    5,
    6,
    1,
    2,
    796,
    797,
    1105,
    1106,
    1384,
    1147,
    1199,
    1200,
    1383,
    1388,
    1386,
    1388,
    1388,
    1385,
    1387,
    1150,
    1151,
    1213,
    1214,
    1149,
    1215,
    1216,
    1148,
    1213,
    1214,
    1385,
    1387,
    1385,
    1386,
    1383,
    1385,
    1386,
    1385,
    1213,
    1214,
    1387,
    1385,
    1386,
    1387,
    1386,
    1384,
    1387,
    1387,
    1386,
    1386,
    1147,
    1150,
    1151,
    1215,
    1216,
    1166,
    1167,
    1215,
    1216,
    1165,
    1147,
    1384,
    1148,
    1385,
    1388,
    1092,
    888,
    889,
    890,
    1106,
    1215,
    1216,
    1147,
    1125,
    16,
    2,
    31,
    31,
    32,
    1090,
    1091,
    1384,
    1383,
    1383,
    1385,
    1384,
    1388,
    1388,
    1386,
    1385,
    1386,
    1386,
    1383,
    1388,
    1388,
    1384,
    1383,
    1385,
    1384,
    1386,
    1384,
    1387,
    1387,
    1384,
    1388,
    1387,
    1385,
    1386,
    1383,
    1388,
    1384,
    1385,
    1387,
    1387,
    1385,
    1388,
    1386,
    1165,
    1123,
    1124,
    1,
    3,
    6,
    1421,
    914,
    1,
    15,
    16,
    4,
    4,
    5,
    866,
    867,
    812,
    813,
    1090,
    1383,
    1197,
    1198,
    1215,
    1216,
    1388,
    1387,
    1384,
    1163,
    1384,
    1197,
    1198,
    1166,
    1167,
    1147,
    1199,
    1200,
    1149,
    1383,
    1147,
    1197,
    1198,
    1386,
    1384,
    1383,
    1384,
    1387,
    1385,
    1385,
    1384,
    1387,
    1387,
    1387,
    1387,
    1385,
    1386,
    1387,
    1385,
    1384,
    1386,
    1387,
    1199,
    1200,
    1166,
    1167,
    1147,
    1383,
    1197,
    1198,
    1386,
    1199,
    1200,
    11,
    1147,
    1199,
    1200,
    1385,
    1385,
    1092,
    905,
    906,
    1122,
    1123,
    1123,
    1124,
    47,
    32,
    1023,
    1024,
    1090,
    1091,
    1386,
    1384,
    1165,
    1388,
    1385,
    1388,
    1386,
    1388,
    1387,
    1388,
    1383,
    1386,
    1383,
    1388,
    1386,
    1386,
    1385,
    1383,
    1388,
    1387,
    1386,
    1386,
    1383,
    1388,
    1387,
    1386,
    1384,
    1385,
    1384,
    1385,
    1387,
    1384,
    1387,
    1387,
    11,
    1383,
    1182,
    1388,
    1124,
    1023,
    1024,
    6,
    1,
    2,
    7,
    15,
    1,
    31,
    32,
    2,
    6,
    881,
    882,
    883,
    828,
    1090,
    1386,
    1384,
    1213,
    1214,
    1387,
    1165,
    1385,
    1386,
    1385,
    1387,
    1383,
    1213,
    1214,
    1182,
    1149,
    1147,
    1215,
    1216,
    1385,
    1197,
    1198,
    1213,
    1214,
    1383,
    1383,
    1385,
    1387,
    1387,
    1385,
    1387,
    1386,
    1388,
    1387,
    1386,
    1386,
    1388,
    1387,
    1387,
    1383,
    1384,
    1383,
    1147,
    1215,
    1216,
    10,
    1197,
    1198,
    1148,
    1213,
    1214,
    1147,
    1215,
    1216,
    1197,
    1198,
    1215,
    1216,
    1388,
    1385,
    1108,
    1390,
    1391,
    1392,
    793,
    794,
    793,
    794,
    795,
    1039,
    1040,
    1106,
    1384,
    1383,
    1387,
    1384,
    1383,
    1387,
    1388,
    1383,
    1386,
    1388,
    1387,
    1386,
    1386,
    1387,
    1387,
    1383,
    1383,
    1388,
    1383,
    1386,
    1387,
    1385,
    1387,
    1388,
    1383,
    1387,
    1386,
    1387,
    1387,
    1383,
    1388,
    1383,
    1388,
    1387,
    1384,
    1386,
    927,
    1123,
    1124,
    881,
    1039,
    1040,
    3,
    1,
    15,
    16,
    4,
    32,
    1,
    2,
    4,
    1389,
    897,
    898,
    899,
    1089,
    1386,
    1388,
    1388,
    1388,
    1388,
    1147,
    1383,
    1388,
    1387,
    1384,
    1386,
    1385,
    1386,
    1182,
    1388,
    1388,
    1199,
    1200,
    1147,
    1148,
    1213,
    1214,
    1147,
    1386,
    1384,
    1385,
    1384,
    1385,
    1384,
    1384,
    1386,
    1388,
    1384,
    1387,
    1386,
    1386,
    1387,
    1387,
    1386,
    1385,
    1385,
    1383,
    1197,
    1198,
    1385,
    1147,
    1213,
    1214,
    1386,
    1147,
    1197,
    1198,
    1199,
    1200,
    1213,
    1214,
    10,
    1147,
    1388,
    1385,
    1383,
    1092,
    1407,
    1408,
    809,
    810,
    809,
    810,
    811,
    1055,
    1090,
    1165,
    1388,
    1387,
    1386,
    1387,
    1387,
    1386,
    1383,
    1385,
    1387,
    1383,
    1386,
    1386,
    1383,
    1386,
    1387,
    1384,
    1384,
    1383,
    1386,
    1384,
    1386,
    1387,
    1388,
    1385,
    1385,
    1386,
    1164,
    1383,
    1385,
    1385,
    1383,
    1383,
    1387,
    1385,
    1387,
    1384,
    1124,
    789,
    790,
    897,
    1055,
    3,
    1,
    2,
    31,
    4,
    1,
    5,
    3,
    15,
    16,
    1405,
    913,
    914,
    1090,
    1388,
    1385,
    1384,
    1385,
    1388,
    1383,
    1385,
    1384,
    1388,
    1388,
    1384,
    1383,
    1387,
    1386,
    1386,
    1147,
    1383,
    1215,
    1216,
    1199,
    1200,
    1388,
    1148,
    1387,
    1388,
    1163,
    1385,
    1384,
    1388,
    1388,
    1387,
    1385,
    1386,
    1386,
    1165,
    1385,
    1386,
    1387,
    1385,
    1387,
    1387,
    1387,
    1386,
    1213,
    1214,
    1387,
    1199,
    1200,
    1199,
    1200,
    1383,
    1213,
    1214,
    1215,
    1216,
    1387,
    1384,
    1197,
    1198,
    1147,
    1385,
    1165,
    1108,
    1423,
    1424,
    825,
    826,
    825,
    826,
    827,
    1090,
    1386,
    1383,
    1383,
    1388,
    1386,
    1386,
    1383,
    1387,
    1384,
    1384,
    1385,
    1387,
    1388,
    1388,
    1386,
    1386,
    1388,
    1385,
    1383,
    1388,
    1385,
    1383,
    1385,
    1385,
    1386,
    1388,
    1386,
    1387,
    1387,
    1384,
    1386,
    1384,
    1384,
    1387,
    1385,
    1383,
    1388,
    1108,
    804,
    805,
    806,
    913,
    914,
    15,
    16,
    15,
    16,
    6,
    3,
    2,
    2,
    31,
    32,
    1421,
    1090,
    1091,
    1384,
    1383,
    1383,
    1385,
    1384,
    1163,
    1383,
    1387,
    1386,
    1383,
    1388,
    1386,
    1383,
    1385,
    1386,
    1386,
    1383,
    1384,
    1383,
    1388,
    1215,
    1216,
    1147,
    1388,
    1386,
    1385,
    1383,
    1387,
    1388,
    1388,
    1387,
    1383,
    1387,
    1383,
    1384,
    1383,
    1384,
    1384,
    1386,
    1387,
    1387,
    1385,
    1385,
    1384,
    1182,
    1197,
    1198,
    1215,
    1216,
    1215,
    1216,
    1197,
    1198,
    1386,
    1147,
    1199,
    1200,
    1147,
    1213,
    1214,
    1199,
    1200,
    1149,
    1388,
    1093,
    1075,
    1075,
    1075,
    1090,
    1091,
    1091,
    1387,
    1387,
    1387,
    1384,
    1386,
    1388,
    1385,
    1388,
    1386,
    1385,
    1384,
    1387,
    1383,
    1387,
    1387,
    1163,
    1383,
    1386,
    1385,
    1384,
    1383,
    1388,
    1385,
    1388,
    1385,
    1388,
    1383,
    1383,
    1383,
    1383,
    1383,
    1387,
    1386,
    1383,
    1387,
    1384,
    1387,
    1165,
    1124,
    820,
    821,
    822,
    1,
    1,
    31,
    32,
    31,
    32,
    6,
    6,
    3,
    3,
    3,
    1090,
    1091,
    1386,
    1384,
    1383,
    1388,
    1385,
    1388,
    1386,
    1388,
    1384,
    1383,
    1387,
    1385,
    1387,
    1383,
    1384,
    1383,
    1387,
    1385,
    1386,
    1387,
    1386,
    1385,
    1383,
    1383,
    1386,
    1387,
    1385,
    1383,
    1385,
    1384,
    1387,
    1387,
    1387,
    1388,
    1386,
    1384,
    1384,
    1388,
    1385,
    1386,
    1384,
    1387,
    1385,
    1384,
    1388,
    1197,
    1198,
    1213,
    1214,
    1147,
    731,
    732,
    1383,
    1213,
    1214,
    1199,
    1200,
    1215,
    1216,
    1197,
    1198,
    1147,
    1215,
    1216,
    1199,
    1200,
    1387,
    1091,
    1091,
    1091,
    1383,
    1387,
    1386,
    1388,
    1385,
    1388,
    1384,
    1387,
    1383,
    1386,
    1385,
    1384,
    1388,
    1384,
    1383,
    1388,
    1386,
    1388,
    1388,
    1384,
    1384,
    1383,
    1387,
    1384,
    1384,
    1387,
    1384,
    1386,
    1386,
    1388,
    1383,
    1387,
    1385,
    1388,
    1388,
    1386,
    1387,
    1386,
    1388,
    1385,
    1108,
    1109,
    785,
    786,
    787,
    15,
    16,
    15,
    16,
    6,
    3,
    5,
    789,
    1023,
    1024,
    4,
    1106,
    1164,
    1383,
    1387,
    1384,
    1383,
    1387,
    1388,
    1383,
    1386,
    1388,
    1388,
    1386,
    1387,
    1388,
    1386,
    1387,
    1387,
    1385,
    1384,
    1388,
    1388,
    1383,
    1383,
    1384,
    1385,
    1386,
    1385,
    1386,
    1385,
    1384,
    1383,
    1388,
    1385,
    1384,
    1383,
    1386,
    1383,
    1385,
    1387,
    1385,
    1383,
    1385,
    1388,
    1388,
    1385,
    1386,
    1213,
    1214,
    1182,
    1199,
    1200,
    747,
    748,
    1384,
    1383,
    1386,
    1215,
    1216,
    1147,
    11,
    1213,
    1214,
    1147,
    1149,
    1147,
    1215,
    1216,
    1387,
    1385,
    1387,
    1384,
    1388,
    1387,
    1388,
    1383,
    1384,
    1386,
    1384,
    1383,
    1385,
    1384,
    1383,
    1163,
    1387,
    1388,
    1383,
    1386,
    1385,
    1386,
    1386,
    1387,
    1384,
    1386,
    1387,
    1388,
    1386,
    1387,
    1385,
    1386,
    1388,
    1386,
    1386,
    1384,
    1384,
    1385,
    1384,
    1387,
    1388,
    1385,
    1387,
    1387,
    1108,
    1109,
    801,
    802,
    803,
    31,
    32,
    1,
    32,
    4,
    3,
    804,
    805,
    1039,
    1040,
    1090,
    1386,
    1388,
    1387,
    1386,
    1387,
    1387,
    1386,
    1383,
    1385,
    1387,
    1386,
    1387,
    1387,
    1383,
    1385,
    1387,
    1384,
    1387,
    1383,
    1387,
    1383,
    1387,
    1383,
    1387,
    1383,
    1383,
    1383,
    1385,
    1384,
    1387,
    1383,
    1384,
    1386,
    1385,
    1385,
    1383,
    1385,
    1384,
    1384,
    1388,
    1384,
    1387,
    1384,
    1387,
    1386,
    1388,
    1385,
    1385,
    1182,
    1384,
    1215,
    1216,
    1182,
    1199,
    1200,
    1385,
    1383,
    1385,
    1147,
    1197,
    1198,
    1150,
    1151,
    1197,
    1198,
    1147,
    1147,
    1149,
    1165,
    1386,
    1386,
    1384,
    1388,
    1384,
    1385,
    1388,
    1386,
    1385,
    1387,
    1387,
    1385,
    1388,
    1388,
    1384,
    1384,
    1386,
    1388,
    1387,
    1386,
    1383,
    1385,
    1387,
    1385,
    1387,
    1384,
    1383,
    1388,
    1388,
    1384,
    1386,
    1387,
    1385,
    1383,
    1386,
    1386,
    1383,
    1388,
    1385,
    1386,
    1384,
    1384,
    1387,
    1388,
    1092,
    817,
    818,
    819,
    1,
    16,
    2,
    6,
    2,
    4,
    820,
    821,
    1055,
    1090,
    1163,
    1388,
    1387,
    1388,
    1385,
    1385,
    1388,
    1386,
    1384,
    1387,
    1387,
    1386,
    1385,
    1387,
    1388,
    1384,
    1386,
    1387,
    1385,
    1383,
    1384,
    1386,
    1384,
    1387,
    1387,
    1386,
    1387,
    1384,
    1385,
    1387,
    1385,
    1386,
    1383,
    1385,
    1385,
    1165,
    1388,
    1387,
    1383,
    1384,
    1182,
    1388,
    1387,
    1383,
    1383,
    1384,
    1387,
    1387,
    1387,
    1387,
    1388,
    1387,
    1147,
    11,
    1215,
    1216,
    1386,
    1165,
    1384,
    1388,
    1213,
    1214,
    1166,
    1167,
    1213,
    1214,
    1199,
    1200,
    1147,
    1384,
    1388,
    1383,
    1388,
    1384,
    1383,
    1387,
    1384,
    1384,
    1386,
    1384,
    1388,
    1386,
    1386,
    1385,
    1388,
    1386,
    1383,
    1388,
    1388,
    1385,
    1385,
    1386,
    1386,
    1386,
    1383,
    1384,
    1388,
    1383,
    1387,
    1385,
    1386,
    1385,
    1387,
    1386,
    1387,
    1388,
    1388,
    1384,
    1388,
    1386,
    1385,
    11,
    1386,
    1123,
    1124,
    796,
    797,
    5,
    2,
    6,
    6,
    4,
    31,
    32,
    833,
    834,
    835,
    1106,
    1388,
    1383,
    1386,
    1386,
    1388,
    1384,
    1384,
    1384,
    1385,
    1384,
    1387,
    1387,
    1386,
    1384,
    1385,
    1387,
    1386,
    1386,
    1388,
    1388,
    1383,
    1150,
    1151,
    1383,
    1385,
    1383,
    1386,
    1387,
    1385,
    1387,
    1383,
    1388,
    1388,
    1383,
    1387,
    1388,
    1386,
    1383,
    10,
    1147,
    1386,
    1385,
    1383,
    1383,
    1386,
    1384,
    1385,
    1385,
    1385,
    1385,
    1387,
    1150,
    1151,
    1199,
    1200,
    731,
    1387,
    1384,
    1386,
    1147,
    1385,
    1199,
    1200,
    1199,
    1200,
    1149,
    1215,
    1216,
    1388,
    1386,
    1385,
    1384,
    1384,
    1386,
    1384,
    1385,
    1387,
    1385,
    1386,
    1388,
    1384,
    1386,
    1383,
    1383,
    1384,
    1386,
    1387,
    1383,
    1385,
    1384,
    1383,
    1385,
    1386,
    1385,
    1388,
    1386,
    1384,
    1383,
    1387,
    1384,
    1387,
    1383,
    1163,
    1383,
    1383,
    1385,
    1383,
    1384,
    1386,
    1386,
    1387,
    1163,
    1124,
    789,
    790,
    812,
    813,
    4,
    2,
    5,
    4,
    1090,
    1092,
    835,
    849,
    850,
    851,
    1122,
    1383,
    1385,
    1383,
    1384,
    1383,
    1385,
    1383,
    1386,
    1384,
    1383,
    1386,
    1384,
    1385,
    1384,
    1385,
    1388,
    1383,
    1384,
    1384,
    1383,
    1386,
    1166,
    1167,
    1383,
    1385,
    1387,
    1387,
    1384,
    1385,
    1383,
    1388,
    1387,
    1383,
    1383,
    1386,
    1385,
    1383,
    1148,
    1182,
    11,
    1386,
    1387,
    1164,
    1385,
    1384,
    1387,
    1385,
    1384,
    1384,
    1384,
    1388,
    1166,
    1167,
    1215,
    1216,
    747,
    1383,
    1387,
    1148,
    1197,
    1198,
    1215,
    1216,
    1215,
    1216,
    1199,
    1200,
    1147,
    1385,
    1383,
    1384,
    1384,
    1385,
    1388,
    1386,
    1383,
    1386,
    1386,
    1383,
    1384,
    1385,
    1388,
    1386,
    1383,
    1384,
    1383,
    1385,
    1384,
    1388,
    1388,
    1383,
    1387,
    1384,
    1385,
    1386,
    1385,
    1384,
    1383,
    1388,
    1384,
    1385,
    1384,
    1386,
    1386,
    1388,
    1386,
    1388,
    1386,
    1383,
    1385,
    1385,
    1124,
    804,
    805,
    806,
    828,
    5,
    4,
    1,
    4,
    1090,
    1385,
    1164,
    1092,
    3,
    796,
    797,
    1105,
    1106,
    1385,
    1387,
    1385,
    1385,
    1387,
    1385,
    1384,
    1386,
    1386,
    1388,
    1385,
    1387,
    1387,
    1386,
    1388,
    1385,
    1387,
    1385,
    1387,
    1384,
    1385,
    1384,
    1199,
    1200,
    1147,
    1384,
    1385,
    1386,
    1387,
    1384,
    1384,
    1386,
    1383,
    1164,
    1383,
    1388,
    1384,
    1386,
    1388,
    1384,
    1384,
    1387,
    1386,
    1384,
    1384,
    1388,
    1386,
    1388,
    1386,
    1388,
    1387,
    1197,
    1198,
    1182,
    1197,
    1384,
    1386,
    1387,
    1213,
    1214,
    1147,
    1197,
    1198,
    1148,
    1215,
    1216,
    1384,
    1386,
    1385,
    1388,
    1386,
    1386,
    1384,
    1385,
    1384,
    1388,
    1385,
    1387,
    1388,
    1388,
    1387,
    1388,
    1383,
    1383,
    1383,
    1387,
    1384,
    1386,
    1386,
    1387,
    1387,
    1385,
    1383,
    1388,
    1388,
    1384,
    1388,
    1384,
    1384,
    1385,
    1385,
    1388,
    1383,
    1386,
    1387,
    1387,
    1383,
    1387,
    1385,
    1108,
    1109,
    820,
    821,
    822,
    5,
    5,
    1,
    1,
    1,
    1106,
    1387,
    1388,
    1108,
    1389,
    812,
    813,
    1105,
    1106,
    1388,
    1388,
    1387,
    1384,
    1388,
    1384,
    1387,
    1388,
    1163,
    1385,
    1383,
    1386,
    1387,
    1384,
    1386,
    1385,
    1388,
    1387,
    1386,
    1388,
    1147,
    1386,
    1215,
    1216,
    1388,
    1182,
    1147,
    1387,
    1387,
    1388,
    1387,
    1383,
    1386,
    1388,
    1387,
    1384,
    1387,
    1383,
    1385,
    1165,
    1387,
    1385,
    1385,
    1388,
    1388,
    1386,
    1385,
    1386,
    1383,
    1387,
    1386,
    1213,
    1214,
    1387,
    1213,
    1384,
    1387,
    1385,
    1388,
    1148,
    1388,
    1213,
    1214,
    1165,
    1147,
    1384,
    1384,
    1383,
    1383,
    1384,
    1384,
    1387,
    1386,
    1384,
    1383,
    1383,
    1385,
    1383,
    1383,
    1384,
    1387,
    1386,
    1388,
    1383,
    1385,
    1386,
    1386,
    1388,
    1388,
    1387,
    1384,
    1386,
    1383,
    1165,
    1383,
    1386,
    1384,
    1385,
    1387,
    1387,
    1385,
    1388,
    1384,
    1165,
    1387,
    1383,
    1384,
    1384,
    1164,
    1108,
    1109,
    785,
    786,
    787,
    804,
    4,
    5,
    1,
    1090,
    1386,
    1386,
    1386,
    1124,
    1405,
    828,
    1088,
    1090,
    1388,
    1385,
    1384,
    1386,
    1387,
    1386,
    1387,
    1384,
    1386,
    1388,
    1388,
    1386,
    1383,
    1386,
    1384,
    1384,
    1386,
    1385,
    1387,
    1383,
    1385,
    1385,
    1147,
    1385,
    10,
    731,
    732,
    11,
    1388,
    1384,
    1386,
    1388,
    1386,
    1387,
    1383,
    1383,
    1383,
    1386,
    1388,
    1387,
    1386,
    1384,
    1384,
    1388,
    1385,
    1388,
    1386,
    1383,
    1387,
    1386,
    1386,
    1182,
    1384,
    1387,
    10,
    1387,
    1387,
    1388,
    1386,
    1385,
    1388,
    1386,
    1385,
    1384,
    1388,
    1383,
    1387,
    1385,
    1386,
    1385,
    1384,
    1386,
    1388,
    1383,
    1388,
    1385,
    1386,
    1386,
    1386,
    1384,
    1386,
    1387,
    1387,
    1388,
    1384,
    1387,
    1385,
    1387,
    1385,
    1388,
    1384,
    1385,
    1387,
    1385,
    1388,
    1386,
    1387,
    1388,
    1388,
    1384,
    1388,
    1385,
    1384,
    1383,
    1388,
    1384,
    1386,
    1384,
    1386,
    1384,
    1108,
    1109,
    801,
    802,
    803,
    3,
    1,
    3,
    1105,
    1106,
    1383,
    1384,
    1125,
    2,
    1421,
    3,
    1090,
    1386,
    1384,
    1385,
    1384,
    1385,
    1387,
    1387,
    1165,
    1387,
    1385,
    1388,
    1388,
    1388,
    1388,
    1384,
    1384,
    1388,
    1388,
    1384,
    1384,
    1383,
    1385,
    1388,
    1385,
    1147,
    1387,
    747,
    748,
    1387,
    1387,
    1386,
    1386,
    1383,
    1385,
    1386,
    1387,
    1385,
    1387,
    1388,
    1383,
    1384,
    1388,
    1384,
    1387,
    1383,
    1386,
    1388,
    1386,
    1384,
    1387,
    1388,
    1386,
    1383,
    1383,
    1182,
    1197,
    1198,
    1386,
    1383,
    1383,
    1385,
    1386,
    1388,
    1386,
    1384,
    1386,
    1388,
    1388,
    1386,
    1385,
    1384,
    1388,
    1388,
    1383,
    1387,
    1383,
    1386,
    1387,
    1383,
    1383,
    1387,
    1383,
    1387,
    1387,
    1387,
    1383,
    1388,
    1387,
    1388,
    1385,
    1386,
    1388,
    1386,
    1383,
    1386,
    1387,
    1387,
    1388,
    1383,
    1386,
    1387,
    1385,
    1383,
    1385,
    1383,
    1383,
    1385,
    1388,
    1385,
    1388,
    1384,
    1124,
    7,
    817,
    818,
    819,
    6,
    5,
    3,
    1090,
    1386,
    1386,
    1124,
    3,
    4,
    7,
    1152,
    1121,
    1385,
    1383,
    1386,
    1385,
    1388,
    1384,
    1386,
    1383,
    1384,
    1384,
    1384,
    1383,
    1385,
    1383,
    1384,
    1384,
    1386,
    1383,
    1384,
    1383,
    1384,
    1387,
    1164,
    1384,
    1387,
    1386,
    1388,
    1148,
    1388,
    1182,
    1384,
    1387,
    1385,
    1384,
    1384,
    1384,
    1384,
    1386,
    1385,
    1384,
    1383,
    1386,
    1384,
    1386,
    1384,
    1384,
    1388,
    1387,
    1384,
    1388,
    1387,
    1385,
    1388,
    1150,
    1151,
    1213,
    1214,
    1386,
    1386,
    1386,
    1387,
    1385,
    1387,
    1384,
    1388,
    1384,
    1387,
    1123,
    1386,
    1388,
    1388,
    1164,
    1123,
    1383,
    1163,
    1387,
    1383,
    1384,
    1386,
    1388,
    1388,
    1388,
    1387,
    1387,
    1385,
    1386,
    1385,
    1388,
    1386,
    1384,
    1387,
    1385,
    1384,
    1383,
    1388,
    1384,
    1384,
    1383,
    1387,
    1388,
    1385,
    1385,
    1388,
    1384,
    1387,
    1386,
    1383,
    1387,
    1386,
    1388,
    1108,
    1109,
    1,
    796,
    797,
    6,
    6,
    2,
    1,
    1106,
    1384,
    1124,
    4,
    2,
    1023,
    1024,
    3,
    1089,
    1383,
    1164,
    1387,
    1386,
    1386,
    1383,
    1388,
    1383,
    1383,
    1386,
    1386,
    1387,
    1388,
    1383,
    1385,
    1384,
    1386,
    1384,
    1383,
    1386,
    1386,
    1386,
    1385,
    1384,
    1388,
    11,
    1386,
    1387,
    1388,
    1385,
    1384,
    1385,
    1387,
    1384,
    1388,
    1385,
    1383,
    1163,
    1387,
    1385,
    1387,
    1386,
    1386,
    1385,
    1387,
    1388,
    1383,
    1387,
    1383,
    1384,
    1388,
    1197,
    1198,
    1166,
    1167,
    11,
    1147,
    1388,
    1388,
    1386,
    1384,
    1387,
    1388,
    1383,
    1163,
    1123,
    1124,
    8,
    1122,
    1123,
    1123,
    1124,
    1,
    1121,
    1385,
    1386,
    1384,
    1384,
    1386,
    1383,
    1383,
    1385,
    1387,
    1383,
    1384,
    1384,
    1388,
    1384,
    1388,
    1388,
    1383,
    1383,
    1383,
    1387,
    1387,
    1388,
    1386,
    1385,
    1383,
    1385,
    1386,
    1387,
    1384,
    1388,
    1384,
    1388,
    1387,
    1388,
    1387,
    1163,
    1108,
    1109,
    1389,
    812,
    813,
    3,
    1,
    1,
    3,
    1106,
    1125,
    3,
    789,
    790,
    1039,
    1040,
    1090,
    1383,
    1388,
    1383,
    1384,
    1388,
    1385,
    1387,
    1388,
    1384,
    1388,
    1385,
    1388,
    1384,
    1387,
    1383,
    1386,
    1388,
    1384,
    1384,
    1388,
    1384,
    1385,
    1385,
    1386,
    1384,
    1385,
    1385,
    1385,
    1388,
    1386,
    1386,
    1387,
    1385,
    1385,
    1388,
    1385,
    1388,
    1383,
    1387,
    1384,
    1388,
    1388,
    1387,
    1388,
    1385,
    1386,
    1385,
    1386,
    1388,
    1384,
    1385,
    1383,
    1213,
    1214,
    1147,
    1199,
    1200,
    1182,
    1383,
    1386,
    1386,
    1387,
    1385,
    1387,
    1164,
    1125,
    843,
    844,
    911,
    912,
    911,
    912,
    839,
    840,
    1,
    1122,
    1385,
    1385,
    1388,
    1388,
    1385,
    1385,
    1387,
    1383,
    1385,
    1386,
    1384,
    1383,
    1386,
    1385,
    1385,
    1388,
    1386,
    1387,
    1383,
    1384,
    1388,
    1388,
    1386,
    1383,
    1386,
    1386,
    1384,
    1388,
    1386,
    1386,
    1387,
    1386,
    1386,
    1388,
    1385,
    1108,
    1109,
    1405,
    828,
    3,
    2,
    1,
    6,
    1090,
    1107,
    1092,
    804,
    805,
    806,
    1055,
    1090,
    1383,
    1388,
    1384,
    1383,
    1387,
    1384,
    1386,
    1386,
    1383,
    1387,
    1385,
    1384,
    1386,
    1386,
    1388,
    1383,
    1388,
    1383,
    1387,
    1383,
    1384,
    1386,
    1386,
    1386,
    1385,
    1383,
    1388,
    1383,
    1384,
    1388,
    1386,
    1388,
    1386,
    1384,
    1385,
    1384,
    1383,
    1388,
    1387,
    1388,
    1385,
    1388,
    1385,
    1385,
    1383,
    1386,
    1384,
    1383,
    1387,
    1388,
    1388,
    1388,
    1383,
    1385,
    1147,
    1182,
    1215,
    1216,
    1147,
    1383,
    1387,
    1385,
    1386,
    1385,
    1123,
    1124,
    870,
    859,
    860,
    1075,
    1090,
    1091,
    1092,
    855,
    856,
    7,
    14,
    1121,
    1387,
    1163,
    1384,
    1384,
    1387,
    1387,
    1383,
    1388,
    1165,
    1385,
    1386,
    1386,
    1384,
    1386,
    1387,
    1385,
    1387,
    1386,
    1386,
    1387,
    1385,
    1385,
    1387,
    1384,
    1387,
    1383,
    1383,
    1386,
    1387,
    1387,
    1383,
    1384,
    1387,
    1386,
    1387,
    1092,
    1421,
    5,
    2,
    5,
    2,
    1,
    1122,
    1165,
    1108,
    820,
    821,
    822,
    1105,
    1106,
    1388,
    1387,
    1165,
    1387,
    1386,
    1387,
    1384,
    1383,
    1383,
    1388,
    1388,
    1383,
    1385,
    1383,
    1385,
    1386,
    1383,
    1385,
    1387,
    1385,
    1387,
    1383,
    1384,
    1387,
    1386,
    1388,
    1383,
    1384,
    1386,
    1386,
    1385,
    1388,
    1384,
    1384,
    1383,
    1388,
    1388,
    1388,
    1383,
    1386,
    1383,
    1387,
    1387,
    1388,
    1387,
    1384,
    1386,
    1387,
    1386,
    1383,
    1385,
    1165,
    1385,
    1387,
    1386,
    1385,
    1388,
    1197,
    1198,
    1386,
    1386,
    1165,
    1388,
    1125,
    884,
    885,
    886,
    1075,
    1090,
    1091,
    1384,
    1388,
    1108,
    836,
    837,
    838,
    1,
    7,
    1122,
    1123,
    1385,
    1384,
    1385,
    1384,
    1388,
    1383,
    1385,
    1387,
    1385,
    1385,
    1383,
    1385,
    1385,
    1388,
    1386,
    1387,
    1386,
    1384,
    1387,
    1386,
    1386,
    1385,
    1387,
    1384,
    1165,
    1383,
    1383,
    1384,
    1384,
    1383,
    1384,
    1387,
    1388,
    1385,
    1092,
    2,
    5,
    6,
    6,
    2,
    1105,
    1106,
    1108,
    836,
    837,
    838,
    1105,
    1106,
    1385,
    1388,
    1384,
    1388,
    1383,
    1386,
    1386,
    1384,
    1385,
    1384,
    1386,
    1384,
    1386,
    1385,
    1386,
    1383,
    1386,
    1383,
    1387,
    1388,
    1386,
    1385,
    1385,
    1385,
    1386,
    1384,
    1388,
    1385,
    1387,
    1387,
    1388,
    1385,
    1387,
    1384,
    1383,
    1386,
    1387,
    1383,
    1385,
    1387,
    1385,
    1383,
    1386,
    1383,
    1385,
    1383,
    1385,
    1384,
    1386,
    1386,
    1385,
    1383,
    1388,
    1386,
    1384,
    1197,
    1198,
    1213,
    1214,
    1387,
    1383,
    1123,
    1124,
    870,
    900,
    901,
    1090,
    1091,
    1383,
    1386,
    1387,
    1123,
    1124,
    849,
    853,
    854,
    15,
    16,
    4,
    1,
    1122,
    1388,
    1384,
    1387,
    1386,
    1387,
    1383,
    1388,
    1387,
    1386,
    1387,
    1383,
    1387,
    1388,
    1387,
    1387,
    1385,
    1386,
    1384,
    1385,
    1388,
    1383,
    1387,
    1384,
    1383,
    1388,
    1384,
    1384,
    1386,
    1384,
    1383,
    1386,
    1387,
    1384,
    1164,
    1092,
    2,
    5,
    3,
    5,
    1090,
    1384,
    1383,
    1092,
    853,
    854,
    839,
    1122,
    1383,
    1388,
    1388,
    1383,
    1385,
    1387,
    1386,
    1387,
    1385,
    1384,
    1387,
    1386,
    1387,
    1388,
    1384,
    1386,
    1387,
    1383,
    1383,
    1384,
    1387,
    1387,
    1386,
    1383,
    1387,
    1387,
    1384,
    1383,
    1388,
    1386,
    1386,
    1388,
    1385,
    1386,
    1164,
    1383,
    1386,
    1385,
    1387,
    1386,
    1386,
    1387,
    1387,
    1383,
    1386,
    1387,
    1385,
    1385,
    1387,
    1383,
    1386,
    1386,
    1386,
    1386,
    1383,
    1213,
    1214,
    1150,
    1151,
    1386,
    1124,
    884,
    885,
    886,
    1089,
    1091,
    1386,
    1387,
    1123,
    1123,
    1124,
    7,
    3,
    3,
    1,
    4,
    31,
    32,
    1,
    15,
    16,
    1106,
    1383,
    1387,
    1387,
    1384,
    1386,
    1388,
    1383,
    1384,
    1384,
    1383,
    1387,
    1388,
    1386,
    1387,
    1387,
    1385,
    1386,
    1383,
    1384,
    1384,
    1383,
    1387,
    1383,
    1384,
    1388,
    1386,
    1386,
    1387,
    1387,
    1388,
    1387,
    1386,
    1384,
    1108,
    1109,
    5,
    6,
    1152,
    1122,
    1386,
    1388,
    1387,
    1092,
    1,
    855,
    856,
    1121,
    1383,
    1383,
    1386,
    1385,
    1386,
    1386,
    1387,
    1384,
    1383,
    1383,
    1385,
    1388,
    1387,
    1387,
    1384,
    1385,
    1386,
    1383,
    1384,
    1383,
    1383,
    1388,
    1385,
    1388,
    1386,
    1384,
    1388,
    1383,
    1387,
    1386,
    1385,
    1384,
    1385,
    1388,
    1386,
    1388,
    1383,
    1388,
    1385,
    1385,
    1385,
    1385,
    1386,
    1388,
    1388,
    1383,
    1182,
    1148,
    1386,
    1386,
    1388,
    1386,
    1384,
    1147,
    1384,
    1147,
    1166,
    1167,
    1124,
    1152,
    900,
    901,
    1090,
    1384,
    1164,
    1383,
    1125,
    843,
    844,
    911,
    912,
    911,
    912,
    839,
    1,
    1,
    1,
    5,
    4,
    3,
    1122,
    1164,
    1388,
    1123,
    1123,
    1386,
    1386,
    1387,
    1386,
    1383,
    1386,
    1385,
    1386,
    1388,
    1385,
    1385,
    1387,
    1386,
    1384,
    1383,
    1383,
    1388,
    1386,
    1383,
    1385,
    1384,
    1387,
    1384,
    1383,
    1385,
    1387,
    1383,
    1386,
    1387,
    1124,
    5,
    6,
    1023,
    1024,
    1090,
    1385,
    1388,
    1386,
    11,
    1092,
    785,
    786,
    787,
    1106,
    1383,
    1385,
    1388,
    1388,
    1383,
    1388,
    1387,
    1388,
    1383,
    1383,
    1388,
    1385,
    1384,
    1383,
    1384,
    1385,
    1386,
    1383,
    1386,
    1383,
    1383,
    1387,
    1385,
    1384,
    1388,
    1384,
    1387,
    1385,
    1384,
    1383,
    1387,
    1388,
    1385,
    1385,
    1385,
    1387,
    1386,
    1385,
    1387,
    1386,
    1388,
    1383,
    1388,
    1148,
    1388,
    1197,
    1198,
    1385,
    1384,
    1386,
    1386,
    1385,
    1387,
    1197,
    1198,
    10,
    1197,
    2,
    3,
    1090,
    1091,
    1387,
    1384,
    1385,
    1124,
    880,
    859,
    860,
    1,
    1,
    1075,
    7,
    855,
    856,
    4,
    1,
    3,
    31,
    32,
    16,
    1122,
    1124,
    1074,
    1074,
    1122,
    1123,
    1387,
    1386,
    1384,
    1386,
    1387,
    1386,
    1385,
    1385,
    1386,
    1383,
    1387,
    1388,
    1387,
    1387,
    1387,
    1385,
    1384,
    1383,
    1387,
    1385,
    1384,
    1386,
    1384,
    1385,
    1383,
    1383,
    1124,
    804,
    789,
    790,
    1039,
    1040,
    1106,
    1383,
    1388,
    1384,
    1385,
    1108,
    801,
    802,
    803,
    1106,
    1164,
    1383,
    1388,
    1386,
    1383,
    1385,
    1383,
    1383,
    1387,
    1388,
    1385,
    1383,
    1388,
    1384,
    1388,
    1385,
    1385,
    1386,
    1383,
    1386,
    1385,
    1383,
    1387,
    1383,
    1383,
    1385,
    1384,
    1385,
    1383,
    1387,
    1385,
    1388,
    1386,
    1386,
    1388,
    1387,
    1384,
    1388,
    1388,
    1386,
    1384,
    1387,
    1387,
    1387,
    1182,
    1213,
    1214,
    1383,
    1182,
    1384,
    1386,
    1387,
    1388,
    1213,
    1214,
    1386,
    1213,
    1109,
    1105,
    1106,
    1165,
    1385,
    1388,
    1125,
    798,
    799,
    1,
    1090,
    1091,
    1091,
    1091,
    1092,
    833,
    834,
    835,
    15,
    16,
    852,
    31,
    32,
    911,
    912,
    911,
    912,
    839,
    840,
    1122,
    1163,
    1387,
    1386,
    1386,
    1385,
    1383,
    1388,
    1388,
    1387,
    1385,
    1388,
    1384,
    1384,
    1388,
    1388,
    1385,
    1387,
    1383,
    1385,
    1387,
    1384,
    1388,
    1385,
    1386,
    1385,
    1092,
    804,
    805,
    806,
    1055,
    1105,
    1106,
    1386,
    1385,
    1383,
    1388,
    1108,
    817,
    818,
    819,
    1122,
    1385,
    1386,
    1385,
    1385,
    1388,
    1384,
    1388,
    1385,
    1383,
    1387,
    1388,
    1384,
    1165,
    1386,
    1385,
    1384,
    1384,
    1383,
    1387,
    1147,
    1384,
    1387,
    1388,
    1388,
    1386,
    1385,
    1385,
    1384,
    1384,
    1385,
    1385,
    1388,
    1388,
    1386,
    1385,
    1387,
    1387,
    1385,
    1385,
    1388,
    1385,
    1385,
    1386,
    1199,
    1200,
    1147,
    1384,
    1197,
    1198,
    1383,
    1383,
    1388,
    1387,
    1383,
    1384,
    1197,
    1198,
    1075,
    1090,
    1383,
    1388,
    1385,
    1108,
    1109,
    814,
    815,
    1105,
    1106,
    10,
    1147,
    1388,
    1163,
    1092,
    850,
    851,
    31,
    32,
    7,
    5,
    1,
    1,
    2,
    3,
    7,
    855,
    856,
    7,
    1121,
    1383,
    1388,
    1387,
    1383,
    1383,
    1388,
    1387,
    1387,
    1387,
    1387,
    1385,
    1385,
    1384,
    1388,
    1388,
    1388,
    1386,
    1385,
    1385,
    1163,
    1383,
    1385,
    1388,
    1165,
    1108,
    820,
    821,
    822,
    7,
    6,
    1121,
    1388,
    1164,
    1383,
    1384,
    1124,
    785,
    786,
    787,
    2,
    1121,
    1388,
    1388,
    1386,
    1387,
    1385,
    1388,
    1385,
    1386,
    1384,
    1383,
    1385,
    1386,
    1387,
    1383,
    1383,
    1388,
    1386,
    1386,
    1387,
    1388,
    1384,
    1163,
    1383,
    1386,
    1386,
    1386,
    1383,
    1388,
    1383,
    1387,
    1383,
    1387,
    1386,
    1383,
    1385,
    1383,
    1388,
    1387,
    1388,
    1385,
    1388,
    1383,
    1215,
    1216,
    1199,
    1200,
    1213,
    1214,
    1385,
    1387,
    1383,
    1383,
    1383,
    1383,
    1213,
    1214,
    1091,
    1383,
    1388,
    1164,
    1383,
    1124,
    2,
    830,
    831,
    2,
    1122,
    1386,
    1197,
    1198,
    1148,
    1124,
    836,
    837,
    838,
    1152,
    5,
    4,
    3,
    1152,
    15,
    16,
    3,
    836,
    837,
    838,
    2,
    1122,
    1385,
    1165,
    1388,
    1385,
    1386,
    1386,
    1385,
    1383,
    1388,
    1384,
    1388,
    1384,
    1384,
    1384,
    1385,
    1384,
    1387,
    1383,
    1384,
    1385,
    1387,
    1387,
    1383,
    1124,
    833,
    834,
    835,
    1,
    1,
    1089,
    1387,
    1387,
    1383,
    1124,
    7,
    801,
    802,
    803,
    3,
    1089,
    1387,
    1387,
    1383,
    1388,
    1386,
    1384,
    1388,
    1384,
    1383,
    1386,
    1388,
    1387,
    1383,
    1383,
    1384,
    1385,
    1386,
    1385,
    1387,
    1383,
    1383,
    1383,
    1384,
    1385,
    1385,
    1388,
    1386,
    1388,
    1384,
    1385,
    1386,
    1388,
    1387,
    1385,
    1383,
    1385,
    1387,
    1383,
    1384,
    1386,
    1387,
    1147,
    1387,
    1148,
    1215,
    1216,
    1148,
    1199,
    1200,
    1387,
    1388,
    1165,
    1383,
    1388,
    1384,
    1199,
    1388,
    1386,
    1383,
    1384,
    1383,
    1092,
    3,
    798,
    799,
    1152,
    1090,
    1147,
    1213,
    1214,
    11,
    1092,
    1075,
    853,
    854,
    839,
    840,
    3,
    2,
    860,
    31,
    3,
    3,
    2,
    853,
    854,
    839,
    840,
    1121,
    1387,
    1386,
    1387,
    1388,
    1147,
    1386,
    1388,
    1182,
    1388,
    1387,
    1165,
    1386,
    1388,
    1386,
    1386,
    1384,
    1384,
    1385,
    1385,
    1384,
    1384,
    1148,
    1092,
    47,
    850,
    851,
    2,
    1090,
    1387,
    1387,
    1384,
    1385,
    1092,
    7,
    817,
    818,
    819,
    1090,
    1165,
    1387,
    1384,
    1385,
    1387,
    1387,
    1388,
    1385,
    1387,
    1384,
    1388,
    1385,
    1388,
    1384,
    1385,
    1388,
    1386,
    1384,
    1385,
    1384,
    1387,
    1388,
    1386,
    1388,
    1383,
    1384,
    1385,
    1387,
    1384,
    1387,
    1387,
    1387,
    1387,
    1387,
    1386,
    1384,
    1384,
    1384,
    1384,
    1385,
    1387,
    1385,
    1199,
    1200,
    1197,
    1198,
    1386,
    1387,
    1215,
    1216,
    1388,
    1388,
    1387,
    1383,
    1385,
    1383,
    1215,
    1147,
    1384,
    1387,
    1386,
    1383,
    1108,
    1109,
    814,
    815,
    1105,
    1106,
    1383,
    1148,
    1147,
    1199,
    1200,
    1091,
    1091,
    1092,
    855,
    856,
    7,
    1090,
    1091,
    1091,
    1092,
    3,
    15,
    16,
    1,
    855,
    856,
    1105,
    1106,
    1384,
    1163,
    1384,
    1385,
    1199,
    1200,
    1147,
    1388,
    1182,
    1384,
    1147,
    1182,
    1386,
    1388,
    1384,
    1383,
    1383,
    1383,
    1199,
    1200,
    1150,
    1151,
    1093,
    836,
    837,
    838,
    1122,
    1163,
    1385,
    1383,
    1388,
    1388,
    1093,
    836,
    837,
    838,
    1122,
    1387,
    1385,
    1383,
    1387,
    1385,
    1384,
    1383,
    1383,
    1383,
    1165,
    1384,
    1388,
    1383,
    1383,
    1388,
    1383,
    1388,
    1383,
    1383,
    1387,
    1388,
    1387,
    1383,
    1384,
    1386,
    1383,
    1383,
    1387,
    1386,
    1385,
    1385,
    1386,
    1388,
    1383,
    1385,
    1387,
    1387,
    1388,
    1385,
    1384,
    1387,
    1387,
    1215,
    1216,
    1213,
    1214,
    1147,
    1197,
    1198,
    1385,
    1384,
    1387,
    1386,
    1384,
    1386,
    1197,
    1198,
    1384,
    1384,
    1387,
    1383,
    1383,
    1108,
    1109,
    830,
    831,
    4,
    1122,
    1165,
    1384,
    1387,
    1215,
    1216,
    1147,
    1148,
    1108,
    836,
    837,
    838,
    1122,
    1124,
    1122,
    1124,
    852,
    3,
    32,
    1152,
    836,
    837,
    838,
    1122,
    1384,
    1388,
    1147,
    1386,
    1215,
    1216,
    1197,
    1198,
    1386,
    1387,
    1199,
    1200,
    1386,
    1386,
    1385,
    1388,
    1388,
    1384,
    1215,
    1216,
    1166,
    1167,
    1147,
    1092,
    853,
    854,
    839,
    1122,
    1383,
    1388,
    1383,
    1076,
    1077,
    1092,
    853,
    854,
    839,
    1122,
    1383,
    1385,
    1385,
    1388,
    1385,
    1385,
    1147,
    1383,
    1387,
    1388,
    1384,
    1383,
    1388,
    1387,
    1383,
    1384,
    1388,
    1385,
    1388,
    1387,
    1388,
    1383,
    1383,
    1384,
    1387,
    1384,
    1385,
    1383,
    1387,
    1383,
    1386,
    1388,
    1387,
    1387,
    1386,
    1385,
    1387,
    1182,
    1385,
    1384,
    1385,
    1182,
    1197,
    1198,
    1197,
    1198,
    1213,
    1214,
    1386,
    1182,
    1384,
    1386,
    1384,
    1386,
    1213,
    1214,
    1182,
    1199,
    1200,
    1388,
    1386,
    1165,
    1092,
    871,
    872,
    873,
    1105,
    1106,
    1383,
    1147,
    1150,
    1151,
    1197,
    1198,
    1384,
    1092,
    853,
    854,
    5,
    2,
    1152,
    912,
    839,
    840,
    1,
    15,
    16,
    853,
    854,
    839,
    1122,
    1383,
    1165,
    1386,
    1383,
    1147,
    1213,
    1214,
    1147,
    1147,
    1215,
    1216,
    1182,
    1388,
    1383,
    1388,
    1388,
    1147,
    1385,
    1147,
    1182,
    1199,
    1200,
    1388,
    1092,
    1,
    855,
    856,
    1121,
    1383,
    1387,
    1387,
    1385,
    1388,
    1092,
    1,
    855,
    856,
    1121,
    1383,
    1383,
    1388,
    1199,
    1200,
    1387,
    1197,
    1198,
    1386,
    1386,
    1384,
    1165,
    1150,
    1151,
    1388,
    1388,
    1384,
    1384,
    1383,
    1384,
    1388,
    1388,
    1386,
    1386,
    1383,
    1386,
    1384,
    1163,
    1383,
    1387,
    1383,
    1383,
    1385,
    1387,
    1385,
    1384,
    1388,
    1386,
    1388,
    1147,
    1383,
    1213,
    1214,
    1213,
    1214,
    1147,
    1197,
    1198,
    1388,
    1383,
    1386,
    1388,
    1197,
    1198,
    1197,
    1147,
    1215,
    1216,
    1386,
    1385,
    1383,
    1108,
    1109,
    888,
    889,
    890,
    1106,
    1164,
    1388,
    1166,
    1167,
    1213,
    1214,
    11,
    1384,
    1091,
    1092,
    2,
    1,
    1,
    6,
    855,
    856,
    1,
    31,
    4,
    16,
    1,
    855,
    856,
    1121,
    1383,
    1197,
    1198,
    1148,
    11,
    1199,
    1200,
    1150,
    1151,
    1147,
    1383,
    1384,
    1164,
    1388,
    1383,
    1163,
    1148,
    1199,
    1200,
    1215,
    1216,
    1182,
    1108,
    1109,
    785,
    786,
    787,
    1106,
    1385,
    1383,
    1387,
    1384,
    1108,
    1109,
    785,
    786,
    787,
    1106,
    1388,
    1147,
    1215,
    1216,
    1147,
    1213,
    1214,
    1197,
    1198,
    1147,
    1384,
    1166,
    1167,
    1388,
    1388,
    1384,
    1387,
    1387,
    1387,
    1148,
    1147,
    1384,
    1388,
    1385,
    1384,
    1384,
    1383,
    1388,
    1388,
    1383,
    1384,
    1386,
    1384,
    1386,
    1386,
    1386,
    1147,
    1387,
    1148,
    1150,
    1151,
    1147,
    1147,
    1197,
    1198,
    1213,
    1214,
    1387,
    1383,
    1385,
    1385,
    1213,
    1214,
    1213,
    1197,
    1198,
    1388,
    1182,
    1388,
    1387,
    1108,
    1109,
    904,
    905,
    906,
    1122,
    1123,
    1124,
    1122,
    1386,
    1384,
    1148,
    1385,
    1163,
    1388,
    1385,
    1091,
    1091,
    1092,
    2,
    833,
    834,
    835,
    849,
    31,
    4,
    1,
    785,
    786,
    787,
    1106,
    1213,
    1214,
    1165,
    1182,
    1215,
    1216,
    1166,
    1167,
    1385,
    1386,
    1388,
    1383,
    1387,
    1147,
    1199,
    1200,
    1215,
    1216,
    1147,
    1199,
    1200,
    1108,
    1109,
    801,
    802,
    803,
    1106,
    1384,
    1387,
    1386,
    1387,
    1108,
    1109,
    801,
    802,
    803,
    1106,
    1199,
    1200,
    1388,
    1150,
    1151,
    1199,
    1200,
    1213,
    1214,
    1388,
    1197,
    1198,
    1387,
    1386,
    1388,
    1386,
    1386,
    1147,
    1199,
    1200,
    1150,
    1151,
    1387,
    1385,
    1387,
    1164,
    1388,
    1387,
    1383,
    1385,
    1387,
    1384,
    1386,
    1385,
    1386,
    1385,
    1383,
    1384,
    1182,
    1166,
    1167,
    1199,
    1200,
    1213,
    1214,
    1388,
    1383,
    1385,
    1388,
    1165,
    1385,
    1385,
    1199,
    1200,
    1213,
    1214,
    1147,
    1387,
    1385,
    1383,
    1384,
    1092,
    7,
    1390,
    1391,
    1392,
    875,
    876,
    1152,
    1121,
    1385,
    1387,
    1387,
    1383,
    1385,
    1385,
    1165,
    1164,
    1107,
    1092,
    849,
    850,
    851,
    1,
    4,
    2,
    2,
    801,
    802,
    803,
    1106,
    1165,
    1383,
    1147,
    1388,
    1383,
    1147,
    1386,
    1385,
    1385,
    1383,
    1383,
    1386,
    1384,
    1384,
    1215,
    1216,
    1148,
    11,
    1148,
    1215,
    1216,
    1108,
    1109,
    817,
    818,
    819,
    1122,
    1388,
    1386,
    1165,
    1387,
    1108,
    1109,
    817,
    818,
    819,
    1122,
    1215,
    1216,
    1182,
    1166,
    1167,
    1215,
    1216,
    1147,
    1386,
    11,
    1213,
    1214,
    1383,
    1387,
    1385,
    1383,
    1199,
    1200,
    1215,
    1216,
    1166,
    1167,
    1384,
    1386,
    1387,
    1386,
    1384,
    1388,
    1385,
    1385,
    1383,
    1387,
    1387,
    1150,
    1151,
    1148,
    1385,
    1199,
    1200,
    1199,
    1200,
    1215,
    1216,
    1147,
    1388,
    1199,
    1200,
    1387,
    1388,
    1383,
    1384,
    1386,
    1215,
    1216,
    1387,
    1197,
    1198,
    1384,
    1387,
    1387,
    1385,
    1164,
    1092,
    1406,
    1407,
    1408,
    891,
    892,
    893,
    1105,
    1106,
    1383,
    1386,
    1165,
    1386,
    1383,
    1386,
    1123,
    1123,
    1124,
    7,
    796,
    797,
    1,
    15,
    16,
    4,
    817,
    818,
    819,
    1122,
    1076,
    1148,
    1384,
    1384,
    1388,
    1384,
    1388,
    1383,
    1387,
    1384,
    1387,
    1386,
    1388,
    1386,
    1386,
    733,
    1147,
    1386,
    1182,
    1384,
    1147,
    1108,
    1109,
    785,
    786,
    787,
    1105,
    1106,
    1385,
    1384,
    1385,
    1108,
    1109,
    785,
    786,
    787,
    2,
    1122,
    1199,
    1200,
    1383,
    1147,
    1383,
    1199,
    1200,
    1148,
    1147,
    1388,
    1387,
    1386,
    1385,
    1387,
    1386,
    1215,
    1216,
    1147,
    11,
    1147,
    1197,
    1198,
    1384,
    1388,
    1385,
    1383,
    1383,
    1387,
    1388,
    1386,
    1384,
    1388,
    1166,
    1167,
    1388,
    1182,
    1215,
    1216,
    1215,
    1216,
    1388,
    1150,
    1151,
    1147,
    1215,
    1216,
    1385,
    1388,
    1383,
    1199,
    1200,
    1197,
    1198,
    1147,
    1213,
    1214,
    1387,
    1147,
    1199,
    1200,
    1387,
    1387,
    1093,
    1423,
    1424,
    907,
    908,
    909,
    910,
    1122,
    1385,
    1386,
    1385,
    1384,
    1123,
    1124,
    7,
    791,
    792,
    795,
    812,
    813,
    2,
    31,
    32,
    4,
    785,
    786,
    787,
    3,
    1121,
    1388,
    1383,
    1384,
    1387,
    1387,
    1386,
    1388,
    1387,
    1163,
    1387,
    1387,
    1384,
    1384,
    1383,
    1385,
    1386,
    733,
    1387,
    1147,
    1384,
    1124,
    2,
    801,
    802,
    803,
    1105,
    1106,
    1387,
    1388,
    1384,
    1124,
    2,
    801,
    802,
    803,
    3,
    1090,
    1215,
    1216,
    1386,
    1387,
    1385,
    1215,
    1216,
    1385,
    1385,
    1385,
    1385,
    1383,
    1384,
    1388,
    1164,
    1385,
    1199,
    1200,
    1199,
    1200,
    1213,
    1214,
    1386,
    1384,
    1386,
    1388,
    1384,
    1386,
    1383,
    1147,
    1387,
    1388,
    1384,
    1197,
    1198,
    1147,
    11,
    1149,
    1147,
    1199,
    1200,
    1166,
    1167,
    1197,
    1198,
    1384,
    1385,
    1386,
    1384,
    1215,
    1216,
    1213,
    1214,
    1197,
    1198,
    1388,
    1197,
    1198,
    1215,
    1216,
    1386,
    1385,
    1388,
    1091,
    1091,
    1092,
    924,
    925,
    926,
    14,
    1122,
    1123,
    1123,
    1124,
    791,
    792,
    795,
    807,
    808,
    811,
    828,
    4,
    4,
    4,
    3,
    1,
    801,
    802,
    803,
    2,
    1089,
    1388,
    1388,
    1384,
    1385,
    1387,
    1386,
    1387,
    1387,
    1388,
    1383,
    1383,
    1388,
    1383,
    1384,
    1386,
    1388,
    1386,
    1165,
    1385,
    1124,
    1,
    1,
    817,
    818,
    819,
    1090,
    1387,
    1385,
    1388,
    1124,
    1,
    1,
    817,
    818,
    819,
    1090,
    1385,
    1387,
    1385,
    1386,
    1385,
    1388,
    1387,
    1384,
    1388,
    1384,
    1388,
    1383,
    1386,
    1385,
    1385,
    1199,
    1200,
    1215,
    1216,
    1215,
    1216,
    1383,
    1384,
    1383,
    1388,
    1164,
    1385,
    1385,
    1150,
    1151,
    1384,
    1386,
    1197,
    1198,
    1213,
    1214,
    1199,
    1200,
    1197,
    1198,
    1215,
    1216,
    1147,
    11,
    1213,
    1214,
    1383,
    1384,
    1388,
    1197,
    1198,
    1182,
    1388,
    1199,
    1213,
    1214,
    1148,
    1213,
    1214,
    1197,
    1198,
    1148,
    1383,
    1385,
    1383,
    1383,
    1388,
    1092,
    1390,
    1391,
    1392,
    793,
    793,
    794,
    795,
    807,
    808,
    811,
    823,
    824,
    827,
    15,
    16,
    31,
    32,
    2,
    1,
    817,
    818,
    819,
    1090,
    1165,
    1384,
    1386,
    1388,
    1387,
    1385,
    1388,
    1385,
    1386,
    1385,
    1384,
    1388,
    1388,
    1384,
    1387,
    1385,
    1385,
    1385,
    927,
    1384,
    1093,
    31,
    32,
    836,
    837,
    838,
    1106,
    1163,
    1383,
    1384,
    1093,
    31,
    32,
    836,
    837,
    838,
    1106,
    1388,
    1388,
    1387,
    1383,
    1386,
    1383,
    1386,
    1386,
    1387,
    1384,
    1165,
    1387,
    1386,
    1385,
    1387,
    1215,
    1216,
    10,
    1388,
    1147,
    1388,
    1387,
    1384,
    1386,
    1383,
    1385,
    1199,
    1200,
    1166,
    1167,
    1387,
    1387,
    1213,
    1214,
    1182,
    1385,
    1215,
    1216,
    1213,
    1214,
    927,
    1147,
    1197,
    1198,
    1384,
    1165,
    1385,
    1388,
    1386,
    1213,
    1214,
    1385,
    1387,
    1215,
    1148,
    1385,
    1199,
    1200,
    1182,
    1213,
    1214,
    1150,
    1151,
    1384,
    1387,
    1165,
    1383,
    1108,
    1109,
    1407,
    1408,
    809,
    809,
    810,
    811,
    823,
    824,
    827,
    1090,
    1092,
    1152,
    31,
    32,
    2,
    2,
    3,
    1,
    796,
    797,
    1105,
    1106,
    1163,
    1383,
    1386,
    1388,
    1386,
    1387,
    1383,
    1384,
    1386,
    1383,
    1383,
    1386,
    1386,
    1383,
    1384,
    1387,
    1387,
    1383,
    1388,
    731,
    732,
    1092,
    4,
    849,
    853,
    854,
    1122,
    1383,
    1388,
    1383,
    1387,
    1092,
    835,
    849,
    853,
    854,
    1122,
    1385,
    1383,
    1384,
    1385,
    1384,
    1387,
    1384,
    1383,
    1388,
    1387,
    1386,
    1384,
    1383,
    1385,
    1386,
    1385,
    1387,
    1147,
    1384,
    1383,
    1385,
    1388,
    1383,
    1386,
    1385,
    1387,
    1215,
    1216,
    1385,
    1199,
    1200,
    1147,
    1388,
    1197,
    1198,
    1149,
    1147,
    1197,
    1198,
    1147,
    1197,
    1198,
    1213,
    1214,
    1386,
    1385,
    1386,
    1385,
    1385,
    1384,
    1197,
    1198,
    1199,
    1200,
    1199,
    1200,
    1215,
    1216,
    1197,
    1198,
    1148,
    1166,
    1167,
    1147,
    1387,
    1385,
    1386,
    1384,
    1092,
    1423,
    1424,
    825,
    825,
    826,
    827,
    1090,
    1091,
    1091,
    1123,
    1124,
    1023,
    1024,
    3,
    3,
    1,
    866,
    867,
    812,
    813,
    1090,
    1383,
    1386,
    1387,
    1385,
    1386,
    1383,
    1385,
    1387,
    1386,
    1384,
    1386,
    1386,
    1383,
    1387,
    1383,
    1163,
    1387,
    1388,
    1386,
    1388,
    747,
    748,
    1182,
    1092,
    3,
    1152,
    16,
    1105,
    1106,
    1385,
    1387,
    1385,
    1387,
    1092,
    3,
    15,
    4,
    1105,
    1106,
    1386,
    1388,
    1383,
    1385,
    1388,
    1388,
    1388,
    1387,
    1388,
    1384,
    1383,
    1386,
    1387,
    1384,
    1165,
    1387,
    1386,
    1385,
    1385,
    1383,
    1387,
    1388,
    1383,
    1386,
    1387,
    1384,
    1197,
    1198,
    1215,
    1216,
    1182,
    1147,
    1213,
    1214,
    1199,
    1200,
    1213,
    1214,
    1182,
    1213,
    1214,
    1182,
    1199,
    1200,
    1388,
    1387,
    1385,
    1383,
    1147,
    1213,
    1214,
    1215,
    1216,
    1215,
    1216,
    1387,
    1147,
    1213,
    1214,
    1197,
    1198,
    1182,
    1384,
    1388,
    1383,
    1388,
    1383,
    1385,
    1092,
    1075,
    1075,
    1090,
    1091,
    1091,
    1388,
    1383,
    1124,
    866,
    867,
    1039,
    1040,
    4,
    3,
    881,
    882,
    883,
    828,
    1090,
    1147,
    1383,
    1385,
    1385,
    1383,
    1386,
    1164,
    1388,
    1388,
    1388,
    1383,
    1385,
    1384,
    1383,
    1385,
    1387,
    1384,
    1383,
    1388,
    1383,
    1386,
    1383,
    1386,
    1388,
    1108,
    15,
    2,
    32,
    1105,
    1106,
    1386,
    1383,
    1387,
    1164,
    1108,
    15,
    15,
    16,
    1105,
    1106,
    1165,
    1383,
    1385,
    1388,
    1387,
    1388,
    1383,
    1164,
    1384,
    1385,
    1387,
    1386,
    1383,
    1387,
    1387,
    1385,
    1384,
    1384,
    1388,
    1385,
    1385,
    1388,
    1386,
    1387,
    1386,
    1386,
    1213,
    1214,
    1383,
    1197,
    1198,
    1388,
    11,
    1182,
    1215,
    1216,
    1147,
    1197,
    1198,
    1147,
    1199,
    1200,
    1215,
    1216,
    1388,
    1164,
    1384,
    1387,
    1199,
    1200,
    1182,
    1150,
    1151,
    1388,
    1197,
    1198,
    731,
    732,
    1147,
    1213,
    1214,
    1199,
    1200,
    1147,
    1384,
    1388,
    1164,
    1387,
    1388,
    1091,
    1091,
    1123,
    1124,
    1122,
    1123,
    1124,
    881,
    882,
    883,
    1055,
    2,
    4,
    1389,
    897,
    898,
    899,
    1089,
    1386,
    1388,
    1388,
    1388,
    1386,
    1385,
    1386,
    1388,
    1384,
    1386,
    1385,
    1385,
    1386,
    1388,
    1384,
    1384,
    1387,
    1388,
    1388,
    1385,
    1165,
    1383,
    1386,
    1386,
    1386,
    1124,
    15,
    16,
    1088,
    1090,
    1388,
    1383,
    1386,
    1386,
    1386,
    1124,
    4,
    4,
    32,
    1090,
    1388,
    1388,
    1383,
    1384,
    1388,
    1387,
    1383,
    1383,
    1383,
    1385,
    1385,
    1383,
    1383,
    1386,
    1387,
    1386,
    1384,
    1388,
    1383,
    1385,
    1383,
    1165,
    1386,
    1384,
    1387,
    1386,
    1385,
    1383,
    1386,
    1385,
    1213,
    1214,
    1386,
    1387,
    1388,
    1385,
    1387,
    1385,
    1213,
    1214,
    1383,
    1215,
    1216,
    1388,
    1386,
    1386,
    1388,
    1387,
    1387,
    1215,
    1216,
    1147,
    1166,
    1167,
    1147,
    1213,
    1214,
    747,
    748,
    1199,
    1200,
    1147,
    1215,
    1216,
    1386,
    1388,
    1383,
    1385,
    1385,
    1388,
    1123,
    1124,
    791,
    792,
    793,
    794,
    795,
    897,
    898,
    899,
    3,
    15,
    16,
    1405,
    913,
    914,
    1090,
    1388,
    1164,
    1384,
    1385,
    1388,
    1387,
    1384,
    1387,
    1386,
    1387,
    1383,
    1385,
    1387,
    1385,
    1386,
    1387,
    1387,
    1388,
    1384,
    1384,
    1384,
    1385,
    1386,
    1383,
    1384,
    1125,
    2,
    2,
    32,
    1090,
    1165,
    1384,
    1386,
    1383,
    1384,
    1125,
    2,
    31,
    32,
    1090,
    1164,
    1384,
    1386,
    1386,
    1387,
    1384,
    1387,
    1383,
    1384,
    1383,
    1384,
    1386,
    1385,
    1384,
    1387,
    1383,
    1383,
    1385,
    1386,
    1383,
    1384,
    1383,
    1388,
    1385,
    1384,
    1388,
    1387,
    1388,
    1384,
    1385,
    1387,
    1383,
    1385,
    1386,
    1386,
    1163,
    1387,
    1385,
    1387,
    1384,
    1388,
    1387,
    1388,
    1387,
    1384,
    1385,
    1387,
    1386,
    1385,
    1165,
    1388,
    1199,
    1200,
    10,
    11,
    1148,
    1182,
    1197,
    1198,
    1182,
    1215,
    1216,
    1197,
    1198,
    1387,
    1182,
    1383,
    1384,
    1388,
    1388,
    1124,
    866,
    867,
    807,
    808,
    809,
    810,
    811,
    913,
    914,
    7,
    2,
    31,
    32,
    1421,
    1090,
    1091,
    1384,
    1383,
    1383,
    1385,
    1384,
    1388,
    1388,
    1387,
    1384,
    1385,
    1386,
    1383,
    1383,
    1385,
    1385,
    1383,
    1388,
    1385,
    1384,
    1385,
    1387,
    1385,
    1384,
    1386,
    1386,
    1124,
    3,
    15,
    1,
    2,
    1121,
    1385,
    1383,
    1386,
    1165,
    1124,
    3,
    4,
    4,
    2,
    1121,
    1385,
    1383,
    1383,
    1388,
    1387,
    1384,
    1388,
    1385,
    1383,
    1388,
    1385,
    1384,
    1387,
    1386,
    1383,
    1386,
    1388,
    1386,
    1384,
    1385,
    1384,
    1384,
    1387,
    1388,
    1386,
    1387,
    1386,
    1383,
    1387,
    1383,
    1384,
    1388,
    1387,
    1385,
    1388,
    1383,
    1383,
    1384,
    1383,
    1385,
    1385,
    1385,
    1383,
    1163,
    1386,
    1385,
    1387,
    1387,
    1386,
    1182,
    1385,
    1215,
    1216,
    1147,
    1199,
    1197,
    1198,
    1213,
    1214,
    1197,
    1198,
    1198,
    1213,
    1214,
    1387,
    1388,
    1388,
    1383,
    1386,
    1124,
    881,
    882,
    883,
    823,
    824,
    825,
    826,
    827,
    1,
    1152,
    1,
    7,
    1,
    1090,
    1091,
    1165,
    1384,
    1383,
    1388,
    1385,
    1388,
    1386,
    1388,
    1386,
    1387,
    1385,
    1385,
    702,
    1386,
    1383,
    1386,
    1384,
    1383,
    1386,
    1384,
    1385,
    1385,
    1387,
    1384,
    1388,
    1384,
    1124,
    4,
    2,
    31,
    32,
    3,
    1089,
    1383,
    1387,
    1384,
    1124,
    4,
    2,
    1023,
    1024,
    3,
    1089,
    1383,
    1387,
    1385,
    1385,
    1385,
    1388,
    1385,
    1384,
    1386,
    1388,
    1384,
    702,
    1387,
    1383,
    1387,
    1386,
    1388,
    1383,
    1383,
    1384,
    1388,
    1383,
    1385,
    1388,
    1384,
    1383,
    1386,
    1385,
    1387,
    1387,
    1384,
    1388,
    1387,
    1388,
    1388,
    1383,
    1387,
    1386,
    1383,
    1383,
    1385,
    1385,
    1383,
    1387,
    1388,
    1386,
    1386,
    1385,
    1387,
    1197,
    1198,
    1387,
    1199,
    1200,
    1215
   ]
  },
  {
   "id": 2,
   "name": "spawns",
   "type": "objectgroup",
   "x": 0,
   "y": 0,
   "width": 0,
   "height": 0,
   "opacity": 1,
   "visible": true,
   "draworder": "topdown",
   "objects": []
  },
  {
   "id": 3,
   "name": "collision",
   "type": "tilelayer",
   "x": 0,
   "y": 0,
   "width": 128,
   "height": 128,
   "opacity": 1,
   "visible": false,
   "data": [
    0,
    0,
    0,
    0,
    0,
    0,
    0,
    0,
    0,
    0,
    0,
    0,
    0,
    0,
    0,
    0,
    0,
    0,
    0,
    0,
    0,
    0,
    0,
    0,
    0,
    0,
    0,
    0,
    0,
    0,
    0,
    0,
    0,
    0,
    0,
    0,
    0,
    1552,
    1552,
    0,
    0,
    0,
    1552,
    1552,
    0,
    0,
    0,
    0,
    1552,
    0,
    0,
    0,
    0,
    0,
    1552,
    1552,
    0,
    0,
    0,
    0,
    0,
    1552,
    1552,
    1552,
    1552,
    0,
    0,
    0,
    0,
    0,
    0,
    0,
    0,
    0,
    0,
    0,
    0,
    0,
    0,
    0,
    0,
    0,
    0,
    0,
    0,
    0,
    0,
    0,
    0,
    0,
    0,
    0,
    0,
    0,
    0,
    0,
    0,
    0,
    0,
    0,
    0,
    0,
    0,
    0,
    0,
    0,
    0,
    0,
    0,
    0,
    0,
    0,
    0,
    0,
    0,
    0,
    0,
    0,
    0,
    0,
    0,
    0,
    0,
    0,
    0,
    0,
    0,
    0,
    0,
    0,
    0,
    0,
    0,
    0,
    0,
    0,
    0,
    0,
    0,
    0,
    0,
    0,
    0,
    0,
    0,
    0,
    0,
    0,
    0,
    0,
    0,
    0,
    0,
    0,
    0,
    0,
    0,
    0,
    0,
    0,
    0,
    0,
    0,
    0,
    1552,
    1552,
    0,
    0,
    0,
    1552,
    1552,
    1552,
    0,
    0,
    0,
    0,
    1552,
    1552,
    0,
    0,
    0,
    0,
    1552,
    1552,
    0,
    0,
    0,
    1552,
    1552,
    1552,
    1552,
    1552,
    0,
    1552,
    1552,
    0,
    0,
    0,
    0,
    0,
    1552,
    1552,
    1552,
    0,
    0,
    0,
    0,
    0,
    0,
    1552,
    0,
    0,
    1552,
    0,
    0,
    0,
    0,
    0,
    0,
    0,
    0,
    0,
    0,
    0,
    0,
    0,
    0,
    0,
    0,
    0,
    0,
    0,
    0,
    0,
    0,
    0,
    0,
    0,
    0,
    0,
    0,
    0,
    0,
    0,
    0,
    0,
    0,
    0,
    0,
    0,
    0,
    0,
    0,
    0,
    0,
    0,
    0,
    0,
    0,
    0,
    1552,
    0,
    0,
    0,
    0,
    0,
    0,
    0,
    0,
    0,
    0,
    0,
    0,
    0,
    0,
    0,
    0,
    0,
    0,
    0,
    0,
    0,
    0,
    0,
    0,
    0,
    0,
    0,
    1552,
    0,
    0,
    1552,
    1552,
    1552,
    0,
    0,
    1552,
    1552,
    1552,
    0,
    0,
    0,
    0,
    0,
    1552,
    1552,
    0,
    0,
    0,
    0,
    1552,
    1552,
    0,
    0,
    0,
    1552,
    1552,
    1552,
    0,
    0,
    0,
    0,
    0,
    1552,
    0,
    0,
    0,
    0,
    0,
    1552,
    1552,
    0,
    0,
    0,
    0,
    0,
    0,
    0,
    1552,
    1552,
    0,
    0,
    0,
    0,
    0,
    0,
    0,
    0,
    0,
    0,
    0,
    0,
    0,
    0,
    0,
    0,
    1552,
    0,
    0,
    0,
    0,
    0,
    0,
    0,
    0,
    0,
    0,
    0,
    0,
    0,
    0,
    0,
    0,
    0,
    0,
    0,
    0,
    0,
    0,
    0,
    0,
    0,
    0,
    0,
    0,
    1552,
    0,
    0,
    0,
    0,
    0,
    0,
    0,
    0,
    0,
    0,
    0,
    0,
    0,
    0,
    0,
    0,
    1552,
    1552,
    0,
    0,
    0,
    0,
    0,
    0,
    0,
    0,
    0,
    0,
    0,
    0,
    0,
    0,
    1552,
    1552,
    0,
    0,
    0,
    1552,
    1552,
    1552,
    0,
    0,
    0,
    0,
    0,
    1552,
    1552,
    0,
    0,
    0,
    0,
    0,
    1552,
    1552,
    0,
    0,
    0,
    0,
    0,
    1552,
    0,
    1552,
    0,
    0,
    0,
    0,
    0,
    0,
    0,
    0,
    0,
    0,
    0,
    0,
    1552,
    0,
    1552,
    0,
    0,
    0,
    0,
    0,
    0,
    0,
    0,
    0,
    0,
    0,
    0,
    0,
    0,
    0,
    0,
    0,
    0,
    0,
    0,
    0,
    0,
    0,
    0,
    0,
    0,
    0,
    0,
    0,
    0,
    0,
    0,
    0,
    0,
    0,
    0,
    0,
    0,
    0,
    0,
    0,
    0,
    0,
    0,
    0,
    0,
    0,
    0,
    0,
    0,
    0,
    1552,
    1552,
    0,
    0,
    0,
    0,
    0,
    0,
    0,
    0,
    0,
    0,
    0,
    0,
    0,
    0,
    0,
    0,
    1552,
    0,
    0,
    0,
    0,
    0,
    0,
    0,
    0,
    0,
    0,
    0,
    1552,
    0,
    1552,
    1552,
    0,
    0,
    1552,
    1552,
    1552,
    0,
    0,
    0,
    0,
    0,
    0,
    1552,
    1552,
    0,
    0,
    0,
    0,
    0,
    1552,
    1552,
    0,
    0,
    0,
    0,
    0,
    0,
    0,
    0,
    0,
    0,
    0,
    0,
    0,
    0,
    0,
    0,
    0,
    0,
    1552,
    1552,
    1552,
    1552,
    0,
    1552,
    1552,
    0,
    0,
    0,
    0,
    0,
    0,
    0,
    0,
    1552,
    0,
    0,
    0,
    0,
    0,
    0,
    0,
    0,
    0,
    0,
    0,
    0,
    0,
    0,
    0,
    0,
    0,
    0,
    0,
    0,
    0,
    0,
    0,
    0,
    0,
    0,
    0,
    0,
    1552,
    1552,
    0,
    0,
    0,
    0,
    0,
    0,
    0,
    0,
    1552,
    0,
    0,
    1552,
    0,
    0,
    0,
    0,
    0,
    0,
    0,
    0,
    1552,
    1552,
    0,
    1552,
    1552,
    0,
    0,
    0,
    0,
    0,
    0,
    0,
    0,
    0,
    0,
    0,
    0,
    0,
    1552,
    1552,
    1552,
    0,
    1552,
    1552,
    0,
    0,
    1552,
    1552,
    0,
    1552,
    0,
    0,
    0,
    0,
    0,
    0,
    0,
    0,
    0,
    0,
    0,
    0,
    1552,
    1552,
    0,
    0,
    0,
    0,
    0,
    1552,
    0,
    0,
    0,
    0,
    0,
    0,
    0,
    0,
    0,
    0,
    0,
    0,
    0,
    1552,
    1552,
    1552,
    1552,
    1552,
    1552,
    0,
    0,
    0,
    0,
    0,
    1552,
    1552,
    0,
    0,
    0,
    0,
    0,
    0,
    0,
    0,
    0,
    0,
    0,
    0,
    0,
    0,
    1552,
    0,
    0,
    0,
    0,
    0,
    0,
    0,
    0,
    0,
    0,
    0,
    0,
    0,
    0,
    0,
    1552,
    0,
    0,
    0,
    0,
    0,
    0,
    0,
    0,
    0,
    0,
    0,
    0,
    0,
    0,
    0,
    0,
    0,
    0,
    0,
    0,
    0,
    1552,
    1552,
    1552,
    1552,
    1552,
    0,
    0,
    0,
    0,
    0,
    0,
    0,
    0,
    0,
    0,
    0,
    0,
    0,
    0,
    1552,
    0,
    0,
    1552,
    1552,
    0,
    0,
    1552,
    1552,
    0,
    0,
    0,
    0,
    0,
    0,
    0,
    0,
    0,
    0,
    0,
    0,
    0,
    0,
    0,
    1552,
    0,
    0,
    0,
    1552,
    1552,
    1552,
    1552,
    0,
    0,
    0,
    0,
    0,
    0,
    0,
    0,
    0,
    0,
    0,
    1552,
    1552,
    1552,
    1552,
    1552,
    1552,
    0,
    1552,
    0,
    0,
    1552,
    1552,
    1552,
    1552,
    1552,
    1552,
    0,
    0,
    0,
    0,
    1552,
    1552,
    0,
    0,
    0,
    0,
    0,
    0,
    0,
    0,
    0,
    0,
    0,
    0,
    0,
    0,
    0,
    0,
    0,
    0,
    0,
    0,
    0,
    0,
    0,
    0,
    0,
    0,
    0,
    0,
    0,
    0,
    0,
    0,
    0,
    0,
    0,
    0,
    0,
    0,
    0,
    0,
    0,
    0,
    0,
    1552,
    0,
    0,
    1552,
    1552,
    1552,
    1552,
    1552,
    1552,
    0,
    0,
    0,
    0,
    0,
    0,
    0,
    0,
    0,
    0,
    0,
    0,
    0,
    0,
    1552,
    1552,
    0,
    0,
    0,
    1552,
    0,
    0,
    0,
    0,
    0,
    0,
    0,
    0,
    0,
    0,
    0,
    0,
    0,
    0,
    0,
    0,
    1552,
    1552,
    0,
    0,
    1552,
    1552,
    1552,
    1552,
    0,
    0,
    0,
    0,
    0,
    0,
    0,
    0,
    0,
    0,
    1552,
    1552,
    1552,
    1552,
    1552,
    0,
    1552,
    1552,
    0,
    0,
    1552,
    1552,
    0,
    1552,
    1552,
    1552,
    1552,
    1552,
    1552,
    1552,
    1552,
    1552,
    1552,
    0,
    0,
    0,
    0,
    0,
    0,
    0,
    0,
    0,
    0,
    0,
    0,
    0,
    0,
    0,
    0,
    0,
    0,
    0,
    0,
    0,
    0,
    0,
    0,
    0,
    0,
    0,
    0,
    0,
    0,
    0,
    0,
    0,
    0,
    0,
    0,
    0,
    0,
    0,
    0,
    0,
    0,
    0,
    1552,
    1552,
    1552,
    1552,
    1552,
    1552,
    1552,
    0,
    0,
    0,
    0,
    0,
    0,
    0,
    0,
    0,
    0,
    0,
    0,
    0,
    0,
    0,
    1552,
    1552,
    0,
    0,
    0,
    0,
    0,
    0,
    0,
    0,
    0,
    1552,
    0,
    0,
    0,
    0,
    0,
    0,
    0,
    0,
    0,
    0,
    0,
    1552,
    1552,
    0,
    0,
    1552,
    1552,
    1552,
    0,
    0,
    0,
    0,
    0,
    0,
    0,
    0,
    1552,
    1552,
    1552,
    1552,
    1552,
    1552,
    0,
    1552,
    1552,
    1552,
    0,
    0,
    0,
    1552,
    1552,
    1552,
    1552,
    1552,
    1552,
    1552,
    1552,
    1552,
    0,
    1552,
    1552,
    1552,
    0,
    1552,
    0,
    0,
    0,
    0,
    0,
    0,
    0,
    0,
    0,
    0,
    0,
    0,
    0,
    0,
    0,
    0,
    0,
    0,
    0,
    0,
    0,
    0,
    0,
    0,
    0,
    0,
    0,
    0,
    0,
    0,
    0,
    0,
    0,
    0,
    0,
    0,
    0,
    0,
    0,
    0,
    1552,
    1552,
    1552,
    1552,
    1552,
    1552,
    0,
    0,
    0,
    0,
    0,
    0,
    0,
    0,
    0,
    0,
    0,
    0,
    0,
    0,
    0,
    0,
    1552,
    1552,
    0,
    0,
    0,
    0,
    0,
    0,
    0,
    0,
    1552,
    1552,
    0,
    0,
    0,
    0,
    0,
    0,
    0,
    0,
    0,
    0,
    0,
    1552,
    1552,
    0,
    0,
    1552,
    1552,
    1552,
    1552,
    0,
    0,
    0,
    0,
    0,
    0,
    0,
    0,
    1552,
    1552,
    0,
    0,
    1552,
    1552,
    0,
    0,
    0,
    0,
    1552,
    1552,
    1552,
    1552,
    1552,
    0,
    1552,
    1552,
    1552,
    1552,
    1552,
    1552,
    1552,
    1552,
    1552,
    1552,
    1552,
    0,
    1552,
    0,
    0,
    0,
    0,
    0,
    0,
    0,
    0,
    0,
    0,
    0,
    0,
    0,
    0,
    0,
    0,
    0,
    0,
    0,
    0,
    0,
    0,
    0,
    0,
    0,
    0,
    0,
    0,
    0,
    0,
    0,
    0,
    0,
    0,
    0,
    0,
    1552,
    1552,
    1552,
    1552,
    1552,
    1552,
    1552,
    1552,
    1552,
    1552,
    0,
    0,
    0,
    0,
    0,
    0,
    0,
    0,
    0,
    0,
    0,
    0,
    0,
    0,
    0,
    1552,
    0,
    0,
    0,
    0,
    0,
    0,
    0,
    1552,
    1552,
    0,
    0,
    0,
    0,
    0,
    0,
    0,
    0,
    0,
    0,
    0,
    0,
    1552,
    1552,
    0,
    0,
    0,
    0,
    0,
    0,
    0,
    0,
    0,
    0,
    0,
    0,
    0,
    0,
    0,
    0,
    0,
    0,
    0,
    0,
    0,
    0,
    0,
    0,
    1552,
    1552,
    0,
    1552,
    0,
    1552,
    0,
    0,
    0,
    0,
    0,
    1552,
    1552,
    0,
    0,
    1552,
    1552,
    1552,
    0,
    0,
    0,
    0,
    0,
    0,
    0,
    0,
    0,
    0,
    0,
    1552,
    0,
    0,
    0,
    0,
    0,
    0,
    0,
    0,
    0,
    0,
    0,
    0,
    0,
    0,
    0,
    0,
    0,
    0,
    0,
    0,
    0,
    0,
    0,
    0,
    0,
    1552,
    1552,
    0,
    1552,
    1552,
    1552,
    1552,
    1552,
    1552,
    0,
    0,
    0,
    0,
    0,
    0,
    0,
    0,
    0,
    0,
    0,
    0,
    0,
    0,
    0,
    0,
    0,
    1552,
    0,
    0,
    0,
    0,
    0,
    0,
    0,
    1552,
    0,
    0,
    0,
    0,
    0,
    0,
    0,
    0,
    0,
    0,
    0,
    0,
    1552,
    1552,
    0,
    0,
    0,
    0,
    0,
    0,
    0,
    0,
    0,
    0,
    0,
    0,
    0,
    0,
    0,
    0,
    0,
    0,
    0,
    0,
    0,
    0,
    0,
    0,
    0,
    0,
    0,
    0,
    0,
    0,
    0,
    0,
    0,
    0,
    0,
    0,
    1552,
    1552,
    0,
    0,
    0,
    0,
    0,
    0,
    0,
    0,
    0,
    1552,
    0,
    1552,
    1552,
    0,
    0,
    0,
    0,
    0,
    0,
    0,
    1552,
    0,
    0,
    0,
    0,
    0,
    0,
    0,
    0,
    1552,
    0,
    0,
    0,
    0,
    0,
    0,
    0,
    0,
    0,
    0,
    0,
    0,
    0,
    1552,
    0,
    1552,
    1552,
    0,
    1552,
    1552,
    0,
    0,
    0,
    0,
    0,
    0,
    0,
    0,
    0,
    0,
    0,
    0,
    0,
    0,
    0,
    0,
    0,
    0,
    0,
    0,
    0,
    0,
    0,
    0,
    0,
    0,
    1552,
    1552,
    0,
    0,
    0,
    0,
    0,
    0,
    0,
    0,
    0,
    0,
    1552,
    1552,
    0,
    0,
    0,
    0,
    0,
    0,
    0,
    0,
    0,
    0,
    0,
    0,
    0,
    0,
    0,
    0,
    0,
    0,
    0,
    0,
    0,
    0,
    0,
    0,
    0,
    0,
    0,
    0,
    0,
    0,
    0,
    0,
    0,
    0,
    0,
    0,
    0,
    0,
    0,
    0,
    0,
    0,
    0,
    0,
    0,
    0,
    1552,
    0,
    1552,
    1552,
    0,
    0,
    0,
    0,
    0,
    0,
    0,
    0,
    0,
    1552,
    0,
    0,
    0,
    1552,
    0,
    0,
    0,
    0,
    0,
    0,
    0,
    0,
    0,
    0,
    0,
    0,
    0,
    0,
    0,
    0,
    0,
    0,
    1552,
    1552,
    1552,
    0,
    0,
    0,
    0,
    0,
    0,
    0,
    0,
    0,
    0,
    0,
    0,
    0,
    0,
    0,
    0,
    0,
    0,
    0,
    0,
    0,
    0,
    0,
    0,
    0,
    0,
    0,
    0,
    0,
    0,
    1552,
    1552,
    0,
    0,
    0,
    0,
    0,
    0,
    0,
    0,
    0,
    1552,
    1552,
    0,
    0,
    0,
    0,
    0,
    0,
    0,
    0,
    0,
    0,
    0,
    0,
    0,
    0,
    0,
    0,
    0,
    0,
    0,
    0,
    0,
    0,
    0,
    0,
    0,
    0,
    0,
    0,
    0,
    0,
    0,
    0,
    0,
    0,
    0,
    0,
    0,
    0,
    0,
    0,
    0,
    0,
    0,
    0,
    0,
    0,
    0,
    0,
    1552,
    1552,
    0,
    0,
    0,
    1552,
    0,
    0,
    0,
    0,
    0,
    0,
    0,
    1552,
    1552,
    1552,
    1552,
    0,
    0,
    0,
    0,
    0,
    0,
    0,
    0,
    0,
    0,
    0,
    0,
    0,
    0,
    0,
    0,
    0,
    0,
    0,
    0,
    0,
    0,
    0,
    0,
    0,
    0,
    0,
    0,
    0,
    0,
    0,
    0,
    0,
    0,
    0,
    0,
    0,
    0,
    0,
    0,
    0,
    0,
    0,
    0,
    0,
    0,
    0,
    0,
    0,
    0,
    1552,
    1552,
    0,
    0,
    0,
    0,
    0,
    0,
    0,
    0,
    0,
    1552,
    1552,
    0,
    0,
    0,
    0,
    0,
    0,
    0,
    0,
    0,
    0,
    0,
    0,
    0,
    0,
    0,
    0,
    0,
    0,
    0,
    0,
    0,
    0,
    0,
    0,
    0,
    0,
    0,
    0,
    0,
    0,
    0,
    0,
    0,
    0,
    0,
    0,
    0,
    0,
    0,
    0,
    0,
    0,
    0,
    0,
    0,
    0,
    0,
    0,
    0,
    0,
    0,
    0,
    1552,
    1552,
    0,
    0,
    1552,
    0,
    1552,
    0,
    0,
    0,
    0,
    0,
    1552,
    0,
    0,
    1552,
    1552,
    0,
    0,
    0,
    0,
    0,
    0,
    0,
    0,
    0,
    0,
    0,
    0,
    0,
    0,
    0,
    0,
    0,
    0,
    0,
    0,
    0,
    0,
    0,
    0,
    0,
    0,
    0,
    0,
    0,
    0,
    0,
    0,
    0,
    0,
    0,
    0,
    0,
    0,
    0,
    0,
    0,
    0,
    0,
    0,
    0,
    0,
    1552,
    1552,
    0,
    0,
    0,
    0,
    0,
    0,
    0,
    0,
    0,
    1552,
    1552,
    0,
    0,
    0,
    0,
    0,
    0,
    0,
    0,
    0,
    0,
    0,
    0,
    0,
    0,
    0,
    0,
    0,
    0,
    0,
    0,
    0,
    0,
    0,
    0,
    0,
    0,
    0,
    0,
    0,
    0,
    0,
    0,
    0,
    0,
    0,
    0,
    0,
    0,
    0,
    0,
    0,
    0,
    0,
    0,
    0,
    0,
    0,
    0,
    0,
    0,
    1552,
    1552,
    1552,
    1552,
    0,
    1552,
    0,
    1552,
    0,
    1552,
    1552,
    0,
    0,
    0,
    0,
    0,
    1552,
    1552,
    0,
    0,
    0,
    0,
    0,
    0,
    0,
    0,
    0,
    0,
    0,
    0,
    0,
    0,
    0,
    0,
    0,
    0,
    0,
    0,
    0,
    0,
    0,
    0,
    0,
    0,
    0,
    0,
    0,
    0,
    0,
    0,
    0,
    0,
    0,
    0,
    0,
    0,
    0,
    0,
    0,
    0,
    0,
    0,
    0,
    0,
    0,
    1552,
    1552,
    0,
    0,
    0,
    0,
    0,
    0,
    0,
    0,
    0,
    1552,
    1552,
    0,
    0,
    0,
    0,
    0,
    0,
    0,
    0,
    0,
    0,
    0,
    0,
    0,
    0,
    0,
    0,
    0,
    0,
    0,
    0,
    0,
    0,
    0,
    0,
    0,
    0,
    0,
    0,
    0,
    0,
    0,
    0,
    0,
    0,
    0,
    0,
    0,
    0,
    0,
    0,
    0,
    0,
    0,
    0,
    0,
    0,
    0,
    0,
    1552,
    1552,
    1552,
    1552,
    1552,
    1552,
    0,
    0,
    0,
    0,
    0,
    1552,
    1552,
    1552,
    1552,
    0,
    1552,
    1552,
    1552,
    1552,
    0,
    0,
    0,
    0,
    0,
    0,
    0,
    0,
    0,
    0,
    0,
    0,
    0,
    0,
    0,
    0,
    0,
    0,
    0,
    0,
    0,
    0,
    0,
    0,
    0,
    0,
    0,
    0,
    0,
    0,
    0,
    0,
    0,
    0,
    0,
    0,
    0,
    0,
    1552,
    0,
    0,
    0,
    0,
    0,
    0,
    0,
    0,
    0,
    1552,
    0,
    0,
    0,
    0,
    0,
    0,
    0,
    0,
    0,
    1552,
    1552,
    0,
    0,
    0,
    0,
    0,
    0,
    0,
    0,
    0,
    0,
    0,
    0,
    0,
    0,
    0,
    0,
    0,
    0,
    0,
    0,
    0,
    0,
    0,
    0,
    0,
    0,
    0,
    0,
    0,
    0,
    0,
    0,
    0,
    0,
    0,
    0,
    0,
    0,
    0,
    0,
    0,
    0,
    0,
    0,
    0,
    0,
    1552,
    1552,
    1552,
    1552,
    1552,
    1552,
    1552,
    1552,
    1552,
    0,
    0,
    0,
    0,
    0,
    0,
    1552,
    1552,
    1552,
    1552,
    1552,
    0,
    0,
    1552,
    0,
    0,
    1552,
    0,
    0,
    0,
    0,
    0,
    0,
    0,
    0,
    0,
    0,
    0,
    0,
    0,
    0,
    0,
    0,
    0,
    0,
    0,
    0,
    0,
    0,
    0,
    0,
    0,
    0,
    0,
    0,
    0,
    0,
    0,
    0,
    1552,
    0,
    0,
    1552,
    0,
    0,
    0,
    0,
    0,
    0,
    0,
    0,
    0,
    1552,
    1552,
    0,
    0,
    0,
    0,
    0,
    0,
    0,
    0,
    1552,
    0,
    0,
    0,
    0,
    0,
    0,
    0,
    0,
    0,
    0,
    0,
    0,
    0,
    0,
    0,
    0,
    0,
    0,
    1552,
    0,
    1552,
    0,
    0,
    0,
    0,
    0,
    0,
    0,
    0,
    0,
    0,
    0,
    0,
    0,
    0,
    0,
    0,
    0,
    0,
    0,
    0,
    0,
    0,
    0,
    0,
    0,
    1552,
    1552,
    1552,
    1552,
    1552,
    1552,
    1552,
    1552,
    0,
    1552,
    1552,
    1552,
    1552,
    0,
    0,
    0,
    1552,
    1552,
    0,
    1552,
    0,
    0,
    0,
    1552,
    0,
    1552,
    1552,
    0,
    0,
    0,
    0,
    0,
    0,
    0,
    0,
    0,
    0,
    0,
    0,
    0,
    0,
    0,
    0,
    0,
    1552,
    0,
    0,
    0,
    0,
    0,
    0,
    0,
    0,
    0,
    0,
    0,
    0,
    0,
    0,
    0,
    1552,
    1552,
    0,
    0,
    0,
    0,
    0,
    0,
    0,
    0,
    0,
    0,
    1552,
    1552,
    0,
    0,
    0,
    0,
    0,
    0,
    0,
    1552,
    1552,
    0,
    0,
    0,
    0,
    0,
    0,
    0,
    0,
    0,
    0,
    0,
    0,
    0,
    0,
    0,
    0,
    0,
    0,
    1552,
    1552,
    1552,
    0,
    0,
    0,
    0,
    0,
    0,
    0,
    0,
    0,
    0,
    0,
    0,
    0,
    0,
    0,
    0,
    0,
    0,
    0,
    0,
    0,
    0,
    0,
    1552,
    1552,
    1552,
    1552,
    1552,
    0,
    0,
    0,
    0,
    1552,
    1552,
    1552,
    1552,
    1552,
    1552,
    0,
    1552,
    0,
    0,
    0,
    0,
    0,
    0,
    0,
    0,
    1552,
    1552,
    1552,
    1552,
    0,
    0,
    0,
    0,
    0,
    0,
    0,
    0,
    0,
    0,
    0,
    0,
    0,
    0,
    0,
    1552,
    1552,
    1552,
    0,
    0,
    0,
    0,
    0,
    0,
    0,
    0,
    0,
    0,
    0,
    0,
    0,
    0,
    1552,
    1552,
    0,
    0,
    0,
    0,
    0,
    0,
    0,
    0,
    0,
    0,
    0,
    1552,
    0,
    0,
    0,
    0,
    0,
    0,
    0,
    1552,
    1552,
    0,
    0,
    0,
    0,
    0,
    0,
    0,
    0,
    0,
    0,
    0,
    0,
    0,
    0,
    0,
    0,
    0,
    0,
    1552,
    1552,
    0,
    1552,
    0,
    0,
    0,
    0,
    0,
    0,
    0,
    0,
    0,
    0,
    0,
    0,
    0,
    0,
    0,
    0,
    0,
    0,
    0,
    0,
    0,
    0,
    1552,
    1552,
    0,
    0,
    0,
    1552,
    0,
    0,
    1552,
    1552,
    1552,
    1552,
    1552,
    1552,
    1552,
    1552,
    0,
    0,
    0,
    0,
    0,
    0,
    0,
    0,
    0,
    1552,
    0,
    0,
    1552,
    0,
    0,
    0,
    0,
    0,
    0,
    0,
    0,
    0,
    0,
    0,
    0,
    0,
    0,
    0,
    0,
    0,
    0,
    0,
    0,
    0,
    0,
    0,
    0,
    0,
    0,
    0,
    0,
    0,
    0,
    0,
    0,
    1552,
    1552,
    0,
    0,
    1552,
    1552,
    0,
    0,
    0,
    0,
    0,
    0,
    0,
    0,
    1552,
    0,
    0,
    0,
    0,
    0,
    1552,
    1552,
    0,
    0,
    0,
    0,
    0,
    0,
    0,
    0,
    0,
    0,
    0,
    0,
    0,
    0,
    0,
    0,
    0,
    0,
    0,
    0,
    0,
    0,
    0,
    0,
    0,
    0,
    0,
    0,
    0,
    0,
    0,
    0,
    0,
    0,
    0,
    0,
    0,
    0,
    0,
    0,
    0,
    0,
    0,
    0,
    0,
    0,
    0,
    0,
    0,
    0,
    0,
    1552,
    1552,
    1552,
    1552,
    1552,
    1552,
    1552,
    1552,
    1552,
    1552,
    0,
    0,
    0,
    0,
    0,
    0,
    0,
    0,
    0,
    0,
    0,
    1552,
    1552,
    0,
    0,
    0,
    0,
    0,
    0,
    0,
    0,
    0,
    0,
    0,
    0,
    0,
    0,
    0,
    0,
    0,
    0,
    0,
    0,
    0,
    0,
    0,
    0,
    0,
    0,
    0,
    0,
    1552,
    0,
    0,
    0,
    0,
    1552,
    0,
    0,
    1552,
    1552,
    1552,
    1552,
    0,
    0,
    0,
    0,
    0,
    0,
    0,
    0,
    0,
    0,
    0,
    0,
    1552,
    1552,
    0,
    0,
    0,
    0,
    0,
    0,
    0,
    0,
    0,
    0,
    0,
    0,
    0,
    0,
    0,
    0,
    0,
    0,
    0,
    0,
    0,
    0,
    0,
    0,
    0,
    0,
    0,
    0,
    0,
    0,
    0,
    0,
    0,
    0,
    0,
    0,
    0,
    0,
    0,
    0,
    0,
    0,
    0,
    0,
    0,
    0,
    0,
    0,
    0,
    0,
    1552,
    1552,
    1552,
    1552,
    1552,
    1552,
    1552,
    1552,
    1552,
    1552,
    0,
    0,
    0,
    0,
    0,
    0,
    0,
    0,
    0,
    0,
    0,
    1552,
    1552,
    0,
    1552,
    0,
    0,
    0,
    0,
    0,
    0,
    0,
    0,
    0,
    0,
    0,
    0,
    0,
    0,
    0,
    0,
    0,
    0,
    0,
    0,
    0,
    0,
    0,
    0,
    0,
    0,
    0,
    0,
    0,
    1552,
    0,
    0,
    0,
    1552,
    1552,
    0,
    1552,
    1552,
    1552,
    0,
    0,
    0,
    0,
    0,
    0,
    0,
    0,
    0,
    0,
    0,
    0,
    0,
    0,
    0,
    0,
    0,
    0,
    0,
    0,
    0,
    0,
    0,
    0,
    0,
    0,
    0,
    0,
    0,
    0,
    0,
    0,
    0,
    0,
    0,
    0,
    0,
    0,
    0,
    0,
    0,
    0,
    0,
    0,
    0,
    0,
    0,
    0,
    0,
    0,
    0,
    0,
    0,
    0,
    0,
    0,
    0,
    0,
    0,
    0,
    0,
    1552,
    1552,
    1552,
    1552,
    1552,
    1552,
    1552,
    1552,
    1552,
    1552,
    1552,
    1552,
    1552,
    0,
    0,
    0,
    0,
    0,
    0,
    0,
    0,
    0,
    0,
    0,
    0,
    0,
    0,
    0,
    0,
    0,
    0,
    0,
    0,
    0,
    0,
    0,
    0,
    0,
    0,
    0,
    0,
    0,
    0,
    0,
    0,
    0,
    0,
    0,
    0,
    0,
    0,
    0,
    0,
    0,
    0,
    0,
    0,
    0,
    1552,
    1552,
    0,
    1552,
    1552,
    1552,
    0,
    1552,
    1552,
    0,
    0,
    0,
    0,
    0,
    0,
    0,
    0,
    0,
    0,
    0,
    0,
    0,
    0,
    0,
    0,
    0,
    0,
    0,
    0,
    0,
    0,
    0,
    0,
    0,
    0,
    0,
    0,
    0,
    0,
    0,
    0,
    0,
    0,
    0,
    0,
    0,
    0,
    0,
    0,
    0,
    0,
    0,
    0,
    0,
    0,
    0,
    0,
    0,
    0,
    0,
    0,
    0,
    0,
    0,
    0,
    0,
    0,
    0,
    0,
    0,
    1552,
    1552,
    1552,
    1552,
    1552,
    1552,
    1552,
    1552,
    1552,
    1552,
    1552,
    1552,
    1552,
    1552,
    0,
    0,
    0,
    1552,
    1552,
    1552,
    1552,
    0,
    0,
    0,
    0,
    0,
    0,
    0,
    0,
    0,
    0,
    0,
    0,
    0,
    0,
    0,
    0,
    0,
    0,
    0,
    0,
    0,
    0,
    0,
    0,
    0,
    0,
    0,
    0,
    0,
    0,
    0,
    0,
    0,
    0,
    1552,
    1552,
    0,
    1552,
    1552,
    0,
    0,
    1552,
    1552,
    0,
    0,
    1552,
    1552,
    0,
    0,
    0,
    0,
    0,
    0,
    0,
    0,
    0,
    0,
    0,
    0,
    0,
    0,
    0,
    0,
    0,
    0,
    0,
    0,
    0,
    0,
    0,
    0,
    0,
    0,
    0,
    0,
    0,
    0,
    0,
    0,
    0,
    0,
    0,
    0,
    0,
    0,
    0,
    0,
    0,
    0,
    0,
    0,
    0,
    0,
    0,
    0,
    0,
    0,
    0,
    0,
    0,
    0,
    0,
    0,
    0,
    0,
    0,
    0,
    1552,
    1552,
    1552,
    1552,
    1552,
    1552,
    0,
    1552,
    1552,
    1552,
    1552,
    1552,
    1552,
    1552,
    1552,
    1552,
    1552,
    1552,
    1552,
    1552,
    1552,
    1552,
    0,
    0,
    0,
    0,
    0,
    0,
    0,
    0,
    0,
    0,
    0,
    0,
    0,
    0,
    0,
    0,
    0,
    0,
    0,
    0,
    0,
    0,
    0,
    0,
    0,
    0,
    0,
    0,
    0,
    0,
    0,
    0,
    0,
    0,
    0,
    0,
    1552,
    1552,
    0,
    0,
    1552,
    1552,
    0,
    0,
    1552,
    1552,
    0,
    0,
    0,
    0,
    0,
    0,
    0,
    0,
    0,
    1552,
    0,
    0,
    0,
    0,
    0,
    0,
    0,
    0,
    0,
    0,
    0,
    0,
    0,
    0,
    0,
    0,
    0,
    0,
    0,
    0,
    0,
    0,
    0,
    0,
    0,
    0,
    0,
    0,
    0,
    0,
    0,
    0,
    0,
    0,
    0,
    0,
    0,
    0,
    0,
    0,
    0,
    0,
    0,
    0,
    0,
    0,
    0,
    0,
    0,
    0,
    0,
    1552,
    1552,
    1552,
    1552,
    0,
    0,
    0,
    0,
    1552,
    1552,
    1552,
    1552,
    1552,
    1552,
    1552,
    1552,
    1552,
    1552,
    1552,
    1552,
    1552,
    0,
    0,
    0,
    0,
    0,
    0,
    0,
    0,
    0,
    0,
    0,
    0,
    0,
    0,
    0,
    0,
    0,
    0,
    0,
    0,
    0,
    0,
    0,
    0,
    0,
    0,
    0,
    0,
    0,
    0,
    0,
    0,
    0,
    0,
    0,
    1552,
    1552,
    0,
    0,
    0,
    1552,
    1552,
    0,
    0,
    1552,
    1552,
    0,
    0,
    0,
    0,
    0,
    0,
    0,
    0,
    1552,
    1552,
    0,
    0,
    0,
    0,
    0,
    0,
    0,
    0,
    0,
    0,
    0,
    0,
    0,
    0,
    0,
    0,
    0,
    0,
    0,
    0,
    0,
    0,
    0,
    0,
    0,
    0,
    0,
    0,
    0,
    0,
    0,
    0,
    0,
    0,
    0,
    0,
    0,
    0,
    0,
    0,
    0,
    0,
    0,
    0,
    0,
    0,
    0,
    0,
    0,
    0,
    0,
    0,
    1552,
    0,
    0,
    0,
    0,
    1552,
    0,
    1552,
    1552,
    1552,
    1552,
    1552,
    1552,
    1552,
    1552,
    1552,
    1552,
    1552,
    1552,
    1552,
    0,
    0,
    0,
    0,
    0,
    0,
    0,
    0,
    0,
    0,
    0,
    0,
    0,
    0,
    0,
    0,
    0,
    0,
    0,
    0,
    0,
    0,
    0,
    0,
    0,
    0,
    0,
    0,
    0,
    0,
    0,
    0,
    0,
    0,
    0,
    0,
    0,
    0,
    0,
    0,
    1552,
    1552,
    0,
    0,
    0,
    1552,
    1552,
    0,
    0,
    0,
    0,
    0,
    0,
    1552,
    1552,
    0,
    0,
    0,
    0,
    0,
    0,
    0,
    0,
    0,
    0,
    0,
    0,
    0,
    0,
    0,
    0,
    0,
    0,
    0,
    0,
    0,
    0,
    0,
    0,
    0,
    0,
    0,
    0,
    0,
    0,
    0,
    0,
    0,
    0,
    0,
    0,
    0,
    0,
    0,
    0,
    0,
    0,
    0,
    0,
    0,
    0,
    0,
    0,
    0,
    0,
    0,
    1552,
    0,
    0,
    0,
    0,
    0,
    0,
    0,
    0,
    0,
    0,
    1552,
    1552,
    1552,
    1552,
    1552,
    1552,
    1552,
    1552,
    1552,
    1552,
    1552,
    0,
    0,
    0,
    0,
    0,
    0,
    0,
    0,
    0,
    0,
    0,
    0,
    0,
    0,
    0,
    0,
    0,
    0,
    0,
    0,
    0,
    0,
    0,
    0,
    0,
    0,
    0,
    0,
    0,
    0,
    0,
    0,
    0,
    0,
    0,
    0,
    0,
    0,
    0,
    0,
    1552,
    1552,
    0,
    0,
    0,
    1552,
    1552,
    1552,
    0,
    0,
    0,
    0,
    0,
    0,
    1552,
    0,
    0,
    0,
    0,
    0,
    0,
    0,
    0,
    0,
    0,
    0,
    0,
    0,
    0,
    0,
    0,
    0,
    0,
    0,
    0,
    0,
    0,
    0,
    0,
    0,
    0,
    0,
    0,
    0,
    0,
    0,
    0,
    0,
    0,
    0,
    0,
    0,
    0,
    0,
    0,
    0,
    0,
    0,
    0,
    0,
    0,
    0,
    0,
    0,
    0,
    1552,
    1552,
    0,
    0,
    1552,
    0,
    1552,
    0,
    1552,
    0,
    0,
    0,
    0,
    1552,
    1552,
    1552,
    1552,
    1552,
    1552,
    1552,
    1552,
    0,
    0,
    0,
    0,
    0,
    0,
    0,
    0,
    0,
    0,
    0,
    0,
    0,
    0,
    0,
    0,
    0,
    0,
    0,
    0,
    0,
    0,
    0,
    0,
    0,
    0,
    0,
    0,
    0,
    0,
    0,
    0,
    0,
    0,
    0,
    0,
    0,
    0,
    0,
    0,
    0,
    0,
    1552,
    1552,
    0,
    0,
    1552,
    1552,
    1552,
    1552,
    0,
    0,
    0,
    0,
    0,
    0,
    0,
    1552,
    1552,
    0,
    0,
    0,
    0,
    0,
    0,
    0,
    0,
    0,
    0,
    0,
    0,
    0,
    0,
    0,
    0,
    0,
    0,
    0,
    0,
    0,
    0,
    0,
    0,
    0,
    0,
    0,
    0,
    0,
    0,
    0,
    0,
    0,
    0,
    0,
    0,
    0,
    0,
    0,
    0,
    0,
    0,
    0,
    0,
    0,
    0,
    0,
    1552,
    1552,
    1552,
    0,
    1552,
    1552,
    1552,
    0,
    1552,
    1552,
    1552,
    1552,
    1552,
    0,
    0,
    1552,
    1552,
    1552,
    1552,
    1552,
    1552,
    0,
    0,
    0,
    0,
    0,
    0,
    0,
    0,
    0,
    0,
    0,
    0,
    0,
    0,
    0,
    0,
    0,
    1552,
    0,
    0,
    1552,
    0,
    0,
    0,
    0,
    0,
    0,
    0,
    0,
    0,
    0,
    0,
    0,
    0,
    0,
    0,
    0,
    0,
    0,
    0,
    0,
    0,
    0,
    0,
    1552,
    0,
    0,
    1552,
    1552,
    1552,
    1552,
    0,
    0,
    0,
    0,
    0,
    0,
    0,
    0,
    1552,
    1552,
    0,
    0,
    0,
    0,
    0,
    0,
    0,
    0,
    0,
    0,
    0,
    0,
    0,
    0,
    0,
    0,
    0,
    0,
    0,
    0,
    0,
    0,
    0,
    0,
    0,
    0,
    0,
    0,
    0,
    0,
    0,
    0,
    0,
    0,
    0,
    0,
    0,
    0,
    0,
    0,
    0,
    0,
    0,
    0,
    0,
    0,
    0,
    0,
    0,
    1552,
    1552,
    1552,
    1552,
    1552,
    1552,
    1552,
    1552,
    1552,
    0,
    0,
    1552,
    1552,
    1552,
    1552,
    1552,
    1552,
    1552,
    0,
    0,
    0,
    0,
    0,
    0,
    0,
    0,
    0,
    0,
    0,
    0,
    0,
    0,
    0,
    1552,
    1552,
    1552,
    1552,
    0,
    0,
    1552,
    1552,
    0,
    0,
    0,
    0,
    0,
    0,
    0,
    0,
    0,
    0,
    0,
    0,
    0,
    0,
    0,
    0,
    0,
    0,
    0,
    0,
    0,
    0,
    1552,
    1552,
    0,
    0,
    1552,
    1552,
    1552,
    0,
    0,
    0,
    0,
    0,
    0,
    0,
    1552,
    1552,
    0,
    0,
    0,
    0,
    0,
    0,
    0,
    0,
    0,
    0,
    0,
    0,
    0,
    0,
    0,
    0,
    0,
    0,
    0,
    0,
    0,
    0,
    0,
    0,
    0,
    0,
    0,
    0,
    0,
    0,
    0,
    0,
    0,
    0,
    0,
    0,
    0,
    0,
    0,
    0,
    0,
    0,
    0,
    0,
    0,
    0,
    0,
    0,
    0,
    1552,
    1552,
    0,
    1552,
    1552,
    1552,
    1552,
    1552,
    1552,
    0,
    0,
    0,
    1552,
    1552,
    1552,
    1552,
    1552,
    0,
    0,
    1552,
    0,
    0,
    0,
    0,
    0,
    1552,
    1552,
    1552,
    1552,
    1552,
    1552,
    1552,
    0,
    0,
    0,
    1552,
    1552,
    0,
    1552,
    1552,
    1552,
    0,
    1552,
    1552,
    0,
    0,
    0,
    0,
    0,
    0,
    0,
    0,
    0,
    0,
    0,
    0,
    0,
    0,
    0,
    0,
    0,
    0,
    0,
    0,
    1552,
    1552,
    0,
    1552,
    0,
    0,
    0,
    0,
    0,
    0,
    0,
    0,
    0,
    1552,
    1552,
    0,
    0,
    0,
    0,
    0,
    0,
    0,
    0,
    0,
    0,
    0,
    0,
    0,
    0,
    0,
    0,
    0,
    0,
    0,
    0,
    0,
    0,
    0,
    0,
    0,
    0,
    0,
    0,
    0,
    0,
    0,
    0,
    0,
    0,
    0,
    0,
    0,
    0,
    0,
    0,
    0,
    0,
    0,
    0,
    0,
    0,
    0,
    0,
    0,
    0,
    1552,
    1552,
    1552,
    1552,
    0,
    0,
    1552,
    1552,
    1552,
    0,
    1552,
    1552,
    1552,
    1552,
    1552,
    1552,
    0,
    0,
    0,
    0,
    0,
    0,
    0,
    1552,
    1552,
    0,
    0,
    0,
    0,
    0,
    1552,
    1552,
    0,
    0,
    0,
    1552,
    0,
    1552,
    1552,
    0,
    1552,
    1552,
    1552,
    1552,
    0,
    0,
    0,
    0,
    0,
    0,
    0,
    0,
    0,
    0,
    0,
    0,
    0,
    0,
    0,
    0,
    0,
    0,
    0,
    0,
    1552,
    0,
    0,
    0,
    1552,
    0,
    0,
    0,
    0,
    0,
    0,
    0,
    1552,
    1552,
    0,
    0,
    0,
    0,
    0,
    0,
    0,
    0,
    0,
    0,
    0,
    0,
    0,
    0,
    0,
    0,
    0,
    0,
    0,
    0,
    0,
    0,
    0,
    0,
    0,
    0,
    0,
    0,
    0,
    0,
    0,
    0,
    0,
    0,
    0,
    0,
    0,
    0,
    0,
    0,
    0,
    0,
    0,
    0,
    0,
    0,
    0,
    0,
    0,
    0,
    1552,
    1552,
    1552,
    1552,
    1552,
    1552,
    1552,
    1552,
    0,
    0,
    0,
    1552,
    1552,
    1552,
    1552,
    1552,
    0,
    0,
    0,
    0,
    0,
    0,
    0,
    1552,
    0,
    0,
    0,
    0,
    0,
    0,
    0,
    1552,
    0,
    0,
    0,
    0,
    1552,
    0,
    0,
    0,
    0,
    0,
    1552,
    1552,
    0,
    0,
    0,
    0,
    0,
    1552,
    0,
    1552,
    0,
    0,
    0,
    0,
    0,
    0,
    0,
    0,
    0,
    0,
    0,
    0,
    0,
    1552,
    0,
    0,
    0,
    0,
    0,
    0,
    0,
    0,
    0,
    0,
    1552,
    1552,
    0,
    0,
    0,
    0,
    0,
    0,
    0,
    0,
    0,
    0,
    0,
    0,
    0,
    0,
    0,
    0,
    0,
    0,
    0,
    0,
    0,
    0,
    0,
    0,
    0,
    0,
    0,
    0,
    0,
    0,
    0,
    0,
    0,
    0,
    0,
    0,
    0,
    0,
    0,
    0,
    0,
    0,
    0,
    0,
    0,
    0,
    0,
    0,
    0,
    0,
    0,
    1552,
    1552,
    1552,
    1552,
    1552,
    1552,
    0,
    1552,
    0,
    1552,
    1552,
    1552,
    1552,
    1552,
    1552,
    1552,
    0,
    0,
    0,
    0,
    0,
    0,
    0,
    0,
    0,
    0,
    0,
    0,
    0,
    0,
    1552,
    1552,
    0,
    0,
    0,
    0,
    0,
    1552,
    0,
    0,
    0,
    1552,
    1552,
    0,
    0,
    0,
    0,
    1552,
    1552,
    1552,
    1552,
    0,
    0,
    1552,
    0,
    1552,
    0,
    0,
    0,
    0,
    0,
    0,
    0,
    0,
    0,
    0,
    0,
    0,
    0,
    0,
    0,
    0,
    0,
    0,
    0,
    1552,
    1552,
    0,
    0,
    0,
    0,
    0,
    0,
    0,
    0,
    0,
    0,
    0,
    0,
    0,
    0,
    0,
    0,
    0,
    0,
    0,
    0,
    0,
    0,
    0,
    0,
    0,
    0,
    0,
    0,
    0,
    0,
    0,
    0,
    0,
    0,
    0,
    0,
    0,
    0,
    0,
    0,
    0,
    0,
    0,
    0,
    0,
    0,
    0,
    0,
    0,
    0,
    0,
    1552,
    1552,
    1552,
    1552,
    0,
    0,
    0,
    0,
    0,
    0,
    0,
    1552,
    1552,
    1552,
    1552,
    1552,
    1552,
    0,
    0,
    0,
    0,
    0,
    0,
    0,
    0,
    0,
    0,
    0,
    0,
    0,
    0,
    1552,
    0,
    0,
    0,
    0,
    0,
    0,
    0,
    0,
    0,
    0,
    0,
    0,
    0,
    0,
    0,
    1552,
    1552,
    1552,
    1552,
    1552,
    1552,
    0,
    0,
    0,
    0,
    1552,
    0,
    0,
    0,
    0,
    0,
    0,
    0,
    0,
    0,
    0,
    0,
    0,
    0,
    0,
    0,
    0,
    0,
    1552,
    1552,
    0,
    0,
    0,
    0,
    0,
    0,
    0,
    0,
    0,
    0,
    0,
    0,
    0,
    0,
    0,
    0,
    0,
    0,
    0,
    0,
    0,
    0,
    0,
    0,
    0,
    0,
    0,
    0,
    0,
    0,
    0,
    0,
    0,
    0,
    0,
    0,
    0,
    0,
    0,
    0,
    0,
    0,
    0,
    0,
    0,
    0,
    0,
    0,
    0,
    0,
    0,
    0,
    0,
    0,
    0,
    0,
    0,
    0,
    0,
    0,
    1552,
    0,
    0,
    1552,
    1552,
    1552,
    1552,
    1552,
    0,
    0,
    0,
    0,
    0,
    0,
    0,
    0,
    0,
    1552,
    1552,
    1552,
    0,
    0,
    0,
    1552,
    0,
    0,
    0,
    0,
    0,
    0,
    0,
    0,
    0,
    0,
    0,
    0,
    1552,
    1552,
    1552,
    1552,
    0,
    1552,
    1552,
    1552,
    1552,
    0,
    0,
    1552,
    0,
    0,
    0,
    0,
    0,
    0,
    0,
    0,
    0,
    0,
    0,
    0,
    0,
    0,
    0,
    0,
    0,
    0,
    0,
    1552,
    0,
    0,
    0,
    0,
    0,
    0,
    0,
    0,
    0,
    0,
    0,
    0,
    0,
    0,
    0,
    0,
    0,
    0,
    0,
    0,
    0,
    0,
    0,
    0,
    0,
    0,
    0,
    0,
    0,
    0,
    0,
    0,
    0,
    0,
    0,
    0,
    0,
    0,
    0,
    0,
    0,
    0,
    0,
    0,
    0,
    0,
    0,
    0,
    0,
    0,
    0,
    0,
    0,
    0,
    0,
    1552,
    1552,
    1552,
    1552,
    1552,
    0,
    0,
    0,
    0,
    1552,
    1552,
    1552,
    0,
    0,
    0,
    0,
    0,
    0,
    0,
    0,
    0,
    1552,
    1552,
    0,
    0,
    1552,
    0,
    0,
    0,
    0,
    0,
    0,
    0,
    0,
    0,
    0,
    0,
    0,
    0,
    0,
    1552,
    1552,
    1552,
    1552,
    1552,
    1552,
    1552,
    1552,
    1552,
    1552,
    0,
    1552,
    0,
    0,
    0,
    0,
    0,
    0,
    0,
    0,
    0,
    0,
    0,
    0,
    0,
    0,
    0,
    0,
    0,
    0,
    0,
    0,
    0,
    1552,
    1552,
    0,
    0,
    0,
    0,
    0,
    0,
    0,
    0,
    0,
    0,
    0,
    0,
    0,
    0,
    0,
    0,
    0,
    0,
    0,
    0,
    0,
    0,
    0,
    0,
    0,
    0,
    0,
    0,
    0,
    0,
    0,
    0,
    0,
    0,
    0,
    0,
    0,
    0,
    0,
    0,
    0,
    0,
    0,
    0,
    0,
    0,
    0,
    0,
    0,
    0,
    0,
    0,
    1552,
    1552,
    1552,
    1552,
    1552,
    1552,
    1552,
    1552,
    0,
    0,
    0,
    0,
    0,
    0,
    0,
    0,
    0,
    0,
    0,
    0,
    0,
    0,
    1552,
    0,
    0,
    1552,
    1552,
    0,
    0,
    0,
    0,
    0,
    0,
    0,
    0,
    0,
    0,
    0,
    0,
    0,
    0,
    1552,
    1552,
    1552,
    1552,
    1552,
    1552,
    1552,
    1552,
    1552,
    1552,
    0,
    0,
    0,
    0,
    0,
    0,
    0,
    0,
    0,
    0,
    0,
    0,
    0,
    0,
    1552,
    1552,
    0,
    0,
    0,
    0,
    0,
    0,
    0,
    0,
    1552,
    1552,
    0,
    0,
    0,
    0,
    0,
    0,
    0,
    0,
    0,
    0,
    0,
    0,
    0,
    0,
    0,
    0,
    0,
    0,
    0,
    0,
    0,
    0,
    0,
    0,
    0,
    0,
    0,
    0,
    0,
    0,
    0,
    0,
    0,
    0,
    0,
    0,
    0,
    0,
    0,
    0,
    0,
    0,
    0,
    0,
    0,
    0,
    0,
    0,
    0,
    0,
    0,
    0,
    1552,
    1552,
    1552,
    1552,
    1552,
    1552,
    1552,
    1552,
    1552,
    0,
    0,
    0,
    0,
    0,
    0,
    0,
    0,
    0,
    0,
    1552,
    1552,
    0,
    0,
    0,
    1552,
    1552,
    0,
    0,
    0,
    0,
    0,
    0,
    0,
    1552,
    0,
    0,
    0,
    0,
    0,
    0,
    1552,
    1552,
    1552,
    1552,
    1552,
    1552,
    1552,
    1552,
    1552,
    1552,
    1552,
    0,
    0,
    0,
    0,
    0,
    0,
    0,
    0,
    0,
    0,
    0,
    0,
    1552,
    1552,
    0,
    0,
    0,
    0,
    0,
    0,
    0,
    0,
    0,
    1552,
    1552,
    0,
    0,
    0,
    0,
    0,
    0,
    0,
    0,
    0,
    0,
    0,
    0,
    0,
    0,
    0,
    0,
    0,
    0,
    0,
    0,
    0,
    0,
    0,
    0,
    0,
    0,
    0,
    0,
    0,
    0,
    0,
    0,
    0,
    0,
    0,
    0,
    0,
    0,
    0,
    0,
    0,
    0,
    0,
    0,
    0,
    0,
    0,
    0,
    0,
    0,
    0,
    0,
    1552,
    1552,
    1552,
    1552,
    1552,
    1552,
    1552,
    1552,
    1552,
    0,
    0,
    0,
    0,
    0,
    0,
    0,
    0,
    0,
    1552,
    1552,
    0,
    0,
    0,
    0,
    1552,
    1552,
    0,
    0,
    0,
    0,
    0,
    0,
    0,
    1552,
    1552,
    0,
    0,
    0,
    0,
    0,
    0,
    1552,
    1552,
    1552,
    0,
    1552,
    1552,
    1552,
    1552,
    1552,
    0,
    0,
    0,
    0,
    0,
    0,
    0,
    0,
    0,
    0,
    0,
    0,
    1552,
    1552,
    1552,
    0,
    1552,
    1552,
    0,
    0,
    0,
    0,
    0,
    0,
    1552,
    1552,
    0,
    0,
    0,
    0,
    0,
    0,
    0,
    0,
    0,
    0,
    0,
    0,
    0,
    0,
    0,
    0,
    0,
    0,
    0,
    0,
    0,
    0,
    0,
    0,
    0,
    0,
    0,
    0,
    0,
    0,
    0,
    0,
    0,
    0,
    0,
    0,
    0,
    0,
    0,
    0,
    0,
    0,
    0,
    0,
    0,
    0,
    0,
    0,
    0,
    0,
    0,
    1552,
    1552,
    1552,
    1552,
    1552,
    1552,
    1552,
    1552,
    1552,
    0,
    0,
    0,
    0,
    0,
    0,
    0,
    0,
    0,
    0,
    1552,
    0,
    0,
    0,
    0,
    0,
    0,
    1552,
    0,
    0,
    0,
    0,
    0,
    0,
    0,
    1552,
    1552,
    0,
    0,
    0,
    0,
    0,
    0,
    0,
    0,
    0,
    1552,
    1552,
    1552,
    1552,
    0,
    1552,
    0,
    0,
    0,
    0,
    0,
    0,
    0,
    0,
    0,
    0,
    0,
    1552,
    1552,
    0,
    0,
    0,
    1552,
    1552,
    0,
    0,
    0,
    0,
    0,
    0,
    1552,
    1552,
    0,
    0,
    0,
    0,
    0,
    0,
    0,
    0,
    0,
    0,
    0,
    0,
    0,
    0,
    0,
    0,
    0,
    0,
    0,
    0,
    0,
    0,
    0,
    0,
    0,
    0,
    0,
    0,
    0,
    0,
    0,
    0,
    0,
    0,
    0,
    0,
    0,
    0,
    0,
    0,
    0,
    0,
    0,
    0,
    0,
    0,
    0,
    0,
    0,
    0,
    0,
    1552,
    1552,
    1552,
    1552,
    1552,
    1552,
    1552,
    0,
    0,
    0,
    0,
    0,
    0,
    0,
    0,
    0,
    0,
    0,
    1552,
    1552,
    0,
    1552,
    0,
    1552,
    0,
    0,
    1552,
    1552,
    0,
    0,
    0,
    0,
    0,
    0,
    1552,
    1552,
    0,
    0,
    0,
    0,
    0,
    0,
    0,
    0,
    0,
    0,
    0,
    0,
    0,
    0,
    0,
    0,
    0,
    0,
    0,
    0,
    0,
    0,
    0,
    0,
    0,
    0,
    0,
    1552,
    0,
    0,
    0,
    1552,
    1552,
    1552,
    0,
    0,
    0,
    0,
    0,
    1552,
    1552,
    0,
    0,
    0,
    0,
    0,
    0,
    0,
    0,
    0,
    0,
    0,
    0,
    0,
    0,
    0,
    0,
    0,
    0,
    0,
    0,
    0,
    0,
    0,
    0,
    0,
    0,
    0,
    0,
    0,
    0,
    0,
    0,
    0,
    0,
    0,
    0,
    0,
    0,
    0,
    0,
    0,
    0,
    0,
    0,
    0,
    0,
    0,
    0,
    0,
    0,
    0,
    0,
    0,
    0,
    0,
    1552,
    1552,
    1552,
    0,
    0,
    0,
    0,
    0,
    0,
    0,
    0,
    1552,
    0,
    0,
    1552,
    1552,
    0,
    0,
    0,
    0,
    0,
    0,
    0,
    1552,
    0,
    0,
    0,
    0,
    0,
    0,
    1552,
    1552,
    0,
    0,
    0,
    0,
    0,
    0,
    0,
    0,
    0,
    0,
    1552,
    0,
    0,
    0,
    0,
    0,
    0,
    0,
    0,
    0,
    0,
    0,
    0,
    0,
    0,
    0,
    0,
    0,
    1552,
    1552,
    0,
    0,
    1552,
    1552,
    0,
    0,
    0,
    0,
    0,
    1552,
    1552,
    0,
    0,
    0,
    0,
    0,
    0,
    0,
    0,
    0,
    0,
    0,
    0,
    0,
    0,
    0,
    0,
    0,
    0,
    0,
    0,
    0,
    0,
    0,
    0,
    0,
    0,
    0,
    0,
    0,
    0,
    0,
    0,
    0,
    0,
    0,
    0,
    0,
    0,
    0,
    0,
    0,
    0,
    0,
    0,
    0,
    0,
    0,
    0,
    0,
    0,
    0,
    0,
    0,
    0,
    0,
    0,
    0,
    0,
    0,
    0,
    0,
    0,
    0,
    0,
    0,
    0,
    0,
    0,
    0,
    1552,
    1552,
    0,
    0,
    0,
    0,
    0,
    0,
    0,
    0,
    1552,
    1552,
    0,
    0,
    0,
    0,
    0,
    1552,
    0,
    0,
    0,
    0,
    0,
    0,
    0,
    0,
    0,
    0,
    0,
    0,
    0,
    0,
    0,
    0,
    0,
    0,
    0,
    0,
    0,
    0,
    0,
    0,
    0,
    0,
    0,
    0,
    0,
    1552,
    1552,
    0,
    0,
    1552,
    0,
    0,
    0,
    0,
    0,
    1552,
    1552,
    0,
    0,
    0,
    0,
    0,
    0,
    0,
    0,
    0,
    0,
    0,
    0,
    0,
    0,
    0,
    0,
    0,
    0,
    0,
    0,
    0,
    0,
    0,
    0,
    0,
    0,
    0,
    0,
    0,
    0,
    0,
    0,
    0,
    0,
    0,
    0,
    0,
    0,
    0,
    0,
    0,
    0,
    0,
    0,
    0,
    0,
    0,
    0,
    0,
    1552,
    1552,
    0,
    0,
    0,
    0,
    0,
    0,
    0,
    0,
    0,
    0,
    0,
    0,
    0,
    0,
    0,
    0,
    0,
    0,
    0,
    1552,
    1552,
    0,
    0,
    0,
    0,
    0,
    0,
    0,
    0,
    1552,
    1552,
    0,
    0,
    0,
    0,
    0,
    1552,
    1552,
    0,
    0,
    0,
    0,
    0,
    0,
    0,
    0,
    0,
    0,
    0,
    0,
    0,
    0,
    0,
    0,
    0,
    0,
    0,
    0,
    0,
    0,
    0,
    0,
    0,
    0,
    0,
    1552,
    1552,
    0,
    0,
    0,
    0,
    0,
    0,
    0,
    0,
    0,
    1552,
    0,
    0,
    0,
    0,
    0,
    0,
    1552,
    0,
    0,
    0,
    0,
    0,
    0,
    0,
    0,
    0,
    0,
    0,
    0,
    0,
    0,
    0,
    0,
    0,
    0,
    0,
    0,
    0,
    0,
    0,
    0,
    0,
    0,
    0,
    0,
    0,
    0,
    0,
    0,
    0,
    0,
    0,
    0,
    0,
    0,
    0,
    0,
    0,
    1552,
    1552,
    1552,
    1552,
    1552,
    0,
    0,
    0,
    0,
    0,
    0,
    0,
    0,
    0,
    0,
    0,
    0,
    0,
    0,
    0,
    0,
    0,
    1552,
    1552,
    0,
    0,
    0,
    0,
    0,
    0,
    0,
    0,
    0,
    1552,
    0,
    0,
    0,
    0,
    0,
    0,
    1552,
    1552,
    0,
    0,
    0,
    0,
    0,
    0,
    0,
    0,
    0,
    0,
    0,
    0,
    0,
    0,
    0,
    0,
    0,
    0,
    0,
    0,
    0,
    0,
    0,
    0,
    0,
    0,
    1552,
    1552,
    0,
    0,
    0,
    0,
    0,
    0,
    0,
    0,
    0,
    0,
    1552,
    1552,
    0,
    0,
    0,
    0,
    0,
    0,
    0,
    0,
    0,
    0,
    1552,
    0,
    0,
    1552,
    0,
    0,
    0,
    0,
    0,
    0,
    0,
    0,
    0,
    0,
    0,
    0,
    0,
    0,
    0,
    0,
    0,
    0,
    0,
    0,
    0,
    0,
    0,
    0,
    0,
    0,
    0,
    0,
    0,
    0,
    0,
    1552,
    1552,
    1552,
    1552,
    1552,
    1552,
    0,
    1552,
    0,
    0,
    0,
    0,
    0,
    0,
    0,
    0,
    0,
    0,
    0,
    0,
    0,
    0,
    0,
    0,
    1552,
    1552,
    0,
    0,
    0,
    0,
    0,
    0,
    0,
    0,
    1552,
    1552,
    0,
    0,
    0,
    0,
    0,
    1552,
    1552,
    0,
    0,
    0,
    0,
    0,
    0,
    0,
    0,
    0,
    0,
    0,
    0,
    1552,
    1552,
    0,
    0,
    0,
    0,
    0,
    0,
    0,
    0,
    0,
    0,
    0,
    0,
    1552,
    1552,
    0,
    0,
    1552,
    0,
    0,
    0,
    0,
    0,
    0,
    0,
    0,
    1552,
    1552,
    0,
    0,
    0,
    0,
    0,
    0,
    0,
    0,
    0,
    0,
    0,
    0,
    0,
    0,
    0,
    0,
    0,
    0,
    0,
    0,
    0,
    0,
    0,
    0,
    0,
    0,
    0,
    0,
    0,
    0,
    0,
    0,
    0,
    0,
    0,
    0,
    0,
    0,
    0,
    0,
    0,
    0,
    0,
    0,
    1552,
    1552,
    1552,
    1552,
    1552,
    1552,
    1552,
    1552,
    0,
    0,
    0,
    0,
    0,
    0,
    0,
    0,
    0,
    0,
    0,
    0,
    0,
    0,
    0,
    0,
    0,
    0,
    0,
    0,
    0,
    0,
    0,
    0,
    0,
    0,
    1552,
    1552,
    0,
    0,
    0,
    0,
    0,
    1552,
    1552,
    0,
    0,
    0,
    0,
    0,
    0,
    0,
    0,
    1552,
    1552,
    1552,
    0,
    1552,
    1552,
    0,
    0,
    0,
    0,
    0,
    1552,
    1552,
    0,
    0,
    0,
    0,
    0,
    1552,
    1552,
    0,
    0,
    0,
    0,
    0,
    0,
    0,
    0,
    0,
    0,
    0,
    0,
    1552,
    0,
    0,
    0,
    0,
    0,
    1552,
    0,
    0,
    0,
    0,
    0,
    0,
    0,
    1552,
    0,
    0,
    0,
    0,
    0,
    0,
    0,
    0,
    0,
    0,
    0,
    0,
    0,
    0,
    0,
    0,
    0,
    0,
    0,
    0,
    0,
    0,
    0,
    0,
    0,
    0,
    0,
    0,
    0,
    0,
    1552,
    1552,
    1552,
    0,
    1552,
    1552,
    1552,
    1552,
    0,
    0,
    0,
    0,
    0,
    0,
    0,
    0,
    0,
    0,
    0,
    0,
    0,
    0,
    0,
    0,
    0,
    0,
    0,
    0,
    0,
    0,
    0,
    0,
    0,
    0,
    1552,
    1552,
    0,
    0,
    0,
    0,
    0,
    1552,
    1552,
    0,
    0,
    0,
    0,
    0,
    0,
    0,
    0,
    1552,
    1552,
    0,
    0,
    0,
    0,
    1552,
    1552,
    0,
    1552,
    1552,
    1552,
    1552,
    0,
    0,
    0,
    0,
    0,
    1552,
    1552,
    0,
    0,
    0,
    1552,
    0,
    0,
    0,
    0,
    0,
    0,
    0,
    0,
    0,
    1552,
    1552,
    0,
    0,
    0,
    1552,
    1552,
    0,
    0,
    0,
    1552,
    1552,
    1552,
    0,
    1552,
    1552,
    0,
    0,
    0,
    0,
    0,
    0,
    0,
    0,
    0,
    0,
    0,
    0,
    0,
    0,
    0,
    0,
    0,
    0,
    0,
    0,
    0,
    0,
    0,
    0,
    0,
    0,
    0,
    1552,
    1552,
    1552,
    1552,
    1552,
    1552,
    1552,
    1552,
    0,
    0,
    0,
    0,
    0,
    0,
    0,
    0,
    0,
    0,
    0,
    0,
    0,
    0,
    0,
    0,
    0,
    0,
    0,
    0,
    0,
    0,
    1552,
    0,
    0,
    0,
    0,
    1552,
    1552,
    0,
    0,
    0,
    0,
    0,
    0,
    1552,
    0,
    0,
    0,
    0,
    0,
    0,
    0,
    0,
    1552,
    1552,
    1552,
    1552,
    1552,
    0,
    1552,
    1552,
    0,
    1552,
    1552,
    1552,
    1552,
    1552,
    0,
    0,
    0,
    0,
    1552,
    1552,
    0,
    0,
    1552,
    1552,
    1552,
    0,
    0,
    0,
    0,
    0,
    0,
    0,
    0,
    0,
    1552,
    1552,
    0,
    0,
    0,
    1552,
    0,
    0,
    0,
    1552,
    1552,
    1552,
    1552,
    1552,
    1552,
    0,
    0,
    0,
    0,
    0,
    0,
    0,
    0,
    0,
    0,
    0,
    0,
    0,
    0,
    0,
    0,
    0,
    0,
    0,
    0,
    0,
    0,
    0,
    0,
    0,
    0,
    0,
    0,
    0,
    0,
    1552,
    1552,
    1552,
    1552,
    0,
    0,
    0,
    0,
    0,
    0,
    0,
    0,
    0,
    0,
    0,
    0,
    0,
    0,
    0,
    0,
    0,
    0,
    0,
    1552,
    0,
    0,
    0,
    1552,
    1552,
    0,
    0,
    0,
    0,
    1552,
    0,
    0,
    0,
    0,
    0,
    0,
    0,
    1552,
    1552,
    0,
    0,
    0,
    0,
    0,
    1552,
    0,
    1552,
    1552,
    1552,
    1552,
    0,
    1552,
    0,
    0,
    0,
    1552,
    1552,
    1552,
    1552,
    0,
    0,
    0,
    0,
    0,
    1552,
    0,
    0,
    1552,
    1552,
    1552,
    1552,
    0,
    0,
    0,
    0,
    0,
    0,
    0,
    0,
    0,
    1552,
    0,
    0,
    0,
    1552,
    1552,
    0,
    0,
    0,
    1552,
    1552,
    1552,
    1552,
    1552,
    0,
    0,
    0,
    0,
    0,
    0,
    0,
    0,
    0,
    0,
    0,
    0,
    0,
    0,
    0,
    0,
    0,
    0,
    0,
    0,
    0,
    0,
    0,
    0,
    0,
    0,
    0,
    0,
    0,
    1552,
    0,
    0,
    0,
    0,
    0,
    0,
    0,
    0,
    0,
    0,
    0,
    0,
    0,
    0,
    0,
    0,
    0,
    0,
    0,
    0,
    0,
    0,
    1552,
    1552,
    0,
    0,
    1552,
    1552,
    1552,
    1552,
    0,
    0,
    0,
    0,
    1552,
    0,
    0,
    0,
    0,
    0,
    0,
    0,
    1552,
    1552,
    0,
    0,
    0,
    0,
    0,
    1552,
    1552,
    1552,
    1552,
    1552,
    1552,
    1552,
    1552,
    0,
    0,
    1552,
    1552,
    1552,
    1552,
    1552,
    0,
    0,
    0,
    0,
    0,
    1552,
    1552,
    0,
    1552,
    1552,
    1552,
    0,
    0,
    0,
    0,
    0,
    0,
    0,
    0,
    0,
    0,
    1552,
    0,
    0,
    0,
    1552,
    0,
    0,
    0,
    0,
    1552,
    1552,
    1552,
    1552,
    0,
    0,
    0,
    0,
    0,
    0,
    0,
    0,
    0,
    0,
    0,
    0,
    0,
    0,
    0,
    0,
    0,
    0,
    0,
    0,
    0,
    0,
    0,
    0,
    0,
    0,
    0,
    0,
    0,
    0,
    0,
    0,
    0,
    0,
    0,
    0,
    0,
    0,
    0,
    0,
    0,
    0,
    0,
    0,
    0,
    0,
    0,
    0,
    0,
    0,
    0,
    0,
    1552,
    1552,
    0,
    0,
    0,
    0,
    1552,
    1552,
    1552,
    0,
    0,
    0,
    0,
    0,
    0,
    0,
    0,
    0,
    0,
    0,
    0,
    1552,
    0,
    0,
    0,
    0,
    0,
    0,
    1552,
    1552,
    1552,
    1552,
    1552,
    1552,
    1552,
    0,
    0,
    0,
    1552,
    1552,
    1552,
    1552,
    0,
    0,
    0,
    0,
    0,
    0,
    1552,
    1552,
    0,
    1552,
    0,
    1552,
    0,
    1552,
    0,
    0,
    0,
    0,
    0,
    0,
    0,
    0,
    0,
    0,
    0,
    0,
    1552,
    1552,
    0,
    0,
    1552,
    1552,
    1552,
    1552,
    0,
    1552,
    0,
    0,
    0,
    0,
    0,
    0,
    0,
    0,
    0,
    0,
    0,
    0,
    0,
    0,
    0,
    0,
    0,
    0,
    0,
    0,
    0,
    0,
    0,
    0,
    0,
    0,
    0,
    0,
    0,
    0,
    0,
    0,
    0,
    0,
    0,
    0,
    0,
    0,
    0,
    0,
    0,
    0,
    0,
    0,
    0,
    0,
    0,
    0,
    0,
    0,
    1552,
    1552,
    0,
    0,
    0,
    0,
    1552,
    1552,
    1552,
    1552,
    0,
    0,
    0,
    0,
    0,
    0,
    0,
    0,
    0,
    0,
    0,
    0,
    1552,
    1552,
    0,
    0,
    0,
    0,
    0,
    0,
    1552,
    1552,
    1552,
    1552,
    1552,
    1552,
    0,
    0,
    1552,
    1552,
    1552,
    1552,
    0,
    0,
    0,
    0,
    0,
    0,
    0,
    1552,
    0,
    0,
    0,
    1552,
    0,
    0,
    0,
    0,
    0,
    0,
    0,
    0,
    0,
    0,
    0,
    0,
    0,
    0,
    0,
    1552,
    1552,
    0,
    0,
    1552,
    1552,
    1552,
    1552,
    0,
    0,
    0,
    0,
    0,
    0,
    0,
    0,
    0,
    0,
    0,
    0,
    0,
    0,
    0,
    0,
    0,
    0,
    0,
    0,
    0,
    0,
    0,
    0,
    0,
    0,
    0,
    0,
    0,
    0,
    0,
    0,
    0,
    0,
    0,
    1552,
    0,
    0,
    0,
    0,
    0,
    0,
    0,
    0,
    0,
    0,
    0,
    0,
    0,
    0,
    0,
    1552,
    1552,
    0,
    0,
    0,
    0,
    0,
    0,
    1552,
    1552,
    0,
    0,
    0,
    0,
    0,
    0,
    1552,
    0,
    0,
    0,
    0,
    0,
    0,
    0,
    0,
    0,
    0,
    0,
    0,
    0,
    1552,
    1552,
    1552,
    1552,
    1552,
    1552,
    0,
    1552,
    1552,
    1552,
    1552,
    1552,
    1552,
    0,
    0,
    0,
    0,
    0,
    0,
    0,
    1552,
    0,
    0,
    0,
    0,
    0,
    0,
    0,
    0,
    0,
    0,
    0,
    0,
    0,
    0,
    0,
    0,
    0,
    0,
    1552,
    1552,
    0,
    0,
    1552,
    1552,
    1552,
    1552,
    1552,
    1552,
    1552,
    0,
    0,
    0,
    0,
    0,
    0,
    0,
    0,
    0,
    0,
    0,
    0,
    0,
    0,
    0,
    0,
    0,
    0,
    0,
    0,
    0,
    0,
    0,
    0,
    0,
    0,
    0,
    0,
    1552,
    1552,
    1552,
    1552,
    1552,
    1552,
    1552,
    0,
    0,
    0,
    0,
    0,
    0,
    0,
    0,
    0,
    0,
    0,
    0,
    0,
    1552,
    1552,
    0,
    0,
    0,
    1552,
    1552,
    1552,
    0,
    1552,
    1552,
    1552,
    0,
    0,
    0,
    0,
    0,
    1552,
    0,
    0,
    0,
    0,
    0,
    0,
    0,
    0,
    0,
    0,
    1552,
    0,
    1552,
    1552,
    1552,
    1552,
    0,
    0,
    0,
    1552,
    1552,
    0,
    1552,
    1552,
    1552,
    0,
    1552,
    0,
    0,
    0,
    0,
    0,
    0,
    0,
    0,
    0,
    0,
    0,
    0,
    1552,
    1552,
    0,
    0,
    0,
    0,
    0,
    0,
    0,
    0,
    0,
    0,
    1552,
    1552,
    0,
    0,
    0,
    0,
    0,
    1552,
    1552,
    1552,
    1552,
    0,
    0,
    0,
    0,
    0,
    0,
    0,
    0,
    0,
    0,
    0,
    0,
    0,
    0,
    0,
    0,
    0,
    0,
    0,
    0,
    0,
    0,
    0,
    0,
    0,
    0,
    0,
    0,
    1552,
    1552,
    0,
    1552,
    1552,
    1552,
    1552,
    0,
    0,
    0,
    0,
    0,
    0,
    0,
    0,
    0,
    0,
    0,
    0,
    0,
    1552,
    1552,
    0,
    0,
    0,
    1552,
    1552,
    0,
    1552,
    1552,
    1552,
    1552,
    1552,
    1552,
    0,
    0,
    1552,
    1552,
    0,
    0,
    0,
    0,
    0,
    0,
    0,
    0,
    0,
    0,
    0,
    0,
    0,
    1552,
    1552,
    1552,
    1552,
    1552,
    0,
    0,
    1552,
    1552,
    1552,
    1552,
    1552,
    1552,
    0,
    0,
    0,
    0,
    0,
    0,
    0,
    0,
    0,
    0,
    0,
    0,
    0,
    1552,
    1552,
    0,
    0,
    0,
    0,
    0,
    0,
    0,
    0,
    0,
    0,
    1552,
    1552,
    0,
    0,
    0,
    0,
    1552,
    0,
    0,
    1552,
    1552,
    1552,
    0,
    0,
    0,
    0,
    0,
    0,
    0,
    0,
    0,
    0,
    0,
    0,
    0,
    0,
    0,
    0,
    0,
    0,
    0,
    0,
    0,
    0,
    0,
    0,
    0,
    0,
    0,
    1552,
    1552,
    1552,
    1552,
    1552,
    1552,
    1552,
    0,
    0,
    0,
    0,
    0,
    0,
    0,
    0,
    0,
    0,
    0,
    0,
    0,
    0,
    1552,
    1552,
    0,
    0,
    0,
    0,
    1552,
    1552,
    1552,
    1552,
    1552,
    1552,
    1552,
    0,
    0,
    1552,
    1552,
    0,
    0,
    0,
    0,
    0,
    0,
    0,
    0,
    0,
    0,
    0,
    0,
    1552,
    1552,
    1552,
    1552,
    1552,
    1552,
    0,
    0,
    1552,
    1552,
    0,
    1552,
    1552,
    0,
    0,
    0,
    0,
    0,
    0,
    0,
    0,
    0,
    0,
    0,
    0,
    1552,
    0,
    0,
    1552,
    0,
    0,
    0,
    0,
    0,
    0,
    0,
    0,
    0,
    0,
    1552,
    1552,
    0,
    0,
    0,
    0,
    1552,
    1552,
    1552,
    1552,
    1552,
    1552,
    0,
    0,
    0,
    0,
    0,
    0,
    0,
    0,
    0,
    0,
    0,
    0,
    0,
    0,
    0,
    0,
    0,
    0,
    0,
    0,
    0,
    0,
    0,
    0,
    0,
    0,
    1552,
    0,
    1552,
    1552,
    1552,
    1552,
    1552,
    1552,
    1552,
    0,
    0,
    0,
    0,
    0,
    0,
    0,
    0,
    0,
    0,
    0,
    0,
    0,
    1552,
    1552,
    0,
    0,
    0,
    0,
    0,
    0,
    1552,
    1552,
    1552,
    1552,
    1552,
    0,
    0,
    1552,
    1552,
    0,
    0,
    0,
    0,
    0,
    0,
    0,
    0,
    0,
    0,
    0,
    0,
    1552,
    1552,
    1552,
    1552,
    1552,
    0,
    0,
    0,
    0,
    0,
    0,
    1552,
    0,
    0,
    0,
    0,
    0,
    0,
    0,
    0,
    0,
    0,
    0,
    0,
    0,
    1552,
    1552,
    0,
    0,
    0,
    0,
    0,
    0,
    0,
    0,
    0,
    0,
    0,
    0,
    1552,
    1552,
    0,
    0,
    0,
    0,
    0,
    1552,
    1552,
    0,
    0,
    0,
    0,
    0,
    0,
    0,
    0,
    0,
    0,
    0,
    0,
    0,
    0,
    0,
    0,
    0,
    0,
    0,
    0,
    0,
    0,
    0,
    0,
    0,
    0,
    0,
    0,
    0,
    0,
    0,
    0,
    0,
    0,
    0,
    1552,
    1552,
    1552,
    0,
    0,
    0,
    0,
    0,
    0,
    0,
    0,
    0,
    0,
    0,
    0,
    0,
    0,
    1552,
    1552,
    0,
    0,
    0,
    0,
    0,
    0,
    1552,
    1552,
    1552,
    0,
    0,
    0,
    1552,
    1552,
    0,
    0,
    0,
    0,
    1552,
    1552,
    0,
    0,
    0,
    0,
    0,
    0,
    0,
    0,
    1552,
    1552,
    1552,
    0,
    0,
    0,
    0,
    0,
    0,
    0,
    0,
    0,
    0,
    0,
    0,
    0,
    0,
    0,
    0,
    0,
    0,
    0,
    0,
    1552,
    1552,
    0,
    0,
    0,
    0,
    0,
    0,
    0,
    0,
    0,
    0,
    0,
    0,
    1552,
    1552,
    0,
    0,
    0,
    0,
    0,
    0,
    0,
    0,
    0,
    0,
    1552,
    0,
    0,
    0,
    0,
    0,
    0,
    0,
    0,
    0,
    0,
    0,
    0,
    0,
    0,
    0,
    0,
    0,
    0,
    0,
    0,
    0,
    0,
    0,
    0,
    0,
    0,
    0,
    1552,
    1552,
    1552,
    1552,
    1552,
    1552,
    1552,
    1552,
    0,
    0,
    0,
    0,
    0,
    0,
    0,
    0,
    0,
    0,
    0,
    0,
    0,
    1552,
    1552,
    1552,
    1552,
    0,
    0,
    0,
    0,
    1552,
    1552,
    0,
    0,
    0,
    0,
    1552,
    1552,
    0,
    0,
    0,
    1552,
    1552,
    0,
    0,
    0,
    0,
    0,
    0,
    0,
    1552,
    0,
    0,
    0,
    0,
    0,
    0,
    0,
    0,
    0,
    0,
    0,
    0,
    0,
    0,
    0,
    0,
    0,
    0,
    0,
    0,
    0,
    0,
    0,
    0,
    1552,
    1552,
    0,
    0,
    0,
    0,
    0,
    0,
    0,
    0,
    0,
    0,
    0,
    0,
    0,
    1552,
    0,
    0,
    0,
    0,
    0,
    0,
    0,
    1552,
    1552,
    0,
    0,
    0,
    0,
    0,
    0,
    0,
    0,
    0,
    0,
    0,
    0,
    0,
    0,
    0,
    0,
    0,
    0,
    0,
    0,
    0,
    0,
    0,
    0,
    0,
    0,
    0,
    0,
    0,
    0,
    1552,
    1552,
    1552,
    1552,
    1552,
    1552,
    1552,
    0,
    0,
    0,
    0,
    0,
    0,
    0,
    0,
    0,
    0,
    0,
    0,
    0,
    0,
    1552,
    1552,
    1552,
    1552,
    0,
    0,
    0,
    0,
    1552,
    0,
    0,
    0,
    0,
    1552,
    1552,
    0,
    0,
    1552,
    1552,
    1552,
    0,
    0,
    0,
    0,
    0,
    0,
    0,
    0,
    0,
    0,
    0,
    0,
    0,
    0,
    0,
    0,
    0,
    0,
    0,
    0,
    0,
    0,
    0,
    0,
    0,
    0,
    0,
    0,
    0,
    0,
    0,
    0,
    1552,
    1552,
    0,
    0,
    0,
    0,
    0,
    0,
    0,
    0,
    0,
    0,
    0,
    0,
    0,
    1552,
    1552,
    0,
    0,
    1552,
    0,
    0,
    1552,
    1552,
    1552,
    0,
    0,
    0,
    0,
    0,
    0,
    0,
    0,
    0,
    0,
    0,
    0,
    0,
    0,
    0,
    0,
    0,
    0,
    0,
    0,
    0,
    0,
    0,
    0,
    0,
    0,
    0,
    0,
    0,
    1552,
    1552,
    1552,
    1552,
    1552,
    1552,
    1552,
    1552,
    1552,
    0,
    0,
    0,
    0,
    0,
    1552,
    0,
    0,
    0,
    0,
    0,
    0,
    0,
    0,
    0,
    1552,
    1552,
    1552,
    0,
    0,
    0,
    0,
    0,
    0,
    0,
    0,
    1552,
    1552,
    0,
    0,
    1552,
    1552,
    0,
    0,
    0,
    0,
    0,
    0,
    0,
    0,
    0,
    0,
    0,
    0,
    0,
    0,
    0,
    0,
    0,
    0,
    0,
    0,
    0,
    0,
    0,
    0,
    0,
    0,
    0,
    0,
    0,
    0,
    0,
    0,
    0,
    0,
    1552,
    0,
    0,
    0,
    0,
    0,
    0,
    0,
    0,
    0,
    0,
    0,
    0,
    0,
    0,
    1552,
    0,
    0,
    0,
    1552,
    1552,
    1552,
    1552,
    1552,
    1552,
    0,
    0,
    0,
    0,
    0,
    0,
    0,
    0,
    0,
    0,
    0,
    0,
    0,
    0,
    0,
    0,
    0,
    0,
    0,
    0,
    0,
    0,
    0,
    0,
    1552,
    1552,
    0,
    0,
    1552,
    1552,
    1552,
    0,
    1552,
    1552,
    1552,
    1552,
    1552,
    0,
    0,
    0,
    0,
    1552,
    1552,
    0,
    0,
    0,
    0,
    0,
    0,
    0,
    0,
    0,
    0,
    0,
    1552,
    1552,
    0,
    0,
    0,
    0,
    0,
    0,
    1552,
    1552,
    0,
    0,
    0,
    1552,
    1552,
    0,
    0,
    0,
    0,
    0,
    0,
    0,
    0,
    0,
    0,
    0,
    0,
    0,
    0,
    0,
    0,
    0,
    0,
    0,
    0,
    0,
    0,
    0,
    0,
    0,
    0,
    0,
    0,
    0,
    0,
    0,
    0,
    0,
    0,
    0,
    1552,
    1552,
    0,
    0,
    0,
    0,
    0,
    0,
    0,
    0,
    0,
    0,
    0,
    0,
    0,
    1552,
    1552,
    0,
    0,
    1552,
    1552,
    1552,
    1552,
    1552,
    1552,
    1552,
    0,
    0,
    0,
    1552,
    1552,
    0,
    0,
    0,
    0,
    0,
    0,
    0,
    0,
    0,
    0,
    0,
    0,
    0,
    0,
    0,
    0,
    0,
    1552,
    1552,
    0,
    0,
    1552,
    1552,
    1552,
    1552,
    0,
    1552,
    1552,
    1552,
    0,
    0,
    0,
    0,
    0,
    1552,
    1552,
    0,
    0,
    0,
    0,
    0,
    0,
    0,
    0,
    0,
    1552,
    0,
    0,
    1552,
    1552,
    0,
    0,
    0,
    0,
    0,
    1552,
    1552,
    0,
    0,
    0,
    1552,
    1552,
    0,
    0,
    0,
    0,
    0,
    0,
    0,
    0,
    0,
    0,
    0,
    0,
    0,
    0,
    0,
    0,
    0,
    0,
    0,
    0,
    0,
    0,
    0,
    0,
    0,
    0,
    0,
    0,
    0,
    0,
    0,
    0,
    1552,
    0,
    0,
    0,
    1552,
    1552,
    0,
    0,
    0,
    0,
    0,
    0,
    0,
    0,
    0,
    0,
    0,
    0,
    0,
    1552,
    1552,
    0,
    0,
    1552,
    1552,
    0,
    1552,
    1552,
    1552,
    0,
    0,
    0,
    1552,
    1552,
    0,
    0,
    0,
    0,
    0,
    0,
    0,
    0,
    0,
    0,
    0,
    0,
    0,
    0,
    0,
    0,
    0,
    1552,
    0,
    0,
    0,
    1552,
    1552,
    1552,
    1552,
    1552,
    0,
    1552,
    1552,
    1552,
    0,
    0,
    0,
    1552,
    1552,
    1552,
    0,
    0,
    0,
    0,
    0,
    0,
    0,
    0,
    0,
    1552,
    1552,
    0,
    1552,
    1552,
    1552,
    0,
    0,
    0,
    0,
    0,
    0,
    0,
    0,
    0,
    1552,
    1552,
    0,
    0,
    0,
    0,
    0,
    0,
    0,
    0,
    0,
    0,
    0,
    0,
    0,
    0,
    0,
    0,
    0,
    0,
    0,
    0,
    0,
    0,
    0,
    0,
    0,
    0,
    0,
    0,
    0,
    0,
    0,
    0,
    0,
    1552,
    0,
    0,
    0,
    1552,
    0,
    0,
    0,
    0,
    0,
    0,
    0,
    1552,
    0,
    0,
    0,
    0,
    0,
    1552,
    1552,
    0,
    0,
    1552,
    1552,
    1552,
    1552,
    1552,
    0,
    0,
    0,
    1552,
    1552,
    1552,
    1552,
    1552,
    0,
    0,
    0,
    0,
    1552,
    1552,
    0,
    0,
    0,
    0,
    0,
    0,
    0,
    0,
    0,
    1552,
    1552,
    1552,
    1552,
    1552,
    1552,
    1552,
    1552,
    1552,
    0,
    1552,
    1552,
    1552,
    0,
    0,
    0,
    1552,
    1552,
    1552,
    1552,
    0,
    0,
    0,
    0,
    0,
    0,
    0,
    0,
    0,
    1552,
    1552,
    0,
    1552,
    1552,
    0,
    0,
    1552,
    1552,
    0,
    0,
    0,
    0,
    0,
    1552,
    1552,
    0,
    0,
    0,
    0,
    0,
    0,
    0,
    0,
    0,
    0,
    0,
    0,
    0,
    0,
    0,
    0,
    0,
    0,
    0,
    0,
    0,
    1552,
    0,
    0,
    0,
    0,
    0,
    0,
    0,
    0,
    0,
    0,
    1552,
    1552,
    1552,
    0,
    0,
    0,
    1552,
    1552,
    0,
    0,
    0,
    0,
    0,
    1552,
    1552,
    0,
    0,
    0,
    0,
    1552,
    1552,
    0,
    0,
    1552,
    1552,
    1552,
    1552,
    1552,
    0,
    0,
    0,
    1552,
    1552,
    1552,
    1552,
    0,
    0,
    0,
    0,
    0,
    1552,
    1552,
    0,
    0,
    0,
    0,
    0,
    0,
    0,
    1552,
    1552,
    0,
    1552,
    1552,
    1552,
    1552,
    1552,
    1552,
    1552,
    1552,
    0,
    1552,
    1552,
    1552,
    0,
    0,
    0,
    0,
    1552,
    1552,
    0,
    0,
    0,
    0,
    0,
    0,
    0,
    0,
    0,
    0,
    1552,
    1552,
    0,
    1552,
    1552,
    1552,
    1552,
    1552,
    0,
    0,
    0,
    0,
    0,
    0,
    1552,
    1552,
    0,
    0,
    0,
    0,
    0,
    0,
    0,
    0,
    0,
    0,
    0,
    0,
    0,
    0,
    0,
    0,
    0,
    0,
    0,
    0,
    0,
    1552,
    0,
    0,
    0,
    0,
    0,
    0,
    0,
    0,
    0,
    0,
    0,
    1552,
    1552,
    1552,
    0,
    0,
    0,
    1552,
    1552,
    0,
    0,
    0,
    0,
    1552,
    1552,
    0,
    0,
    0,
    0,
    1552,
    1552,
    0,
    0,
    0,
    1552,
    1552,
    0,
    0,
    0,
    0,
    0,
    0,
    1552,
    1552,
    1552,
    0,
    0,
    0,
    0,
    0,
    1552,
    1552,
    0,
    0,
    0,
    0,
    0,
    0,
    0,
    1552,
    1552,
    0,
    1552,
    1552,
    1552,
    1552,
    1552,
    1552,
    1552,
    1552,
    1552,
    1552,
    1552,
    0,
    0,
    0,
    0,
    1552,
    1552,
    1552,
    0,
    0,
    0,
    0,
    0,
    0,
    0,
    0,
    0,
    0,
    0,
    1552,
    1552,
    0,
    1552,
    1552,
    1552,
    1552,
    0,
    0,
    0,
    0,
    0,
    0,
    0,
    1552,
    0,
    0,
    0,
    0,
    0,
    0,
    0,
    0,
    0,
    0,
    0,
    0,
    0,
    0,
    0,
    0,
    0,
    0,
    0,
    0,
    0,
    0,
    1552,
    0,
    0,
    0,
    0,
    0,
    0,
    0,
    0,
    0,
    0,
    1552,
    0,
    1552,
    1552,
    0,
    0,
    0,
    1552,
    0,
    0,
    0,
    0,
    1552,
    1552,
    0,
    0,
    0,
    0,
    1552,
    1552,
    0,
    0,
    0,
    0,
    0,
    0,
    0,
    0,
    0,
    0,
    0,
    1552,
    1552,
    0,
    0,
    0,
    0,
    0,
    1552,
    1552,
    1552,
    0,
    0,
    0,
    0,
    0,
    0,
    0,
    0,
    0,
    1552,
    1552,
    1552,
    1552,
    1552,
    1552,
    1552,
    1552,
    1552,
    1552,
    1552,
    1552,
    0,
    0,
    0,
    1552,
    1552,
    0,
    1552,
    0,
    0,
    0,
    0,
    0,
    0,
    0,
    0,
    0,
    0,
    0,
    0,
    0,
    0,
    0,
    0,
    0,
    0,
    0,
    0,
    0,
    0,
    0,
    0,
    0,
    0,
    1552,
    1552,
    0,
    0,
    0,
    0,
    0,
    0,
    0,
    0,
    0,
    0,
    0,
    0,
    0,
    0,
    0,
    0,
    0,
    0,
    0,
    0,
    0,
    0,
    0,
    0,
    0,
    0,
    0,
    0,
    0,
    1552,
    0,
    0,
    0,
    1552,
    1552,
    1552,
    0,
    0,
    0,
    1552,
    0,
    0,
    0,
    1552,
    1552,
    0,
    0,
    0,
    0,
    1552,
    1552,
    0,
    0,
    0,
    0,
    0,
    0,
    0,
    0,
    0,
    1552,
    1552,
    0,
    0,
    0,
    0,
    0,
    0,
    1552,
    1552,
    1552,
    1552,
    1552,
    0,
    0,
    0,
    0,
    0,
    0,
    0,
    0,
    1552,
    1552,
    1552,
    1552,
    1552,
    1552,
    1552,
    1552,
    1552,
    1552,
    1552,
    0,
    0,
    0,
    0,
    1552,
    1552,
    1552,
    0,
    1552,
    0,
    0,
    0,
    0,
    0,
    0,
    0,
    0,
    0,
    0,
    0,
    0,
    0,
    0,
    0,
    0,
    0,
    0,
    0,
    0,
    1552,
    1552,
    1552,
    0,
    0,
    0,
    1552,
    1552,
    0,
    0,
    0,
    0,
    0,
    0,
    0,
    0,
    0,
    0,
    0,
    0,
    0,
    0,
    0,
    0,
    0,
    0,
    0,
    0,
    0,
    0,
    0,
    0,
    0,
    0,
    0,
    0,
    0,
    0,
    0,
    0,
    1552,
    0,
    1552,
    1552,
    1552,
    0,
    0,
    0,
    0,
    0,
    1552,
    1552,
    0,
    0,
    0,
    0,
    1552,
    1552,
    0,
    0,
    0,
    0,
    0,
    0,
    0,
    1552,
    1552,
    1552,
    1552,
    0,
    0,
    0,
    0,
    0,
    0,
    1552,
    1552,
    0,
    1552,
    1552,
    0,
    0,
    0,
    0,
    0,
    0,
    0,
    1552,
    1552,
    1552,
    1552,
    1552,
    1552,
    1552,
    1552,
    1552,
    1552,
    1552,
    1552,
    0,
    0,
    0,
    0,
    0,
    1552,
    1552,
    1552,
    1552,
    1552,
    0,
    0,
    0,
    0,
    0,
    0,
    0,
    0,
    0,
    0,
    0,
    0,
    0,
    0,
    0,
    0,
    0,
    0,
    0,
    1552,
    1552,
    1552,
    1552,
    1552,
    0,
    1552,
    1552,
    0,
    0,
    0,
    0,
    0,
    0,
    0,
    0,
    0,
    0,
    0,
    0,
    0,
    0,
    0,
    0,
    0,
    0,
    0,
    0,
    0,
    0,
    0,
    0,
    0,
    0,
    0,
    0,
    0,
    0,
    0,
    0,
    0,
    1552,
    1552,
    1552,
    0,
    0,
    0,
    0,
    0,
    0,
    1552,
    1552,
    0,
    0,
    0,
    0,
    0,
    1552,
    0,
    0,
    0,
    0,
    0,
    0,
    1552,
    1552,
    1552,
    1552,
    1552,
    0,
    0,
    0,
    0,
    0,
    1552,
    1552,
    1552,
    1552,
    1552,
    0,
    1552,
    1552,
    0,
    0,
    0,
    0,
    0,
    0,
    0,
    0,
    1552,
    1552,
    1552,
    1552,
    1552,
    1552,
    1552,
    1552,
    1552,
    0,
    0,
    0,
    0,
    1552,
    1552,
    1552,
    1552,
    1552,
    1552,
    1552,
    0,
    0,
    0,
    0,
    0,
    0,
    0,
    0,
    0,
    0,
    0,
    0,
    0,
    0,
    0,
    0,
    0,
    0,
    0,
    1552,
    1552,
    1552,
    1552,
    0,
    1552,
    1552,
    0,
    0,
    0,
    0,
    0,
    0,
    0,
    0,
    0,
    0,
    0,
    0,
    0,
    0,
    0,
    0,
    0,
    0,
    0,
    0,
    0,
    0,
    0,
    0,
    0,
    0,
    0,
    0,
    0,
    0,
    0,
    0,
    0,
    0,
    0,
    1552,
    1552,
    0,
    0,
    0,
    0,
    0,
    1552,
    1552,
    0,
    0,
    0,
    0,
    0,
    1552,
    1552,
    0,
    0,
    0,
    0,
    1552,
    1552,
    1552,
    1552,
    1552,
    0,
    0,
    0,
    0,
    0,
    0,
    1552,
    1552,
    1552,
    1552,
    1552,
    1552,
    1552,
    1552,
    0,
    0,
    0,
    0,
    0,
    0,
    0,
    1552,
    1552,
    1552,
    1552,
    1552,
    0,
    1552,
    1552,
    1552,
    1552,
    0,
    0,
    0,
    1552,
    1552,
    1552,
    0,
    1552,
    0,
    0,
    1552,
    1552,
    0,
    0,
    0,
    0,
    0,
    0,
    0,
    0,
    0,
    0,
    0,
    0,
    0,
    0,
    0,
    0,
    0,
    0,
    1552,
    1552,
    1552,
    1552,
    0,
    1552,
    1552,
    0,
    0,
    1552,
    0,
    0,
    0,
    0,
    0,
    0,
    0,
    0,
    0,
    0,
    0,
    0,
    0,
    0,
    0,
    0,
    0,
    0,
    0,
    0,
    0,
    0,
    0,
    0,
    0,
    0,
    0,
    0,
    0,
    0,
    0,
    0,
    0,
    0,
    0,
    0,
    0,
    0,
    0,
    1552,
    1552,
    0,
    0,
    0,
    0,
    0,
    1552,
    1552,
    0,
    0,
    0,
    1552,
    1552,
    1552,
    1552,
    1552,
    1552,
    0,
    0,
    0,
    0,
    0,
    0,
    0,
    1552,
    1552,
    0,
    1552,
    1552,
    1552,
    1552,
    0,
    0,
    0,
    0,
    0,
    0,
    0,
    1552,
    1552,
    0,
    1552,
    1552,
    1552,
    1552,
    1552,
    0,
    0,
    0,
    0,
    0,
    1552,
    1552,
    0,
    0,
    1552,
    0,
    0,
    1552,
    1552,
    1552,
    1552,
    1552,
    1552,
    1552,
    0,
    0,
    0,
    0,
    0,
    0,
    0,
    0,
    0,
    0,
    0,
    0,
    0,
    1552,
    0,
    0,
    0,
    0,
    1552,
    1552,
    0,
    0,
    0,
    0,
    0,
    0,
    0,
    0,
    0,
    0,
    0,
    0,
    0,
    0,
    0,
    0,
    0,
    0,
    0,
    0,
    0,
    0,
    0,
    0,
    0,
    0,
    0,
    0,
    0,
    0,
    0,
    0,
    0,
    0,
    0,
    0,
    0,
    0,
    0,
    0,
    0,
    0,
    1552,
    1552,
    0,
    0,
    0,
    0,
    0,
    1552,
    1552,
    0,
    0,
    0,
    0,
    1552,
    0,
    1552,
    1552,
    1552,
    0,
    0,
    0,
    0,
    0,
    1552,
    1552,
    1552,
    1552,
    1552,
    1552,
    1552,
    1552,
    1552,
    0,
    0,
    0,
    0,
    0,
    0,
    0,
    0,
    1552,
    1552,
    1552,
    1552,
    1552,
    1552,
    1552,
    0,
    0,
    0,
    0,
    1552,
    1552,
    1552,
    1552,
    1552,
    0,
    0,
    0,
    0,
    1552,
    1552,
    1552,
    1552,
    1552,
    1552,
    1552,
    0,
    0,
    0,
    0,
    0,
    0,
    0,
    0,
    0,
    0,
    0,
    0,
    0,
    0,
    0,
    0,
    1552,
    1552,
    0,
    0,
    0,
    0,
    0,
    0,
    0,
    0,
    0,
    0,
    0,
    0,
    0,
    0,
    0,
    0,
    0,
    0,
    0,
    0,
    0,
    0,
    0,
    0,
    0,
    0,
    0,
    0,
    0,
    0,
    0,
    0,
    0,
    0,
    0,
    0,
    0,
    0,
    0,
    0,
    0,
    0,
    0,
    1552,
    1552,
    0,
    0,
    0,
    0,
    0,
    1552,
    1552,
    0,
    0,
    0,
    0,
    0,
    1552,
    1552,
    1552,
    1552,
    0,
    0,
    0,
    0,
    0,
    1552,
    1552,
    1552,
    1552,
    1552,
    1552,
    1552,
    1552,
    1552,
    1552,
    0,
    0,
    0,
    0,
    0,
    0,
    1552,
    1552,
    1552,
    1552,
    0,
    1552,
    1552,
    1552,
    1552,
    0,
    0,
    0,
    1552,
    1552,
    0,
    1552,
    1552,
    0,
    0,
    0,
    0,
    0,
    0,
    0,
    0,
    0,
    1552,
    1552,
    1552,
    0,
    0,
    1552,
    0,
    0,
    0,
    0,
    0,
    0,
    0,
    0,
    0,
    0,
    0,
    1552,
    1552,
    1552,
    0,
    0,
    0,
    0,
    0,
    0,
    0,
    0,
    0,
    0,
    0,
    0,
    0,
    0,
    0,
    0,
    0,
    0,
    0,
    0,
    0,
    0,
    0,
    0,
    0,
    0,
    0,
    0,
    0,
    0,
    0,
    0,
    0,
    0,
    0,
    0,
    0,
    0,
    0,
    0,
    0,
    0,
    1552,
    1552,
    0,
    0,
    0,
    0,
    0,
    0,
    1552,
    1552,
    0,
    0,
    0,
    0,
    1552,
    1552,
    1552,
    0,
    0,
    0,
    0,
    0,
    0,
    1552,
    1552,
    1552,
    0,
    1552,
    1552,
    1552,
    1552,
    1552,
    1552,
    1552,
    0,
    0,
    0,
    0,
    0,
    0,
    0,
    0,
    0,
    1552,
    1552,
    1552,
    1552,
    1552,
    1552,
    0,
    0,
    0,
    1552,
    1552,
    0,
    1552,
    1552,
    1552,
    0,
    0,
    0,
    0,
    0,
    0,
    0,
    0,
    0,
    0,
    1552,
    1552,
    0,
    0,
    1552,
    0,
    0,
    0,
    0,
    0,
    0,
    0,
    0,
    0,
    1552,
    1552,
    0,
    0,
    0,
    0,
    0,
    0,
    0,
    0,
    0,
    0,
    0,
    0,
    0,
    0,
    0,
    0,
    0,
    0,
    0,
    0,
    0,
    0,
    0,
    0,
    0,
    0,
    0,
    0,
    0,
    0,
    0,
    0,
    0,
    0,
    0,
    0,
    0,
    0,
    0,
    0,
    0,
    0,
    1552,
    1552,
    1552,
    1552,
    0,
    0,
    0,
    0,
    0,
    0,
    1552,
    1552,
    0,
    0,
    0,
    1552,
    1552,
    1552,
    0,
    0,
    0,
    0,
    0,
    0,
    0,
    1552,
    1552,
    1552,
    1552,
    1552,
    1552,
    1552,
    1552,
    1552,
    1552,
    1552,
    0,
    0,
    0,
    0,
    0,
    0,
    0,
    1552,
    1552,
    1552,
    1552,
    0,
    0,
    0,
    0,
    0,
    0,
    0,
    1552,
    1552,
    1552,
    0,
    1552,
    1552,
    1552,
    1552,
    1552,
    1552,
    0,
    0,
    0,
    0,
    0,
    0,
    0,
    1552,
    1552,
    0,
    1552,
    1552,
    1552,
    0,
    0,
    0,
    0,
    0,
    0,
    0,
    0,
    0,
    0,
    0,
    0,
    0,
    0,
    0,
    0,
    0,
    0,
    0,
    0,
    0,
    0,
    0,
    0,
    0,
    0,
    0,
    0,
    0,
    0,
    0,
    0,
    0,
    0,
    0,
    0,
    0,
    0,
    0,
    0,
    0,
    0,
    0,
    0,
    0,
    0,
    0,
    0,
    0,
    0,
    0,
    1552,
    1552,
    0,
    0,
    0,
    0,
    0,
    0,
    0,
    0,
    1552,
    1552,
    0,
    0,
    0,
    1552,
    1552,
    1552,
    0,
    0,
    0,
    0,
    0,
    0,
    0,
    1552,
    1552,
    1552,
    1552,
    1552,
    1552,
    1552,
    1552,
    1552,
    1552,
    0,
    0,
    0,
    0,
    0,
    0,
    0,
    0,
    1552,
    1552,
    0,
    0,
    0,
    0,
    0,
    0,
    0,
    0,
    0,
    0,
    1552,
    1552,
    1552,
    1552,
    1552,
    1552,
    1552,
    1552,
    1552,
    0,
    1552,
    0,
    1552,
    0,
    0,
    0,
    1552,
    1552,
    1552,
    0,
    1552,
    1552,
    1552,
    0,
    0,
    0,
    0,
    0,
    0,
    0,
    0,
    0,
    0,
    0,
    0,
    0,
    0,
    0,
    0,
    0,
    0,
    0,
    0,
    0,
    0,
    0,
    0,
    0,
    0,
    0,
    0,
    0,
    0,
    0,
    0,
    0,
    0,
    0,
    0,
    0,
    0,
    0,
    0,
    0,
    0,
    0,
    0,
    0,
    0,
    0,
    0,
    0,
    0,
    0,
    0,
    0,
    0,
    0,
    0,
    0,
    0,
    0,
    1552,
    1552,
    0,
    0,
    0,
    1552,
    1552,
    1552,
    1552,
    0,
    0,
    0,
    0,
    0,
    1552,
    1552,
    1552,
    1552,
    1552,
    1552,
    1552,
    1552,
    0,
    1552,
    1552,
    1552,
    0,
    0,
    0,
    0,
    0,
    0,
    0,
    0,
    0,
    0,
    0,
    0,
    0,
    0,
    0,
    0,
    0,
    0,
    0,
    1552,
    1552,
    1552,
    1552,
    1552,
    0,
    1552,
    1552,
    0,
    1552,
    1552,
    1552,
    1552,
    1552,
    1552,
    0,
    0,
    0,
    1552,
    1552,
    0,
    0,
    0,
    0,
    1552,
    0,
    1552,
    0,
    0,
    0,
    0,
    0,
    0,
    0,
    0,
    0,
    0,
    0,
    0,
    0,
    0,
    0,
    0,
    0,
    0,
    0,
    0,
    0,
    0,
    0,
    0,
    0,
    0,
    0,
    0,
    0,
    0,
    0,
    0,
    0,
    0,
    0,
    0,
    0,
    1552,
    0,
    1552,
    0,
    0,
    1552,
    0,
    0,
    0,
    0,
    0,
    0,
    0,
    0,
    0,
    0,
    0,
    1552,
    1552,
    1552,
    1552,
    0,
    0,
    0,
    1552,
    1552,
    0,
    0,
    0,
    0,
    0,
    0,
    0,
    1552,
    1552,
    1552,
    1552,
    1552,
    1552,
    1552,
    0,
    1552,
    1552,
    1552,
    1552,
    0,
    0,
    0,
    0,
    0,
    0,
    0,
    0,
    0,
    0,
    0,
    0,
    0,
    0,
    0,
    0,
    0,
    0,
    1552,
    1552,
    1552,
    1552,
    1552,
    1552,
    1552,
    1552,
    1552,
    1552,
    1552,
    1552,
    1552,
    1552,
    1552,
    1552,
    0,
    0,
    0,
    1552,
    1552,
    1552,
    1552,
    1552,
    1552,
    1552,
    1552,
    1552,
    0,
    0,
    0,
    0,
    0,
    0,
    0,
    0,
    0,
    0,
    0,
    0,
    0,
    0,
    0,
    0,
    0,
    0,
    0,
    0,
    0,
    0,
    0,
    0,
    0,
    0,
    0,
    0,
    0,
    0,
    0,
    0,
    0,
    0,
    0,
    0,
    0,
    0,
    1552,
    0,
    0,
    1552,
    1552,
    0,
    0,
    0,
    0,
    0,
    0,
    0,
    0,
    0,
    0,
    1552,
    1552,
    1552,
    0,
    0,
    0,
    0,
    0,
    0,
    0,
    1552,
    0,
    0,
    0,
    0,
    0,
    0,
    0,
    1552,
    0,
    0,
    1552,
    1552,
    1552,
    1552,
    1552,
    1552,
    1552,
    0,
    0,
    0,
    0,
    0,
    0,
    0,
    0,
    0,
    0,
    0,
    0,
    0,
    0,
    0,
    0,
    0,
    0,
    0,
    1552,
    1552,
    0,
    1552,
    1552,
    1552,
    0,
    1552,
    1552,
    1552,
    1552,
    1552,
    1552,
    1552,
    1552,
    1552,
    0,
    0,
    0,
    0,
    1552,
    1552,
    1552,
    1552,
    1552,
    1552,
    1552,
    0,
    0,
    0,
    0,
    0,
    0,
    0,
    0,
    0,
    0,
    0,
    0,
    0,
    0,
    0,
    0,
    0,
    0,
    0,
    0,
    0,
    0,
    0,
    0,
    0,
    0,
    0,
    0,
    0,
    0,
    0,
    0,
    0,
    0,
    0,
    0,
    0,
    0,
    0,
    0,
    0,
    1552,
    1552,
    0,
    0,
    0,
    0,
    0,
    0,
    0,
    0,
    0,
    0,
    0,
    1552,
    0,
    0,
    0,
    0,
    0,
    0,
    0,
    0,
    0,
    0,
    0,
    0,
    0,
    0,
    0,
    0,
    0,
    0,
    1552,
    0,
    1552,
    1552,
    1552,
    1552,
    0,
    1552,
    0,
    0,
    0,
    0,
    0,
    0,
    0,
    0,
    0,
    0,
    0,
    0,
    0,
    0,
    0,
    0,
    0,
    0,
    0,
    0,
    1552,
    1552,
    0,
    1552,
    1552,
    1552,
    1552,
    0,
    1552,
    1552,
    1552,
    1552,
    0,
    0,
    1552,
    1552,
    1552,
    0,
    0,
    0,
    0,
    0,
    0,
    0,
    0,
    0,
    0,
    0,
    0,
    0,
    0,
    0,
    0,
    0,
    0,
    0,
    0,
    0,
    0,
    0,
    0,
    0,
    0,
    0,
    0,
    0,
    0,
    0,
    0,
    0,
    0,
    0,
    0,
    0,
    0,
    0,
    0,
    0,
    0,
    0,
    0,
    0,
    0,
    0,
    0,
    0,
    0,
    1552,
    1552,
    0,
    0,
    0,
    0,
    0,
    0,
    0,
    0,
    0,
    0,
    0,
    0,
    0,
    0,
    0,
    0,
    0,
    0,
    0,
    0,
    0,
    0,
    0,
    0,
    0,
    0,
    0,
    0,
    0,
    0,
    0,
    0,
    0,
    0,
    0,
    1552,
    1552,
    1552,
    0,
    0,
    0,
    0,
    0,
    0,
    0,
    0,
    0,
    0,
    0,
    0,
    0,
    0,
    0,
    0,
    0,
    0,
    0,
    0,
    0,
    1552,
    1552,
    1552,
    1552,
    1552,
    1552,
    1552,
    1552,
    1552,
    0,
    1552,
    1552,
    1552,
    1552,
    1552,
    1552,
    1552,
    1552,
    1552,
    0,
    0,
    0,
    0,
    0,
    0,
    0,
    0,
    0,
    0,
    0,
    0,
    0,
    0,
    0,
    0,
    0,
    0,
    0,
    0,
    0,
    0,
    0,
    0,
    0,
    0,
    0,
    0,
    0,
    0,
    0,
    0,
    0,
    0,
    0,
    0,
    0,
    0,
    0,
    0,
    0,
    0,
    0,
    0,
    0,
    0,
    0,
    1552,
    1552,
    0,
    0,
    0,
    0,
    0,
    0,
    0,
    0,
    0,
    0,
    0,
    0,
    0,
    0,
    0,
    0,
    0,
    0,
    0,
    0,
    0,
    0,
    0,
    0,
    0,
    0,
    0,
    0,
    0,
    0,
    0,
    0,
    0,
    0,
    0,
    0,
    0,
    0,
    0,
    0,
    0,
    0,
    0,
    0,
    0,
    0,
    0,
    0,
    0,
    0,
    0,
    0,
    0,
    0,
    0,
    0,
    0,
    0,
    0,
    1552,
    1552,
    1552,
    1552,
    1552,
    1552,
    1552,
    0,
    1552,
    1552,
    1552,
    1552,
    1552,
    1552,
    1552,
    1552,
    1552,
    1552,
    1552,
    1552,
    1552,
    0,
    0,
    0,
    0,
    0,
    0,
    0,
    0,
    0,
    0,
    0,
    0,
    0,
    0,
    0,
    0,
    0,
    0,
    0,
    0,
    0,
    0,
    0,
    0,
    0,
    0,
    0,
    0,
    0,
    0,
    0,
    0,
    0,
    0,
    0,
    0,
    0,
    0,
    0,
    0,
    0,
    0,
    0,
    0,
    0,
    0,
    1552,
    1552,
    0,
    0,
    0,
    0,
    0,
    0,
    0,
    0,
    0,
    1552,
    0,
    0,
    0,
    0,
    0,
    0,
    0,
    0,
    0,
    0,
    0,
    0,
    0,
    0,
    0,
    0,
    0,
    0,
    0,
    0,
    0,
    0,
    0,
    0,
    0,
    0,
    0,
    0,
    0,
    0,
    0,
    0,
    0,
    0,
    0,
    0,
    0,
    0,
    0,
    0,
    0,
    0,
    0,
    0,
    0,
    0,
    0,
    0,
    0,
    1552,
    1552,
    1552,
    1552,
    1552,
    1552,
    1552,
    0,
    0,
    0,
    1552,
    1552,
    1552,
    1552,
    1552,
    1552,
    1552,
    1552,
    1552,
    1552,
    1552,
    0,
    0,
    0,
    0,
    0,
    0,
    0,
    0,
    0,
    0,
    0,
    0,
    0,
    0,
    0,
    0,
    0,
    0,
    0,
    0,
    0,
    0,
    0,
    0,
    0,
    0,
    0,
    0,
    0,
    0,
    0,
    0,
    0,
    0,
    0,
    0,
    0,
    0,
    0,
    0,
    0,
    0,
    0,
    0,
    0,
    0,
    1552,
    1552,
    0,
    0,
    0,
    0,
    0,
    0,
    0,
    0,
    1552,
    1552,
    0,
    0,
    0,
    0,
    0,
    0,
    0,
    0,
    0,
    0,
    0,
    0,
    0,
    0,
    0,
    0,
    0,
    0,
    0,
    0,
    0,
    0,
    0,
    0,
    0,
    0,
    0,
    0,
    0,
    0,
    0,
    0,
    0,
    0,
    0,
    0,
    0,
    0,
    0,
    0,
    0,
    0,
    0,
    0,
    0,
    0,
    0,
    0,
    0,
    0,
    1552,
    0,
    1552,
    1552,
    1552,
    1552,
    1552,
    0,
    0,
    0,
    1552,
    1552,
    1552,
    1552,
    1552,
    1552,
    1552,
    1552,
    1552,
    1552,
    0,
    0,
    0,
    0,
    0,
    0,
    0,
    0,
    0,
    0,
    0,
    0,
    0,
    0,
    0,
    0,
    0,
    0,
    0,
    0,
    0,
    0,
    0,
    0,
    0,
    0,
    0,
    0,
    0,
    0,
    0,
    0,
    0,
    0,
    0,
    0,
    0,
    0,
    0,
    0,
    0,
    0,
    0,
    0,
    0,
    0,
    1552,
    1552,
    0,
    0,
    0,
    0,
    0,
    0,
    0,
    1552,
    1552,
    0,
    0,
    0,
    0,
    0,
    0,
    0,
    0,
    0,
    0,
    0,
    0,
    0,
    0,
    0,
    0,
    0,
    0,
    0,
    0,
    0,
    0,
    0,
    0,
    0,
    0,
    0,
    0,
    0,
    0,
    0,
    0,
    0,
    0,
    0,
    0,
    0,
    0,
    0,
    0,
    0,
    0,
    1552,
    0,
    0,
    0,
    0,
    0,
    0,
    0,
    0,
    0,
    0,
    0,
    1552,
    1552,
    1552,
    1552,
    0,
    0,
    0,
    0,
    1552,
    1552,
    1552,
    1552,
    1552,
    1552,
    1552,
    1552,
    1552,
    0,
    0,
    0,
    0,
    0,
    0,
    0,
    0,
    0,
    0,
    0,
    0,
    0,
    0,
    0,
    0,
    0,
    0,
    0,
    0,
    0,
    0,
    0,
    0,
    0,
    0,
    0,
    0,
    0,
    0,
    0,
    0,
    0,
    0,
    0,
    0,
    0,
    0,
    0,
    0,
    0,
    0,
    1552,
    0,
    0,
    0,
    1552,
    1552,
    0,
    0,
    0,
    0,
    0,
    0,
    0,
    0,
    1552,
    0,
    0,
    0,
    0,
    0,
    0,
    0,
    0,
    0,
    0,
    0,
    0,
    0,
    0,
    0,
    0,
    0,
    0,
    0,
    0,
    0,
    0,
    0,
    1552,
    1552,
    0,
    0,
    0,
    0,
    0,
    0,
    0,
    0,
    0,
    0,
    0,
    0,
    0,
    0,
    0,
    1552,
    1552,
    0,
    0,
    0,
    0,
    0,
    0,
    0,
    0,
    0,
    0,
    0,
    1552,
    1552,
    1552,
    1552,
    1552,
    0,
    0,
    0,
    1552,
    0,
    1552,
    1552,
    1552,
    1552,
    1552,
    1552,
    1552,
    0,
    0,
    0,
    0,
    0,
    0,
    0,
    0,
    0,
    0,
    0,
    0,
    0,
    0,
    0,
    0,
    0,
    0,
    0,
    0,
    0,
    0,
    0,
    0,
    0,
    0,
    0,
    0,
    0,
    0,
    0,
    0,
    0,
    0,
    0,
    0,
    0,
    0,
    0,
    0,
    0,
    0,
    0,
    0,
    0,
    0,
    1552,
    1552,
    0,
    0,
    0,
    0,
    0,
    0,
    0,
    0,
    0,
    1552,
    1552,
    0,
    0,
    0,
    0,
    0,
    0,
    0,
    0,
    0,
    0,
    0,
    0,
    0,
    0,
    0,
    0,
    0,
    0,
    0,
    0,
    0,
    0,
    1552,
    1552,
    0,
    0,
    0,
    0,
    0,
    0,
    0,
    0,
    0,
    0,
    0,
    0,
    0,
    0,
    1552,
    1552,
    1552,
    0,
    0,
    0,
    0,
    0,
    0,
    0,
    0,
    0,
    0,
    0,
    1552,
    1552,
    1552,
    1552,
    1552,
    0,
    0,
    1552,
    1552,
    1552,
    1552,
    1552,
    1552,
    1552,
    1552,
    1552,
    1552,
    0,
    0,
    0,
    0,
    0,
    0,
    0,
    0,
    0,
    0,
    0,
    0,
    0,
    0,
    0,
    0,
    0,
    0,
    0,
    0,
    0,
    0,
    0,
    0,
    0,
    0,
    0,
    0,
    0,
    0,
    0,
    0,
    0,
    0,
    0,
    0,
    0,
    0,
    0,
    0,
    0,
    0,
    0,
    0,
    0,
    1552,
    1552,
    1552,
    0,
    0,
    0,
    0,
    0,
    0,
    0,
    0,
    0,
    1552,
    1552,
    0,
    0,
    0,
    0,
    0,
    0,
    0,
    0,
    0,
    0,
    0,
    0,
    0,
    0,
    0,
    0,
    0,
    0,
    0,
    0,
    0,
    0,
    0,
    0,
    1552,
    1552,
    1552,
    0,
    0,
    0,
    0,
    0,
    0,
    0,
    0,
    0,
    0,
    0,
    0,
    0,
    0,
    0,
    0,
    0,
    0,
    0,
    0,
    0,
    0,
    0,
    0,
    0,
    0,
    1552,
    1552,
    1552,
    1552,
    0,
    0,
    0,
    1552,
    1552,
    1552,
    1552,
    1552,
    1552,
    1552,
    1552,
    0,
    0,
    0,
    0,
    0,
    0,
    0,
    0,
    0,
    0,
    0,
    0,
    0,
    0,
    0,
    0,
    0,
    0,
    0,
    0,
    0,
    0,
    0,
    0,
    0,
    0,
    0,
    0,
    0,
    0,
    0,
    0,
    0,
    0,
    0,
    0,
    0,
    0,
    0,
    0,
    0,
    0,
    0,
    0,
    0,
    1552,
    1552,
    0,
    0,
    0,
    0,
    0,
    0,
    0,
    0,
    0,
    0,
    1552,
    1552,
    0,
    0,
    0,
    0,
    0,
    0,
    0,
    0,
    0,
    0,
    0,
    0,
    0,
    0,
    0,
    0,
    0,
    0,
    0,
    0,
    0,
    0,
    0,
    1552,
    0,
    1552,
    1552,
    0,
    1552,
    1552,
    0,
    0,
    0,
    0,
    0,
    0,
    0,
    0,
    0,
    0,
    0,
    0,
    0,
    0,
    0,
    0,
    0,
    0,
    0,
    0,
    0,
    0,
    0,
    0,
    1552,
    1552,
    0,
    1552,
    0,
    0,
    0,
    0,
    1552,
    0,
    1552,
    1552,
    0,
    1552,
    0,
    0,
    0,
    0,
    0,
    0,
    0,
    0,
    0,
    0,
    0,
    0,
    0,
    0,
    0,
    0,
    0,
    0,
    0,
    0,
    0,
    0,
    0,
    0,
    0,
    0,
    0,
    0,
    0,
    0,
    0,
    0,
    0,
    0,
    0,
    0,
    0,
    0,
    0,
    0,
    0,
    0,
    0,
    0,
    0,
    0,
    1552,
    1552,
    0,
    0,
    0,
    0,
    0,
    0,
    0,
    0,
    0,
    0,
    1552,
    1552,
    0,
    0,
    0,
    0,
    0,
    0,
    0,
    0,
    0,
    0,
    0,
    0,
    0,
    0,
    0,
    0,
    0,
    0,
    0,
    0,
    0,
    0,
    0,
    0,
    1552,
    0,
    1552,
    1552,
    1552,
    1552,
    0,
    0,
    0,
    0,
    0,
    0,
    0,
    0,
    0,
    0,
    0,
    0,
    0,
    0,
    0,
    0,
    0,
    0,
    0,
    0,
    0,
    0,
    0,
    1552,
    0,
    0,
    1552,
    0,
    0,
    0,
    0,
    0,
    0,
    0,
    0,
    0,
    0,
    0,
    0,
    0,
    0,
    0,
    0,
    0,
    0,
    0,
    0,
    0,
    0,
    0,
    0,
    0,
    0,
    0,
    0,
    0,
    0,
    0,
    0,
    0,
    0,
    0,
    0,
    0,
    0,
    0,
    0,
    0,
    0,
    0,
    0,
    0,
    0,
    0,
    0,
    0,
    0,
    0,
    0,
    0,
    0,
    0,
    0,
    0,
    1552,
    1552,
    0,
    0,
    0,
    0,
    0,
    0,
    0,
    0,
    0,
    0,
    0,
    0,
    0,
    0,
    0,
    0,
    0,
    0,
    0,
    0,
    0,
    0,
    0,
    0,
    0,
    0,
    0,
    0,
    0,
    0,
    0,
    0,
    0,
    0,
    0,
    0,
    0,
    1552,
    0,
    1552,
    1552,
    0,
    0,
    0,
    0,
    0,
    0,
    0,
    0,
    0,
    0,
    0,
    0,
    0,
    0,
    0,
    0,
    0,
    0,
    0,
    0,
    0,
    0,
    0,
    0,
    0,
    0,
    1552,
    1552,
    1552,
    0,
    0,
    0,
    0,
    0,
    0,
    0,
    0,
    0,
    0,
    0,
    0,
    0,
    0,
    0,
    0,
    0,
    0,
    0,
    0,
    0,
    0,
    0,
    0,
    0,
    0,
    0,
    0,
    0,
    0,
    0,
    0,
    0,
    0,
    0,
    0,
    0,
    0,
    0,
    0,
    0,
    0,
    0,
    0,
    0,
    0,
    0,
    0,
    0,
    0,
    0,
    0,
    0,
    0,
    0,
    0,
    1552,
    1552,
    0,
    0,
    0,
    0,
    0,
    0,
    0,
    0,
    0,
    0,
    0,
    0,
    0,
    0,
    0,
    0,
    0,
    0,
    0,
    0,
    0,
    0,
    0,
    0,
    0,
    0,
    0,
    0,
    0,
    0,
    0,
    0,
    0,
    0,
    0,
    0,
    0,
    0,
    0,
    0,
    1552,
    0,
    1552,
    0,
    0,
    0,
    0,
    0,
    0,
    0,
    0,
    0,
    0,
    0,
    0,
    0,
    0,
    0,
    0,
    0,
    0,
    0,
    0,
    0,
    0,
    0,
    1552,
    1552,
    1552,
    1552,
    0,
    0,
    0,
    0,
    0,
    0,
    0,
    0,
    0,
    0,
    0,
    0,
    0,
    0,
    0,
    0,
    0,
    0,
    0,
    0,
    0,
    0,
    0,
    0,
    0,
    0,
    0,
    0,
    0,
    0,
    0,
    0,
    0,
    0,
    0,
    0,
    0,
    0,
    0,
    0,
    0,
    0,
    0,
    0,
    0,
    0,
    0,
    0,
    0,
    0,
    0,
    0,
    0,
    0,
    0,
    0,
    1552,
    1552,
    0,
    0,
    0,
    0,
    0,
    0,
    0,
    0,
    0,
    1552,
    1552,
    0,
    0,
    0,
    0,
    0,
    0,
    0,
    0,
    0,
    0,
    0,
    0,
    0,
    0,
    0,
    0,
    0,
    0,
    0,
    0,
    0,
    0,
    0,
    0,
    0,
    0,
    0,
    1552,
    0,
    0,
    0,
    0,
    0,
    0,
    0,
    0,
    0,
    0,
    0,
    0,
    0,
    0,
    0,
    0,
    0,
    0,
    0,
    0,
    0,
    0,
    0,
    0,
    0,
    1552,
    1552,
    1552,
    1552,
    1552,
    1552,
    0,
    0,
    0,
    0,
    0,
    0,
    0,
    0,
    0,
    0,
    1552,
    0,
    0,
    0,
    0,
    0,
    0,
    0,
    0,
    0,
    0,
    0,
    0,
    0,
    0,
    0,
    0,
    0,
    0,
    0,
    0,
    0,
    0,
    0,
    0,
    0,
    0,
    0,
    0,
    0,
    0,
    0,
    0,
    0,
    0,
    0,
    0,
    0,
    0,
    0,
    0,
    0,
    0,
    0,
    0,
    1552,
    1552,
    0,
    0,
    0,
    0,
    0,
    0,
    0,
    0,
    0,
    1552,
    1552,
    0,
    0,
    0,
    0,
    0,
    0,
    0,
    0,
    0,
    0,
    0,
    0,
    0,
    0,
    0,
    0,
    0,
    0,
    0,
    0,
    0,
    0,
    0,
    0,
    0,
    0,
    0,
    0,
    0,
    0,
    0,
    0,
    0,
    0,
    0,
    0,
    0,
    0,
    0,
    0,
    0,
    0,
    0,
    0,
    0,
    0,
    0,
    0,
    0,
    0,
    0,
    0,
    0,
    0,
    1552,
    1552,
    1552,
    1552,
    1552,
    1552,
    0,
    0,
    0,
    0,
    0,
    0,
    0,
    0,
    1552,
    1552,
    1552,
    1552,
    1552,
    1552,
    1552,
    0,
    0,
    0,
    0,
    0,
    0,
    0,
    0,
    0,
    0,
    0,
    0,
    0,
    0,
    0,
    0,
    0,
    0,
    0,
    0,
    0,
    0,
    0,
    0,
    0,
    0,
    0,
    0,
    0,
    0,
    0,
    0,
    0,
    0,
    0,
    0,
    0,
    0,
    0,
    0,
    1552,
    1552,
    0,
    0,
    0,
    0,
    0,
    0,
    0,
    0,
    1552,
    1552,
    1552,
    0,
    0,
    0,
    0,
    0,
    0,
    0,
    0,
    0,
    0,
    0,
    0,
    0,
    0,
    0,
    0,
    0,
    0,
    0,
    0,
    0,
    0,
    0,
    0,
    0,
    0,
    0,
    0,
    0,
    0,
    0,
    0,
    0,
    0,
    0,
    0,
    0,
    0,
    0,
    0,
    0,
    0,
    0,
    0,
    0,
    0,
    0,
    0,
    0,
    0,
    0,
    0,
    0,
    0,
    0,
    1552,
    1552,
    1552,
    1552,
    1552,
    0,
    0,
    0,
    0,
    0,
    0,
    0,
    1552,
    1552,
    0,
    0,
    0,
    0,
    0,
    1552,
    1552,
    0,
    0,
    0,
    0,
    0,
    0,
    0,
    0,
    0,
    0,
    0,
    0,
    0,
    0,
    0,
    0,
    0,
    0,
    0,
    0,
    0,
    0,
    0,
    0,
    0,
    0,
    0,
    0,
    0,
    0,
    0,
    0,
    0,
    0,
    0,
    0,
    0,
    0,
    0,
    0,
    0,
    0,
    0,
    0,
    0,
    0,
    0,
    0,
    1552,
    1552,
    0,
    0,
    0,
    0,
    0,
    0,
    0,
    0,
    0,
    0,
    0,
    0,
    0,
    0,
    0,
    0,
    0,
    0,
    0,
    0,
    0,
    0,
    0,
    0,
    0,
    0,
    0,
    0,
    0,
    0,
    0,
    0,
    0,
    0,
    0,
    0,
    0,
    0,
    0,
    0,
    0,
    0,
    0,
    0,
    0,
    0,
    0,
    0,
    0,
    0,
    0,
    0,
    0,
    0,
    0,
    0,
    0,
    0,
    0,
    0,
    1552,
    1552,
    0,
    0,
    0,
    0,
    0,
    1552,
    1552,
    0,
    0,
    0,
    0,
    0,
    0,
    0,
    0,
    1552,
    0,
    0,
    0,
    0,
    0,
    0,
    0,
    0,
    0,
    0,
    0,
    0,
    0,
    0,
    0,
    0,
    0,
    0,
    0,
    0,
    0,
    0,
    0,
    0,
    0,
    0,
    0,
    0,
    0,
    0,
    0,
    0,
    0,
    0,
    0,
    0,
    0,
    0,
    0,
    0,
    0,
    0,
    0,
    0,
    0,
    0,
    0,
    0,
    0,
    1552,
    0,
    0,
    0,
    0,
    0,
    0,
    0,
    0,
    0,
    0,
    0,
    0,
    0,
    0,
    0,
    0,
    0,
    0,
    0,
    0,
    0,
    0,
    0,
    0,
    0,
    0,
    0,
    0,
    0,
    0,
    0,
    0,
    0,
    0,
    0,
    0,
    0,
    0,
    0,
    0,
    0,
    0,
    0,
    0,
    0,
    0,
    0,
    0,
    0,
    0,
    0,
    0,
    0,
    0,
    0,
    0,
    0,
    0,
    1552,
    1552,
    1552,
    1552,
    0,
    0,
    0,
    0,
    1552,
    0,
    0,
    0,
    0,
    0,
    0,
    0,
    0,
    0,
    0,
    0,
    1552,
    0,
    0,
    0,
    0,
    0,
    0,
    0,
    0,
    0,
    0,
    0,
    0,
    0,
    0,
    0,
    0,
    0,
    0,
    0,
    0,
    0,
    0,
    0,
    0,
    0,
    0,
    0,
    0,
    0,
    0,
    0,
    0,
    0,
    0,
    0,
    0,
    0,
    0,
    0,
    0,
    0,
    0,
    0,
    0,
    0,
    0,
    0,
    0,
    0,
    1552,
    1552,
    0,
    0,
    0,
    0,
    0,
    0,
    0,
    0,
    0,
    0,
    0,
    0,
    0,
    0,
    0,
    0,
    0,
    0,
    0,
    0,
    0,
    0,
    0,
    0,
    0,
    0,
    0,
    0,
    0,
    0,
    0,
    0,
    0,
    0,
    0,
    0,
    0,
    0,
    0,
    0,
    0,
    0,
    0,
    0,
    0,
    0,
    0,
    0,
    0,
    0,
    0,
    0,
    0,
    0,
    0,
    0,
    1552,
    1552,
    1552,
    1552,
    0,
    0,
    1552,
    1552,
    0,
    0,
    0,
    0,
    0,
    0,
    0,
    0,
    0,
    0,
    0,
    0,
    0,
    0,
    0,
    0,
    0,
    0,
    0,
    0,
    0,
    0,
    0,
    0,
    0,
    0,
    0,
    0,
    0,
    0,
    0,
    0,
    0,
    0,
    0,
    0,
    0,
    0,
    0,
    0,
    0,
    0,
    0,
    0,
    0,
    0,
    0,
    0,
    0,
    0,
    0,
    0,
    0,
    0,
    0,
    0,
    0,
    0,
    0,
    0,
    0,
    0,
    0,
    1552,
    1552,
    0,
    0,
    0,
    0,
    0,
    0,
    0,
    0,
    0,
    0,
    0,
    0,
    0,
    0,
    0,
    0,
    0,
    0,
    0,
    0,
    0,
    0,
    0,
    0,
    0,
    0,
    0,
    0,
    0,
    0,
    0,
    0,
    0,
    0,
    0,
    0,
    0,
    0,
    0,
    0,
    0,
    0,
    0,
    0,
    0,
    0,
    0,
    1552,
    1552,
    0,
    0,
    0,
    0,
    0,
    1552,
    0,
    1552,
    1552,
    1552,
    0,
    0,
    0,
    0,
    0,
    0,
    0,
    0,
    0,
    1552,
    1552,
    1552,
    1552,
    1552,
    1552,
    1552,
    0,
    0,
    0,
    0,
    0,
    0,
    0,
    0,
    0,
    0,
    0,
    0,
    0,
    0,
    0,
    0,
    0,
    0,
    0,
    0,
    0,
    0,
    0,
    0,
    0,
    0,
    0,
    0,
    0,
    0,
    0,
    0,
    0,
    0,
    0,
    0,
    0,
    0,
    0,
    0,
    0,
    0,
    0,
    1552,
    1552,
    0,
    0,
    0,
    0,
    1552,
    0,
    1552,
    1552,
    0,
    0,
    0,
    0,
    0,
    0,
    0,
    0,
    0,
    0,
    0,
    0,
    0,
    0,
    0,
    0,
    0,
    0,
    0,
    0,
    0,
    0,
    0,
    0,
    0,
    0,
    0,
    0,
    0,
    0,
    0,
    0,
    0,
    0,
    0,
    0,
    0,
    0,
    0,
    0,
    0,
    0,
    0,
    0,
    0,
    1552,
    0,
    1552,
    1552,
    0,
    0,
    0,
    0,
    0,
    0,
    1552,
    1552,
    1552,
    1552,
    0,
    0,
    0,
    0,
    0,
    0,
    0,
    0,
    1552,
    1552,
    0,
    0,
    0,
    0,
    0,
    0,
    1552,
    0,
    0,
    0,
    0,
    0,
    0,
    0,
    0,
    0,
    0,
    0,
    0,
    0,
    0,
    0,
    0,
    0,
    0,
    0,
    0,
    0,
    0,
    0,
    0,
    0,
    0,
    0,
    0,
    0,
    0,
    0,
    0,
    0,
    0,
    0,
    0,
    0,
    0,
    0,
    0,
    0,
    1552,
    1552,
    0,
    0,
    0,
    0,
    0,
    0,
    0,
    1552,
    1552,
    0,
    0,
    0,
    0,
    0,
    0,
    0,
    0,
    0,
    0,
    0,
    0,
    0,
    0,
    0,
    0,
    0,
    0,
    0,
    0,
    0,
    0,
    0,
    0,
    0,
    0,
    0,
    0,
    0,
    0,
    0,
    0,
    0,
    0,
    0,
    0,
    0,
    0,
    0,
    0,
    0,
    0,
    0,
    0,
    0,
    0,
    1552,
    1552,
    1552,
    0,
    1552,
    0,
    0,
    0,
    0,
    1552,
    1552,
    0,
    1552,
    0,
    0,
    0,
    0,
    0,
    0,
    0,
    1552,
    1552,
    0,
    0,
    0,
    0,
    0,
    0,
    0,
    1552,
    0,
    0,
    0,
    0,
    0,
    0,
    1552,
    1552,
    1552,
    1552,
    1552,
    0,
    0,
    0,
    0,
    0,
    0,
    0,
    0,
    0,
    0,
    0,
    0,
    0,
    0,
    0,
    0,
    0,
    0,
    0,
    0,
    0,
    0,
    0,
    0,
    0,
    0,
    0,
    0,
    0,
    1552,
    1552,
    1552,
    0,
    0,
    0,
    0,
    0,
    0,
    0,
    1552,
    1552,
    0,
    0,
    0,
    0,
    0,
    0,
    0,
    0,
    0,
    0,
    0,
    0,
    0,
    0,
    0,
    0,
    0,
    0,
    0,
    0,
    0,
    1552,
    0,
    0,
    0,
    0,
    0,
    0,
    0,
    0,
    0,
    0,
    0,
    0,
    0,
    0,
    0,
    0,
    0,
    0,
    0,
    0,
    0,
    0,
    0,
    1552,
    1552,
    1552,
    0,
    1552,
    1552,
    0,
    0,
    0,
    0,
    0,
    0,
    1552,
    1552,
    0,
    0,
    0,
    0,
    0,
    0,
    0,
    1552,
    1552,
    0,
    0,
    1552,
    1552,
    0,
    0,
    0,
    1552,
    1552,
    0,
    0,
    0,
    0,
    0,
    0,
    0,
    0,
    0,
    1552,
    1552,
    0,
    0,
    0,
    0,
    0,
    0,
    0,
    0,
    0,
    0,
    0,
    0,
    0,
    0,
    0,
    0,
    0,
    0,
    0,
    0,
    0,
    0,
    0,
    0,
    0,
    0,
    0,
    1552,
    1552,
    0,
    0,
    0,
    0,
    0,
    0,
    0,
    0,
    0,
    1552,
    1552,
    0,
    0,
    0,
    0,
    0,
    0,
    0,
    0,
    0,
    0,
    0,
    0,
    0,
    0,
    0,
    0,
    0,
    0,
    0,
    0,
    0,
    0,
    0,
    0,
    0,
    0,
    0,
    0,
    0,
    0,
    0,
    0,
    0,
    0,
    0,
    0,
    0,
    0,
    0,
    0,
    0,
    0,
    0,
    0,
    0,
    1552,
    1552,
    1552,
    1552,
    1552,
    1552,
    0,
    0,
    0,
    0,
    0,
    0,
    1552,
    1552,
    0,
    0,
    0,
    0,
    0,
    0,
    0,
    1552,
    1552,
    0,
    0,
    0,
    1552,
    1552,
    1552,
    0,
    0,
    1552,
    0,
    0,
    0,
    0,
    0,
    0,
    0,
    0,
    0,
    0,
    1552,
    0,
    0,
    0,
    0,
    0,
    0,
    0,
    0,
    0,
    0,
    0,
    0,
    0,
    0,
    0,
    0,
    0,
    0,
    0,
    0,
    0,
    0,
    0,
    0,
    0,
    0,
    0,
    0,
    1552,
    0,
    0,
    0,
    0,
    0,
    0,
    0,
    0,
    0,
    1552,
    1552,
    0,
    0,
    0,
    0,
    0,
    0,
    0,
    0,
    0,
    0,
    0,
    0,
    0,
    0,
    0,
    0,
    0,
    0,
    0,
    0,
    0,
    0,
    0,
    0,
    0,
    0,
    0,
    0,
    0,
    0,
    0,
    0,
    0,
    0,
    0,
    0,
    0,
    0,
    0,
    0,
    0,
    0,
    0,
    0,
    1552,
    0,
    1552,
    1552,
    1552,
    1552,
    1552,
    1552,
    0,
    0,
    0,
    0,
    0,
    0,
    1552,
    0,
    0,
    0,
    0,
    0,
    0,
    0,
    1552,
    1552,
    0,
    0,
    1552,
    1552,
    1552,
    1552,
    0,
    0,
    0,
    1552,
    1552,
    0,
    0,
    0,
    0,
    0,
    0,
    0,
    0,
    0,
    1552,
    1552,
    0,
    0,
    0,
    0,
    0,
    0,
    1552,
    0,
    0,
    1552,
    0,
    0,
    0,
    0,
    0,
    0,
    0,
    0,
    0,
    0,
    0,
    0,
    0,
    1552,
    0,
    1552,
    1552,
    1552,
    0,
    0,
    0,
    0,
    0,
    0,
    0,
    0,
    1552,
    1552,
    0,
    0,
    0,
    0,
    0,
    0,
    0,
    0,
    0,
    0,
    0,
    0,
    0,
    0,
    0,
    0,
    0,
    0,
    0,
    0,
    0,
    0,
    0,
    0,
    0,
    0,
    0,
    0,
    0,
    0,
    0,
    0,
    0,
    0,
    0,
    0,
    0,
    0,
    0,
    0,
    0,
    0,
    0,
    0,
    1552,
    1552,
    1552,
    1552,
    0,
    0,
    1552,
    1552,
    0,
    0,
    0,
    0,
    0,
    0,
    1552,
    1552,
    0,
    0,
    0,
    0,
    0,
    0,
    1552,
    1552,
    0,
    0,
    0,
    1552,
    1552,
    1552,
    1552,
    0,
    0,
    0,
    1552,
    1552,
    0,
    0,
    0,
    0,
    0,
    0,
    0,
    0,
    0,
    1552,
    1552,
    0,
    0,
    0,
    0,
    0,
    0,
    1552,
    1552,
    1552,
    0,
    1552,
    0,
    1552,
    1552,
    0,
    0,
    0,
    0,
    0,
    0,
    1552,
    1552,
    1552,
    1552,
    0,
    0,
    1552,
    0,
    0,
    0,
    0,
    0,
    0,
    0,
    0,
    0,
    1552,
    0,
    0,
    0,
    0,
    0,
    0,
    0,
    0,
    0,
    0,
    0,
    0,
    0,
    0,
    0,
    0,
    0,
    0,
    0,
    0,
    0,
    0,
    0,
    0,
    0,
    0,
    0,
    0,
    0,
    0,
    0,
    0,
    0,
    0,
    0,
    0,
    0,
    0,
    0,
    0,
    0,
    0,
    0,
    0,
    1552,
    1552,
    1552,
    1552,
    1552,
    1552,
    1552,
    0,
    0,
    0,
    0,
    0,
    0,
    1552,
    1552,
    0,
    0,
    0,
    0,
    0,
    0,
    0,
    1552,
    1552,
    0,
    0,
    0,
    0,
    0,
    1552,
    1552,
    1552,
    1552,
    0,
    0,
    1552,
    0,
    0,
    0,
    0,
    0,
    0,
    0,
    0,
    0,
    0,
    1552,
    0,
    0,
    0,
    0,
    1552,
    0,
    1552,
    1552,
    1552,
    1552,
    0,
    0,
    1552,
    1552,
    0,
    0,
    0,
    0,
    0,
    0,
    1552,
    1552,
    1552,
    1552,
    1552,
    0,
    0,
    1552,
    1552,
    0,
    0,
    0,
    0,
    0,
    0,
    0,
    0,
    1552,
    1552,
    0,
    0,
    0,
    0,
    0,
    0,
    0,
    1552,
    0,
    0,
    0,
    0,
    0,
    0,
    0,
    0,
    0,
    0,
    0,
    0,
    0,
    0,
    0,
    0,
    0,
    0,
    0,
    0,
    0,
    0,
    0,
    0,
    0,
    0,
    0,
    0,
    0,
    0,
    1552,
    0,
    0,
    0,
    1552,
    1552,
    1552,
    1552,
    1552,
    1552,
    1552,
    0,
    1552,
    0,
    0,
    0,
    0,
    1552,
    1552,
    1552,
    1552,
    1552,
    0,
    0,
    0,
    0,
    0,
    1552,
    1552,
    0,
    0,
    0,
    1552,
    1552,
    1552,
    1552,
    1552,
    0,
    0,
    0,
    1552,
    0,
    0,
    0,
    1552,
    1552,
    0,
    0,
    0,
    0,
    0,
    1552,
    1552,
    0,
    0,
    0,
    0,
    0,
    1552,
    1552,
    1552,
    1552,
    1552,
    1552,
    1552,
    1552,
    0,
    0,
    0,
    0,
    1552,
    0,
    1552,
    1552,
    1552,
    1552,
    0,
    0,
    0,
    1552,
    1552,
    0,
    0,
    0,
    0,
    0,
    0,
    0,
    0,
    1552,
    1552,
    0,
    0,
    0,
    0,
    1552,
    1552,
    0,
    1552,
    1552,
    0,
    0,
    0,
    0,
    1552,
    1552,
    0,
    0,
    0,
    0,
    0,
    0,
    0,
    0,
    0,
    0,
    0,
    0,
    0,
    0,
    0,
    0,
    0,
    0,
    0,
    0,
    0,
    0,
    0,
    0,
    0,
    1552,
    0,
    1552,
    1552,
    1552,
    1552,
    1552,
    1552,
    1552,
    0,
    0,
    0,
    0,
    1552,
    1552,
    1552,
    1552,
    1552,
    1552,
    0,
    0,
    0,
    0,
    0,
    1552,
    1552,
    0,
    0,
    0,
    0,
    1552,
    1552,
    1552,
    1552,
    1552,
    0,
    0,
    0,
    0,
    0,
    0,
    0,
    1552,
    1552,
    0,
    0,
    0,
    0,
    0,
    1552,
    1552,
    0,
    0,
    1552,
    1552,
    1552,
    1552,
    1552,
    1552,
    1552,
    1552,
    1552,
    0,
    0,
    0,
    0,
    0,
    0,
    1552,
    1552,
    1552,
    1552,
    1552,
    1552,
    0,
    0,
    1552,
    1552,
    0,
    0,
    0,
    0,
    0,
    0,
    0,
    0,
    1552,
    1552,
    0,
    0,
    0,
    1552,
    1552,
    1552,
    1552,
    1552,
    1552,
    1552,
    1552,
    1552,
    0,
    1552,
    1552,
    0,
    0,
    0,
    0,
    0,
    0,
    1552,
    1552,
    0,
    0,
    0,
    0,
    0,
    0,
    0,
    0,
    0,
    0,
    0,
    0,
    0,
    0,
    0,
    1552,
    0,
    1552,
    1552,
    1552,
    1552,
    1552,
    1552,
    1552,
    1552,
    1552,
    0,
    0,
    0,
    0,
    1552,
    1552,
    1552,
    1552,
    1552,
    0,
    1552,
    0,
    0,
    0,
    0,
    0,
    1552,
    1552,
    0,
    0,
    0,
    0,
    0,
    0,
    1552,
    0,
    0,
    0,
    0,
    0,
    0,
    0,
    0,
    0,
    1552,
    0,
    0,
    0,
    0,
    0,
    1552,
    1552,
    0,
    0,
    1552,
    1552,
    0,
    1552,
    1552,
    1552,
    1552,
    1552,
    0,
    0,
    0,
    0,
    0,
    1552,
    1552,
    1552,
    1552,
    1552,
    1552,
    1552,
    1552,
    0,
    0,
    1552,
    1552,
    0,
    0,
    0,
    0,
    0,
    0,
    0,
    0,
    1552,
    1552,
    0,
    0,
    1552,
    1552,
    0,
    1552,
    1552,
    1552,
    1552,
    1552,
    1552,
    0,
    1552,
    1552,
    0,
    0,
    0,
    0,
    0,
    1552,
    1552,
    1552,
    1552,
    1552,
    0,
    0,
    0,
    0,
    0,
    0,
    0,
    0,
    0,
    0,
    0,
    0,
    0,
    0,
    0,
    0,
    1552,
    1552,
    1552,
    1552,
    1552,
    1552,
    1552,
    0,
    0,
    0,
    0,
    0,
    0,
    0,
    1552,
    1552,
    1552,
    1552,
    1552,
    0,
    0,
    0,
    0,
    0,
    0,
    1552,
    1552,
    1552,
    1552,
    0,
    0,
    0,
    0,
    0,
    0,
    0,
    0,
    0,
    0,
    0,
    0,
    0,
    0,
    1552,
    1552,
    0,
    0,
    0,
    0,
    1552,
    1552,
    0,
    0,
    0,
    0,
    1552,
    0,
    0,
    1552,
    0,
    0,
    0,
    0,
    0,
    0,
    0,
    0,
    1552,
    1552,
    1552,
    1552,
    1552,
    1552,
    1552,
    0,
    0,
    1552,
    1552,
    0,
    0,
    0,
    0,
    0,
    0,
    0,
    0,
    1552,
    1552,
    0,
    0,
    1552,
    1552,
    1552,
    1552,
    1552,
    1552,
    1552,
    1552,
    0,
    1552,
    1552,
    1552,
    0,
    0,
    0,
    0,
    1552,
    1552,
    1552,
    1552,
    1552,
    1552,
    0,
    0,
    0,
    0,
    0,
    0,
    0,
    0,
    0,
    0,
    0,
    1552,
    1552,
    1552,
    0,
    1552,
    1552,
    1552,
    1552,
    1552,
    1552,
    1552,
    0,
    1552,
    1552,
    0,
    0,
    0,
    0,
    0,
    1552,
    1552,
    0,
    1552,
    1552,
    0,
    0,
    0,
    0,
    0,
    0,
    0,
    1552,
    1552,
    1552,
    1552,
    0,
    0,
    0,
    0,
    0,
    0,
    0,
    0,
    0,
    0,
    0,
    0,
    0,
    1552,
    1552,
    0,
    0,
    0,
    0,
    1552,
    1552,
    0,
    0,
    0,
    1552,
    0,
    0,
    0,
    0,
    0,
    0,
    0,
    0,
    0,
    0,
    0,
    0,
    0,
    1552,
    1552,
    0,
    1552,
    0,
    1552,
    0,
    0,
    1552,
    1552,
    0,
    0,
    0,
    0,
    0,
    0,
    0,
    0,
    1552,
    1552,
    0,
    0,
    0,
    1552,
    1552,
    0,
    1552,
    0,
    1552,
    1552,
    1552,
    1552,
    0,
    0,
    0,
    0,
    0,
    0,
    1552,
    1552,
    1552,
    1552,
    1552,
    1552,
    1552,
    0,
    0,
    0,
    0,
    0,
    0,
    0,
    0,
    0,
    0,
    1552,
    1552,
    0,
    1552,
    1552,
    1552,
    1552,
    1552,
    0,
    1552,
    1552,
    1552,
    1552,
    1552,
    0,
    0,
    0,
    1552,
    1552,
    1552,
    1552,
    1552,
    1552,
    1552,
    0,
    1552,
    1552,
    1552,
    0,
    0,
    0,
    0,
    0,
    1552,
    1552,
    1552,
    0,
    0,
    0,
    0,
    0,
    0,
    0,
    0,
    0,
    0,
    1552,
    1552,
    1552,
    0,
    0,
    0,
    0,
    0,
    1552,
    1552,
    0,
    0,
    0,
    0,
    0,
    0,
    0,
    0,
    0,
    0,
    0,
    0,
    0,
    0,
    0,
    0,
    0,
    0,
    0,
    1552,
    0,
    1552,
    0,
    0,
    0,
    1552,
    1552,
    0,
    0,
    0,
    0,
    0,
    0,
    0,
    0,
    1552,
    1552,
    0,
    0,
    0,
    1552,
    1552,
    0,
    0,
    0,
    1552,
    1552,
    0,
    0,
    0,
    0,
    0,
    0,
    0,
    0,
    0,
    1552,
    1552,
    1552,
    1552,
    1552,
    1552,
    0,
    0,
    0,
    0,
    0,
    0,
    0,
    1552,
    0,
    0,
    0,
    1552,
    1552,
    1552,
    1552,
    1552,
    1552,
    1552,
    1552,
    1552,
    1552,
    1552,
    1552,
    0,
    0,
    0,
    0,
    1552,
    1552,
    1552,
    1552,
    1552,
    1552,
    0,
    1552,
    1552,
    1552,
    1552,
    0,
    0,
    0,
    0,
    0,
    0,
    0,
    1552,
    1552,
    0,
    0,
    0,
    0,
    0,
    0,
    1552,
    1552,
    1552,
    1552,
    1552,
    1552,
    0,
    0,
    0,
    0,
    0,
    1552,
    1552,
    0,
    0,
    0,
    0,
    0,
    0,
    0,
    0,
    0,
    0,
    0,
    0,
    0,
    0,
    0,
    0,
    0,
    0,
    0,
    0,
    0,
    0,
    0,
    0,
    0,
    1552,
    1552,
    0,
    0,
    0,
    0,
    0,
    0,
    0,
    0,
    1552,
    1552,
    0,
    0,
    0,
    0,
    0,
    0,
    0,
    0,
    0,
    0,
    0,
    0,
    0,
    0,
    0,
    0,
    0,
    1552,
    1552,
    1552,
    1552,
    1552,
    1552,
    0,
    0,
    0,
    0,
    0,
    0,
    0,
    1552,
    1552,
    0,
    0,
    1552,
    1552,
    1552,
    1552,
    1552,
    1552,
    1552,
    1552,
    1552,
    1552,
    1552,
    1552,
    1552,
    1552,
    0,
    0,
    0,
    1552,
    1552,
    1552,
    0,
    1552,
    1552,
    1552,
    1552,
    1552,
    1552,
    1552,
    1552,
    1552,
    0,
    0,
    0,
    0,
    0,
    0,
    1552,
    1552,
    1552,
    1552,
    1552,
    1552,
    1552,
    1552,
    1552,
    1552,
    1552,
    0,
    0,
    0,
    0,
    0,
    0,
    0,
    0,
    1552,
    1552,
    0,
    0,
    0,
    0,
    0,
    0,
    0,
    0,
    0,
    0,
    0,
    0,
    0,
    0,
    0,
    0,
    0,
    0,
    0,
    0,
    1552,
    0,
    0,
    0,
    0,
    0,
    1552,
    0,
    0,
    0,
    0,
    0,
    0,
    0,
    0,
    0,
    1552,
    0,
    0,
    0,
    0,
    0,
    0,
    0,
    0,
    0,
    0,
    0,
    0,
    0,
    0,
    0,
    0,
    0,
    1552,
    1552,
    1552,
    0,
    1552,
    0,
    0,
    0,
    0,
    0,
    0,
    1552,
    1552,
    1552,
    1552,
    0,
    0,
    1552,
    1552,
    1552,
    0,
    1552,
    1552,
    1552,
    1552,
    1552,
    1552,
    1552,
    1552,
    0,
    0,
    0,
    0,
    0,
    1552,
    1552,
    0,
    0,
    1552,
    1552,
    0,
    1552,
    1552,
    1552,
    1552,
    1552,
    1552,
    1552,
    0,
    0,
    0,
    0,
    0,
    0,
    1552,
    1552,
    1552,
    1552,
    1552,
    1552,
    1552,
    0,
    0,
    0,
    0,
    0,
    0,
    0,
    0,
    0,
    0,
    0,
    1552,
    1552,
    0,
    0,
    0,
    0,
    0,
    0,
    0,
    0,
    0,
    0,
    0,
    0,
    0,
    0,
    0,
    0,
    0,
    0,
    0,
    0,
    0,
    1552,
    1552,
    0,
    0,
    0,
    0,
    1552,
    0,
    0,
    0,
    0,
    0,
    0,
    0,
    0,
    0,
    1552,
    0,
    0,
    0,
    0,
    0,
    0,
    0,
    0,
    0,
    0,
    0,
    0,
    0,
    0,
    0,
    0,
    0,
    0,
    1552,
    0,
    0,
    0,
    0,
    0,
    0,
    0,
    0,
    1552,
    1552,
    0,
    1552,
    1552,
    1552,
    0,
    1552,
    1552,
    1552,
    1552,
    1552,
    1552,
    1552,
    1552,
    1552,
    1552,
    1552,
    0,
    0,
    0,
    0,
    0,
    0,
    1552,
    1552,
    1552,
    1552,
    1552,
    1552,
    1552,
    1552,
    1552,
    1552,
    1552,
    1552,
    1552,
    1552,
    0,
    0,
    0,
    0,
    0,
    0,
    0,
    0,
    0,
    0,
    0,
    0,
    0,
    0,
    0,
    0,
    1552,
    1552,
    0,
    0,
    0,
    0,
    1552,
    1552,
    0,
    0,
    0,
    0,
    0,
    0,
    0,
    0,
    0,
    0,
    0,
    0,
    0,
    0,
    0,
    0,
    0,
    0,
    0,
    0,
    0,
    0,
    1552,
    1552,
    1552,
    0,
    0,
    0,
    0,
    0,
    0,
    0,
    0,
    0,
    0,
    0,
    0,
    0,
    0,
    0,
    0,
    0,
    0,
    0,
    0,
    0,
    0,
    0,
    0,
    0,
    0,
    0,
    0,
    0,
    0,
    0,
    0,
    0,
    0,
    0,
    0,
    0,
    0,
    0,
    0,
    0,
    0,
    1552,
    1552,
    1552,
    1552,
    1552,
    1552,
    1552,
    1552,
    1552,
    1552,
    1552,
    1552,
    1552,
    1552,
    1552,
    1552,
    1552,
    1552,
    0,
    0,
    0,
    0,
    1552,
    1552,
    1552,
    1552,
    1552,
    1552,
    1552,
    0,
    1552,
    1552,
    1552,
    1552,
    1552,
    1552,
    0,
    0,
    0,
    0,
    0,
    0,
    0,
    0,
    0,
    0,
    0,
    0,
    0,
    0,
    0,
    0,
    1552,
    1552,
    0,
    0,
    0,
    1552,
    1552,
    1552,
    1552,
    0,
    1552,
    0,
    0,
    0,
    0,
    0,
    0,
    0,
    0,
    0,
    0,
    0,
    0,
    0,
    0,
    0,
    0,
    0,
    0,
    0,
    0,
    0,
    0,
    0,
    0,
    0,
    0,
    0,
    0,
    0,
    0,
    0,
    0,
    0,
    0,
    0,
    0,
    0,
    0,
    0,
    0,
    0,
    0,
    0,
    0,
    0,
    0,
    0,
    0,
    0,
    0,
    0,
    0,
    0,
    0,
    0,
    0,
    0,
    0,
    0,
    0,
    0,
    0,
    0,
    0,
    0,
    1552,
    1552,
    0,
    1552,
    1552,
    0,
    1552,
    1552,
    1552,
    1552,
    1552,
    1552,
    1552,
    1552,
    1552,
    1552,
    1552,
    1552,
    0,
    0,
    0,
    0,
    1552,
    1552,
    1552,
    1552,
    1552,
    0,
    1552,
    1552,
    1552,
    1552,
    1552,
    1552,
    1552,
    1552,
    1552,
    1552,
    0,
    0,
    0,
    0,
    0,
    0,
    0,
    0,
    0,
    0,
    0,
    0,
    1552,
    1552,
    1552,
    1552,
    0,
    0,
    1552,
    1552,
    1552,
    0,
    0,
    0,
    0,
    0,
    0,
    0,
    0,
    0,
    0,
    0,
    0,
    0,
    0,
    0,
    0,
    0,
    0,
    0,
    0,
    0,
    0,
    0,
    0,
    0,
    0,
    0,
    0,
    0,
    0,
    0,
    0,
    0,
    0,
    0,
    0,
    0,
    0,
    0,
    0,
    0,
    0,
    0,
    0,
    0,
    0,
    0,
    0,
    0,
    0,
    0,
    0,
    0,
    0,
    0,
    0,
    0,
    0,
    0,
    0,
    0,
    0,
    0,
    0,
    0,
    0,
    0,
    0,
    0,
    0,
    0,
    0,
    1552,
    1552,
    0,
    0,
    0,
    0,
    0,
    0,
    1552,
    1552,
    0,
    1552,
    1552,
    0,
    0,
    0,
    0,
    0,
    0,
    1552,
    1552,
    1552,
    1552,
    1552,
    1552,
    1552,
    1552,
    1552,
    1552,
    1552,
    1552,
    1552,
    1552,
    1552,
    0,
    0,
    0,
    0,
    0,
    0,
    0,
    0,
    0,
    1552,
    1552,
    1552,
    1552,
    1552,
    1552,
    0,
    0,
    0,
    0,
    1552,
    0,
    0,
    0,
    0,
    0,
    0,
    0,
    0,
    0,
    0,
    0,
    0,
    0,
    0,
    0,
    0,
    0,
    0,
    0,
    0,
    0,
    0,
    0,
    0,
    0,
    0,
    0,
    0,
    0,
    0,
    0,
    0,
    0,
    0,
    0,
    0,
    0,
    0,
    0,
    0,
    0,
    0,
    0,
    0,
    0,
    0,
    0,
    0,
    0,
    0,
    0,
    0,
    0,
    0,
    0,
    0,
    0,
    0,
    0,
    0,
    0,
    0,
    0,
    0,
    0,
    0,
    0,
    0,
    0,
    0,
    0,
    0,
    0,
    0,
    0,
    0,
    0,
    0,
    0,
    0,
    0,
    0,
    0,
    0,
    0,
    0,
    0,
    0,
    0,
    0,
    0,
    0,
    0,
    0,
    1552,
    1552,
    1552,
    1552,
    1552,
    1552,
    1552,
    1552,
    1552,
    1552,
    1552,
    1552,
    1552,
    0,
    1552,
    0,
    0,
    0,
    0,
    0,
    0,
    1552,
    1552,
    1552,
    1552,
    1552,
    1552,
    0,
    0,
    0,
    0,
    0,
    0,
    0,
    0,
    0,
    0,
    0,
    0,
    0,
    0,
    0,
    0,
    0,
    0,
    0,
    0,
    0,
    0,
    0,
    0,
    0,
    0,
    0,
    0,
    0,
    0,
    0,
    0,
    0,
    0,
    0,
    0,
    0,
    0,
    0,
    0,
    0,
    0,
    0,
    0,
    0,
    0,
    0,
    0,
    0,
    0,
    0,
    0,
    0,
    0,
    0,
    0,
    0,
    0,
    0,
    0,
    0,
    0,
    0,
    0,
    0,
    0,
    0,
    0,
    0,
    0,
    0,
    0,
    0,
    0,
    0,
    0,
    0,
    0,
    0,
    0,
    0,
    0,
    0,
    0,
    0,
    0,
    0,
    0,
    0,
    0,
    0,
    0,
    0,
    0,
    0,
    0,
    0,
    0,
    0,
    1552,
    0,
    1552,
    1552,
    1552,
    1552,
    1552,
    1552,
    1552,
    1552,
    1552,
    1552,
    1552,
    1552,
    1552,
    0,
    0,
    0,
    0,
    0,
    0,
    1552,
    1552,
    1552,
    1552,
    0,
    0,
    0,
    0,
    0,
    0,
    0,
    0,
    0,
    0,
    0,
    0,
    0,
    0,
    0,
    0,
    0,
    0,
    0,
    0,
    0,
    0,
    0,
    1552,
    0,
    0,
    0,
    0,
    0,
    0,
    0,
    0,
    0,
    0,
    0,
    0,
    0,
    0,
    0,
    0,
    0,
    0,
    0,
    0,
    0,
    0,
    0,
    0,
    0,
    0,
    1552,
    1552,
    0,
    0,
    0,
    0,
    0,
    0,
    0,
    0,
    0,
    0,
    0,
    0,
    0,
    1552,
    0,
    0,
    0,
    0,
    0,
    0,
    0,
    0,
    0,
    0,
    0,
    0,
    0,
    0,
    0,
    0,
    0,
    0,
    0,
    0,
    0,
    0,
    0,
    0,
    0,
    0,
    0,
    0,
    0,
    0,
    0,
    0,
    0,
    0,
    0,
    0,
    0,
    1552,
    0,
    0,
    1552,
    1552,
    1552
   ]
  }
 ]
}
