{
 "type": "map",
 "version": 1.1,
 "tiledversion": "1.11.0",
 "orientation": "orthogonal",
 "renderorder": "right-down",
 "width": 128,
 "height": 128,
 "tilewidth": 40,
 "tileheight": 40,
 "infinite": false,
 "nextlayerid": 5,
 "nextobjectid": 1,
 "compressionlevel": -1,
 "properties": [],
 "tilesets": [
  {
   "firstgid": 1,
   "source": "terrain.tsx"
  }
 ],
 "layers": [
  {
   "id": 1,
   "name": "terrain",
   "type": "tilelayer",
   "x": 0,
   "y": 0,
   "width": 128,
   "height": 128,
   "opacity": 1,
   "visible": true,
   "data": [
    1388,
    70,
    49,
    49,
    49,
    49,
    49,
    49,
    49,
    38,
    1384,
    1201,
    1201,
    1217,
    1218,
    1217,
    1218,
    1217,
    1223,
    1218,
    1217,
    1223,
    1218,
    1217,
    1223,
    1218,
    1245,
    1246,
    1387,
    1386,
    1386,
    1383,
    1386,
    1388,
    1386,
    1384,
    1385,
    1384,
    1384,
    1387,
    1388,
    411,
    412,
    1076,
    1077,
    1076,
    1077,
    1077,
    1077,
    1076,
    1077,
    1077,
    1076,
    1077,
    411,
    412,
    1383,
    1383,
    1388,
    1384,
    1385,
    1388,
    1383,
    1384,
    1383,
    1386,
    1385,
    1388,
    1383,
    1384,
    1383,
    1383,
    1387,
    1384,
    1385,
    1386,
    1386,
    1388,
    1387,
    1384,
    1387,
    1388,
    1387,
    1384,
    1384,
    1386,
    1383,
    1388,
    1385,
    1383,
    1383,
    1384,
    1385,
    1387,
    1385,
    1387,
    1386,
    1385,
    1387,
    1388,
    1385,
    1384,
    1385,
    1384,
    1383,
    1386,
    1388,
    1387,
    1384,
    1385,
    1388,
    1387,
    1387,
    1385,
    1384,
    1386,
    1387,
    1387,
    1383,
    1388,
    1387,
    1386,
    1386,
    1388,
    1388,
    1386,
    1383,
    1388,
    1384,
    68,
    65,
    65,
    65,
    65,
    65,
    65,
    65,
    37,
    1290,
    1202,
    1202,
    1219,
    1220,
    1219,
    1220,
    1219,
    326,
    1220,
    1219,
    326,
    1220,
    1219,
    326,
    1220,
    1261,
    1262,
    1385,
    1384,
    1387,
    1383,
    1385,
    1385,
    1385,
    1388,
    1385,
    1384,
    1386,
    408,
    409,
    587,
    588,
    305,
    305,
    305,
    305,
    305,
    305,
    305,
    305,
    305,
    305,
    305,
    587,
    588,
    505,
    506,
    1387,
    1388,
    1383,
    1384,
    1388,
    1385,
    1387,
    1384,
    1384,
    1384,
    1383,
    1388,
    1387,
    1388,
    1387,
    1385,
    1388,
    1385,
    1388,
    1384,
    1384,
    1388,
    1384,
    1384,
    1387,
    1386,
    1388,
    1384,
    1383,
    1383,
    1386,
    1386,
    1383,
    1383,
    1383,
    1386,
    1385,
    1383,
    1387,
    1384,
    1386,
    1387,
    1383,
    1383,
    1386,
    1385,
    1386,
    1388,
    1388,
    1385,
    1383,
    1383,
    1387,
    1383,
    1383,
    1386,
    1384,
    1388,
    1383,
    1383,
    1383,
    1385,
    1387,
    1383,
    1388,
    1385,
    1386,
    1386,
    1386,
    1387,
    52,
    53,
    1269,
    61,
    63,
    63,
    62,
    1269,
    2,
    21,
    22,
    1203,
    1202,
    1219,
    1220,
    1219,
    1220,
    1219,
    326,
    1220,
    1219,
    326,
    1220,
    1219,
    326,
    1220,
    1277,
    1278,
    1388,
    1384,
    1387,
    1388,
    1386,
    1387,
    1383,
    1387,
    1383,
    1384,
    1388,
    417,
    325,
    555,
    556,
    311,
    311,
    311,
    311,
    311,
    311,
    311,
    311,
    311,
    311,
    311,
    555,
    556,
    310,
    514,
    1290,
    1388,
    1384,
    1387,
    1388,
    1387,
    1388,
    1384,
    1387,
    1387,
    1385,
    1387,
    1387,
    1386,
    1388,
    1386,
    1387,
    1388,
    1387,
    1384,
    1388,
    1383,
    1385,
    1387,
    1383,
    1387,
    1383,
    1385,
    1384,
    1385,
    1383,
    1383,
    1388,
    1383,
    1385,
    1385,
    1384,
    1388,
    1384,
    1385,
    1385,
    1384,
    1388,
    1387,
    1384,
    1385,
    1384,
    1388,
    1387,
    1386,
    1383,
    1385,
    1385,
    1387,
    1383,
    1384,
    1383,
    1384,
    1387,
    1388,
    1388,
    1388,
    1384,
    1385,
    1383,
    1385,
    1387,
    1388,
    1385,
    1383,
    67,
    1271,
    1269,
    93,
    43,
    43,
    107,
    1267,
    3,
    1274,
    18,
    1201,
    1202,
    1221,
    1222,
    1219,
    1220,
    1221,
    1224,
    1222,
    1219,
    326,
    1220,
    1219,
    326,
    1220,
    1243,
    1244,
    1385,
    1388,
    1383,
    1383,
    1388,
    1384,
    1386,
    1387,
    1388,
    1384,
    402,
    403,
    328,
    571,
    572,
    327,
    327,
    327,
    327,
    327,
    327,
    327,
    327,
    327,
    327,
    327,
    571,
    572,
    228,
    515,
    516,
    1384,
    1385,
    1384,
    1386,
    1383,
    1387,
    1383,
    1384,
    1388,
    1383,
    1383,
    1387,
    1387,
    1386,
    1384,
    1383,
    1385,
    1384,
    1387,
    1386,
    1384,
    1383,
    1384,
    1383,
    1388,
    1387,
    1387,
    1386,
    1386,
    1386,
    1386,
    1383,
    1387,
    1388,
    1387,
    1384,
    1388,
    1384,
    1385,
    1384,
    1388,
    1385,
    1385,
    1384,
    1384,
    1123,
    1123,
    1123,
    1383,
    1387,
    1383,
    1388,
    1385,
    1387,
    1388,
    1387,
    1385,
    1384,
    1388,
    1387,
    1388,
    1388,
    1383,
    1385,
    1388,
    1385,
    1386,
    1385,
    1383,
    66,
    1,
    1269,
    92,
    42,
    42,
    106,
    1266,
    13,
    3,
    18,
    1202,
    1203,
    1217,
    1218,
    1219,
    1220,
    1217,
    1223,
    1218,
    1219,
    326,
    1220,
    1219,
    326,
    1220,
    1259,
    1260,
    1383,
    1388,
    1384,
    1383,
    1386,
    1385,
    1387,
    1387,
    1384,
    1385,
    417,
    330,
    331,
    2,
    2,
    4,
    2,
    1269,
    61,
    63,
    63,
    63,
    63,
    62,
    4,
    1,
    2,
    2,
    226,
    227,
    514,
    1290,
    1386,
    1385,
    1385,
    1388,
    1386,
    1387,
    1388,
    1384,
    1385,
    1385,
    1386,
    1384,
    1386,
    1388,
    1384,
    1385,
    1385,
    1383,
    1388,
    1386,
    1388,
    1386,
    1383,
    1385,
    1386,
    1384,
    1387,
    1385,
    1387,
    1388,
    1388,
    1387,
    1386,
    1385,
    1123,
    1125,
    1121,
    1123,
    1123,
    1123,
    1386,
    1384,
    1383,
    1124,
    1074,
    1074,
    1139,
    1122,
    1123,
    1384,
    1388,
    1383,
    1388,
    1387,
    1386,
    1385,
    1385,
    1386,
    1385,
    1383,
    1383,
    1386,
    1386,
    1386,
    1383,
    1384,
    1386,
    1384,
    50,
    14,
    1269,
    59,
    28,
    64,
    60,
    1268,
    15,
    3,
    18,
    1202,
    1201,
    1219,
    1220,
    1221,
    1222,
    1219,
    326,
    1220,
    1221,
    1224,
    1222,
    1219,
    326,
    1220,
    1275,
    1276,
    1385,
    1385,
    1388,
    1384,
    1388,
    1387,
    1388,
    1384,
    1387,
    402,
    403,
    312,
    1271,
    3,
    2,
    1,
    2,
    1269,
    93,
    43,
    43,
    43,
    43,
    107,
    1267,
    4,
    4,
    1,
    1274,
    212,
    515,
    516,
    1387,
    1385,
    1386,
    1388,
    1386,
    1384,
    1387,
    1383,
    1386,
    1385,
    1387,
    1388,
    1387,
    1383,
    1388,
    1387,
    1383,
    1385,
    1384,
    1388,
    1384,
    1388,
    1385,
    1386,
    1386,
    1386,
    1383,
    1383,
    1384,
    1387,
    1387,
    1384,
    1387,
    1124,
    1139,
    1154,
    1156,
    1139,
    1139,
    1139,
    1122,
    1123,
    1124,
    1139,
    1139,
    1154,
    1304,
    1156,
    1139,
    1122,
    1123,
    1123,
    1386,
    1387,
    1384,
    1388,
    1386,
    1386,
    1387,
    1384,
    1383,
    1386,
    1384,
    1386,
    1387,
    1385,
    1383,
    1383,
    50,
    3,
    2,
    3,
    2,
    1,
    2,
    3,
    31,
    3,
    18,
    1203,
    1203,
    1219,
    1220,
    916,
    916,
    1219,
    326,
    1220,
    1217,
    1223,
    1218,
    1221,
    1224,
    1222,
    1247,
    1248,
    1383,
    1383,
    1387,
    1383,
    1388,
    1385,
    1387,
    1386,
    1387,
    417,
    330,
    331,
    2,
    4,
    4,
    3,
    4,
    1269,
    92,
    42,
    42,
    42,
    42,
    106,
    1266,
    4,
    1,
    3,
    1,
    226,
    227,
    514,
    1290,
    1384,
    1387,
    1385,
    1386,
    1385,
    1385,
    1384,
    1388,
    1384,
    1385,
    1387,
    1385,
    1384,
    1386,
    1383,
    1384,
    1385,
    1387,
    1386,
    1383,
    1387,
    1384,
    1386,
    1386,
    1384,
    1386,
    1387,
    1384,
    1386,
    1388,
    1385,
    1125,
    1154,
    1155,
    1304,
    1304,
    1155,
    1155,
    1155,
    1156,
    1139,
    1154,
    1155,
    1155,
    1304,
    1319,
    1320,
    1304,
    1156,
    1139,
    1139,
    1122,
    1386,
    1383,
    1385,
    1388,
    1386,
    1386,
    1386,
    1384,
    1388,
    1386,
    1384,
    1388,
    1388,
    1385,
    1386,
    69,
    1272,
    475,
    476,
    4,
    1,
    2,
    475,
    476,
    1,
    18,
    1217,
    1218,
    1219,
    1220,
    1202,
    1202,
    1219,
    326,
    1220,
    1219,
    326,
    1220,
    1217,
    1223,
    1218,
    1263,
    1264,
    1383,
    1383,
    1386,
    1388,
    1386,
    1386,
    1076,
    1077,
    402,
    403,
    312,
    1271,
    1,
    1,
    4,
    1090,
    1092,
    1269,
    59,
    64,
    64,
    28,
    64,
    60,
    1268,
    1090,
    1092,
    3,
    3,
    1274,
    212,
    515,
    516,
    1386,
    1387,
    1385,
    1385,
    1383,
    1388,
    1388,
    1384,
    1383,
    1383,
    1383,
    1384,
    1385,
    1385,
    1387,
    1386,
    1387,
    1385,
    1383,
    1386,
    1387,
    1385,
    1384,
    1386,
    1383,
    1386,
    1388,
    1386,
    1384,
    1385,
    1124,
    1154,
    1304,
    1304,
    299,
    300,
    1319,
    1320,
    1304,
    1304,
    1155,
    1319,
    1320,
    719,
    1304,
    719,
    1304,
    299,
    300,
    1304,
    1304,
    1156,
    1121,
    1385,
    1388,
    1383,
    1384,
    1383,
    1386,
    1385,
    1388,
    1387,
    1385,
    1386,
    1385,
    1387,
    1386,
    57,
    58,
    491,
    492,
    1297,
    1298,
    1299,
    491,
    492,
    24,
    25,
    1219,
    1220,
    1221,
    1222,
    917,
    1202,
    1221,
    1224,
    1222,
    1219,
    326,
    1220,
    1219,
    326,
    1220,
    1279,
    1280,
    1385,
    1383,
    1383,
    1387,
    1076,
    1077,
    411,
    412,
    417,
    330,
    331,
    2,
    4,
    2,
    1090,
    411,
    412,
    1093,
    1090,
    1091,
    1091,
    1092,
    1090,
    1091,
    1091,
    411,
    412,
    1093,
    1,
    3,
    226,
    227,
    514,
    411,
    412,
    1385,
    1383,
    1384,
    1383,
    1387,
    1386,
    1383,
    1385,
    1387,
    1388,
    1388,
    1383,
    1387,
    1388,
    1387,
    1385,
    1386,
    1383,
    1384,
    1383,
    1385,
    1387,
    1383,
    1385,
    1385,
    1385,
    1388,
    1108,
    1169,
    1170,
    697,
    698,
    539,
    540,
    321,
    321,
    321,
    321,
    321,
    321,
    321,
    321,
    321,
    321,
    321,
    539,
    540,
    601,
    602,
    1304,
    1173,
    1106,
    1384,
    1388,
    1385,
    1387,
    1384,
    1384,
    1384,
    1383,
    1384,
    1388,
    1383,
    1383,
    1388,
    73,
    74,
    507,
    508,
    1313,
    1314,
    1315,
    507,
    508,
    40,
    41,
    1221,
    1222,
    1,
    916,
    916,
    1202,
    1217,
    1223,
    1218,
    1219,
    326,
    1220,
    1219,
    326,
    1220,
    1387,
    1385,
    1383,
    1385,
    1385,
    408,
    409,
    305,
    587,
    588,
    324,
    312,
    1271,
    3,
    2,
    1089,
    70,
    427,
    428,
    49,
    49,
    49,
    49,
    49,
    49,
    49,
    49,
    427,
    428,
    38,
    1092,
    1,
    1274,
    212,
    309,
    587,
    588,
    305,
    505,
    506,
    1383,
    1388,
    1387,
    1383,
    1384,
    1385,
    1386,
    1385,
    1383,
    1387,
    1387,
    1386,
    1383,
    1387,
    1388,
    1383,
    1388,
    1385,
    1387,
    1388,
    1386,
    1387,
    1383,
    1387,
    1124,
    1154,
    1304,
    705,
    325,
    555,
    556,
    311,
    311,
    311,
    311,
    311,
    311,
    311,
    311,
    311,
    311,
    311,
    555,
    556,
    310,
    610,
    1304,
    1157,
    1122,
    1387,
    1388,
    1387,
    1388,
    1384,
    1387,
    1387,
    1387,
    1383,
    1386,
    1385,
    1384,
    1386,
    1386,
    1384,
    523,
    524,
    1329,
    1330,
    1331,
    523,
    524,
    1165,
    1388,
    1,
    1,
    1,
    917,
    1202,
    917,
    1219,
    326,
    1220,
    1219,
    326,
    1220,
    1219,
    326,
    1220,
    1388,
    1385,
    1383,
    1076,
    1077,
    417,
    325,
    311,
    555,
    556,
    317,
    318,
    2,
    2,
    1090,
    1107,
    68,
    443,
    444,
    65,
    65,
    65,
    65,
    65,
    65,
    65,
    65,
    443,
    444,
    37,
    1108,
    1109,
    2,
    214,
    215,
    555,
    556,
    311,
    310,
    514,
    1290,
    1387,
    1383,
    1384,
    1385,
    1385,
    1383,
    1386,
    1386,
    1386,
    1383,
    1385,
    1384,
    1385,
    1386,
    1385,
    1385,
    1384,
    1383,
    1383,
    1388,
    1384,
    1386,
    1108,
    1169,
    1170,
    691,
    692,
    328,
    571,
    572,
    327,
    327,
    327,
    327,
    327,
    327,
    327,
    327,
    327,
    327,
    327,
    571,
    572,
    228,
    611,
    612,
    1304,
    1156,
    1121,
    1386,
    1383,
    1387,
    1383,
    1384,
    1388,
    1386,
    1384,
    1386,
    1386,
    1383,
    1386,
    1388,
    1384,
    1387,
    1164,
    1387,
    1387,
    1387,
    1384,
    1388,
    1387,
    411,
    412,
    1384,
    1385,
    1385,
    1202,
    1386,
    1219,
    326,
    1220,
    1219,
    326,
    1220,
    1219,
    326,
    1220,
    1384,
    1385,
    1384,
    1385,
    402,
    403,
    328,
    327,
    571,
    572,
    333,
    334,
    1,
    3,
    1122,
    52,
    53,
    459,
    460,
    1269,
    3,
    1269,
    3,
    1269,
    3,
    1269,
    4,
    459,
    460,
    21,
    22,
    1093,
    2,
    230,
    231,
    571,
    572,
    327,
    228,
    515,
    516,
    1388,
    1383,
    1383,
    1384,
    1388,
    1387,
    1388,
    1386,
    1385,
    1386,
    1386,
    1387,
    1388,
    1384,
    1386,
    1383,
    1387,
    1384,
    1383,
    1386,
    1385,
    1387,
    1124,
    1154,
    1304,
    705,
    330,
    331,
    2,
    2,
    4,
    2,
    1269,
    61,
    63,
    63,
    63,
    63,
    62,
    4,
    1,
    2,
    2,
    226,
    227,
    610,
    1304,
    1304,
    1173,
    1122,
    1388,
    1386,
    1387,
    1388,
    1384,
    1385,
    1384,
    1387,
    1385,
    1387,
    1386,
    1387,
    70,
    49,
    49,
    49,
    49,
    49,
    49,
    49,
    49,
    427,
    428,
    38,
    1386,
    1383,
    917,
    1388,
    1219,
    326,
    1220,
    1219,
    326,
    1220,
    1219,
    326,
    1220,
    1385,
    1386,
    1076,
    1077,
    417,
    330,
    331,
    2,
    3,
    1,
    1,
    1,
    3,
    1,
    1090,
    67,
    1271,
    4,
    61,
    63,
    63,
    61,
    63,
    63,
    62,
    63,
    63,
    62,
    3,
    1274,
    20,
    1107,
    1092,
    2,
    1,
    61,
    62,
    16,
    226,
    227,
    514,
    1290,
    1387,
    1384,
    1383,
    1385,
    1385,
    1385,
    1383,
    1387,
    1388,
    1386,
    1387,
    1388,
    1387,
    1385,
    1384,
    1385,
    1388,
    1384,
    1388,
    1387,
    1125,
    1154,
    1304,
    691,
    692,
    312,
    1271,
    3,
    2,
    1,
    2,
    1269,
    93,
    43,
    43,
    43,
    43,
    107,
    1267,
    4,
    4,
    1,
    1274,
    212,
    611,
    612,
    1304,
    1157,
    1105,
    1106,
    1386,
    1384,
    1387,
    1383,
    1387,
    1384,
    1384,
    1385,
    1383,
    1383,
    1386,
    68,
    65,
    65,
    65,
    65,
    65,
    65,
    65,
    65,
    443,
    444,
    37,
    1290,
    1165,
    1388,
    1384,
    1219,
    326,
    1220,
    1221,
    1224,
    1222,
    1219,
    326,
    1220,
    1387,
    1385,
    1384,
    402,
    403,
    312,
    1271,
    2,
    1,
    4,
    2,
    3,
    2,
    1090,
    52,
    53,
    4,
    3,
    93,
    43,
    43,
    93,
    43,
    43,
    107,
    44,
    43,
    107,
    1267,
    3,
    21,
    22,
    1108,
    1109,
    4,
    93,
    107,
    1267,
    1274,
    212,
    515,
    516,
    1388,
    1383,
    1388,
    1386,
    1386,
    1383,
    1387,
    1387,
    1383,
    1384,
    1386,
    1388,
    1385,
    1386,
    1387,
    1388,
    1387,
    1123,
    1123,
    1124,
    1169,
    1170,
    1283,
    705,
    330,
    331,
    2,
    4,
    4,
    3,
    4,
    1269,
    92,
    42,
    42,
    42,
    42,
    106,
    1266,
    4,
    1,
    3,
    1,
    226,
    227,
    610,
    1304,
    1304,
    1156,
    1122,
    1123,
    1385,
    1385,
    1384,
    1388,
    1386,
    1384,
    1387,
    1385,
    1387,
    52,
    53,
    1,
    1,
    1,
    1,
    1,
    1,
    1,
    1,
    459,
    460,
    21,
    22,
    1387,
    1385,
    1384,
    1219,
    326,
    1220,
    1217,
    1223,
    1218,
    1219,
    326,
    1220,
    1383,
    1383,
    1077,
    417,
    330,
    331,
    16,
    61,
    63,
    63,
    62,
    4,
    4,
    1122,
    67,
    1271,
    4,
    4,
    92,
    42,
    42,
    75,
    42,
    90,
    76,
    45,
    42,
    106,
    1266,
    3,
    1274,
    18,
    1108,
    1109,
    26,
    30,
    106,
    1266,
    3,
    226,
    227,
    514,
    1290,
    1383,
    1388,
    1387,
    1386,
    1384,
    1386,
    1383,
    1383,
    1388,
    1387,
    1387,
    1386,
    1385,
    1383,
    1386,
    1125,
    1139,
    1139,
    1139,
    1153,
    1304,
    691,
    692,
    312,
    1271,
    1,
    1,
    4,
    1090,
    1092,
    1269,
    59,
    64,
    64,
    28,
    64,
    60,
    1268,
    1090,
    1092,
    3,
    3,
    1274,
    212,
    611,
    612,
    1304,
    1304,
    1157,
    1139,
    1122,
    1388,
    1388,
    1387,
    1385,
    1383,
    1384,
    1387,
    1383,
    67,
    1271,
    1,
    1269,
    61,
    63,
    63,
    62,
    1269,
    1,
    2,
    4,
    3,
    20,
    1290,
    1384,
    1386,
    1219,
    326,
    1220,
    1219,
    326,
    1220,
    1221,
    1224,
    1222,
    1386,
    1386,
    402,
    403,
    312,
    1271,
    32,
    93,
    43,
    43,
    107,
    1267,
    2,
    1090,
    66,
    1,
    1,
    2,
    75,
    42,
    90,
    94,
    42,
    42,
    108,
    45,
    91,
    78,
    1266,
    1274,
    4,
    18,
    1124,
    4,
    3,
    59,
    60,
    1268,
    3,
    1274,
    212,
    515,
    516,
    1388,
    1385,
    1387,
    1383,
    1384,
    1387,
    1383,
    1386,
    1388,
    1383,
    1386,
    1384,
    1386,
    1385,
    1124,
    1154,
    1304,
    1304,
    1304,
    299,
    300,
    705,
    330,
    331,
    2,
    4,
    2,
    1090,
    411,
    412,
    1093,
    1090,
    1091,
    1091,
    1092,
    1090,
    1091,
    1091,
    411,
    412,
    1093,
    1,
    3,
    226,
    227,
    610,
    299,
    300,
    1304,
    1304,
    1156,
    1121,
    1387,
    1387,
    1385,
    1386,
    1383,
    1384,
    1385,
    66,
    4,
    1,
    1269,
    93,
    43,
    43,
    107,
    1267,
    1,
    1,
    4,
    3,
    21,
    22,
    1384,
    1385,
    1219,
    326,
    1220,
    1219,
    326,
    1220,
    1383,
    1384,
    1383,
    1388,
    1387,
    51,
    326,
    66,
    3,
    32,
    92,
    42,
    42,
    29,
    27,
    1105,
    1107,
    50,
    1,
    1,
    3,
    92,
    42,
    42,
    42,
    42,
    42,
    42,
    42,
    43,
    107,
    1266,
    7,
    1,
    18,
    1092,
    1,
    3,
    61,
    63,
    63,
    62,
    7,
    34,
    326,
    18,
    1383,
    1384,
    1388,
    1385,
    1385,
    1386,
    1386,
    1387,
    1387,
    1388,
    1386,
    1385,
    1385,
    1108,
    1169,
    1304,
    697,
    698,
    321,
    539,
    540,
    324,
    312,
    1271,
    3,
    2,
    1089,
    70,
    427,
    428,
    49,
    49,
    49,
    49,
    49,
    49,
    49,
    49,
    427,
    428,
    38,
    1092,
    1,
    1274,
    212,
    309,
    539,
    540,
    321,
    601,
    602,
    1156,
    1122,
    1387,
    1384,
    1386,
    1384,
    1386,
    1385,
    50,
    3,
    1269,
    1269,
    92,
    42,
    42,
    106,
    1266,
    1,
    1,
    2,
    4,
    1274,
    18,
    1387,
    1388,
    1219,
    326,
    1220,
    1219,
    326,
    1220,
    1384,
    1385,
    1388,
    1385,
    1384,
    51,
    326,
    50,
    2,
    1,
    92,
    42,
    42,
    106,
    1266,
    1090,
    1107,
    50,
    1,
    1,
    15,
    92,
    42,
    42,
    92,
    42,
    42,
    106,
    45,
    42,
    106,
    1266,
    1,
    1,
    18,
    1108,
    1109,
    4,
    93,
    43,
    43,
    107,
    1267,
    34,
    326,
    18,
    1386,
    1385,
    1383,
    1383,
    1385,
    1388,
    1383,
    1385,
    1384,
    1387,
    1388,
    1383,
    1388,
    1124,
    1154,
    1304,
    705,
    325,
    311,
    555,
    556,
    317,
    318,
    2,
    2,
    1090,
    1107,
    68,
    443,
    444,
    65,
    65,
    65,
    65,
    65,
    65,
    65,
    65,
    443,
    444,
    37,
    1108,
    1109,
    2,
    214,
    215,
    555,
    556,
    311,
    310,
    610,
    1304,
    1157,
    1121,
    1386,
    1388,
    1383,
    1383,
    1385,
    50,
    1,
    4,
    1269,
    59,
    28,
    64,
    60,
    1268,
    1,
    61,
    62,
    16,
    4,
    18,
    1386,
    1384,
    1221,
    1224,
    1222,
    1219,
    326,
    1220,
    1385,
    1385,
    1387,
    1385,
    1386,
    51,
    326,
    50,
    4,
    4,
    92,
    90,
    90,
    76,
    1266,
    1122,
    1107,
    50,
    1,
    1,
    1,
    59,
    64,
    64,
    199,
    28,
    64,
    60,
    64,
    64,
    60,
    1268,
    1,
    1,
    18,
    1108,
    1,
    4,
    92,
    42,
    42,
    106,
    1266,
    34,
    326,
    18,
    1384,
    1384,
    1383,
    1383,
    1385,
    1383,
    1383,
    1387,
    1385,
    1385,
    1385,
    1384,
    1108,
    1169,
    1170,
    691,
    692,
    328,
    327,
    571,
    572,
    333,
    334,
    1,
    3,
    1122,
    52,
    53,
    459,
    460,
    1269,
    3,
    1269,
    3,
    1269,
    3,
    1269,
    4,
    459,
    460,
    21,
    22,
    1093,
    2,
    230,
    231,
    571,
    572,
    327,
    228,
    611,
    612,
    1304,
    1156,
    1122,
    1383,
    1385,
    1385,
    1387,
    50,
    4,
    2,
    4,
    4,
    4,
    15,
    4,
    15,
    4,
    93,
    107,
    1267,
    4,
    18,
    1387,
    1384,
    1388,
    1385,
    1383,
    1219,
    326,
    1220,
    1384,
    1386,
    1387,
    1383,
    1383,
    51,
    326,
    50,
    2,
    3,
    92,
    42,
    42,
    29,
    27,
    1105,
    1106,
    50,
    2,
    3,
    4,
    61,
    62,
    4,
    3,
    3,
    4,
    3,
    1,
    61,
    62,
    16,
    1,
    1,
    18,
    1108,
    1,
    3,
    75,
    42,
    90,
    76,
    1266,
    34,
    326,
    18,
    1384,
    1385,
    1386,
    1387,
    1386,
    1383,
    1386,
    1385,
    1386,
    1388,
    1385,
    1385,
    1124,
    1154,
    1304,
    705,
    330,
    331,
    2,
    3,
    1,
    1,
    1,
    3,
    1,
    1090,
    67,
    1271,
    4,
    61,
    63,
    63,
    61,
    63,
    63,
    62,
    63,
    63,
    62,
    3,
    1274,
    20,
    1107,
    1092,
    2,
    1,
    61,
    62,
    16,
    226,
    227,
    610,
    1304,
    703,
    1173,
    1122,
    1384,
    1388,
    1386,
    69,
    1272,
    3,
    4,
    2,
    3,
    31,
    32,
    31,
    26,
    30,
    106,
    1266,
    1,
    18,
    1385,
    1388,
    1388,
    1388,
    1384,
    1219,
    326,
    1220,
    1387,
    1385,
    1384,
    1388,
    1387,
    51,
    326,
    50,
    2,
    3,
    59,
    64,
    64,
    60,
    1268,
    1105,
    1106,
    69,
    1272,
    3,
    4,
    93,
    107,
    1267,
    1,
    2,
    3,
    4,
    4,
    93,
    107,
    1267,
    1,
    35,
    36,
    1124,
    1,
    26,
    30,
    42,
    42,
    106,
    1266,
    34,
    326,
    18,
    1387,
    1387,
    1388,
    1383,
    1388,
    1386,
    1388,
    1383,
    1385,
    1386,
    1386,
    1108,
    1169,
    1170,
    691,
    692,
    312,
    1271,
    2,
    1,
    4,
    2,
    3,
    2,
    1090,
    52,
    53,
    4,
    3,
    93,
    43,
    43,
    93,
    43,
    43,
    107,
    44,
    43,
    107,
    1267,
    3,
    21,
    22,
    1108,
    1109,
    4,
    93,
    107,
    1267,
    1274,
    212,
    611,
    612,
    719,
    1156,
    1105,
    1106,
    1384,
    1384,
    54,
    55,
    1,
    2,
    1,
    4,
    1,
    1,
    1,
    3,
    59,
    60,
    1268,
    35,
    36,
    1387,
    1388,
    1388,
    1384,
    1387,
    1219,
    326,
    1220,
    1383,
    1385,
    1384,
    1386,
    1383,
    51,
    326,
    50,
    2,
    4,
    4,
    3,
    3,
    3,
    3,
    1105,
    1106,
    54,
    55,
    3,
    2,
    92,
    29,
    27,
    1,
    4,
    7,
    3,
    26,
    30,
    106,
    1266,
    1,
    19,
    1289,
    1109,
    1,
    4,
    92,
    42,
    42,
    106,
    1266,
    34,
    326,
    18,
    1386,
    1385,
    1385,
    1383,
    1388,
    1383,
    1387,
    1384,
    1383,
    1383,
    1388,
    1124,
    1154,
    1304,
    705,
    330,
    331,
    16,
    61,
    63,
    63,
    62,
    4,
    4,
    1122,
    67,
    1271,
    4,
    4,
    92,
    42,
    42,
    75,
    42,
    90,
    76,
    45,
    42,
    106,
    1266,
    3,
    1274,
    18,
    1108,
    1109,
    26,
    30,
    106,
    1266,
    3,
    226,
    227,
    610,
    1286,
    1304,
    1156,
    1122,
    1384,
    1385,
    1387,
    69,
    1272,
    475,
    476,
    2,
    4,
    1,
    475,
    476,
    4,
    4,
    4,
    19,
    1289,
    1384,
    1387,
    1385,
    1388,
    1384,
    1219,
    326,
    1220,
    1385,
    1388,
    1387,
    1384,
    1386,
    418,
    419,
    313,
    1272,
    1,
    1269,
    61,
    63,
    63,
    62,
    1269,
    1122,
    1107,
    69,
    1272,
    2,
    59,
    60,
    1268,
    2,
    2,
    2,
    1,
    3,
    59,
    60,
    1268,
    35,
    36,
    1124,
    2,
    1,
    3,
    59,
    64,
    64,
    60,
    1268,
    225,
    499,
    500,
    1387,
    1385,
    1388,
    1385,
    1385,
    1384,
    1388,
    1383,
    1385,
    1387,
    1125,
    1154,
    1304,
    691,
    692,
    312,
    1271,
    32,
    93,
    43,
    43,
    107,
    1267,
    2,
    1090,
    66,
    1,
    1,
    2,
    75,
    42,
    90,
    94,
    42,
    42,
    108,
    45,
    91,
    78,
    1266,
    15,
    16,
    18,
    1124,
    4,
    3,
    59,
    60,
    1268,
    3,
    1274,
    212,
    611,
    612,
    1304,
    1304,
    1173,
    1106,
    1387,
    1386,
    57,
    58,
    491,
    492,
    1297,
    1298,
    1299,
    491,
    492,
    17,
    17,
    24,
    25,
    1387,
    1383,
    1383,
    1386,
    1386,
    1388,
    1219,
    326,
    1220,
    1385,
    1386,
    1387,
    1383,
    1387,
    1385,
    404,
    314,
    315,
    3,
    1269,
    93,
    43,
    43,
    107,
    1267,
    1,
    1106,
    54,
    55,
    4,
    1,
    475,
    476,
    3,
    2,
    4,
    475,
    476,
    2,
    4,
    3,
    19,
    1289,
    1109,
    1,
    1,
    61,
    62,
    16,
    1,
    1,
    210,
    211,
    498,
    1289,
    1386,
    1383,
    1388,
    1384,
    1385,
    1386,
    1383,
    1384,
    1383,
    1124,
    1169,
    1170,
    1303,
    709,
    326,
    66,
    3,
    32,
    92,
    42,
    42,
    29,
    27,
    1105,
    1107,
    50,
    1,
    1,
    3,
    92,
    42,
    42,
    42,
    42,
    42,
    42,
    42,
    43,
    107,
    1266,
    31,
    32,
    18,
    1092,
    1,
    3,
    61,
    63,
    63,
    62,
    7,
    34,
    326,
    816,
    1304,
    1304,
    1173,
    1106,
    1388,
    1386,
    73,
    74,
    507,
    508,
    1313,
    1314,
    1315,
    507,
    508,
    33,
    33,
    40,
    41,
    1386,
    1386,
    1384,
    1386,
    1386,
    1388,
    1221,
    1224,
    1222,
    1383,
    1386,
    1385,
    1384,
    1388,
    1385,
    418,
    419,
    313,
    1272,
    1269,
    92,
    42,
    42,
    106,
    1266,
    3,
    1121,
    1107,
    56,
    17,
    17,
    491,
    492,
    1297,
    1298,
    1299,
    491,
    492,
    17,
    17,
    24,
    25,
    1124,
    2,
    1,
    4,
    93,
    107,
    1267,
    1,
    1,
    225,
    499,
    500,
    1385,
    1383,
    1386,
    1383,
    1384,
    1383,
    1386,
    1385,
    1386,
    1384,
    1092,
    1169,
    1170,
    719,
    709,
    326,
    50,
    2,
    1,
    92,
    42,
    42,
    106,
    1266,
    1090,
    1107,
    50,
    1,
    1,
    15,
    92,
    42,
    42,
    92,
    42,
    42,
    106,
    45,
    42,
    106,
    1266,
    1,
    1,
    18,
    1108,
    1109,
    4,
    93,
    43,
    43,
    107,
    1267,
    34,
    326,
    816,
    1304,
    1189,
    1090,
    1386,
    1387,
    1386,
    1387,
    1386,
    523,
    524,
    1329,
    1330,
    1331,
    523,
    524,
    1386,
    1164,
    1387,
    1386,
    1387,
    1386,
    1388,
    1383,
    1204,
    1206,
    1204,
    1205,
    1206,
    1204,
    1205,
    1205,
    1206,
    1165,
    1076,
    1077,
    404,
    314,
    315,
    1269,
    59,
    28,
    64,
    60,
    1268,
    3,
    3,
    1122,
    72,
    33,
    33,
    507,
    508,
    1313,
    1314,
    1315,
    507,
    508,
    33,
    33,
    40,
    41,
    1092,
    3,
    2,
    26,
    30,
    106,
    1266,
    3,
    210,
    211,
    498,
    1289,
    1383,
    1385,
    1385,
    1385,
    1387,
    1386,
    1386,
    1385,
    1387,
    1388,
    1387,
    1092,
    1185,
    1304,
    709,
    326,
    50,
    4,
    4,
    92,
    90,
    90,
    76,
    1266,
    1122,
    1107,
    50,
    1,
    1,
    1,
    59,
    64,
    64,
    199,
    28,
    64,
    60,
    64,
    64,
    60,
    1268,
    1,
    1,
    18,
    1108,
    1,
    4,
    92,
    42,
    42,
    106,
    1266,
    34,
    326,
    816,
    1304,
    1173,
    1122,
    1383,
    1388,
    1387,
    1386,
    1388,
    411,
    412,
    1386,
    1386,
    1388,
    1386,
    1163,
    1383,
    1387,
    1388,
    411,
    412,
    1383,
    1384,
    1383,
    1204,
    1205,
    1205,
    1205,
    1206,
    1383,
    1387,
    1383,
    1383,
    1385,
    1076,
    1077,
    418,
    419,
    313,
    1272,
    1437,
    4,
    3,
    4,
    3,
    15,
    16,
    1,
    1122,
    1123,
    1123,
    523,
    524,
    1329,
    1330,
    1331,
    523,
    524,
    1124,
    1122,
    1123,
    1123,
    1124,
    3,
    2,
    3,
    59,
    60,
    1268,
    1437,
    225,
    499,
    500,
    1385,
    1388,
    1388,
    1386,
    1387,
    1383,
    1386,
    1383,
    1383,
    1388,
    1384,
    1386,
    1124,
    1169,
    1170,
    709,
    326,
    50,
    2,
    3,
    92,
    42,
    42,
    29,
    27,
    1105,
    1106,
    50,
    2,
    3,
    4,
    61,
    62,
    4,
    3,
    3,
    4,
    3,
    1,
    61,
    62,
    16,
    1,
    1,
    18,
    1108,
    1,
    3,
    75,
    42,
    90,
    76,
    1266,
    34,
    326,
    816,
    1304,
    1157,
    7,
    1121,
    1385,
    1387,
    1388,
    70,
    427,
    428,
    49,
    49,
    49,
    49,
    49,
    49,
    49,
    49,
    427,
    428,
    38,
    1164,
    1385,
    918,
    919,
    918,
    1205,
    919,
    918,
    1205,
    1205,
    919,
    1386,
    1385,
    1076,
    1077,
    404,
    309,
    1399,
    1400,
    306,
    283,
    284,
    3,
    31,
    32,
    4,
    2,
    4,
    3,
    1122,
    1076,
    1077,
    1107,
    1076,
    1077,
    1124,
    2,
    4,
    1074,
    1074,
    1,
    15,
    16,
    4,
    216,
    306,
    1399,
    1400,
    324,
    498,
    1289,
    1387,
    1385,
    1384,
    1385,
    1388,
    1387,
    1383,
    1383,
    1387,
    1383,
    1386,
    1125,
    7,
    1154,
    1304,
    709,
    326,
    50,
    2,
    3,
    59,
    64,
    64,
    60,
    1268,
    1105,
    1106,
    69,
    1,
    3,
    4,
    93,
    107,
    1267,
    1,
    2,
    3,
    4,
    4,
    93,
    107,
    1267,
    1,
    35,
    36,
    1124,
    1,
    26,
    30,
    42,
    42,
    106,
    1266,
    34,
    326,
    816,
    1304,
    1304,
    1173,
    1090,
    1385,
    1388,
    1387,
    68,
    443,
    444,
    65,
    65,
    65,
    65,
    65,
    65,
    65,
    65,
    443,
    444,
    37,
    1290,
    1383,
    918,
    1205,
    1205,
    1205,
    919,
    1383,
    1383,
    1388,
    1388,
    1385,
    1385,
    1386,
    1387,
    406,
    407,
    1415,
    1416,
    497,
    310,
    313,
    1272,
    3,
    1269,
    61,
    63,
    63,
    62,
    1269,
    1121,
    1076,
    1077,
    1107,
    1125,
    1269,
    61,
    63,
    63,
    62,
    1269,
    31,
    32,
    210,
    211,
    308,
    1415,
    1416,
    503,
    504,
    1386,
    1387,
    1385,
    1387,
    1384,
    1387,
    1388,
    1388,
    1383,
    1383,
    1388,
    1383,
    1092,
    1169,
    1170,
    1304,
    709,
    326,
    50,
    2,
    4,
    4,
    3,
    3,
    3,
    3,
    1105,
    1106,
    54,
    55,
    3,
    2,
    92,
    29,
    27,
    1,
    4,
    7,
    3,
    26,
    30,
    106,
    1266,
    1,
    19,
    1289,
    1109,
    1,
    4,
    92,
    42,
    42,
    106,
    1266,
    34,
    326,
    816,
    1304,
    1304,
    1173,
    1122,
    1387,
    1386,
    52,
    53,
    459,
    460,
    1,
    1,
    1,
    1,
    1,
    1,
    1,
    1,
    459,
    460,
    21,
    22,
    1386,
    1060,
    1061,
    1060,
    1061,
    1060,
    1061,
    1060,
    1061,
    1060,
    1061,
    1385,
    1387,
    1387,
    422,
    423,
    1431,
    1432,
    513,
    420,
    314,
    315,
    2,
    1269,
    93,
    43,
    43,
    107,
    1267,
    1,
    1122,
    1123,
    1124,
    3,
    1269,
    93,
    43,
    43,
    107,
    1267,
    1,
    4,
    225,
    521,
    522,
    1431,
    1432,
    519,
    520,
    1387,
    1388,
    1385,
    1387,
    1383,
    1386,
    1386,
    1388,
    1385,
    1387,
    1388,
    1388,
    1385,
    1092,
    1186,
    1304,
    707,
    708,
    313,
    1272,
    1,
    1269,
    61,
    63,
    63,
    62,
    1269,
    1122,
    1107,
    69,
    1272,
    2,
    59,
    60,
    1268,
    2,
    2,
    2,
    1,
    3,
    59,
    60,
    1268,
    35,
    36,
    1124,
    2,
    1,
    3,
    59,
    64,
    64,
    60,
    1268,
    225,
    595,
    596,
    1304,
    1189,
    7,
    1089,
    1383,
    1388,
    67,
    1271,
    4,
    1,
    1269,
    61,
    63,
    63,
    63,
    63,
    62,
    4,
    2,
    3,
    2,
    20,
    1290,
    1219,
    1220,
    1219,
    1220,
    1219,
    1220,
    1219,
    1220,
    1219,
    1220,
    1385,
    1388,
    1387,
    1387,
    1387,
    1447,
    1448,
    1387,
    418,
    419,
    313,
    1272,
    1269,
    92,
    42,
    42,
    106,
    1266,
    1,
    2,
    4,
    3,
    2,
    1269,
    92,
    42,
    42,
    106,
    1266,
    2,
    210,
    211,
    498,
    1289,
    1447,
    1448,
    1385,
    1383,
    1387,
    1388,
    1384,
    1383,
    1384,
    1387,
    1384,
    1383,
    1383,
    1385,
    1387,
    1383,
    1385,
    1108,
    1169,
    1170,
    1284,
    690,
    314,
    315,
    3,
    1269,
    93,
    43,
    43,
    107,
    1267,
    1,
    1106,
    54,
    55,
    4,
    1,
    475,
    476,
    3,
    2,
    4,
    475,
    476,
    2,
    4,
    3,
    19,
    1289,
    1109,
    1,
    1,
    61,
    62,
    16,
    1,
    1,
    210,
    211,
    594,
    1285,
    703,
    1173,
    1090,
    1388,
    1384,
    52,
    53,
    4,
    3,
    1,
    1269,
    93,
    43,
    43,
    43,
    43,
    107,
    1267,
    4,
    1,
    3,
    21,
    22,
    1062,
    1063,
    1219,
    1220,
    1219,
    1220,
    1219,
    1220,
    1219,
    1220,
    1385,
    1386,
    1386,
    1387,
    1386,
    1385,
    1387,
    1387,
    1387,
    404,
    314,
    315,
    1269,
    59,
    28,
    64,
    60,
    1268,
    15,
    16,
    1,
    3,
    2,
    1269,
    59,
    28,
    64,
    60,
    1268,
    1,
    225,
    499,
    500,
    1386,
    1383,
    1388,
    1386,
    1384,
    1386,
    1386,
    1383,
    1385,
    1384,
    1388,
    1385,
    1385,
    1387,
    1387,
    1386,
    1387,
    1385,
    1108,
    1169,
    1170,
    703,
    707,
    708,
    313,
    1272,
    1269,
    92,
    42,
    42,
    106,
    1266,
    3,
    1121,
    1107,
    56,
    17,
    17,
    491,
    492,
    1297,
    1298,
    1299,
    491,
    492,
    17,
    17,
    24,
    25,
    1124,
    2,
    1,
    4,
    93,
    107,
    1267,
    1,
    1,
    225,
    595,
    596,
    1304,
    719,
    1173,
    1122,
    1384,
    1384,
    67,
    1271,
    4,
    4,
    1,
    1269,
    92,
    42,
    42,
    42,
    42,
    106,
    1266,
    4,
    4,
    3,
    1274,
    18,
    1383,
    1386,
    1062,
    1063,
    1219,
    1220,
    1219,
    1220,
    1219,
    1220,
    1383,
    1384,
    1387,
    1385,
    1385,
    1388,
    1384,
    1383,
    1386,
    418,
    419,
    313,
    1272,
    1,
    4,
    61,
    62,
    4,
    31,
    32,
    1,
    1,
    3,
    1,
    61,
    62,
    16,
    2,
    4,
    210,
    211,
    498,
    1289,
    1388,
    1385,
    1384,
    1386,
    1386,
    1384,
    1387,
    1385,
    1387,
    1387,
    1388,
    1385,
    1383,
    1387,
    1385,
    1384,
    1383,
    1386,
    1387,
    1093,
    1186,
    719,
    1284,
    690,
    314,
    315,
    1269,
    59,
    28,
    64,
    60,
    1268,
    3,
    3,
    1122,
    72,
    33,
    33,
    507,
    508,
    1313,
    1314,
    1315,
    507,
    508,
    33,
    33,
    40,
    41,
    1092,
    3,
    2,
    26,
    30,
    106,
    1266,
    3,
    210,
    211,
    594,
    1285,
    1304,
    1188,
    7,
    1090,
    1386,
    1385,
    66,
    1,
    1,
    1,
    1,
    1269,
    59,
    64,
    64,
    28,
    64,
    60,
    1268,
    1,
    1,
    1,
    4,
    18,
    1387,
    1385,
    1388,
    1385,
    1062,
    1063,
    1219,
    1220,
    1219,
    1220,
    1383,
    1388,
    1385,
    1386,
    1387,
    1387,
    1385,
    1386,
    1388,
    1387,
    404,
    314,
    315,
    1,
    4,
    93,
    107,
    1267,
    4,
    4,
    3,
    4,
    4,
    4,
    93,
    107,
    1267,
    1,
    2,
    225,
    499,
    500,
    1388,
    1388,
    1386,
    1388,
    1385,
    1383,
    1387,
    1388,
    1388,
    1385,
    1385,
    1383,
    1386,
    1383,
    1386,
    1387,
    1383,
    1387,
    1386,
    1383,
    1383,
    1092,
    1185,
    1304,
    707,
    708,
    313,
    1272,
    1437,
    4,
    3,
    4,
    3,
    15,
    16,
    1,
    1122,
    1123,
    1123,
    523,
    524,
    1329,
    1330,
    1331,
    523,
    524,
    1124,
    1122,
    1123,
    1123,
    1124,
    3,
    2,
    3,
    59,
    60,
    1268,
    1437,
    225,
    595,
    596,
    703,
    1304,
    1173,
    1105,
    1106,
    1383,
    1383,
    50,
    1,
    1,
    1,
    1,
    1,
    1,
    1,
    1,
    1,
    1,
    1,
    1,
    1,
    1,
    1,
    1,
    18,
    1383,
    1385,
    1383,
    1386,
    1388,
    1383,
    1062,
    1063,
    1219,
    1220,
    1388,
    1388,
    1388,
    1387,
    1388,
    1388,
    1384,
    1384,
    1383,
    1385,
    418,
    419,
    313,
    1272,
    2,
    92,
    29,
    27,
    4,
    4,
    1,
    1,
    2,
    26,
    30,
    106,
    1266,
    3,
    210,
    211,
    498,
    1289,
    1385,
    1388,
    1387,
    1384,
    1383,
    1385,
    1383,
    1387,
    1383,
    1386,
    1387,
    1383,
    1385,
    1388,
    1385,
    1384,
    1388,
    1384,
    1387,
    1384,
    1383,
    1124,
    1169,
    1170,
    1284,
    690,
    309,
    1399,
    1400,
    306,
    283,
    284,
    3,
    31,
    32,
    4,
    2,
    4,
    3,
    1122,
    1076,
    1077,
    1107,
    1076,
    1077,
    1124,
    2,
    4,
    1074,
    1074,
    1,
    15,
    16,
    4,
    216,
    306,
    1399,
    1400,
    324,
    594,
    1285,
    719,
    1304,
    1173,
    1090,
    1386,
    1385,
    1387,
    50,
    1,
    1269,
    61,
    63,
    63,
    62,
    1269,
    1,
    1,
    1269,
    61,
    63,
    63,
    62,
    1269,
    4,
    18,
    1387,
    1386,
    1386,
    1386,
    1386,
    1385,
    1384,
    1388,
    1062,
    1063,
    1384,
    1386,
    1385,
    1385,
    1385,
    1387,
    1386,
    1388,
    1386,
    1384,
    1387,
    404,
    314,
    315,
    2,
    59,
    60,
    1268,
    2,
    4,
    2,
    2,
    1,
    3,
    59,
    60,
    1268,
    4,
    225,
    499,
    500,
    1387,
    1387,
    1388,
    1384,
    1387,
    1386,
    1383,
    1387,
    1386,
    1383,
    1385,
    1383,
    1385,
    1386,
    1386,
    1388,
    1388,
    1385,
    1386,
    1387,
    1387,
    1108,
    1109,
    1169,
    1170,
    1304,
    695,
    696,
    1415,
    1416,
    593,
    310,
    313,
    1272,
    3,
    1269,
    61,
    63,
    63,
    62,
    1269,
    1121,
    1076,
    1077,
    1107,
    1125,
    1269,
    61,
    63,
    63,
    62,
    1269,
    31,
    32,
    210,
    211,
    308,
    1415,
    1416,
    599,
    600,
    1304,
    1304,
    1188,
    1105,
    1106,
    1388,
    1385,
    1384,
    50,
    1,
    1269,
    93,
    43,
    43,
    107,
    1267,
    1,
    2,
    1269,
    93,
    43,
    43,
    107,
    1267,
    3,
    18,
    1387,
    1388,
    1385,
    1387,
    1388,
    1387,
    1383,
    1387,
    1384,
    1388,
    1387,
    1388,
    1386,
    1385,
    1384,
    1385,
    1384,
    1383,
    1388,
    1384,
    1388,
    418,
    419,
    323,
    306,
    306,
    306,
    237,
    238,
    1,
    4,
    3,
    235,
    236,
    306,
    306,
    306,
    306,
    324,
    498,
    1289,
    1383,
    1388,
    1384,
    1384,
    1387,
    1387,
    1385,
    1383,
    1386,
    1386,
    1383,
    1383,
    1387,
    1384,
    1388,
    1385,
    1383,
    1384,
    1387,
    1387,
    1387,
    1384,
    1093,
    7,
    1186,
    1304,
    711,
    712,
    1305,
    1306,
    609,
    706,
    314,
    315,
    2,
    1269,
    93,
    43,
    43,
    107,
    1267,
    1,
    1122,
    1123,
    1124,
    3,
    1269,
    93,
    43,
    43,
    107,
    1267,
    1,
    4,
    225,
    617,
    618,
    1305,
    1306,
    615,
    1285,
    1304,
    1188,
    1075,
    1090,
    1383,
    1387,
    1388,
    1387,
    50,
    2,
    1269,
    92,
    42,
    42,
    106,
    1266,
    3,
    4,
    1269,
    92,
    42,
    42,
    106,
    1266,
    3,
    18,
    1388,
    1387,
    1384,
    1383,
    1386,
    1387,
    1386,
    1384,
    1385,
    1384,
    1387,
    1386,
    1387,
    1386,
    1383,
    1384,
    1386,
    1385,
    1386,
    1385,
    1386,
    1387,
    405,
    497,
    497,
    497,
    497,
    603,
    604,
    1297,
    1298,
    1299,
    651,
    652,
    497,
    497,
    497,
    497,
    503,
    504,
    1383,
    1386,
    1386,
    1386,
    1383,
    1388,
    1387,
    1383,
    1388,
    1385,
    1383,
    1385,
    1386,
    1385,
    1384,
    1384,
    1388,
    1384,
    1383,
    1386,
    1387,
    1383,
    1388,
    1388,
    1092,
    7,
    1185,
    1304,
    1304,
    1321,
    1322,
    1304,
    707,
    708,
    313,
    1272,
    1269,
    92,
    42,
    42,
    106,
    1266,
    1,
    2,
    4,
    3,
    2,
    1269,
    92,
    42,
    42,
    106,
    1266,
    2,
    210,
    211,
    594,
    1285,
    1321,
    1322,
    1304,
    1304,
    1189,
    1090,
    1091,
    1383,
    1386,
    1385,
    1386,
    1388,
    69,
    1272,
    1269,
    59,
    28,
    64,
    60,
    1268,
    2,
    3,
    1269,
    59,
    28,
    64,
    60,
    1268,
    35,
    36,
    1383,
    1383,
    1383,
    1388,
    1384,
    1383,
    1388,
    1386,
    1387,
    1386,
    1388,
    1383,
    1384,
    1384,
    1383,
    1386,
    1385,
    1384,
    1386,
    1386,
    1385,
    1387,
    421,
    513,
    513,
    513,
    513,
    507,
    508,
    1313,
    1314,
    1315,
    507,
    508,
    513,
    513,
    513,
    513,
    519,
    520,
    1386,
    1387,
    1386,
    1384,
    1387,
    1386,
    1383,
    1387,
    1384,
    1386,
    1383,
    1387,
    1386,
    1384,
    1388,
    1384,
    1384,
    1387,
    1386,
    1384,
    1385,
    1384,
    1388,
    1387,
    1384,
    1093,
    7,
    1186,
    1187,
    1187,
    1319,
    1320,
    1284,
    690,
    314,
    315,
    1269,
    59,
    28,
    64,
    60,
    1268,
    15,
    16,
    1,
    3,
    2,
    1269,
    59,
    28,
    64,
    60,
    1268,
    1,
    225,
    595,
    596,
    1304,
    1304,
    1304,
    1187,
    1188,
    1089,
    1383,
    1387,
    1384,
    1386,
    1384,
    1384,
    1387,
    54,
    55,
    3,
    2,
    1,
    1,
    4,
    1,
    4,
    1,
    1,
    1,
    1,
    1,
    1,
    1,
    19,
    1289,
    1388,
    1383,
    1388,
    1384,
    1384,
    1385,
    1388,
    1386,
    1388,
    1388,
    1385,
    1384,
    1385,
    1388,
    1383,
    1387,
    1385,
    1383,
    1386,
    1387,
    1386,
    1385,
    1384,
    1383,
    1386,
    1383,
    1386,
    523,
    524,
    1329,
    1330,
    1331,
    523,
    524,
    1384,
    1383,
    1383,
    1388,
    1387,
    1388,
    1384,
    1385,
    1386,
    1383,
    1388,
    1384,
    1387,
    1385,
    1386,
    1385,
    1384,
    1384,
    1387,
    1384,
    1388,
    1385,
    1387,
    1384,
    1386,
    1384,
    1387,
    1384,
    1384,
    1387,
    1383,
    1383,
    1092,
    1090,
    1091,
    1092,
    1186,
    1304,
    1304,
    707,
    708,
    313,
    1272,
    1,
    4,
    61,
    62,
    4,
    31,
    32,
    1,
    1,
    3,
    1,
    61,
    62,
    16,
    2,
    4,
    210,
    211,
    594,
    1285,
    1304,
    1304,
    1188,
    1090,
    1091,
    1384,
    1388,
    1383,
    1388,
    1387,
    1387,
    1383,
    1385,
    1387,
    69,
    1272,
    4,
    2,
    4,
    4,
    2,
    2,
    2,
    1,
    3,
    4,
    2,
    1,
    35,
    36,
    1385,
    1387,
    1385,
    1385,
    1233,
    1234,
    1235,
    1233,
    1234,
    1234,
    1235,
    1233,
    1234,
    1234,
    1234,
    1235,
    1233,
    1234,
    1234,
    1234,
    1234,
    1235,
    1233,
    1234,
    1234,
    1234,
    1234,
    1234,
    1235,
    1387,
    1383,
    1388,
    1386,
    1386,
    1060,
    1120,
    1061,
    1060,
    1120,
    1061,
    1060,
    1120,
    1061,
    1060,
    1120,
    1061,
    1384,
    1385,
    1383,
    1386,
    1388,
    1383,
    1386,
    1383,
    1386,
    1385,
    1386,
    1386,
    1385,
    1386,
    1385,
    1386,
    1386,
    1386,
    1388,
    1386,
    1383,
    1385,
    1386,
    1387,
    1108,
    1109,
    1186,
    1304,
    1284,
    690,
    314,
    315,
    1,
    4,
    93,
    107,
    1267,
    4,
    4,
    3,
    4,
    4,
    4,
    93,
    107,
    1267,
    1,
    2,
    225,
    595,
    596,
    1304,
    1304,
    1189,
    1089,
    1383,
    1386,
    1383,
    1384,
    1386,
    1385,
    1385,
    1387,
    1384,
    1387,
    1163,
    54,
    55,
    4,
    1,
    475,
    476,
    3,
    2,
    4,
    475,
    476,
    2,
    4,
    3,
    19,
    1289,
    1164,
    1388,
    1383,
    1385,
    1249,
    1250,
    1251,
    1249,
    1250,
    1250,
    1251,
    1249,
    1250,
    1250,
    1250,
    1251,
    1249,
    1250,
    1250,
    1250,
    1250,
    1251,
    1249,
    1250,
    1250,
    1250,
    1250,
    1250,
    1251,
    1383,
    1386,
    1387,
    1387,
    1384,
    1219,
    326,
    1220,
    1219,
    326,
    1220,
    1219,
    326,
    1220,
    1219,
    326,
    1220,
    1383,
    1384,
    1386,
    1386,
    1385,
    1383,
    1385,
    1388,
    1383,
    1384,
    1384,
    1388,
    1388,
    1386,
    1387,
    1385,
    1383,
    1388,
    1388,
    1387,
    1388,
    1388,
    1387,
    1388,
    1388,
    1092,
    1169,
    1179,
    1304,
    707,
    708,
    313,
    1272,
    2,
    92,
    29,
    27,
    4,
    4,
    1,
    1,
    2,
    26,
    30,
    106,
    1266,
    3,
    210,
    211,
    594,
    1285,
    1304,
    1188,
    1090,
    1386,
    1386,
    1385,
    1385,
    1385,
    1387,
    1387,
    1384,
    1387,
    1384,
    1387,
    1383,
    1386,
    56,
    17,
    17,
    491,
    492,
    1297,
    1298,
    1299,
    491,
    492,
    17,
    17,
    24,
    25,
    1384,
    1385,
    1384,
    1384,
    1384,
    1233,
    1234,
    1234,
    1235,
    1233,
    1234,
    1234,
    1234,
    1235,
    1233,
    1234,
    1234,
    1234,
    1234,
    1235,
    1233,
    1234,
    1234,
    1234,
    1234,
    1234,
    1235,
    1233,
    1234,
    1234,
    1234,
    1234,
    1234,
    1234,
    1235,
    1219,
    326,
    1220,
    1219,
    326,
    1220,
    1219,
    326,
    1220,
    1219,
    326,
    1220,
    1385,
    1386,
    1386,
    1383,
    1387,
    1383,
    1388,
    1384,
    1383,
    1386,
    1387,
    1383,
    1385,
    1386,
    1385,
    1386,
    1385,
    1386,
    1387,
    1383,
    1388,
    1385,
    1385,
    1385,
    1387,
    1386,
    1092,
    1186,
    1304,
    1284,
    690,
    314,
    315,
    2,
    59,
    60,
    1268,
    2,
    4,
    2,
    2,
    1,
    3,
    59,
    60,
    1268,
    4,
    225,
    595,
    596,
    703,
    1304,
    1173,
    1106,
    1383,
    1386,
    1387,
    1387,
    1385,
    1388,
    1383,
    1384,
    1383,
    1385,
    1386,
    1387,
    1165,
    72,
    33,
    33,
    507,
    508,
    1313,
    1314,
    1315,
    507,
    508,
    33,
    33,
    40,
    41,
    1388,
    1386,
    1386,
    1386,
    1387,
    1236,
    326,
    326,
    1237,
    1236,
    326,
    326,
    326,
    1237,
    1236,
    326,
    326,
    326,
    326,
    1237,
    1236,
    326,
    326,
    326,
    326,
    326,
    1237,
    1236,
    326,
    326,
    326,
    326,
    326,
    326,
    1237,
    1062,
    1136,
    1063,
    1219,
    326,
    1220,
    1219,
    326,
    1220,
    1219,
    326,
    1220,
    1385,
    1386,
    1383,
    1387,
    1385,
    1384,
    1385,
    1388,
    1388,
    1386,
    1386,
    1384,
    1386,
    1387,
    1387,
    1384,
    1384,
    1385,
    1384,
    1383,
    1384,
    1386,
    1385,
    1384,
    1385,
    1384,
    1108,
    1169,
    1304,
    1304,
    707,
    708,
    323,
    306,
    306,
    306,
    237,
    238,
    1,
    4,
    3,
    235,
    236,
    306,
    306,
    306,
    306,
    324,
    594,
    1285,
    719,
    1189,
    1090,
    1385,
    1386,
    1387,
    1388,
    1383,
    1386,
    1383,
    1388,
    1386,
    1388,
    1388,
    1384,
    1386,
    1383,
    1387,
    1385,
    1386,
    523,
    524,
    1329,
    1330,
    1331,
    523,
    524,
    1165,
    1385,
    1388,
    1388,
    1386,
    1388,
    1387,
    1383,
    1385,
    1249,
    1250,
    1250,
    1251,
    1249,
    1250,
    1250,
    1250,
    1251,
    1249,
    1250,
    1250,
    1250,
    1250,
    1251,
    1249,
    1250,
    1250,
    1250,
    1250,
    1250,
    1251,
    1249,
    1250,
    1250,
    1250,
    1250,
    1250,
    1250,
    1251,
    1387,
    1384,
    1384,
    1062,
    1136,
    1063,
    1219,
    326,
    1220,
    1219,
    326,
    1220,
    1383,
    1386,
    1385,
    1383,
    1388,
    1387,
    1386,
    1386,
    1383,
    1388,
    1387,
    1384,
    1388,
    1387,
    1385,
    1386,
    1383,
    1388,
    1384,
    1385,
    1388,
    1387,
    1386,
    1383,
    1384,
    1386,
    1385,
    1092,
    1185,
    1304,
    1284,
    694,
    593,
    593,
    593,
    593,
    603,
    604,
    1297,
    1298,
    1299,
    651,
    652,
    593,
    593,
    593,
    593,
    599,
    600,
    1304,
    1304,
    1173,
    1106,
    1384,
    1388,
    1385,
    1384,
    1385,
    1388,
    1387,
    1384,
    1386,
    1384,
    1385,
    1383,
    1384,
    1388,
    1383,
    1383,
    1387,
    1388,
    411,
    412,
    1388,
    1388,
    1383,
    1165,
    1383,
    1387,
    411,
    412,
    1388,
    1384,
    1388,
    1387,
    1388,
    1233,
    1234,
    1234,
    1234,
    1234,
    1234,
    1234,
    1234,
    1235,
    1233,
    1234,
    1234,
    1234,
    1234,
    1234,
    1234,
    1234,
    1234,
    1235,
    1233,
    1234,
    1234,
    1234,
    1234,
    1234,
    1234,
    1234,
    1234,
    1234,
    1235,
    1387,
    1384,
    1385,
    1383,
    1388,
    1384,
    1062,
    1136,
    1063,
    1219,
    326,
    1220,
    1383,
    1383,
    1386,
    1383,
    1386,
    1383,
    1387,
    1386,
    1387,
    1387,
    1386,
    1384,
    1387,
    1386,
    1388,
    1386,
    1388,
    1384,
    1387,
    1384,
    1383,
    1384,
    1384,
    1383,
    1386,
    1385,
    1384,
    1108,
    1169,
    1170,
    1304,
    710,
    609,
    609,
    609,
    609,
    619,
    620,
    1316,
    1317,
    1318,
    667,
    668,
    609,
    609,
    609,
    609,
    615,
    1285,
    1304,
    1188,
    1090,
    1384,
    1384,
    1386,
    1385,
    1384,
    1383,
    1386,
    1387,
    1387,
    1383,
    1383,
    1383,
    1383,
    1384,
    1387,
    1385,
    408,
    409,
    305,
    587,
    588,
    305,
    305,
    305,
    305,
    305,
    305,
    587,
    588,
    505,
    506,
    1387,
    1388,
    1388,
    1236,
    326,
    326,
    326,
    326,
    326,
    326,
    326,
    1237,
    1236,
    326,
    326,
    326,
    326,
    326,
    326,
    326,
    326,
    1237,
    1236,
    326,
    326,
    326,
    326,
    326,
    326,
    326,
    326,
    326,
    1237,
    1388,
    1387,
    1384,
    1386,
    1383,
    1383,
    1383,
    1388,
    1386,
    1062,
    1136,
    1063,
    1385,
    1385,
    1386,
    1388,
    1383,
    1383,
    1385,
    1387,
    1387,
    1387,
    1387,
    1384,
    1387,
    1385,
    1384,
    1385,
    1384,
    1386,
    1387,
    1387,
    1383,
    1385,
    1388,
    1383,
    1387,
    1385,
    1383,
    1386,
    1092,
    1186,
    1304,
    1304,
    1179,
    1304,
    1304,
    703,
    635,
    636,
    1332,
    326,
    1334,
    683,
    684,
    703,
    1319,
    1320,
    1304,
    703,
    1304,
    1304,
    1173,
    1106,
    1383,
    1387,
    1387,
    1386,
    1387,
    1385,
    1384,
    1388,
    1384,
    1388,
    1385,
    1384,
    1387,
    1388,
    1385,
    1387,
    417,
    325,
    311,
    555,
    556,
    311,
    311,
    311,
    311,
    311,
    311,
    555,
    556,
    310,
    514,
    1290,
    1384,
    1388,
    1249,
    1250,
    1250,
    1250,
    1250,
    1250,
    1250,
    1250,
    1251,
    1249,
    1250,
    1250,
    1250,
    1250,
    1250,
    1250,
    1250,
    1250,
    1251,
    1249,
    1250,
    1250,
    1250,
    1250,
    1250,
    1250,
    1250,
    1250,
    1250,
    1251,
    1387,
    1385,
    1388,
    1388,
    1385,
    1387,
    1387,
    1388,
    1383,
    1388,
    1388,
    1388,
    1388,
    1386,
    1387,
    1388,
    1385,
    1387,
    1387,
    1387,
    1384,
    1386,
    1388,
    1385,
    1388,
    1386,
    1385,
    1384,
    1387,
    1383,
    1387,
    1387,
    1387,
    1383,
    1386,
    1385,
    1384,
    1383,
    1388,
    1385,
    1383,
    1093,
    1186,
    1187,
    1187,
    1319,
    1320,
    719,
    1304,
    1304,
    1219,
    326,
    1220,
    1304,
    1304,
    719,
    1304,
    1187,
    1304,
    719,
    1320,
    1188,
    1090,
    1386,
    1387,
    1383,
    1383,
    1383,
    1383,
    1383,
    1388,
    1385,
    1388,
    1384,
    1387,
    1384,
    1387,
    1388,
    1387,
    402,
    403,
    328,
    327,
    571,
    572,
    327,
    327,
    327,
    327,
    327,
    327,
    571,
    572,
    228,
    515,
    516,
    1165,
    1388,
    752,
    1234,
    784,
    752,
    1234,
    1234,
    784,
    752,
    1234,
    1234,
    1234,
    784,
    752,
    1234,
    1234,
    1234,
    1234,
    784,
    1386,
    1386,
    1386,
    1385,
    1387,
    1386,
    1388,
    1387,
    1386,
    1384,
    1387,
    1386,
    1386,
    1385,
    1386,
    1383,
    1388,
    1387,
    1385,
    1383,
    1384,
    1385,
    1383,
    1384,
    1386,
    1384,
    1383,
    1388,
    1387,
    1388,
    1384,
    1387,
    1385,
    1387,
    1384,
    1384,
    1383,
    1387,
    1386,
    1385,
    1386,
    1383,
    1384,
    1388,
    1385,
    1386,
    1383,
    1384,
    1385,
    1385,
    1386,
    1383,
    1388,
    1388,
    1092,
    7,
    7,
    1186,
    1187,
    1187,
    1187,
    1188,
    1221,
    1224,
    1222,
    1186,
    1187,
    1187,
    1188,
    7,
    1185,
    1187,
    1188,
    1089,
    1385,
    1384,
    1388,
    1384,
    1383,
    1388,
    1386,
    1388,
    1388,
    1384,
    1384,
    1383,
    1387,
    1384,
    1385,
    1388,
    1387,
    417,
    330,
    331,
    1269,
    3,
    1,
    1,
    1,
    1,
    1,
    1,
    1,
    1,
    2,
    226,
    227,
    514,
    1290,
    1384,
    768,
    1250,
    800,
    768,
    1250,
    1250,
    800,
    768,
    1250,
    1250,
    1250,
    800,
    768,
    1250,
    1250,
    1250,
    1250,
    800,
    1387,
    1385,
    1383,
    1386,
    1387,
    1388,
    1386,
    1384,
    1384,
    1388,
    1388,
    1385,
    1387,
    1387,
    1385,
    1386,
    1388,
    1385,
    1384,
    1388,
    1384,
    1386,
    1386,
    1383,
    1383,
    1385,
    1388,
    1388,
    1388,
    1387,
    1384,
    1385,
    1383,
    1388,
    1385,
    1383,
    1385,
    1386,
    1385,
    1384,
    1388,
    1388,
    1388,
    1386,
    1383,
    1388,
    1383,
    1383,
    1386,
    1384,
    1384,
    1388,
    1383,
    1388,
    1384,
    1091,
    1092,
    7,
    1090,
    1092,
    7,
    1090,
    1091,
    1091,
    1091,
    1092,
    1075,
    1075,
    1090,
    1092,
    1075,
    1075,
    1090,
    1386,
    1386,
    1383,
    1384,
    1388,
    1383,
    1387,
    1385,
    1386,
    1385,
    1387,
    1385,
    1383,
    1386,
    1386,
    1386,
    1385,
    402,
    403,
    312,
    1271,
    1269,
    3,
    1,
    1269,
    61,
    63,
    63,
    63,
    63,
    62,
    4,
    1274,
    212,
    515,
    516,
    1387,
    752,
    1234,
    1234,
    784,
    752,
    1234,
    1234,
    1234,
    784,
    752,
    1234,
    1234,
    1234,
    1234,
    784,
    1386,
    1386,
    1383,
    1386,
    1388,
    1385,
    1384,
    1384,
    1383,
    1385,
    1385,
    1386,
    1384,
    1386,
    1384,
    1384,
    1386,
    1383,
    1384,
    1388,
    1387,
    1383,
    1387,
    1384,
    1386,
    1387,
    1385,
    1383,
    1387,
    1385,
    1384,
    1388,
    1388,
    1384,
    1388,
    1386,
    1385,
    1384,
    1384,
    1386,
    1384,
    1385,
    1387,
    1385,
    1386,
    1388,
    1384,
    1386,
    1383,
    1383,
    1384,
    1386,
    1387,
    1383,
    1385,
    1384,
    1383,
    1385,
    1386,
    1385,
    1091,
    1386,
    1384,
    1091,
    1387,
    1384,
    1387,
    1383,
    1385,
    1091,
    1091,
    1387,
    1388,
    1091,
    1091,
    1388,
    1386,
    1385,
    1385,
    1384,
    1387,
    1388,
    1386,
    1387,
    1387,
    1385,
    1384,
    1386,
    1385,
    1388,
    1383,
    1385,
    1387,
    417,
    330,
    331,
    4,
    61,
    62,
    4,
    1269,
    93,
    43,
    43,
    43,
    43,
    107,
    1267,
    1,
    226,
    227,
    514,
    1290,
    1367,
    326,
    326,
    1368,
    1367,
    326,
    326,
    326,
    1368,
    1367,
    326,
    326,
    326,
    326,
    1368,
    1384,
    1386,
    1386,
    1387,
    1385,
    1385,
    1383,
    1386,
    1388,
    1386,
    1387,
    1386,
    1383,
    1388,
    1385,
    1385,
    1384,
    1384,
    1388,
    1384,
    1388,
    1388,
    1383,
    1385,
    1387,
    1387,
    1386,
    1386,
    1384,
    1387,
    1383,
    1383,
    1383,
    1388,
    1387,
    1388,
    1388,
    1387,
    1385,
    1388,
    1384,
    1385,
    1384,
    1386,
    1386,
    1388,
    1385,
    1386,
    1384,
    1386,
    1387,
    1386,
    1383,
    1384,
    1383,
    1383,
    1387,
    1387,
    1386,
    1384,
    1384,
    1387,
    1385,
    1388,
    1384,
    1388,
    1383,
    1383,
    1388,
    1384,
    1384,
    1384,
    1383,
    1383,
    1384,
    1384,
    1387,
    1386,
    1384,
    1383,
    1383,
    1385,
    1383,
    1383,
    1384,
    1387,
    1386,
    1388,
    1383,
    1385,
    1386,
    1387,
    402,
    403,
    312,
    1271,
    4,
    93,
    107,
    1267,
    1269,
    92,
    42,
    42,
    42,
    42,
    106,
    1266,
    3,
    1274,
    212,
    515,
    516,
    768,
    1250,
    1250,
    800,
    768,
    1250,
    1250,
    1250,
    800,
    768,
    1250,
    1250,
    1250,
    1250,
    800,
    1388,
    1386,
    1384,
    1385,
    1384,
    1388,
    1385,
    1383,
    1383,
    1386,
    1387,
    1388,
    1386,
    1386,
    1384,
    1387,
    1385,
    1384,
    1388,
    1383,
    1387,
    1385,
    1386,
    1385,
    1384,
    1386,
    1388,
    1383,
    1388,
    1385,
    1386,
    1386,
    1386,
    1384,
    1386,
    1387,
    1387,
    1388,
    1384,
    1387,
    1385,
    1387,
    1385,
    1388,
    1384,
    1385,
    1387,
    1385,
    1388,
    1386,
    1387,
    1388,
    1388,
    1384,
    1388,
    1385,
    1384,
    1383,
    3,
    15,
    16,
    4,
    1075,
    1075,
    1075,
    1075,
    3,
    2,
    1075,
    4,
    15,
    16,
    1387,
    1388,
    1384,
    1388,
    1385,
    1387,
    1387,
    1385,
    1384,
    1386,
    1383,
    1388,
    1383,
    1386,
    1384,
    1387,
    1388,
    1388,
    1386,
    1385,
    51,
    326,
    66,
    1,
    2,
    92,
    29,
    27,
    1269,
    59,
    64,
    64,
    28,
    64,
    60,
    1268,
    1,
    1,
    34,
    326,
    18,
    1387,
    1387,
    1387,
    1383,
    1388,
    1387,
    1388,
    1385,
    1386,
    1388,
    1386,
    1383,
    1386,
    1387,
    1387,
    1388,
    1383,
    1386,
    1387,
    1385,
    1383,
    1385,
    1383,
    1383,
    1385,
    1388,
    1385,
    1388,
    1386,
    1384,
    1387,
    1383,
    1384,
    1386,
    1388,
    1386,
    1387,
    1383,
    1386,
    1387,
    1384,
    1388,
    1385,
    1385,
    1388,
    1387,
    1383,
    1384,
    1384,
    1388,
    1383,
    1384,
    1385,
    1387,
    1384,
    1386,
    1388,
    1385,
    1386,
    1385,
    1387,
    1387,
    1388,
    1388,
    1388,
    1386,
    1384,
    1383,
    1387,
    1385,
    1383,
    1386,
    1384,
    15,
    31,
    32,
    1090,
    1091,
    1091,
    1091,
    1091,
    1092,
    1090,
    1091,
    1092,
    31,
    32,
    1386,
    1386,
    1387,
    1383,
    1386,
    1384,
    1387,
    1384,
    1384,
    1385,
    1385,
    1384,
    1383,
    1388,
    1385,
    1386,
    1388,
    1385,
    1386,
    1385,
    51,
    326,
    50,
    1,
    2,
    59,
    60,
    1268,
    15,
    2,
    1,
    1,
    1,
    1,
    3,
    15,
    16,
    1,
    34,
    326,
    18,
    1387,
    1387,
    1388,
    1386,
    1387,
    1383,
    1387,
    1385,
    1387,
    1385,
    1386,
    1383,
    1384,
    1388,
    1388,
    1386,
    1387,
    1388,
    1384,
    1388,
    1384,
    1384,
    1386,
    1388,
    1388,
    1386,
    1384,
    1385,
    1387,
    1385,
    1385,
    1387,
    1387,
    1388,
    1383,
    1383,
    1388,
    1385,
    1384,
    1385,
    1385,
    1388,
    1388,
    1385,
    1385,
    1387,
    1383,
    1385,
    1386,
    1384,
    1383,
    1386,
    1385,
    1385,
    1388,
    1386,
    1387,
    1383,
    1384,
    1388,
    1388,
    1386,
    1383,
    1386,
    1386,
    1384,
    1388,
    1386,
    1386,
    1387,
    1386,
    1386,
    1388,
    31,
    32,
    1090,
    70,
    49,
    49,
    49,
    49,
    49,
    49,
    49,
    38,
    1092,
    4,
    1387,
    1387,
    1383,
    1383,
    1383,
    1388,
    1388,
    1384,
    1388,
    1384,
    1384,
    1383,
    1387,
    1385,
    1383,
    1383,
    1386,
    1384,
    1384,
    1387,
    51,
    326,
    50,
    3,
    16,
    1,
    1,
    2,
    31,
    32,
    3,
    4,
    1,
    4,
    1,
    31,
    32,
    1,
    34,
    326,
    18,
    1384,
    1384,
    1387,
    1387,
    1383,
    1388,
    1387,
    1385,
    1386,
    1386,
    1384,
    1386,
    1387,
    1385,
    1387,
    1386,
    1386,
    1387,
    1385,
    1385,
    1387,
    1384,
    1387,
    1383,
    1383,
    1386,
    1387,
    1387,
    1383,
    1384,
    1387,
    1387,
    1384,
    1383,
    1384,
    1384,
    1383,
    1383,
    1385,
    1384,
    1387,
    1385,
    1386,
    1386,
    1387,
    1384,
    1386,
    1387,
    1386,
    1388,
    1385,
    1385,
    1383,
    1385,
    1385,
    1387,
    1385,
    1383,
    1388,
    1384,
    1385,
    1384,
    1385,
    1387,
    1383,
    1385,
    1383,
    1383,
    1387,
    1383,
    1388,
    1388,
    1388,
    3,
    1105,
    1106,
    68,
    65,
    65,
    65,
    65,
    65,
    65,
    65,
    37,
    1290,
    1092,
    1388,
    1383,
    1388,
    1385,
    1387,
    1386,
    1385,
    1383,
    1383,
    1383,
    1387,
    1385,
    1385,
    1386,
    1385,
    1385,
    1385,
    1387,
    1385,
    1387,
    51,
    326,
    50,
    31,
    32,
    1269,
    61,
    63,
    63,
    62,
    1269,
    1269,
    61,
    63,
    63,
    62,
    1269,
    1,
    34,
    326,
    18,
    1388,
    1384,
    1383,
    1387,
    1388,
    1385,
    1386,
    1388,
    1387,
    1385,
    1386,
    1387,
    1387,
    1385,
    1384,
    1386,
    1388,
    1385,
    1388,
    1384,
    1384,
    1387,
    1388,
    1387,
    1385,
    1387,
    1386,
    1383,
    1386,
    1383,
    1387,
    1386,
    1386,
    1383,
    1387,
    1384,
    1387,
    1385,
    1388,
    1387,
    1383,
    1383,
    1383,
    1386,
    1383,
    1387,
    1387,
    1384,
    1386,
    1388,
    1383,
    1384,
    1384,
    1383,
    1387,
    1388,
    1386,
    1387,
    1387,
    1385,
    1386,
    1383,
    1384,
    1384,
    1383,
    1387,
    1383,
    1384,
    1388,
    1386,
    1386,
    1387,
    1387,
    4,
    1090,
    52,
    53,
    1269,
    61,
    63,
    63,
    62,
    1269,
    2,
    21,
    22,
    1108,
    1385,
    1384,
    1386,
    1385,
    1387,
    1387,
    1388,
    1387,
    1383,
    1387,
    1386,
    1387,
    1388,
    1383,
    1387,
    1386,
    1387,
    1384,
    1388,
    1383,
    418,
    419,
    313,
    1272,
    1,
    1269,
    93,
    43,
    43,
    107,
    1267,
    1269,
    93,
    43,
    43,
    107,
    1267,
    32,
    34,
    326,
    18,
    1387,
    1387,
    1384,
    1386,
    1385,
    1383,
    1385,
    1384,
    1386,
    1388,
    1387,
    1385,
    1387,
    1385,
    1386,
    1386,
    1383,
    1385,
    1385,
    1387,
    1386,
    1384,
    1383,
    1383,
    1388,
    1386,
    1383,
    1385,
    1384,
    1387,
    1384,
    1383,
    1385,
    1387,
    1385,
    1384,
    1386,
    1384,
    1385,
    1387,
    1383,
    1384,
    1385,
    1387,
    1387,
    1387,
    1388,
    1387,
    1383,
    1386,
    1386,
    1385,
    1384,
    1384,
    1384,
    1386,
    1386,
    1385,
    1386,
    1387,
    1386,
    1388,
    1388,
    1385,
    1388,
    1387,
    1386,
    1387,
    1385,
    1386,
    1385,
    1386,
    1387,
    1105,
    1106,
    67,
    1271,
    1269,
    93,
    43,
    43,
    107,
    1267,
    3,
    1274,
    18,
    1108,
    1383,
    1383,
    1387,
    1386,
    1387,
    1388,
    1387,
    1385,
    1385,
    1386,
    1384,
    1384,
    1388,
    1384,
    1384,
    1387,
    1384,
    1388,
    1388,
    1383,
    1383,
    404,
    314,
    315,
    4,
    1269,
    92,
    42,
    42,
    106,
    1266,
    1269,
    92,
    42,
    42,
    106,
    1266,
    3,
    225,
    499,
    500,
    1383,
    1384,
    1384,
    1385,
    1385,
    1385,
    1387,
    1388,
    1386,
    1386,
    1388,
    1386,
    1385,
    1384,
    1384,
    1386,
    1388,
    1383,
    1385,
    1384,
    1387,
    1383,
    1388,
    1385,
    1384,
    1386,
    1384,
    1385,
    1383,
    1387,
    1385,
    1384,
    1383,
    1386,
    1384,
    1388,
    1388,
    1383,
    1388,
    1383,
    1384,
    1388,
    1386,
    1385,
    1388,
    1384,
    1384,
    1385,
    1384,
    1387,
    1385,
    1386,
    1387,
    1388,
    1387,
    1385,
    1387,
    1387,
    1387,
    1387,
    1385,
    1385,
    1384,
    1388,
    1388,
    1388,
    1386,
    1385,
    1385,
    1388,
    1383,
    1385,
    1385,
    1105,
    1106,
    66,
    1,
    1269,
    92,
    42,
    42,
    106,
    1266,
    13,
    3,
    18,
    1108,
    1388,
    1386,
    1386,
    1387,
    1383,
    1384,
    1383,
    1388,
    1383,
    1384,
    1388,
    1386,
    1385,
    1383,
    1383,
    1384,
    1386,
    1384,
    1388,
    1383,
    1383,
    418,
    419,
    313,
    1272,
    1269,
    59,
    28,
    64,
    60,
    1268,
    1269,
    59,
    28,
    64,
    60,
    1268,
    210,
    211,
    498,
    1289,
    1388,
    1385,
    1388,
    1384,
    1383,
    1383,
    1388,
    1388,
    1383,
    1386,
    1388,
    1384,
    1386,
    1383,
    1384,
    1386,
    1383,
    1384,
    1385,
    1388,
    1386,
    1385,
    1383,
    1388,
    1384,
    1388,
    1384,
    1384,
    1384,
    1385,
    1384,
    1387,
    1383,
    1384,
    1385,
    1387,
    1384,
    1385,
    1385,
    1384,
    1384,
    1386,
    1386,
    1388,
    1386,
    1383,
    1387,
    1388,
    1383,
    1388,
    1386,
    1388,
    1385,
    1388,
    1385,
    1383,
    1384,
    1387,
    1384,
    1384,
    1383,
    1387,
    1384,
    1388,
    1383,
    1385,
    1386,
    1387,
    1385,
    1383,
    1384,
    1384,
    1386,
    4,
    1122,
    50,
    14,
    1269,
    59,
    28,
    64,
    60,
    1268,
    15,
    3,
    18,
    1124,
    1386,
    1388,
    1387,
    1384,
    1387,
    1386,
    1384,
    1384,
    1384,
    1387,
    1384,
    1387,
    1383,
    1385,
    1384,
    1384,
    1388,
    1387,
    1386,
    1383,
    1164,
    1383,
    404,
    314,
    315,
    3,
    7,
    3,
    2,
    1,
    2,
    1,
    1,
    4,
    1,
    3,
    4,
    225,
    499,
    500,
    1165,
    1383,
    1385,
    1387,
    1386,
    1388,
    1385,
    1386,
    1385,
    1384,
    1386,
    1385,
    1388,
    1383,
    1388,
    1383,
    1385,
    1384,
    1384,
    1384,
    1387,
    1383,
    1386,
    1383,
    1388,
    1384,
    1385,
    1383,
    1383,
    1386,
    1385,
    1388,
    1385,
    1388,
    1386,
    1388,
    1387,
    1388,
    1384,
    1384,
    1388,
    1388,
    1385,
    1386,
    1388,
    1388,
    1386,
    1383,
    1384,
    1387,
    1383,
    1385,
    1386,
    1387,
    1386,
    1386,
    1387,
    1384,
    1387,
    1384,
    1386,
    1387,
    1383,
    1385,
    1386,
    1386,
    1385,
    1388,
    1388,
    1384,
    1386,
    1387,
    1383,
    1383,
    3,
    1090,
    50,
    3,
    2,
    3,
    2,
    1,
    2,
    3,
    31,
    3,
    18,
    1092,
    1385,
    1385,
    1388,
    1387,
    1387,
    1386,
    1388,
    1388,
    1388,
    1385,
    1387,
    1383,
    1385,
    1387,
    1384,
    1384,
    1384,
    1383,
    1383,
    1384,
    1384,
    1383,
    418,
    419,
    313,
    1272,
    1,
    3,
    2,
    3,
    4,
    4,
    1,
    1,
    1,
    1,
    210,
    211,
    498,
    1289,
    1384,
    1387,
    1385,
    1385,
    1383,
    1387,
    1385,
    1388,
    1385,
    1386,
    1383,
    1384,
    1383,
    1385,
    1385,
    1386,
    1387,
    1383,
    1387,
    1386,
    1386,
    1386,
    1388,
    1386,
    1383,
    1383,
    1383,
    1386,
    1383,
    1385,
    1387,
    1387,
    1384,
    1388,
    1383,
    1388,
    1388,
    1384,
    1385,
    1385,
    1383,
    1383,
    1388,
    1385,
    1384,
    1383,
    1384,
    1386,
    1385,
    1384,
    1386,
    1385,
    1386,
    1385,
    1384,
    1388,
    1387,
    1385,
    1388,
    1384,
    1386,
    1388,
    1383,
    1387,
    1384,
    1384,
    1384,
    1388,
    1387,
    1385,
    1384,
    1386,
    1386,
    1387,
    1105,
    1106,
    69,
    1272,
    475,
    476,
    4,
    1,
    2,
    475,
    476,
    1,
    18,
    1108,
    1386,
    1384,
    1385,
    1386,
    1387,
    1388,
    1388,
    1387,
    1383,
    1386,
    1384,
    1385,
    1388,
    1384,
    1387,
    1385,
    1387,
    1385,
    1383,
    1387,
    1384,
    1076,
    1077,
    404,
    309,
    306,
    306,
    237,
    238,
    4,
    2,
    3,
    235,
    236,
    306,
    306,
    307,
    499,
    500,
    1383,
    1107,
    1384,
    1388,
    1387,
    1384,
    1388,
    1386,
    1385,
    1387,
    1387,
    1388,
    1386,
    1384,
    1386,
    1384,
    1387,
    1387,
    1385,
    1386,
    1387,
    1383,
    1384,
    1387,
    1384,
    1387,
    1386,
    1385,
    1387,
    1386,
    1383,
    1386,
    1385,
    1385,
    1387,
    1387,
    1383,
    1385,
    1385,
    1388,
    1387,
    1387,
    1384,
    1385,
    1386,
    1386,
    1388,
    1388,
    1385,
    1384,
    1383,
    1387,
    1386,
    1383,
    1387,
    1383,
    1385,
    1388,
    1383,
    1385,
    1386,
    1385,
    1385,
    1383,
    1383,
    1386,
    1384,
    1384,
    1388,
    1384,
    1383,
    1385,
    1387,
    1387,
    1383,
    4,
    1122,
    57,
    58,
    491,
    492,
    1297,
    1298,
    1299,
    491,
    492,
    24,
    25,
    1108,
    1387,
    1388,
    1383,
    1385,
    1384,
    1388,
    1388,
    1386,
    1386,
    1384,
    1385,
    1383,
    1385,
    1388,
    1384,
    1385,
    1384,
    1384,
    1383,
    1384,
    1384,
    1383,
    1383,
    406,
    407,
    497,
    497,
    603,
    604,
    1297,
    1298,
    1299,
    651,
    652,
    497,
    497,
    497,
    502,
    1289,
    1107,
    1384,
    1383,
    1388,
    1383,
    1383,
    1386,
    1386,
    1386,
    1383,
    1386,
    1384,
    1383,
    1384,
    1387,
    1387,
    1385,
    1384,
    1388,
    1387,
    1387,
    1387,
    1384,
    1386,
    1385,
    1387,
    1386,
    1384,
    1384,
    1388,
    1384,
    1388,
    1383,
    1387,
    1384,
    1387,
    1386,
    1388,
    1386,
    1386,
    1388,
    1385,
    1383,
    1384,
    1384,
    1387,
    1387,
    1383,
    1387,
    1388,
    1386,
    1387,
    1387,
    1384,
    1383,
    1388,
    1383,
    1386,
    1387,
    1387,
    1388,
    1387,
    1383,
    1385,
    1383,
    1385,
    1387,
    1384,
    1388,
    1387,
    1386,
    1387,
    1385,
    1384,
    1385,
    2,
    1105,
    1106,
    74,
    507,
    508,
    1313,
    1314,
    1315,
    507,
    508,
    40,
    41,
    1124,
    1383,
    1387,
    1383,
    1385,
    1384,
    1385,
    1388,
    1388,
    1384,
    1383,
    1387,
    1387,
    1388,
    1383,
    1384,
    1384,
    1383,
    1387,
    1385,
    1386,
    1384,
    1387,
    1384,
    422,
    423,
    513,
    513,
    507,
    508,
    1313,
    1314,
    1315,
    507,
    508,
    513,
    513,
    513,
    518,
    1383,
    1384,
    1383,
    1383,
    1383,
    1385,
    1387,
    1384,
    1383,
    1387,
    1386,
    1383,
    1387,
    1384,
    1384,
    1385,
    1385,
    1383,
    1386,
    1385,
    1383,
    1387,
    1384,
    1384,
    1387,
    1383,
    1385,
    1383,
    1383,
    1388,
    1388,
    1383,
    1384,
    1385,
    1387,
    1383,
    1386,
    1386,
    1388,
    1383,
    1387,
    1388,
    1387,
    1384,
    1384,
    1384,
    1388,
    1388,
    1384,
    1385,
    1385,
    1388,
    1386,
    1384,
    1388,
    1384,
    1386,
    1388,
    1387,
    1385,
    1388,
    1385,
    1386,
    1385,
    1384,
    1388,
    1388,
    1384,
    1387,
    1385,
    1386,
    1384,
    1383,
    1388,
    1383,
    1383,
    15,
    16,
    1122,
    1123,
    523,
    524,
    1329,
    1330,
    1331,
    523,
    524,
    1123,
    1124,
    2,
    1385,
    1383,
    1388,
    1385,
    1388,
    1385,
    1386,
    1386,
    1386,
    1387,
    1385,
    1387,
    1383,
    1388,
    1385,
    1388,
    1383,
    1387,
    1384,
    1384,
    1387,
    1383,
    1384,
    1383,
    1384,
    1384,
    1163,
    523,
    524,
    1329,
    1330,
    1331,
    523,
    524,
    1383,
    1384,
    1388,
    1163,
    1384,
    1388,
    1384,
    1384,
    1388,
    1387,
    1384,
    1384,
    1388,
    1386,
    1383,
    1388,
    1384,
    1385,
    1388,
    1386,
    1387,
    1383,
    1386,
    1387,
    1385,
    1388,
    1385,
    1384,
    1386,
    1384,
    1386,
    1383,
    1386,
    1388,
    1386,
    1387,
    1383,
    1384,
    1386,
    1383,
    1383,
    1386,
    1386,
    1383,
    1385,
    1387,
    1387,
    1385,
    1385,
    1387,
    1383,
    1386,
    1386,
    1384,
    1386,
    1387,
    1385,
    1383,
    1386,
    1385,
    1387,
    1386,
    1384,
    1383,
    1385,
    1385,
    1383,
    1383,
    1383,
    1388,
    1388,
    1385,
    1388,
    1388,
    1384,
    1383,
    1386,
    1388,
    1384,
    1384,
    31,
    32,
    15,
    4,
    1122,
    1123,
    1123,
    1123,
    1123,
    1123,
    1124,
    4,
    15,
    16,
    1388,
    1387,
    1386,
    1388,
    1387,
    1383,
    1388,
    1387,
    1387,
    1386,
    1385,
    1384,
    1383,
    1388,
    1384,
    1388,
    1383,
    1388,
    1383,
    1385,
    1384,
    1384,
    1388,
    1384,
    1387,
    1386,
    1388,
    1387,
    1388,
    1165,
    411,
    412,
    1076,
    1077,
    1384,
    1386,
    1384,
    1386,
    1384,
    411,
    412,
    1386,
    1387,
    1386,
    1107,
    1383,
    1385,
    1383,
    1385,
    1383,
    1107,
    1388,
    1385,
    1387,
    1385,
    1388,
    1386,
    1388,
    1387,
    1388,
    1388,
    1384,
    1385,
    1384,
    1388,
    1385,
    1384,
    1388,
    1383,
    1387,
    1388,
    1387,
    1387,
    1384,
    1388,
    1387,
    1388,
    1387,
    1384,
    1387,
    1385,
    1388,
    1384,
    1384,
    1387,
    1388,
    1387,
    1384,
    1384,
    1384,
    1384,
    1384,
    1384,
    1386,
    1385,
    1386,
    1388,
    1384,
    1386,
    1385,
    1385,
    1386,
    1388,
    1384,
    1384,
    1387,
    1388,
    1388,
    1383,
    1384,
    1387,
    1385,
    1383,
    1384,
    4,
    4,
    31,
    32,
    2,
    1074,
    4,
    2,
    1074,
    1074,
    4,
    3,
    31,
    32,
    1388,
    1385,
    1385,
    1385,
    1384,
    1383,
    1384,
    1388,
    1386,
    1383,
    1383,
    1388,
    1385,
    1387,
    1383,
    1385,
    1384,
    1387,
    1385,
    1388,
    1386,
    1387,
    1385,
    1383,
    1384,
    1387,
    1384,
    408,
    409,
    305,
    587,
    588,
    305,
    305,
    305,
    305,
    305,
    305,
    305,
    587,
    588,
    305,
    505,
    506,
    1385,
    1384,
    1385,
    1383,
    1387,
    1388,
    1385,
    1384,
    1385,
    1387,
    1385,
    1384,
    1387,
    1386,
    1388,
    1383,
    1385,
    1385,
    1388,
    1386,
    1385,
    1383,
    1387,
    1384,
    1387,
    1385,
    1387,
    1384,
    1384,
    1383,
    1388,
    1385,
    1387,
    1387,
    1383,
    1384,
    1386,
    1387,
    1388,
    1387,
    1388,
    1387,
    1384,
    1384,
    1385,
    1385,
    1385,
    1385,
    1385,
    1385,
    1386,
    1387,
    1387,
    1388,
    1384,
    1384,
    1387,
    1385,
    1384,
    1385,
    1388,
    1383,
    1385,
    1385,
    1383,
    1383,
    1386,
    1,
    15,
    16,
    3,
    1090,
    1091,
    1091,
    1092,
    4,
    1,
    1090,
    1091,
    1091,
    1092,
    4,
    1,
    15,
    3,
    1384,
    1385,
    1384,
    1385,
    1388,
    1387,
    1383,
    1384,
    1383,
    1388,
    1388,
    1384,
    1383,
    1386,
    1387,
    1388,
    1383,
    1386,
    1384,
    1387,
    1383,
    1385,
    1383,
    1383,
    1388,
    1387,
    417,
    325,
    311,
    555,
    556,
    311,
    311,
    311,
    311,
    311,
    311,
    311,
    555,
    556,
    311,
    310,
    514,
    1290,
    1385,
    1387,
    1388,
    1387,
    1384,
    1388,
    1384,
    1385,
    1386,
    1387,
    1388,
    1385,
    1384,
    1388,
    1384,
    1386,
    1387,
    1383,
    1383,
    1386,
    1388,
    1387,
    1384,
    1388,
    1384,
    1385,
    1388,
    1388,
    1387,
    1383,
    1384,
    1387,
    1385,
    1385,
    1387,
    1388,
    1387,
    1384,
    1384,
    1384,
    1384,
    1385,
    1385,
    1384,
    1384,
    1384,
    1384,
    1384,
    1384,
    1384,
    1386,
    1383,
    1386,
    1383,
    1385,
    1385,
    1387,
    1386,
    1384,
    1383,
    1383,
    1383,
    1383,
    1387,
    1387,
    1384,
    15,
    31,
    32,
    1090,
    1387,
    1164,
    1387,
    1387,
    1091,
    1091,
    1388,
    1387,
    411,
    412,
    1092,
    2,
    31,
    32,
    1388,
    1388,
    1387,
    1384,
    1386,
    1387,
    1383,
    1386,
    1384,
    1384,
    1385,
    1388,
    1385,
    1386,
    1387,
    1384,
    1386,
    1383,
    1384,
    1383,
    1386,
    1383,
    1385,
    1383,
    1388,
    402,
    403,
    328,
    327,
    571,
    572,
    327,
    327,
    327,
    327,
    327,
    327,
    327,
    571,
    572,
    327,
    228,
    515,
    516,
    1387,
    1385,
    1386,
    1386,
    1383,
    1385,
    1388,
    1384,
    1383,
    1386,
    1384,
    1385,
    1385,
    1385,
    1384,
    1384,
    1386,
    1386,
    1385,
    1383,
    1387,
    1385,
    1387,
    1388,
    1388,
    1384,
    1385,
    1387,
    1386,
    1387,
    1383,
    1384,
    1386,
    1387,
    1387,
    1388,
    1387,
    1384,
    1384,
    1384,
    1384,
    1384,
    1384,
    1388,
    1388,
    1388,
    1388,
    1388,
    1385,
    1383,
    1383,
    1387,
    1388,
    1387,
    1383,
    1383,
    1388,
    1388,
    1386,
    1385,
    1384,
    1386,
    1385,
    1384,
    1386,
    1384,
    31,
    32,
    1090,
    70,
    49,
    49,
    49,
    49,
    49,
    49,
    49,
    49,
    427,
    428,
    38,
    1092,
    3,
    1,
    1384,
    1387,
    1385,
    1388,
    1386,
    1383,
    1383,
    1385,
    1386,
    1387,
    1383,
    1385,
    1388,
    1387,
    1388,
    1386,
    1383,
    1387,
    1386,
    1386,
    1383,
    1383,
    1383,
    1384,
    1387,
    417,
    330,
    331,
    1,
    1,
    2,
    1,
    3,
    1,
    1,
    1,
    1,
    1,
    1,
    1,
    1,
    226,
    227,
    514,
    1290,
    1387,
    1384,
    1388,
    1387,
    1388,
    1384,
    1388,
    1387,
    1388,
    1383,
    1384,
    1386,
    1383,
    1383,
    1387,
    1388,
    1386,
    1387,
    1383,
    1385,
    1383,
    1383,
    1383,
    1383,
    1386,
    1385,
    1384,
    1388,
    1385,
    1387,
    1388,
    1387,
    1384,
    1385,
    1387,
    1387,
    1385,
    1385,
    1385,
    1385,
    1385,
    1388,
    1385,
    1385,
    1385,
    1385,
    1385,
    1384,
    1385,
    1387,
    1385,
    1383,
    1385,
    1386,
    1384,
    1387,
    1388,
    1388,
    1383,
    1383,
    1384,
    1384,
    1384,
    1385,
    1384,
    2,
    2,
    1106,
    68,
    65,
    65,
    65,
    65,
    65,
    65,
    65,
    65,
    443,
    444,
    37,
    1290,
    1092,
    4,
    1387,
    1383,
    1386,
    1385,
    1385,
    1387,
    1383,
    1383,
    1385,
    1387,
    1383,
    1387,
    1385,
    1386,
    1384,
    1384,
    1384,
    1383,
    1387,
    1388,
    1385,
    1388,
    1387,
    1387,
    402,
    403,
    312,
    1271,
    16,
    61,
    63,
    63,
    62,
    4,
    1,
    3,
    61,
    63,
    63,
    62,
    7,
    1274,
    212,
    515,
    516,
    1387,
    1387,
    1384,
    1385,
    1385,
    1387,
    1384,
    1383,
    1387,
    1385,
    1384,
    1383,
    1385,
    1387,
    1384,
    1386,
    1383,
    1386,
    1385,
    1385,
    1387,
    1385,
    1385,
    1383,
    1383,
    1387,
    1385,
    1386,
    1388,
    1385,
    1387,
    1387,
    1385,
    1384,
    1387,
    1385,
    1388,
    1384,
    1384,
    1387,
    1388,
    1387,
    1384,
    1384,
    1387,
    1387,
    1385,
    1388,
    1387,
    1388,
    1385,
    1386,
    1383,
    1388,
    1385,
    1383,
    1385,
    1386,
    1387,
    1387,
    1386,
    1385,
    1385,
    1387,
    1386,
    1,
    1090,
    52,
    53,
    1,
    1,
    1,
    1,
    1,
    1,
    1,
    1,
    459,
    460,
    21,
    22,
    1387,
    1092,
    1387,
    1388,
    1383,
    1386,
    1386,
    1388,
    1385,
    1384,
    1386,
    1387,
    1386,
    1384,
    1387,
    1387,
    1386,
    1383,
    1383,
    1386,
    1388,
    1384,
    1388,
    1383,
    1387,
    1387,
    417,
    330,
    331,
    31,
    32,
    93,
    43,
    43,
    107,
    1267,
    1,
    4,
    93,
    43,
    43,
    107,
    1267,
    4,
    226,
    227,
    514,
    1290,
    1387,
    1387,
    1385,
    1388,
    1388,
    1385,
    1388,
    1387,
    1387,
    1387,
    1384,
    1387,
    1387,
    1384,
    1385,
    1387,
    1385,
    1383,
    1388,
    1385,
    1383,
    1386,
    1384,
    1386,
    1384,
    1383,
    1384,
    1386,
    1384,
    1387,
    1385,
    1388,
    1383,
    1384,
    1386,
    1387,
    1388,
    1388,
    1387,
    1388,
    1387,
    1384,
    1384,
    1388,
    1387,
    1387,
    1385,
    1384,
    1388,
    1383,
    1385,
    1388,
    1386,
    1385,
    1386,
    1386,
    1385,
    1387,
    1385,
    1383,
    1388,
    1388,
    1383,
    1388,
    1105,
    1106,
    67,
    1273,
    1,
    1269,
    61,
    63,
    63,
    62,
    1269,
    1,
    2,
    4,
    3,
    20,
    1290,
    1124,
    1387,
    1386,
    1387,
    1383,
    1387,
    1384,
    1384,
    1384,
    1385,
    1387,
    1383,
    1385,
    1383,
    1384,
    1387,
    1383,
    1388,
    1386,
    1384,
    1387,
    1384,
    1385,
    1387,
    402,
    403,
    312,
    1271,
    4,
    32,
    92,
    42,
    42,
    29,
    27,
    1,
    4,
    92,
    42,
    42,
    106,
    1266,
    3,
    1274,
    212,
    515,
    516,
    1076,
    1077,
    1384,
    1385,
    1387,
    1383,
    1385,
    1385,
    1383,
    1388,
    1384,
    1386,
    1384,
    1385,
    1384,
    1384,
    1386,
    1387,
    1386,
    1386,
    1388,
    1383,
    1388,
    1385,
    1384,
    1387,
    1383,
    1385,
    1383,
    1384,
    1387,
    1388,
    1385,
    1388,
    1387,
    1387,
    1385,
    1387,
    1387,
    1388,
    1387,
    1384,
    1384,
    1384,
    1384,
    1385,
    1384,
    1383,
    1388,
    1386,
    1388,
    1387,
    1387,
    1386,
    1388,
    1387,
    1383,
    1384,
    1384,
    1384,
    1387,
    1383,
    1388,
    1387,
    1105,
    1106,
    66,
    4,
    1,
    1269,
    93,
    43,
    43,
    107,
    1267,
    1,
    1,
    4,
    3,
    21,
    22,
    1092,
    1383,
    1383,
    1388,
    1387,
    1387,
    1386,
    1388,
    1384,
    1384,
    1386,
    1383,
    1387,
    1386,
    1384,
    1383,
    1388,
    1385,
    1384,
    1385,
    1384,
    1387,
    1388,
    1387,
    417,
    330,
    331,
    2,
    2,
    1,
    92,
    42,
    42,
    106,
    1266,
    3,
    3,
    75,
    42,
    90,
    76,
    1266,
    4,
    3,
    226,
    227,
    514,
    1290,
    1387,
    1385,
    1383,
    1386,
    1386,
    1384,
    1384,
    1385,
    1388,
    1387,
    1384,
    1387,
    1388,
    1386,
    1387,
    1385,
    1385,
    1386,
    1387,
    1384,
    1388,
    1386,
    1386,
    1385,
    1383,
    1385,
    1387,
    1388,
    1387,
    1385,
    1387,
    1384,
    1387,
    1387,
    1388,
    1387,
    1384,
    1384,
    1387,
    1387,
    1385,
    1385,
    1384,
    1384,
    1384,
    1387,
    1385,
    1388,
    1386,
    1383,
    1387,
    1386,
    1388,
    1388,
    1386,
    1388,
    1383,
    1387,
    1388,
    1387,
    1384,
    1388,
    1383,
    3,
    1122,
    50,
    3,
    1269,
    1269,
    92,
    42,
    42,
    106,
    1266,
    1,
    1,
    2,
    4,
    1274,
    18,
    1108,
    1387,
    1386,
    1386,
    1387,
    1386,
    1387,
    1388,
    1387,
    1383,
    1383,
    1386,
    1388,
    1385,
    1384,
    1385,
    1385,
    1383,
    1383,
    1384,
    1383,
    1384,
    1387,
    402,
    403,
    312,
    1271,
    4,
    4,
    4,
    92,
    90,
    90,
    76,
    1266,
    1,
    26,
    30,
    42,
    42,
    106,
    1266,
    1,
    1,
    1274,
    212,
    515,
    516,
    1076,
    1077,
    1107,
    1385,
    1388,
    1383,
    1385,
    1383,
    1385,
    1384,
    1383,
    1385,
    1386,
    1387,
    1388,
    1388,
    1384,
    1383,
    1385,
    1385,
    1388,
    1386,
    1385,
    1387,
    1386,
    1387,
    1387,
    1388,
    1387,
    1384,
    1387,
    1383,
    1384,
    1385,
    1387,
    1387,
    1385,
    1385,
    1387,
    1385,
    1388,
    1384,
    1384,
    1384,
    1383,
    1386,
    1383,
    1385,
    1387,
    1383,
    1385,
    1385,
    1385,
    1384,
    1383,
    1388,
    1387,
    1385,
    1384,
    1385,
    1384,
    1388,
    1388,
    4,
    1105,
    50,
    1,
    4,
    1269,
    59,
    28,
    64,
    60,
    1268,
    1,
    61,
    62,
    16,
    4,
    18,
    1108,
    1388,
    1387,
    1386,
    1384,
    1383,
    1383,
    1387,
    1388,
    1385,
    1386,
    1384,
    1385,
    1384,
    1385,
    1388,
    1385,
    1383,
    1386,
    1387,
    1387,
    408,
    409,
    749,
    330,
    331,
    4,
    2,
    2,
    3,
    92,
    42,
    42,
    29,
    27,
    1,
    4,
    92,
    42,
    42,
    106,
    1266,
    15,
    16,
    4,
    226,
    227,
    750,
    505,
    506,
    1387,
    1387,
    1388,
    1383,
    1384,
    1388,
    1388,
    1384,
    1383,
    1384,
    1383,
    1386,
    1388,
    1384,
    1383,
    1386,
    1383,
    1386,
    1388,
    1386,
    1384,
    1385,
    1384,
    1385,
    1385,
    1387,
    1388,
    1383,
    1384,
    1385,
    1388,
    1384,
    1387,
    1385,
    1388,
    1384,
    1384,
    1386,
    1387,
    1388,
    1384,
    1384,
    1383,
    1385,
    1388,
    1385,
    1387,
    1386,
    1386,
    1386,
    1384,
    1387,
    1388,
    1388,
    1387,
    1385,
    1388,
    1384,
    1386,
    1384,
    1388,
    1152,
    1090,
    50,
    4,
    2,
    4,
    4,
    4,
    15,
    4,
    15,
    4,
    93,
    107,
    1267,
    4,
    18,
    1124,
    1384,
    1384,
    1384,
    1385,
    1388,
    1383,
    1386,
    1388,
    1387,
    1387,
    1385,
    1388,
    1385,
    1387,
    1388,
    1386,
    1387,
    1383,
    1387,
    1387,
    417,
    325,
    311,
    316,
    1271,
    2,
    4,
    3,
    3,
    59,
    64,
    64,
    60,
    1268,
    1,
    3,
    59,
    64,
    64,
    60,
    1268,
    31,
    32,
    4,
    4,
    213,
    311,
    310,
    514,
    1290,
    1386,
    1383,
    1386,
    1387,
    1385,
    1387,
    1387,
    1384,
    1385,
    1385,
    1384,
    1386,
    1385,
    1387,
    1387,
    1385,
    1385,
    1384,
    1385,
    1387,
    1386,
    1384,
    1388,
    1384,
    1387,
    1388,
    1385,
    1388,
    1387,
    1387,
    1383,
    1384,
    1386,
    1387,
    1388,
    1388,
    1387,
    1387,
    1385,
    1384,
    1384,
    1385,
    1388,
    1388,
    1384,
    1384,
    1385,
    1386,
    1386,
    1383,
    1387,
    1387,
    1383,
    1384,
    1386,
    1387,
    1386,
    1387,
    1386,
    1388,
    1105,
    1106,
    69,
    1272,
    3,
    4,
    2,
    3,
    31,
    32,
    31,
    26,
    30,
    106,
    1266,
    1,
    18,
    1092,
    1388,
    1387,
    1384,
    1384,
    1385,
    1388,
    1386,
    1384,
    1385,
    1384,
    1384,
    1385,
    1383,
    1383,
    1387,
    1387,
    1388,
    1386,
    1386,
    402,
    403,
    328,
    327,
    332,
    1269,
    15,
    16,
    15,
    16,
    15,
    16,
    4,
    1,
    1,
    1,
    1,
    31,
    1269,
    15,
    15,
    16,
    15,
    16,
    15,
    16,
    229,
    327,
    228,
    515,
    516,
    1384,
    1388,
    1386,
    1385,
    1386,
    1384,
    1386,
    1386,
    1388,
    1384,
    1387,
    1387,
    1388,
    1385,
    1388,
    1386,
    1386,
    1383,
    1387,
    1383,
    1383,
    1383,
    1384,
    1383,
    1387,
    1388,
    1387,
    1388,
    1387,
    1385,
    1385,
    1388,
    1387,
    1387,
    1385,
    1387,
    1388,
    1387,
    1384,
    1384,
    1384,
    1385,
    1388,
    1388,
    1384,
    1384,
    1387,
    1385,
    1385,
    1387,
    1385,
    1383,
    1385,
    1388,
    1385,
    1387,
    1383,
    1384,
    1383,
    1383,
    1,
    1122,
    54,
    55,
    1,
    2,
    1,
    4,
    1,
    1,
    1,
    3,
    59,
    60,
    1268,
    35,
    36,
    1108,
    1388,
    1384,
    1385,
    1384,
    1383,
    1384,
    1384,
    1384,
    1386,
    1386,
    1385,
    1386,
    1386,
    1386,
    1386,
    1388,
    1385,
    1386,
    1387,
    51,
    326,
    66,
    1,
    4,
    1269,
    61,
    63,
    63,
    63,
    63,
    62,
    4,
    1,
    1,
    1,
    4,
    1,
    1269,
    1269,
    61,
    63,
    63,
    63,
    63,
    62,
    4,
    4,
    34,
    326,
    18,
    1388,
    1383,
    1383,
    1386,
    1385,
    1386,
    1383,
    1385,
    1385,
    1383,
    1386,
    1386,
    1385,
    1383,
    1383,
    1386,
    1386,
    1387,
    1384,
    1388,
    1387,
    1388,
    1386,
    1385,
    1385,
    1387,
    1385,
    1387,
    1387,
    1385,
    1385,
    1388,
    1387,
    1387,
    1387,
    1388,
    1387,
    1384,
    1384,
    1385,
    1385,
    1387,
    1385,
    1388,
    1384,
    1383,
    1386,
    1387,
    1384,
    1388,
    1386,
    1384,
    1388,
    1388,
    1386,
    1383,
    1386,
    1384,
    1383,
    1384,
    15,
    7,
    1122,
    69,
    1272,
    475,
    476,
    2,
    4,
    1,
    475,
    476,
    4,
    4,
    4,
    19,
    1289,
    1124,
    1388,
    1388,
    1386,
    1383,
    1386,
    1385,
    1388,
    1384,
    1384,
    1385,
    1383,
    1386,
    1387,
    1386,
    1388,
    1387,
    1383,
    1388,
    1385,
    51,
    326,
    50,
    1,
    4,
    1269,
    93,
    43,
    43,
    43,
    43,
    107,
    1267,
    1269,
    61,
    63,
    63,
    62,
    1269,
    1269,
    93,
    43,
    43,
    43,
    43,
    107,
    1267,
    3,
    34,
    326,
    18,
    1384,
    1387,
    1387,
    1384,
    1385,
    1384,
    1384,
    1387,
    1385,
    1384,
    1383,
    1383,
    1385,
    1383,
    1384,
    1388,
    1387,
    1388,
    1387,
    1383,
    1388,
    1387,
    1386,
    1383,
    1384,
    1387,
    1384,
    1387,
    1385,
    1388,
    1385,
    1388,
    1387,
    1387,
    1385,
    1387,
    1387,
    1385,
    1385,
    1384,
    1384,
    1387,
    1388,
    1388,
    1387,
    1385,
    1385,
    1386,
    1386,
    1384,
    1388,
    1385,
    1383,
    1384,
    1386,
    1383,
    1384,
    1383,
    1384,
    1384,
    31,
    32,
    1090,
    57,
    58,
    491,
    492,
    1297,
    1298,
    1299,
    491,
    492,
    17,
    17,
    24,
    25,
    1108,
    1109,
    1384,
    1384,
    1383,
    1387,
    1384,
    1384,
    1383,
    1385,
    1385,
    1385,
    1388,
    1383,
    1384,
    1384,
    1386,
    1383,
    1386,
    1385,
    1386,
    51,
    326,
    50,
    4,
    1,
    1269,
    92,
    42,
    42,
    42,
    42,
    106,
    1266,
    1269,
    93,
    43,
    43,
    107,
    1267,
    1269,
    92,
    42,
    42,
    42,
    42,
    106,
    1266,
    4,
    34,
    326,
    18,
    1383,
    1383,
    1387,
    1387,
    1386,
    1385,
    1384,
    1386,
    1384,
    1387,
    1385,
    1388,
    1388,
    1387,
    1386,
    1387,
    1387,
    1388,
    1383,
    1383,
    1387,
    1385,
    1387,
    1387,
    1383,
    1384,
    1383,
    1384,
    1386,
    1387,
    1385,
    1388,
    1387,
    1387,
    1384,
    1387,
    1385,
    1388,
    1384,
    1388,
    1388,
    1384,
    1384,
    1387,
    1388,
    1388,
    1386,
    1384,
    1387,
    1386,
    1383,
    1385,
    1384,
    1386,
    1383,
    1388,
    1388,
    1384,
    1388,
    1384,
    2,
    1105,
    1106,
    73,
    74,
    507,
    508,
    1313,
    1314,
    1315,
    507,
    508,
    33,
    33,
    40,
    41,
    1124,
    1,
    1386,
    1385,
    1388,
    1383,
    1384,
    1385,
    1387,
    1385,
    1385,
    1383,
    1385,
    1383,
    1383,
    1383,
    1384,
    1383,
    1384,
    1383,
    1386,
    418,
    419,
    313,
    1272,
    1437,
    1269,
    59,
    64,
    64,
    28,
    64,
    60,
    1268,
    1269,
    92,
    42,
    42,
    106,
    1266,
    1269,
    59,
    64,
    64,
    28,
    64,
    60,
    1268,
    1437,
    225,
    499,
    500,
    1388,
    1388,
    1386,
    1388,
    1383,
    1384,
    1387,
    1387,
    1385,
    1388,
    1384,
    1383,
    1384,
    1387,
    1387,
    1388,
    1383,
    1387,
    1387,
    1386,
    1384,
    1384,
    1388,
    1386,
    1385,
    1388,
    1385,
    1388,
    1387,
    1387,
    1385,
    1388,
    1387,
    1387,
    1383,
    1384,
    1386,
    1387,
    1388,
    1385,
    1385,
    1386,
    1387,
    1386,
    1386,
    1387,
    1383,
    1383,
    1384,
    1388,
    1385,
    1383,
    1385,
    1386,
    1386,
    1388,
    1383,
    1388,
    1388,
    1386,
    15,
    16,
    1122,
    1123,
    1123,
    523,
    524,
    1329,
    1330,
    1331,
    523,
    524,
    1123,
    1123,
    1123,
    1124,
    15,
    16,
    1385,
    1385,
    1385,
    1385,
    1388,
    1387,
    1386,
    1386,
    1384,
    1387,
    1383,
    1384,
    1385,
    1385,
    1383,
    1387,
    1387,
    1388,
    1388,
    1388,
    404,
    309,
    1399,
    1400,
    306,
    283,
    284,
    2,
    3,
    3,
    1,
    2,
    1269,
    59,
    28,
    64,
    60,
    1268,
    1,
    31,
    31,
    31,
    7,
    216,
    306,
    1399,
    1400,
    324,
    498,
    1289,
    1383,
    1387,
    1384,
    1388,
    1386,
    1385,
    1387,
    1387,
    1385,
    1388,
    1383,
    1385,
    1388,
    1386,
    1383,
    1385,
    1383,
    1383,
    1388,
    1384,
    1387,
    1387,
    1388,
    1385,
    1387,
    1386,
    1386,
    1385,
    1383,
    1388,
    1383,
    1386,
    1385,
    1385,
    1385,
    1388,
    1387,
    1387,
    1385,
    1383,
    1384,
    1383,
    1387,
    1385,
    1384,
    1387,
    1385,
    1386,
    1385,
    1383,
    1387,
    1386,
    1385,
    1387,
    1388,
    1388,
    1387,
    1387,
    1387,
    1383,
    31,
    32,
    3,
    1,
    2,
    1122,
    1123,
    1123,
    1124,
    1122,
    1123,
    1124,
    1,
    4,
    1,
    3,
    31,
    32,
    1384,
    1384,
    1385,
    1388,
    1383,
    1387,
    1385,
    1385,
    1383,
    1383,
    1387,
    1383,
    1388,
    1387,
    1387,
    1383,
    1387,
    1384,
    1387,
    1387,
    406,
    407,
    1415,
    1416,
    497,
    310,
    313,
    1272,
    4,
    2,
    2,
    3,
    2,
    4,
    2,
    3,
    4,
    3,
    1,
    4,
    3,
    4,
    210,
    211,
    308,
    1415,
    1416,
    503,
    504,
    1076,
    1388,
    1385,
    1383,
    1384,
    1386,
    1384,
    1384,
    1388,
    1385,
    1387,
    1388,
    1388,
    1388,
    1387,
    1388,
    1385,
    1386,
    1383,
    1388,
    1383,
    1386,
    1385,
    1385,
    1383,
    1387,
    1386,
    1386,
    1386,
    1383,
    1386,
    1385,
    1388,
    1388,
    1387,
    1388,
    1388,
    1387,
    1388,
    1386,
    1385,
    1383,
    1383,
    1387,
    1387,
    1384,
    1388,
    1384,
    1387,
    1385,
    1383,
    1384,
    1388,
    1383,
    1383,
    1385,
    1387,
    1384,
    1383,
    1385,
    1383,
    1384,
    1384,
    1385,
    1385,
    1384,
    1383,
    1383,
    1387,
    1388,
    1388,
    1384,
    1388,
    1385,
    1387,
    1386,
    1388,
    1384,
    1388,
    1384,
    1387,
    1386,
    1385,
    1385,
    1386,
    1384,
    1387,
    1383,
    1386,
    1387,
    1385,
    1388,
    1383,
    1385,
    1385,
    1385,
    1388,
    1383,
    1383,
    422,
    423,
    1431,
    1432,
    513,
    420,
    314,
    315,
    2,
    2,
    4,
    61,
    62,
    4,
    2,
    2,
    1,
    61,
    62,
    16,
    2,
    3,
    225,
    521,
    522,
    1431,
    1432,
    519,
    520,
    1076,
    1388,
    1387,
    1383,
    1383,
    1385,
    1387,
    1386,
    1384,
    1383,
    1386,
    1387,
    1385,
    1388,
    1387,
    1385,
    1387,
    1388,
    1384,
    1385,
    1384,
    1385,
    1386,
    1387,
    1383,
    1387,
    1386,
    1384,
    1384,
    1383,
    1383,
    1386,
    1384,
    1384,
    1383,
    1384,
    1384,
    1383,
    1385,
    1384,
    1383,
    1388,
    1383,
    1387,
    1387,
    1385,
    1384,
    1387,
    1387,
    1385,
    1386,
    1386,
    1383,
    1388,
    1386,
    1388,
    1385,
    1388,
    1386,
    15,
    16,
    4,
    3,
    1090,
    1091,
    1091,
    1092,
    2,
    3,
    4,
    2,
    1090,
    1091,
    1091,
    1091,
    1092,
    4,
    3,
    15,
    16,
    1386,
    1383,
    1383,
    1386,
    1387,
    1383,
    1383,
    1388,
    1385,
    1386,
    1388,
    1387,
    1383,
    1388,
    1387,
    1388,
    1385,
    1385,
    1384,
    1384,
    1165,
    1447,
    1448,
    1164,
    418,
    419,
    313,
    1272,
    4,
    4,
    93,
    107,
    1267,
    4,
    2,
    4,
    93,
    107,
    1267,
    4,
    210,
    211,
    498,
    1289,
    1447,
    1448,
    1386,
    1384,
    1384,
    1383,
    1385,
    1388,
    1388,
    1387,
    1386,
    1386,
    1387,
    1387,
    1388,
    1385,
    1384,
    1385,
    1384,
    1385,
    1387,
    1387,
    1383,
    1383,
    1384,
    1386,
    1385,
    1383,
    1384,
    1385,
    1388,
    1385,
    1387,
    1384,
    1388,
    1386,
    1388,
    1385,
    1387,
    1388,
    1387,
    1386,
    1387,
    1386,
    1388,
    1387,
    1383,
    1386,
    1387,
    1388,
    1388,
    1386,
    1386,
    1388,
    1388,
    1384,
    1385,
    1385,
    1388,
    1386,
    1383,
    1385,
    1387,
    31,
    32,
    3,
    1089,
    1388,
    411,
    412,
    1386,
    1091,
    1091,
    1092,
    1090,
    1383,
    1387,
    1388,
    411,
    412,
    1092,
    2,
    31,
    32,
    1383,
    1384,
    1386,
    1387,
    1385,
    1388,
    1386,
    1386,
    1383,
    1387,
    1384,
    1386,
    1383,
    1384,
    1385,
    1387,
    1383,
    1385,
    1384,
    1388,
    1385,
    1384,
    1386,
    1384,
    1387,
    404,
    314,
    315,
    1,
    2,
    92,
    29,
    27,
    2,
    2,
    26,
    30,
    106,
    1266,
    3,
    225,
    499,
    500,
    1076,
    1077,
    1384,
    1383,
    1384,
    1385,
    1385,
    1385,
    1387,
    1386,
    1385,
    1387,
    1387,
    1385,
    1386,
    1388,
    1383,
    1385,
    1384,
    1387,
    1383,
    1388,
    1383,
    1383,
    1384,
    1387,
    1388,
    1388,
    1383,
    1387,
    1387,
    1386,
    1386,
    1384,
    1386,
    1386,
    1384,
    1387,
    1386,
    1385,
    1388,
    1383,
    1386,
    1383,
    1387,
    1383,
    1388,
    1383,
    1385,
    1386,
    1383,
    1388,
    1388,
    1387,
    1385,
    1384,
    1385,
    1385,
    1388,
    1383,
    1386,
    1386,
    1388,
    1386,
    4,
    2,
    1090,
    1147,
    70,
    427,
    428,
    49,
    49,
    49,
    49,
    49,
    49,
    49,
    49,
    427,
    428,
    38,
    1092,
    3,
    4,
    1388,
    1385,
    1385,
    1383,
    1383,
    1387,
    1386,
    1385,
    1385,
    1386,
    1386,
    1383,
    1387,
    1383,
    1383,
    1388,
    1383,
    1383,
    1384,
    1387,
    1383,
    1383,
    1383,
    1383,
    1384,
    418,
    419,
    313,
    1272,
    2,
    59,
    60,
    1268,
    1,
    3,
    3,
    59,
    60,
    1268,
    210,
    211,
    498,
    1289,
    1076,
    1077,
    1387,
    1387,
    1384,
    1384,
    1386,
    1383,
    1386,
    1386,
    1384,
    1383,
    1384,
    1385,
    1387,
    1385,
    1386,
    1388,
    1387,
    1387,
    1383,
    1386,
    1383,
    1387,
    1386,
    1383,
    1388,
    1388,
    1384,
    1386,
    1386,
    1383,
    1385,
    1387,
    1387,
    1383,
    1386,
    1386,
    1385,
    1385,
    1388,
    1384,
    1387,
    1387,
    1388,
    1387,
    1384,
    1384,
    1383,
    1383,
    1386,
    1383,
    1383,
    1386,
    1385,
    1386,
    1385,
    1384,
    1388,
    1383,
    1385,
    1386,
    1386,
    1383,
    3,
    1105,
    1106,
    1164,
    68,
    443,
    444,
    65,
    65,
    65,
    65,
    65,
    65,
    65,
    65,
    443,
    444,
    37,
    1290,
    1092,
    2,
    1388,
    1385,
    1385,
    1387,
    1387,
    1388,
    1387,
    1385,
    1386,
    1384,
    1386,
    1385,
    1388,
    1386,
    1383,
    1388,
    1386,
    1383,
    1383,
    1387,
    1385,
    1384,
    1384,
    1383,
    1386,
    1165,
    404,
    309,
    306,
    306,
    237,
    238,
    1,
    2,
    3,
    235,
    236,
    306,
    306,
    307,
    499,
    500,
    1076,
    1077,
    1387,
    1387,
    1387,
    1384,
    1385,
    1388,
    1388,
    1388,
    1388,
    1383,
    1384,
    1384,
    1383,
    1386,
    1388,
    1388,
    1383,
    1383,
    1384,
    1385,
    1385,
    1384,
    1385,
    1384,
    1386,
    1384,
    1388,
    1383,
    1386,
    1383,
    1387,
    1387,
    1386,
    1387,
    1383,
    1387,
    1388,
    1387,
    1385,
    1388,
    1384,
    1385,
    1385,
    1387,
    1387,
    1385,
    1385,
    1387,
    1384,
    1388,
    1385,
    1384,
    1383,
    1387,
    1383,
    1387,
    1385,
    1383,
    1383,
    1383,
    1384,
    1385,
    1387,
    3,
    1105,
    1106,
    52,
    53,
    459,
    460,
    1,
    1,
    1,
    1,
    1,
    1,
    1,
    1,
    459,
    460,
    21,
    22,
    1108,
    4,
    1383,
    1388,
    1386,
    1385,
    1383,
    1383,
    1384,
    1384,
    1384,
    1387,
    1388,
    1387,
    1386,
    1384,
    1386,
    1383,
    1388,
    1386,
    1384,
    1385,
    1386,
    1385,
    1387,
    1387,
    1387,
    1387,
    406,
    407,
    497,
    497,
    603,
    604,
    1297,
    1298,
    1299,
    651,
    652,
    497,
    497,
    497,
    502,
    1289,
    1384,
    1388,
    1388,
    1386,
    1388,
    1383,
    1384,
    1385,
    1388,
    1385,
    1383,
    1385,
    1385,
    1387,
    1387,
    1388,
    1384,
    1384,
    1388,
    1385,
    1384,
    1383,
    1385,
    1386,
    1385,
    1388,
    1386,
    1388,
    1386,
    1388,
    1385,
    1384,
    1383,
    1383,
    1388,
    1386,
    1388,
    1388,
    1386,
    1385,
    1388,
    1386,
    1388,
    1384,
    1384,
    1387,
    1385,
    1388,
    1384,
    1386,
    1385,
    1388,
    1386,
    1384,
    1384,
    1387,
    1387,
    1386,
    1383,
    1386,
    1388,
    1388,
    1386,
    1384,
    1385,
    4,
    1090,
    1388,
    67,
    1271,
    4,
    1,
    1269,
    61,
    63,
    63,
    63,
    63,
    62,
    4,
    2,
    3,
    2,
    20,
    1290,
    1092,
    1385,
    1384,
    1387,
    1387,
    1388,
    1385,
    1383,
    1384,
    1387,
    1387,
    1384,
    1387,
    1385,
    1386,
    1386,
    1385,
    1387,
    1387,
    1387,
    1387,
    1387,
    1383,
    1383,
    1383,
    1387,
    1387,
    422,
    423,
    513,
    513,
    507,
    508,
    1313,
    1314,
    1315,
    507,
    508,
    513,
    513,
    513,
    518,
    1386,
    1383,
    1384,
    1387,
    1388,
    1387,
    1388,
    1385,
    1388,
    1383,
    1386,
    1383,
    1384,
    1388,
    1388,
    1386,
    1386,
    1384,
    1386,
    1387,
    1384,
    1384,
    1385,
    1383,
    1387,
    1383,
    1387,
    1388,
    1388,
    1386,
    1383,
    1383,
    1383,
    1385,
    1383,
    1386,
    1388,
    1386,
    1383,
    1388,
    1386,
    1387,
    1385,
    1385,
    1383,
    1383,
    1384,
    1386,
    1387,
    1388,
    1384,
    1386,
    1388,
    1384,
    1385,
    1385,
    1383,
    1386,
    1383,
    1385,
    1383,
    1384,
    1386,
    1388,
    1384,
    1387,
    1105,
    1106,
    52,
    53,
    4,
    3,
    1,
    1269,
    93,
    43,
    43,
    43,
    43,
    107,
    1267,
    4,
    1,
    3,
    21,
    22,
    1108,
    1388,
    1385,
    1385,
    1385,
    1383,
    1386,
    1388,
    1387,
    1383,
    1385,
    1384,
    1386,
    1388,
    1383,
    1387,
    1384,
    1383,
    1383,
    1384,
    1385,
    1384,
    1385,
    1384,
    1387,
    1388,
    1388,
    1107,
    1076,
    1077,
    1165,
    523,
    524,
    1329,
    1330,
    1331,
    523,
    524,
    1107,
    1384,
    1384,
    1386,
    1384,
    1384,
    1384,
    1385,
    1386,
    1384,
    1383,
    1384,
    1385,
    1383,
    1385,
    1386,
    1383,
    1384,
    1384,
    1383,
    1384,
    1386,
    1388,
    1386,
    1387,
    1387,
    1387,
    1386,
    1385,
    1388,
    1384,
    1386,
    1388,
    1384,
    1387,
    1385,
    1388,
    1387,
    1385,
    1383,
    1387,
    1384,
    1383,
    1387,
    1388,
    1388,
    1387,
    1388,
    1385,
    1385,
    1388,
    1387,
    1387,
    1385,
    1383,
    1386,
    1387,
    1384,
    1385,
    1384,
    1385,
    1383,
    1385,
    1383,
    1388,
    1383,
    1383,
    1383,
    1387,
    1386,
    1105,
    1106,
    67,
    1271,
    4,
    4,
    1,
    1269,
    92,
    42,
    42,
    42,
    42,
    106,
    1266,
    15,
    16,
    3,
    1274,
    18,
    1108,
    1388,
    1383,
    1385,
    1385,
    1387,
    1385,
    1384,
    1386,
    1387,
    1388,
    1388,
    1383,
    1383,
    1386,
    1383,
    1387,
    1383,
    1388,
    1388,
    1384,
    1383,
    1383,
    1387,
    1385,
    1386,
    1387,
    1388,
    1388,
    1383,
    1385,
    1386,
    1387,
    1388,
    1388,
    1388,
    1386,
    1383,
    1386,
    1387,
    1383,
    1386,
    1383,
    1387,
    1386,
    1388,
    1385,
    1387,
    1386,
    1387,
    1388,
    1385,
    1388,
    1384,
    1386,
    1384,
    1384,
    1385,
    1384,
    1388,
    1384,
    1387,
    1383,
    1384,
    1387,
    1384,
    1385,
    1384,
    1385,
    1384,
    1385,
    1383,
    1385,
    1387,
    1383,
    1385,
    1388,
    1385,
    1386,
    1388,
    1388,
    1123,
    1123,
    1384,
    1386,
    1383,
    1384,
    1384,
    1383,
    1383,
    1387,
    1384,
    1388,
    1383,
    1387,
    1385,
    1383,
    1387,
    1383,
    1385,
    1388,
    1384,
    1384,
    1385,
    1383,
    1384,
    1385,
    1388,
    2,
    1122,
    66,
    1,
    1,
    15,
    16,
    1269,
    59,
    64,
    64,
    28,
    64,
    60,
    1268,
    31,
    32,
    1,
    4,
    18,
    1108,
    1385,
    1385,
    1388,
    1383,
    1383,
    1388,
    1386,
    1387,
    1388,
    1383,
    1385,
    1383,
    1383,
    1387,
    1385,
    1385,
    1384,
    1388,
    1388,
    1386,
    1388,
    1384,
    1383,
    1385,
    1386,
    1388,
    1383,
    1384,
    1384,
    1384,
    1388,
    1384,
    1387,
    1386,
    1388,
    1383,
    1384,
    1385,
    1383,
    1384,
    1385,
    1077,
    1384,
    1386,
    1384,
    1386,
    1384,
    1384,
    1386,
    1387,
    1387,
    1386,
    1107,
    1383,
    1385,
    1383,
    1385,
    1383,
    1107,
    1385,
    1388,
    1383,
    1385,
    1384,
    1383,
    1384,
    1384,
    1388,
    1387,
    1385,
    1386,
    1388,
    1386,
    1386,
    1387,
    1388,
    1383,
    1388,
    1123,
    1124,
    1074,
    1074,
    1122,
    1123,
    1385,
    1385,
    1386,
    1123,
    1123,
    1388,
    1388,
    1386,
    1388,
    1385,
    1388,
    1384,
    1388,
    1383,
    1388,
    1387,
    1385,
    1385,
    1383,
    1386,
    1385,
    1385,
    1383,
    4,
    1105,
    50,
    1,
    1,
    31,
    32,
    1,
    1,
    1,
    1,
    1,
    1,
    1,
    1,
    1,
    1,
    1,
    1,
    18,
    1108,
    1387,
    1388,
    1386,
    1387,
    1387,
    1385,
    1384,
    1388,
    1388,
    1384,
    1383,
    1383,
    1388,
    1383,
    1387,
    1383,
    1384,
    1387,
    1384,
    1385,
    1387,
    1387,
    1383,
    1383,
    1387,
    1386,
    1386,
    1385,
    1386,
    1387,
    1385,
    1383,
    1384,
    1387,
    1384,
    1386,
    1387,
    1123,
    1123,
    1125,
    1122,
    1123,
    1123,
    1123,
    1384,
    1385,
    1383,
    1384,
    1124,
    1122,
    1123,
    1123,
    1123,
    1384,
    1385,
    1383,
    1387,
    1388,
    1385,
    1387,
    1387,
    1385,
    1383,
    1388,
    1385,
    1388,
    1384,
    1385,
    1383,
    1383,
    1388,
    1386,
    1384,
    1388,
    1383,
    1388,
    1123,
    1124,
    1154,
    1156,
    1139,
    1139,
    1139,
    1139,
    1122,
    1123,
    1124,
    1139,
    1139,
    1122,
    1388,
    1387,
    1387,
    1388,
    1383,
    1384,
    1386,
    1388,
    1383,
    1386,
    1388,
    1384,
    1383,
    1387,
    1387,
    1387,
    1385,
    3,
    1105,
    50,
    1,
    1269,
    61,
    63,
    63,
    62,
    1269,
    15,
    16,
    1269,
    61,
    63,
    63,
    62,
    1269,
    4,
    18,
    1108,
    1388,
    1388,
    1383,
    1386,
    1388,
    1384,
    1384,
    1388,
    1386,
    1383,
    1383,
    1388,
    1384,
    1384,
    1383,
    1387,
    1386,
    1388,
    1384,
    1385,
    1384,
    1384,
    1385,
    1387,
    1388,
    1388,
    1384,
    1387,
    1387,
    1383,
    1385,
    1383,
    1383,
    1388,
    1383,
    1384,
    1124,
    1139,
    1139,
    1154,
    1155,
    1157,
    1139,
    1139,
    1122,
    1124,
    1122,
    1124,
    1139,
    1139,
    1139,
    1153,
    1156,
    1121,
    1387,
    1388,
    1387,
    1384,
    1388,
    1386,
    1385,
    1383,
    1386,
    1384,
    1388,
    1384,
    1386,
    1385,
    1383,
    1385,
    1384,
    1384,
    1388,
    1386,
    1383,
    1124,
    1139,
    1153,
    1304,
    1304,
    1304,
    1304,
    1304,
    1304,
    1156,
    1139,
    1154,
    1304,
    1304,
    1156,
    1121,
    1388,
    1387,
    1387,
    1388,
    1388,
    1387,
    1388,
    1387,
    1388,
    1386,
    1388,
    1385,
    1383,
    1385,
    1385,
    1387,
    4,
    1105,
    50,
    1,
    1269,
    93,
    43,
    43,
    107,
    1267,
    31,
    32,
    1269,
    93,
    43,
    43,
    107,
    1267,
    3,
    18,
    1124,
    1386,
    1387,
    1385,
    1383,
    1383,
    1388,
    1385,
    1383,
    1388,
    1385,
    1387,
    1388,
    1386,
    1384,
    1384,
    1385,
    1384,
    1384,
    1387,
    1384,
    1386,
    1386,
    1385,
    1384,
    1385,
    1388,
    1387,
    1387,
    1383,
    1386,
    1383,
    1385,
    1383,
    1388,
    1386,
    1125,
    1154,
    1304,
    1304,
    1304,
    1304,
    1304,
    1304,
    1304,
    1156,
    1139,
    1139,
    1154,
    1304,
    1304,
    1304,
    1304,
    1304,
    1157,
    1122,
    1386,
    1386,
    1383,
    1385,
    1383,
    1386,
    1388,
    1383,
    1383,
    1383,
    1385,
    1385,
    1384,
    1385,
    1386,
    1384,
    1384,
    1384,
    1388,
    1124,
    1154,
    1304,
    1304,
    299,
    300,
    1304,
    1304,
    1304,
    1304,
    1304,
    1304,
    299,
    300,
    1304,
    1304,
    1157,
    1122,
    1388,
    1386,
    1386,
    1386,
    1385,
    1385,
    1388,
    1385,
    1383,
    1388,
    1383,
    1383,
    1383,
    1387,
    1383,
    2,
    1090,
    50,
    2,
    1269,
    92,
    42,
    42,
    106,
    1266,
    3,
    4,
    1269,
    92,
    42,
    42,
    106,
    1266,
    3,
    18,
    1092,
    1384,
    1385,
    1384,
    1386,
    1383,
    1384,
    1383,
    1388,
    1384,
    1387,
    1384,
    1388,
    1386,
    1386,
    1386,
    1388,
    1385,
    1387,
    1384,
    1386,
    1385,
    1388,
    1384,
    1386,
    1384,
    1383,
    1383,
    1385,
    1386,
    1383,
    1383,
    1383,
    1384,
    1387,
    1124,
    1154,
    1304,
    1304,
    1304,
    1304,
    299,
    300,
    1304,
    1304,
    1304,
    1304,
    1304,
    1304,
    1304,
    299,
    300,
    1304,
    1304,
    1304,
    1156,
    1121,
    1385,
    1383,
    1385,
    1383,
    1107,
    1387,
    1383,
    1384,
    1388,
    1383,
    1385,
    1387,
    1383,
    1388,
    1384,
    1384,
    1384,
    1124,
    1153,
    697,
    698,
    321,
    539,
    540,
    321,
    321,
    321,
    321,
    321,
    321,
    539,
    540,
    601,
    602,
    1304,
    1157,
    1122,
    1383,
    1387,
    1385,
    1386,
    1385,
    1383,
    1388,
    1384,
    1385,
    1386,
    1387,
    1383,
    1386,
    1387,
    1105,
    1106,
    69,
    1272,
    1269,
    59,
    28,
    64,
    60,
    1268,
    2,
    3,
    1269,
    59,
    28,
    64,
    60,
    1268,
    35,
    36,
    1108,
    1386,
    1388,
    1388,
    1384,
    1387,
    1383,
    1387,
    1386,
    1383,
    1385,
    1388,
    1385,
    1388,
    1386,
    1388,
    1385,
    1388,
    1387,
    1383,
    1383,
    1388,
    1383,
    1388,
    1386,
    1383,
    1386,
    1386,
    1384,
    1388,
    1385,
    1388,
    1387,
    1388,
    1108,
    1169,
    1170,
    1304,
    697,
    698,
    321,
    539,
    540,
    321,
    321,
    321,
    321,
    321,
    321,
    321,
    539,
    540,
    321,
    601,
    602,
    1304,
    1157,
    1122,
    1383,
    1387,
    1388,
    1385,
    1386,
    1386,
    1383,
    1383,
    1383,
    1383,
    1384,
    1384,
    1386,
    1388,
    1384,
    1125,
    1154,
    1304,
    705,
    325,
    311,
    555,
    556,
    311,
    311,
    311,
    311,
    311,
    311,
    555,
    556,
    310,
    610,
    1304,
    1304,
    1156,
    1121,
    1387,
    1388,
    1388,
    1384,
    1385,
    1387,
    1385,
    1384,
    1385,
    1386,
    1383,
    1383,
    1385,
    1105,
    1106,
    54,
    55,
    3,
    2,
    1,
    1,
    4,
    1,
    4,
    15,
    16,
    1,
    1,
    1,
    1,
    1,
    19,
    1289,
    1124,
    1388,
    1387,
    1385,
    1385,
    1383,
    1383,
    1383,
    1385,
    1386,
    1388,
    1386,
    1385,
    1385,
    1383,
    1383,
    1384,
    1385,
    1385,
    1386,
    1387,
    1387,
    1386,
    1388,
    1383,
    1385,
    1387,
    1385,
    1388,
    1384,
    1388,
    1383,
    1383,
    1384,
    1108,
    1169,
    1170,
    1304,
    705,
    325,
    311,
    555,
    556,
    311,
    311,
    311,
    311,
    311,
    311,
    311,
    555,
    556,
    311,
    310,
    610,
    1304,
    1304,
    1156,
    1121,
    1387,
    1384,
    1388,
    1383,
    1383,
    1386,
    1385,
    1388,
    1384,
    1385,
    1386,
    1387,
    1386,
    1124,
    1153,
    1304,
    691,
    692,
    328,
    327,
    571,
    572,
    327,
    327,
    327,
    327,
    327,
    327,
    571,
    572,
    228,
    611,
    612,
    1304,
    1304,
    1173,
    1106,
    1384,
    1384,
    1385,
    1385,
    1383,
    1387,
    1383,
    1383,
    1384,
    1386,
    1383,
    1385,
    4,
    1122,
    1387,
    69,
    1272,
    4,
    2,
    4,
    4,
    2,
    2,
    31,
    32,
    3,
    4,
    2,
    1,
    35,
    36,
    1108,
    1109,
    1386,
    1388,
    1387,
    1388,
    1383,
    1385,
    1386,
    1388,
    1385,
    1386,
    1385,
    1384,
    1384,
    1387,
    1385,
    1388,
    1388,
    1386,
    1386,
    1383,
    1384,
    1388,
    1385,
    1386,
    1385,
    1386,
    1386,
    1386,
    1387,
    1384,
    1385,
    1386,
    1387,
    1124,
    1154,
    1304,
    691,
    692,
    328,
    327,
    571,
    572,
    327,
    327,
    327,
    327,
    327,
    327,
    327,
    571,
    572,
    327,
    228,
    611,
    612,
    1304,
    1304,
    1173,
    1106,
    1383,
    1385,
    1385,
    1385,
    1387,
    1386,
    1387,
    1386,
    1384,
    1388,
    1386,
    1108,
    1169,
    1170,
    1304,
    705,
    330,
    331,
    1269,
    3,
    1,
    1,
    1,
    1,
    1,
    1,
    1,
    1,
    2,
    226,
    227,
    610,
    1304,
    1304,
    1157,
    1122,
    1383,
    1383,
    1388,
    1388,
    1383,
    1387,
    1385,
    1384,
    1385,
    1384,
    1386,
    1388,
    15,
    16,
    1122,
    54,
    55,
    4,
    1,
    475,
    476,
    3,
    2,
    4,
    475,
    476,
    2,
    4,
    3,
    19,
    1289,
    1124,
    2,
    1386,
    1387,
    1387,
    1385,
    1386,
    1386,
    1386,
    1385,
    1385,
    1387,
    1386,
    1383,
    1388,
    1385,
    1384,
    1385,
    1384,
    1383,
    1384,
    1386,
    1386,
    1384,
    1385,
    1385,
    1385,
    1386,
    1388,
    1385,
    1384,
    1387,
    1386,
    1384,
    1125,
    1153,
    1304,
    1304,
    705,
    330,
    331,
    1,
    1,
    2,
    1,
    3,
    1,
    1,
    1,
    1,
    1,
    1,
    1,
    1,
    226,
    227,
    610,
    1286,
    1304,
    1157,
    1122,
    1387,
    1388,
    1387,
    1387,
    1384,
    1385,
    1384,
    1388,
    1386,
    1386,
    1388,
    1124,
    1154,
    1304,
    691,
    692,
    312,
    1271,
    1269,
    3,
    1,
    1269,
    61,
    63,
    63,
    63,
    63,
    62,
    4,
    1274,
    212,
    611,
    612,
    1304,
    1304,
    1156,
    1122,
    1388,
    1385,
    1385,
    1385,
    1383,
    1388,
    1383,
    1383,
    1385,
    1387,
    1385,
    31,
    32,
    4,
    1122,
    56,
    17,
    17,
    491,
    492,
    1297,
    1298,
    1299,
    491,
    492,
    17,
    17,
    24,
    25,
    1108,
    1109,
    3,
    1383,
    1384,
    1387,
    1384,
    1384,
    1383,
    1383,
    1387,
    1383,
    1384,
    1387,
    1388,
    1386,
    1387,
    1384,
    1383,
    1385,
    1384,
    1388,
    1384,
    1384,
    1385,
    1383,
    1383,
    1388,
    1384,
    1383,
    1388,
    1383,
    1384,
    1388,
    1124,
    1154,
    1304,
    1304,
    691,
    692,
    312,
    1271,
    16,
    61,
    63,
    63,
    62,
    4,
    1,
    3,
    61,
    63,
    63,
    62,
    7,
    1274,
    212,
    611,
    612,
    1304,
    1304,
    1173,
    1106,
    1385,
    1384,
    1386,
    1384,
    1386,
    1385,
    1384,
    1388,
    1388,
    1124,
    1154,
    1304,
    1283,
    705,
    330,
    331,
    4,
    61,
    62,
    4,
    1269,
    93,
    43,
    43,
    43,
    43,
    107,
    1267,
    1,
    226,
    227,
    610,
    1304,
    703,
    1304,
    1173,
    1106,
    1388,
    1387,
    1387,
    1387,
    1386,
    1388,
    1387,
    1384,
    1387,
    1386,
    3,
    4,
    2,
    1090,
    72,
    33,
    33,
    507,
    508,
    1313,
    1314,
    1315,
    507,
    508,
    33,
    33,
    40,
    41,
    1124,
    15,
    16,
    1386,
    1384,
    1383,
    1386,
    1387,
    1387,
    1383,
    1384,
    1387,
    1385,
    1387,
    1385,
    1388,
    1383,
    1386,
    1383,
    1387,
    1388,
    1386,
    1383,
    1386,
    1385,
    1387,
    1388,
    1383,
    1386,
    1388,
    1385,
    1383,
    1384,
    1108,
    1169,
    1170,
    1304,
    1304,
    705,
    330,
    331,
    31,
    32,
    93,
    43,
    43,
    107,
    1267,
    1,
    4,
    93,
    43,
    43,
    107,
    1267,
    4,
    226,
    227,
    610,
    1304,
    1304,
    1173,
    1122,
    1388,
    1385,
    1386,
    1387,
    1388,
    1385,
    1385,
    1387,
    1108,
    1169,
    1170,
    1304,
    691,
    692,
    312,
    1271,
    4,
    93,
    107,
    1267,
    1269,
    92,
    42,
    42,
    42,
    42,
    106,
    1266,
    3,
    1274,
    212,
    611,
    612,
    719,
    1304,
    1173,
    1106,
    1387,
    1384,
    1383,
    1383,
    1383,
    1383,
    1385,
    1387,
    1388,
    1385,
    2,
    15,
    16,
    1122,
    1123,
    1385,
    1386,
    523,
    524,
    1329,
    1330,
    1331,
    523,
    524,
    1124,
    1122,
    1123,
    1124,
    15,
    16,
    32,
    1387,
    1388,
    1386,
    1387,
    1385,
    1388,
    1383,
    1387,
    1386,
    1388,
    1386,
    1387,
    1385,
    1385,
    1385,
    1385,
    1387,
    1385,
    1387,
    1387,
    1388,
    1388,
    1387,
    1383,
    1384,
    1388,
    1388,
    1383,
    1386,
    1387,
    1124,
    1153,
    1304,
    1304,
    691,
    692,
    312,
    1271,
    4,
    32,
    92,
    42,
    42,
    29,
    27,
    1,
    4,
    92,
    42,
    42,
    106,
    1266,
    3,
    1274,
    212,
    611,
    612,
    1304,
    1157,
    14,
    1122,
    1385,
    1385,
    1384,
    1386,
    1383,
    1384,
    1385,
    1383,
    1092,
    1186,
    1304,
    709,
    326,
    66,
    1,
    2,
    92,
    29,
    27,
    1269,
    59,
    64,
    64,
    28,
    64,
    60,
    1268,
    1,
    1,
    34,
    326,
    816,
    1304,
    1188,
    1090,
    1384,
    1388,
    1385,
    1385,
    1383,
    1388,
    1387,
    1388,
    1385,
    1384,
    1388,
    4,
    31,
    32,
    3,
    4,
    1122,
    1123,
    1123,
    1124,
    1122,
    1123,
    1123,
    1123,
    1124,
    4,
    3,
    2,
    4,
    31,
    32,
    2,
    1386,
    1386,
    1384,
    1388,
    1386,
    1388,
    1388,
    1386,
    1386,
    1383,
    1387,
    1387,
    1386,
    1386,
    1388,
    1387,
    1385,
    1383,
    1383,
    1384,
    1383,
    1387,
    1385,
    1383,
    1388,
    1386,
    1387,
    1386,
    1384,
    1125,
    1154,
    1304,
    1304,
    1304,
    705,
    330,
    331,
    2,
    2,
    1,
    92,
    42,
    42,
    106,
    1266,
    3,
    3,
    75,
    42,
    90,
    76,
    1266,
    4,
    3,
    226,
    227,
    610,
    1304,
    1304,
    1156,
    1139,
    1121,
    1384,
    1386,
    1386,
    1383,
    1384,
    1386,
    1387,
    1124,
    1169,
    1170,
    709,
    326,
    50,
    1,
    2,
    59,
    60,
    1268,
    15,
    2,
    1,
    1,
    1,
    1,
    3,
    15,
    16,
    1,
    34,
    326,
    816,
    1304,
    1157,
    1122,
    1383,
    1386,
    1384,
    1384,
    1385,
    1385,
    1384,
    1383,
    1383,
    1385,
    1387,
    1388,
    1388,
    1388,
    1386,
    1385,
    1384,
    1385,
    1384,
    1388,
    1387,
    1385,
    1387,
    1388,
    1385,
    1388,
    1385,
    1387,
    1386,
    1388,
    1387,
    1385,
    1387,
    1383,
    1386,
    1384,
    1383,
    1387,
    1385,
    1386,
    1388,
    1385,
    1385,
    1385,
    1385,
    1383,
    1388,
    1388,
    1387,
    1388,
    1385,
    1383,
    1385,
    1383,
    1385,
    1388,
    1383,
    1383,
    1385,
    1383,
    1108,
    1169,
    1170,
    1304,
    1304,
    691,
    692,
    312,
    1271,
    4,
    4,
    4,
    92,
    90,
    90,
    76,
    1266,
    1,
    26,
    30,
    42,
    42,
    106,
    1266,
    1,
    1,
    1274,
    212,
    611,
    612,
    1304,
    1304,
    1304,
    1156,
    1122,
    1388,
    1383,
    1383,
    1388,
    1383,
    1108,
    1109,
    1154,
    1304,
    709,
    326,
    50,
    3,
    16,
    1,
    1,
    2,
    31,
    32,
    3,
    4,
    1,
    4,
    1,
    31,
    32,
    1,
    34,
    326,
    816,
    1304,
    1304,
    1173,
    1106,
    1388,
    1384,
    1386,
    1386,
    1384,
    1386,
    1386,
    1387,
    1386,
    1388,
    1388,
    1387,
    1388,
    1384,
    1386,
    1386,
    1384,
    1386,
    1387,
    1388,
    1388,
    1384,
    1384,
    1388,
    1388,
    1383,
    1383,
    1385,
    1386,
    1383,
    1386,
    1383,
    1386,
    1386,
    1388,
    1387,
    1383,
    1387,
    1384,
    1386,
    1387,
    1386,
    1383,
    1386,
    1384,
    1386,
    1388,
    1385,
    1384,
    1385,
    1385,
    1383,
    1383,
    1387,
    1386,
    1383,
    1386,
    1386,
    1386,
    1124,
    1154,
    1304,
    697,
    698,
    749,
    330,
    331,
    4,
    2,
    2,
    3,
    92,
    42,
    42,
    29,
    27,
    1,
    4,
    92,
    42,
    42,
    106,
    1266,
    15,
    16,
    4,
    226,
    227,
    750,
    601,
    602,
    1304,
    1304,
    1157,
    1121,
    1386,
    1383,
    1385,
    1385,
    1124,
    1169,
    1304,
    703,
    709,
    326,
    50,
    31,
    32,
    1269,
    61,
    63,
    63,
    62,
    1269,
    1269,
    61,
    63,
    63,
    62,
    1269,
    1,
    34,
    326,
    816,
    703,
    1304,
    1173,
    1122,
    1386,
    1383,
    1386,
    1385,
    1383,
    1386,
    1387,
    1384,
    1385,
    1383,
    1383,
    1386,
    1388,
    1385,
    1383,
    1387,
    1383,
    1386,
    1383,
    1387,
    1385,
    1385,
    1387,
    1388,
    1386,
    1385,
    1386,
    1386,
    1383,
    1383,
    1387,
    1383,
    1388,
    1383,
    1385,
    1388,
    1384,
    1388,
    1384,
    1383,
    1385,
    1387,
    1383,
    1386,
    1383,
    1386,
    1387,
    1383,
    1383,
    1386,
    1385,
    1386,
    1386,
    1385,
    1387,
    1387,
    1384,
    1384,
    1125,
    1169,
    1170,
    1304,
    705,
    325,
    311,
    316,
    1271,
    2,
    4,
    3,
    3,
    59,
    64,
    64,
    60,
    1268,
    1,
    3,
    59,
    64,
    64,
    60,
    1268,
    31,
    32,
    4,
    4,
    213,
    311,
    310,
    610,
    1286,
    1304,
    1304,
    1173,
    1122,
    1386,
    1384,
    1384,
    1092,
    7,
    1185,
    719,
    707,
    708,
    313,
    1272,
    1,
    1269,
    93,
    43,
    43,
    107,
    1267,
    1269,
    93,
    43,
    43,
    107,
    1267,
    32,
    34,
    326,
    816,
    719,
    1304,
    1173,
    1105,
    1106,
    1387,
    1385,
    1386,
    1385,
    1386,
    1384,
    1387,
    1383,
    1388,
    1386,
    1383,
    1385,
    1384,
    1385,
    1387,
    1387,
    1386,
    1385,
    1383,
    1385,
    1388,
    1384,
    1385,
    1383,
    1383,
    1385,
    1383,
    1387,
    1387,
    1387,
    1384,
    1385,
    1385,
    1387,
    1384,
    1383,
    1384,
    1386,
    1383,
    1386,
    1386,
    1383,
    1386,
    1386,
    1384,
    1387,
    1385,
    1383,
    1386,
    1385,
    1387,
    1388,
    1388,
    1384,
    1385,
    1384,
    1388,
    1092,
    1153,
    1304,
    691,
    692,
    328,
    327,
    332,
    1269,
    15,
    16,
    15,
    16,
    15,
    16,
    4,
    1,
    1,
    1,
    1,
    31,
    1269,
    15,
    15,
    16,
    15,
    16,
    15,
    16,
    229,
    327,
    228,
    611,
    612,
    1304,
    1304,
    1173,
    1090,
    1386,
    1384,
    1385,
    1384,
    1093,
    1169,
    1170,
    703,
    690,
    314,
    315,
    4,
    1269,
    92,
    42,
    42,
    106,
    1266,
    1269,
    92,
    42,
    42,
    106,
    1266,
    3,
    225,
    595,
    596,
    1304,
    1189,
    7,
    1090,
    1384,
    1383,
    1387,
    1386,
    1387,
    1386,
    1386,
    1387,
    1388,
    1386,
    1387,
    1385,
    1387,
    1387,
    1385,
    1383,
    1383,
    1383,
    1383,
    1387,
    1385,
    1385,
    1383,
    1386,
    1388,
    1383,
    1388,
    1388,
    1385,
    1383,
    1387,
    1385,
    1386,
    1384,
    1388,
    1387,
    1387,
    1383,
    1385,
    1387,
    1388,
    1387,
    1384,
    1383,
    1384,
    1387,
    1386,
    1385,
    1388,
    1386,
    1383,
    1385,
    1386,
    1383,
    1385,
    1387,
    1387,
    1387,
    1124,
    1185,
    1304,
    709,
    326,
    66,
    1,
    4,
    1269,
    61,
    63,
    63,
    63,
    63,
    62,
    4,
    1,
    1,
    1,
    1,
    1,
    1269,
    1269,
    61,
    63,
    63,
    63,
    63,
    62,
    4,
    4,
    34,
    326,
    816,
    1304,
    1189,
    1090,
    1388,
    1383,
    1384,
    1383,
    1386,
    1386,
    1092,
    1186,
    719,
    707,
    708,
    313,
    1272,
    1269,
    59,
    28,
    64,
    60,
    1268,
    1269,
    59,
    28,
    64,
    60,
    1268,
    210,
    211,
    594,
    1285,
    1304,
    1173,
    1090,
    1385,
    1383,
    1385,
    1384,
    1387,
    1387,
    1387,
    1388,
    1386,
    1384,
    1384,
    1388,
    1385,
    1386,
    1384,
    1387,
    1385,
    1384,
    1388,
    1388,
    1388,
    1386,
    1385,
    1388,
    1383,
    1383,
    1388,
    1383,
    1387,
    1388,
    1384,
    1384,
    1383,
    1386,
    1385,
    1388,
    1388,
    1385,
    1383,
    1385,
    1387,
    1385,
    1383,
    1386,
    1383,
    1384,
    1385,
    1388,
    1383,
    1386,
    1385,
    1384,
    1384,
    1384,
    1388,
    1386,
    1386,
    1383,
    1125,
    7,
    1154,
    1304,
    709,
    326,
    50,
    1,
    4,
    1269,
    93,
    43,
    43,
    43,
    43,
    107,
    1267,
    1,
    61,
    63,
    63,
    62,
    1269,
    1269,
    93,
    43,
    43,
    43,
    43,
    107,
    1267,
    3,
    34,
    326,
    816,
    1304,
    1157,
    1122,
    1384,
    1388,
    1388,
    1387,
    1383,
    1383,
    1124,
    1169,
    1170,
    1284,
    690,
    314,
    315,
    3,
    7,
    3,
    2,
    1,
    2,
    1,
    1,
    4,
    1,
    3,
    4,
    225,
    595,
    596,
    1304,
    1188,
    1105,
    1106,
    1384,
    1385,
    1383,
    1385,
    1385,
    1386,
    1384,
    1383,
    1387,
    1384,
    1385,
    1383,
    1383,
    1383,
    1387,
    1383,
    1387,
    1383,
    1387,
    1383,
    1387,
    1384,
    1387,
    1385,
    1383,
    1387,
    1387,
    1386,
    1388,
    1388,
    1386,
    1387,
    1388,
    1386,
    1387,
    1387,
    1385,
    1384,
    1388,
    1388,
    1383,
    1383,
    1384,
    1385,
    1386,
    1385,
    1386,
    1385,
    1384,
    1387,
    1384,
    1387,
    1387,
    1386,
    1384,
    1385,
    1387,
    1386,
    1093,
    1169,
    1170,
    1304,
    709,
    326,
    50,
    4,
    1,
    1269,
    92,
    42,
    42,
    42,
    42,
    106,
    1266,
    1,
    93,
    43,
    43,
    107,
    1267,
    1269,
    92,
    42,
    42,
    42,
    42,
    106,
    1266,
    4,
    34,
    326,
    816,
    1304,
    1304,
    1173,
    1106,
    1386,
    1383,
    1385,
    1388,
    1108,
    1109,
    1169,
    1170,
    703,
    707,
    708,
    313,
    1272,
    1,
    3,
    2,
    3,
    4,
    4,
    1,
    1,
    1,
    1,
    210,
    211,
    594,
    1285,
    1304,
    1173,
    1105,
    1106,
    1387,
    1387,
    1386,
    1383,
    1384,
    1384,
    1383,
    1388,
    1385,
    1384,
    1385,
    1384,
    1386,
    1383,
    1384,
    1386,
    1383,
    1385,
    1383,
    1384,
    1383,
    1385,
    1385,
    1387,
    1385,
    1385,
    1387,
    1385,
    1384,
    1386,
    1386,
    1388,
    1385,
    1387,
    1387,
    1386,
    1388,
    1385,
    1387,
    1385,
    1387,
    1384,
    1385,
    1384,
    1385,
    1384,
    1384,
    1384,
    1385,
    1383,
    1386,
    1388,
    1385,
    1388,
    1384,
    1384,
    1386,
    1387,
    1108,
    1109,
    1186,
    1304,
    707,
    708,
    313,
    1272,
    1437,
    1269,
    59,
    64,
    64,
    28,
    64,
    60,
    1268,
    1,
    92,
    42,
    42,
    106,
    1266,
    1269,
    59,
    64,
    64,
    28,
    64,
    60,
    1268,
    1437,
    225,
    595,
    596,
    1304,
    1188,
    1090,
    1388,
    1388,
    1387,
    1384,
    1388,
    1384,
    1093,
    7,
    1185,
    719,
    1284,
    690,
    309,
    306,
    306,
    237,
    238,
    1,
    7,
    7,
    235,
    236,
    306,
    306,
    307,
    595,
    596,
    1304,
    1304,
    1173,
    1090,
    1383,
    1386,
    1388,
    1387,
    1384,
    1387,
    1383,
    1385,
    1385,
    1387,
    1385,
    1385,
    1388,
    1388,
    1386,
    1385,
    1386,
    1383,
    1387,
    1386,
    1384,
    1388,
    1387,
    1384,
    1388,
    1387,
    1387,
    1388,
    1386,
    1388,
    1386,
    1388,
    1384,
    1384,
    1386,
    1387,
    1384,
    1384,
    1388,
    1386,
    1384,
    1388,
    1383,
    1385,
    1383,
    1386,
    1384,
    1384,
    1387,
    1386,
    1387,
    1383,
    1387,
    1386,
    1386,
    1386,
    1384,
    1387,
    1385,
    1108,
    1109,
    1169,
    1170,
    1284,
    690,
    309,
    1399,
    1400,
    306,
    283,
    284,
    2,
    3,
    3,
    1,
    2,
    1269,
    59,
    28,
    64,
    60,
    1268,
    1,
    31,
    31,
    31,
    7,
    216,
    306,
    1399,
    1400,
    324,
    594,
    1285,
    1304,
    1173,
    1106,
    1388,
    1388,
    1384,
    1384,
    1388,
    1388,
    1388,
    1092,
    1169,
    1170,
    1304,
    695,
    696,
    593,
    593,
    603,
    604,
    1297,
    1298,
    1299,
    651,
    652,
    593,
    593,
    593,
    598,
    1285,
    1304,
    1188,
    1105,
    1106,
    1383,
    1384,
    1383,
    1384,
    1387,
    1383,
    1384,
    1387,
    1386,
    1388,
    1385,
    1388,
    1386,
    1384,
    1387,
    1385,
    1384,
    1384,
    1384,
    1384,
    1386,
    1385,
    1384,
    1383,
    1386,
    1384,
    1386,
    1384,
    1384,
    1388,
    1387,
    1384,
    1388,
    1387,
    1385,
    1388,
    1387,
    1386,
    1386,
    1384,
    1383,
    1384,
    1385,
    1387,
    1388,
    1384,
    1383,
    1387,
    1383,
    1388,
    1383,
    1384,
    1388,
    1386,
    1388,
    1386,
    1384,
    1385,
    1384,
    1383,
    1093,
    1169,
    1170,
    1304,
    695,
    696,
    1415,
    1416,
    593,
    310,
    313,
    1272,
    4,
    2,
    2,
    3,
    2,
    1,
    1,
    1,
    1,
    1,
    1,
    4,
    3,
    4,
    210,
    211,
    308,
    1415,
    1416,
    599,
    600,
    1304,
    1188,
    1090,
    1388,
    1388,
    1384,
    1387,
    1383,
    1388,
    1385,
    1387,
    1108,
    1109,
    1186,
    703,
    711,
    712,
    609,
    609,
    619,
    620,
    1316,
    1317,
    1318,
    667,
    668,
    609,
    609,
    609,
    614,
    703,
    1304,
    1173,
    1089,
    1385,
    1388,
    1384,
    1388,
    1387,
    1385,
    1388,
    1384,
    1387,
    1386,
    1386,
    1383,
    1388,
    1383,
    1383,
    1386,
    1386,
    1387,
    1388,
    1383,
    1385,
    1384,
    1386,
    1384,
    1383,
    1386,
    1386,
    1386,
    1385,
    1384,
    1388,
    1384,
    1386,
    1387,
    1388,
    1385,
    1384,
    1385,
    1387,
    1384,
    1388,
    1385,
    1383,
    1385,
    1387,
    1385,
    1387,
    1386,
    1386,
    1385,
    1387,
    1384,
    1383,
    1388,
    1383,
    1385,
    1386,
    1386,
    1386,
    1384,
    1383,
    1387,
    1092,
    1186,
    1304,
    711,
    712,
    1305,
    1306,
    609,
    706,
    314,
    315,
    2,
    2,
    4,
    61,
    62,
    4,
    1,
    1,
    1,
    61,
    62,
    16,
    2,
    3,
    225,
    617,
    618,
    1305,
    1306,
    615,
    1285,
    1304,
    1173,
    1106,
    1388,
    1383,
    1384,
    1386,
    1386,
    1385,
    1388,
    1388,
    1387,
    1092,
    1169,
    1170,
    1304,
    1304,
    1304,
    703,
    635,
    636,
    1332,
    326,
    1334,
    683,
    684,
    703,
    1304,
    703,
    703,
    719,
    1188,
    1090,
    1384,
    1388,
    1384,
    1385,
    1388,
    1387,
    1384,
    1386,
    1388,
    1383,
    1385,
    1386,
    1386,
    1384,
    1385,
    1383,
    1385,
    1383,
    1386,
    1383,
    1385,
    1387,
    1385,
    1383,
    1387,
    1386,
    1383,
    1384,
    1387,
    1385,
    1388,
    1387,
    1387,
    1385,
    1388,
    1384,
    1386,
    1385,
    1385,
    1385,
    1386,
    1388,
    1387,
    1383,
    1386,
    1383,
    1386,
    1385,
    1386,
    1384,
    1386,
    1384,
    1388,
    1386,
    1385,
    1384,
    1383,
    1384,
    1385,
    1388,
    1383,
    1383,
    1388,
    1387,
    1092,
    1185,
    1304,
    1304,
    1321,
    1322,
    1304,
    707,
    708,
    313,
    1272,
    4,
    4,
    93,
    107,
    1267,
    1,
    1,
    4,
    93,
    107,
    1267,
    4,
    210,
    211,
    594,
    1285,
    1321,
    1322,
    1304,
    1304,
    1189,
    1090,
    1386,
    1388,
    1383,
    1388,
    1385,
    1385,
    1385,
    1385,
    1386,
    1388,
    1388,
    1092,
    1186,
    1187,
    1187,
    1304,
    719,
    1304,
    1304,
    1219,
    326,
    1220,
    1304,
    1304,
    719,
    1304,
    719,
    719,
    1189,
    1105,
    1106,
    1383,
    1387,
    1385,
    1385,
    1387,
    1386,
    1383,
    1387,
    1387,
    1386,
    1386,
    1387,
    1385,
    1386,
    1383,
    1383,
    1386,
    1385,
    1388,
    1386,
    1386,
    1388,
    1383,
    1384,
    1387,
    1387,
    1383,
    1386,
    1387,
    1387,
    1384,
    1383,
    1383,
    1387,
    1386,
    1384,
    1388,
    1387,
    1386,
    1387,
    1384,
    1385,
    1387,
    1386,
    1385,
    1385,
    1385,
    1386,
    1386,
    1386,
    1384,
    1385,
    1386,
    1383,
    1386,
    1383,
    1383,
    1387,
    1385,
    1384,
    1388,
    1384,
    1387,
    1385,
    1384,
    1093,
    1186,
    1187,
    1187,
    1304,
    1304,
    1284,
    690,
    314,
    315,
    1,
    2,
    92,
    29,
    27,
    1,
    1,
    26,
    30,
    106,
    1266,
    3,
    225,
    595,
    596,
    703,
    1304,
    1187,
    1187,
    1188,
    1089,
    1387,
    1386,
    1384,
    1388,
    1383,
    1387,
    1384,
    1385,
    1387,
    1387,
    1387,
    1384,
    1386,
    1091,
    1092,
    1138,
    1186,
    1187,
    1187,
    1188,
    1221,
    1224,
    1222,
    1186,
    1187,
    1187,
    1187,
    1187,
    1188,
    7,
    1089,
    1385,
    1386,
    1383,
    1386,
    1385,
    1385,
    1388,
    1384,
    1388,
    1383,
    1385,
    1388,
    1387,
    1383,
    1383,
    1385,
    1383,
    1386,
    1385,
    1388,
    1384,
    1388,
    1385,
    1383,
    1387,
    1388,
    1384,
    1383,
    1386,
    1385,
    1384,
    1384,
    1383,
    1387,
    1384,
    1384,
    1387,
    1388,
    1388,
    1386,
    1385,
    1385,
    1384,
    1384,
    1385,
    1385,
    1388,
    1388,
    1386,
    1385,
    1387,
    1387,
    1385,
    1384,
    1383,
    1385,
    1383,
    1384,
    1388,
    1383,
    1383,
    1388,
    1387,
    1388,
    1384,
    1383,
    1387,
    1092,
    1138,
    1138,
    1186,
    1304,
    1304,
    707,
    708,
    313,
    1272,
    2,
    59,
    60,
    1268,
    1,
    1,
    3,
    59,
    60,
    1268,
    210,
    211,
    594,
    1285,
    719,
    1188,
    1138,
    7,
    1090,
    1385,
    1384,
    1383,
    1383,
    1387,
    1388,
    1386,
    1383,
    1384,
    1388,
    1384,
    1386,
    1388,
    1383,
    1386,
    1387,
    1091,
    1091,
    1091,
    1092,
    1089,
    1091,
    1091,
    1091,
    1093,
    1090,
    1091,
    1092,
    7,
    14,
    1090,
    1388,
    1384,
    1388,
    1383,
    1386,
    1386,
    1386,
    1383,
    1388,
    1383,
    1387,
    1383,
    1387,
    1386,
    1383,
    1385,
    1383,
    1388,
    1387,
    1388,
    1385,
    1388,
    1383,
    1385,
    1386,
    1384,
    1384,
    1388,
    1385,
    1385,
    1387,
    1383,
    1383,
    1383,
    1383,
    1385,
    1388,
    1384,
    1383,
    1387,
    1388,
    1383,
    1383,
    1383,
    1383,
    1384,
    1386,
    1386,
    1387,
    1386,
    1385,
    1385,
    1388,
    1385,
    1385,
    1387,
    1388,
    1388,
    1387,
    1387,
    1387,
    1386,
    1384,
    1386,
    1384,
    1384,
    1385,
    1383,
    1388,
    1091,
    1093,
    7,
    1185,
    1304,
    1304,
    690,
    309,
    306,
    306,
    237,
    238,
    1,
    7,
    7,
    235,
    236,
    306,
    306,
    307,
    595,
    596,
    1304,
    1304,
    1173,
    1075,
    1089,
    1384,
    1388,
    1384,
    1387,
    1385,
    1388,
    1387,
    1387,
    1385,
    1387,
    1384,
    1384,
    1383,
    1383,
    1383,
    1388,
    1384,
    1388,
    1383,
    1383,
    1388,
    1383,
    1388,
    1383,
    1383,
    1387,
    1388,
    1387,
    1383,
    1093,
    1089,
    1383,
    1383,
    1387,
    1386,
    1385,
    1385,
    1386,
    1388,
    1383,
    1385,
    1387,
    1387,
    1388,
    1385,
    1384,
    1387,
    1387,
    1386,
    1383,
    1385,
    1386,
    1386,
    1384,
    1386,
    1385,
    1384,
    1387,
    1386,
    1384,
    1386,
    1385,
    1388,
    1386,
    1384,
    1386,
    1384,
    1384,
    1386,
    1387,
    1383,
    1386,
    1386,
    1387,
    1384,
    1383,
    1385,
    1384,
    1385,
    1386,
    1387,
    1385,
    1386,
    1387,
    1387,
    1388,
    1388,
    1383,
    1386,
    1384,
    1385,
    1386,
    1388,
    1388,
    1384,
    1387,
    1387,
    1387,
    1383,
    1387,
    1388,
    1383,
    1388,
    1092,
    1169,
    1170,
    1304,
    695,
    696,
    593,
    593,
    603,
    604,
    1297,
    1298,
    1299,
    651,
    652,
    593,
    593,
    593,
    598,
    1285,
    1304,
    1189,
    1090,
    1091,
    1387,
    1386,
    1385,
    1385,
    1387,
    1388,
    1385,
    1388,
    1386,
    1383,
    1388,
    1386,
    1385,
    1388,
    1388,
    1386,
    1386,
    1385,
    1383,
    1383,
    1388,
    1386,
    1388,
    1384,
    1385,
    1387,
    1385,
    1383,
    1383,
    1387,
    1383,
    1388,
    1384,
    1386,
    1383,
    1386,
    1386,
    1388,
    1388,
    1384,
    1383,
    1384,
    1384,
    1388,
    1388,
    1387,
    1383,
    1386,
    1384,
    1386,
    1386,
    1384,
    1384,
    1387,
    1383,
    1387,
    1388,
    1383,
    1385,
    1388,
    1385,
    1385,
    1387,
    1383,
    1387,
    1388,
    1384,
    1383,
    1388,
    1387,
    1383,
    1384,
    1388,
    1385,
    1388,
    1387,
    1388,
    1383,
    1383,
    1384,
    1387,
    1384,
    1385,
    1383,
    1387,
    1383,
    1386,
    1385,
    1383,
    1385,
    1388,
    1385,
    1384,
    1383,
    1385,
    1388,
    1383,
    1384,
    1388,
    1384,
    1385,
    1384,
    1383,
    1387,
    1108,
    1109,
    1186,
    1304,
    711,
    712,
    609,
    609,
    619,
    620,
    1316,
    1317,
    1318,
    667,
    668,
    609,
    609,
    609,
    614,
    1304,
    1304,
    1173,
    1122,
    1383,
    1385,
    1386,
    1386,
    1385,
    1383,
    1384,
    1383,
    1387,
    1383,
    1385,
    1383,
    1386,
    1386,
    1388,
    1383,
    1385,
    1388,
    1384,
    1385,
    1385,
    1387,
    1387,
    1386,
    1384,
    1383,
    1388,
    1387,
    1387,
    1385,
    1388,
    1387,
    1387,
    1383,
    1388,
    1386,
    1388,
    1383,
    1385,
    1386,
    1384,
    1385,
    1387,
    1387,
    1383,
    1385,
    1385,
    1388,
    1384,
    1386,
    1387,
    1386,
    1384,
    1383,
    1383,
    1387,
    1385,
    1386,
    1387,
    1383,
    1385,
    1387,
    1383,
    1385,
    1384,
    1383,
    1386,
    1385,
    1384,
    1388,
    1384,
    1383,
    1384,
    1384,
    1385,
    1383,
    1385,
    1385,
    1383,
    1385,
    1383,
    1388,
    1383,
    1383,
    1384,
    1388,
    1387,
    1386,
    1385,
    1385,
    1386,
    1384,
    1388,
    1384,
    1385,
    1385,
    1383,
    1388,
    1383,
    1384,
    1383,
    1384,
    1383,
    1386,
    1388,
    1387,
    1092,
    1169,
    1170,
    1304,
    703,
    1304,
    703,
    635,
    636,
    1332,
    326,
    1334,
    683,
    684,
    1304,
    1304,
    1304,
    1304,
    1304,
    1188,
    1075,
    1089,
    1383,
    1383,
    1387,
    1385,
    1385,
    1385,
    1385,
    1383,
    1384,
    1388,
    1386,
    1385,
    1388,
    1387,
    1386,
    1385,
    1384,
    1388,
    1386,
    1384,
    1386,
    1388,
    1384,
    1386,
    1383,
    1385,
    1387,
    1388,
    1384,
    1388,
    1387,
    1387,
    1384,
    1388,
    1384,
    1385,
    1385,
    1387,
    1386,
    1383,
    1385,
    1384,
    1385,
    1386,
    1384,
    1386,
    1386,
    1385,
    1386,
    1387,
    1387,
    1383,
    1388,
    1385,
    1387,
    1386,
    1386,
    1386,
    1387,
    1388,
    1386,
    1386,
    1388,
    1385,
    1383,
    1388,
    1383,
    1387,
    1388,
    1384,
    1386,
    1388,
    1387,
    1383,
    1383,
    1385,
    1388,
    1384,
    1388,
    1386,
    1388,
    1387,
    1385,
    1383,
    1383,
    1386,
    1387,
    1385,
    1385,
    1387,
    1388,
    1387,
    1385,
    1388,
    1383,
    1385,
    1383,
    1387,
    1384,
    1388,
    1385,
    1388,
    1383,
    1384,
    1388,
    1386,
    1386,
    1093,
    1186,
    1304,
    719,
    1304,
    719,
    1304,
    1304,
    1219,
    326,
    1220,
    1304,
    1304,
    1304,
    1304,
    1304,
    1304,
    1189,
    1090,
    1091,
    1386,
    1388,
    1385,
    1384,
    1387,
    1388,
    1386,
    1385,
    1385,
    1385,
    1383,
    1386,
    1384,
    1387,
    1388,
    1386,
    1388,
    1385,
    1384,
    1387,
    1387,
    1385,
    1386,
    1387,
    1388,
    1384,
    1387,
    1386,
    1386,
    1383,
    1386,
    1383,
    1387,
    1388,
    1383,
    1384,
    1385,
    1384,
    1387,
    1384,
    1383,
    1388,
    1387,
    1386,
    1384,
    1383,
    1385,
    1383,
    1385,
    1387,
    1386,
    1384,
    1383,
    1385,
    1388,
    1383,
    1386,
    1385,
    1387,
    1388,
    1386,
    1385,
    1388,
    1384,
    1383,
    1388,
    1384,
    1386,
    1387,
    1385,
    1384,
    1384,
    1386,
    1386,
    1385,
    1387,
    1387,
    1386,
    1385,
    1386,
    1385,
    1385,
    1384,
    1385,
    1388,
    1388,
    1385,
    1383,
    1384,
    1383,
    1383,
    1388,
    1383,
    1383,
    1383,
    1383,
    1387,
    1388,
    1383,
    1384,
    1387,
    1388,
    1385,
    1383,
    1386,
    1387,
    1388,
    1386,
    1386,
    1092,
    1186,
    1187,
    1187,
    1187,
    1187,
    1188,
    1221,
    1224,
    1222,
    1186,
    1187,
    1187,
    1189,
    1186,
    1188,
    1090,
    1388,
    1385,
    1387,
    1385,
    1385,
    1387,
    1387,
    1385,
    1386,
    1386,
    1388,
    1383,
    1388,
    1383,
    1386,
    1385,
    1386,
    1386,
    1387,
    1386,
    1388,
    1385,
    1385,
    1388,
    1384,
    1384,
    1385,
    1387,
    1387,
    1383,
    1386,
    1387,
    1385,
    1384,
    1386,
    1383,
    1388,
    1387,
    1388,
    1385,
    1383,
    1384,
    1386,
    1388,
    1383,
    1385,
    1388,
    1388,
    1388,
    1387,
    1388,
    1384,
    1383,
    1386,
    1387,
    1384,
    1383,
    1387,
    1386,
    1385,
    1385,
    1383,
    1387,
    1388,
    1383,
    1386,
    1387,
    1384,
    1385,
    1385,
    1386,
    1387,
    1387,
    1384,
    1383,
    1386,
    1384,
    1383,
    1385,
    1384,
    1383,
    1386,
    1388,
    1385,
    1384,
    1385,
    1388,
    1387,
    1385,
    1383,
    1387,
    1388,
    1385,
    1386,
    1387,
    1384,
    1386,
    1385,
    1383,
    1385,
    1383,
    1388,
    1384,
    1386,
    1387,
    1386,
    1383,
    1383,
    1385,
    1385,
    1383,
    1383,
    1091,
    1093,
    1090,
    1091,
    1092,
    1089,
    1091,
    1091,
    1091,
    1093,
    1090,
    1091,
    1091,
    1092,
    1090,
    1386,
    1385,
    1384,
    1387,
    1383,
    1383,
    1385,
    1386,
    1383,
    1384,
    1383,
    1388,
    1385,
    1384,
    1388,
    1387,
    1388,
    1384,
    1388,
    1384,
    1383,
    1384,
    1388,
    1385,
    1387,
    1384,
    1384,
    1387,
    1384,
    1388,
    1387,
    1388,
    1387,
    1384,
    1385,
    1387,
    1386,
    1385,
    1385,
    1388,
    1386,
    1387,
    1384,
    1386,
    1388,
    1386,
    1385,
    1384,
    1386,
    1387,
    1387,
    1385,
    1386,
    1385,
    1383,
    1385,
    1385,
    1385,
    1383,
    1384,
    1383,
    1383,
    1388,
    1385,
    1387,
    1388,
    1384,
    1383,
    1387,
    1383,
    1386,
    1387,
    1386,
    1388,
    1387,
    1384,
    1384,
    1385,
    1384,
    1386,
    1388,
    1386,
    1383,
    1386,
    1387,
    1384,
    1385,
    1388,
    1383,
    1385,
    1388,
    1384,
    1387
   ]
  },
  {
   "id": 2,
   "name": "intact",
   "type": "tilelayer",
   "x": 0,
   "y": 0,
   "width": 128,
   "height": 128,
   "opacity": 1,
   "visible": true,
   "data": [
    0,
    134,
    113,
    113,
    113,
    113,
    113,
    113,
    113,
    102,
    0,
    1207,
    1207,
    1225,
    1226,
    1225,
    1226,
    1225,
    1231,
    1226,
    1225,
    1231,
    1226,
    1225,
    1231,
    1226,
    1293,
    1294,
    0,
    0,
    0,
    0,
    0,
    0,
    0,
    0,
    0,
    0,
    0,
    0,
    0,
    413,
    414,
    0,
    0,
    0,
    0,
    0,
    0,
    0,
    0,
    0,
    0,
    0,
    413,
    414,
    0,
    0,
    0,
    0,
    0,
    0,
    0,
    0,
    0,
    0,
    0,
    0,
    0,
    0,
    0,
    0,
    0,
    0,
    0,
    0,
    0,
    0,
    0,
    0,
    0,
    0,
    0,
    0,
    0,
    0,
    0,
    0,
    0,
    0,
    0,
    0,
    0,
    0,
    0,
    0,
    0,
    0,
    0,
    0,
    0,
    0,
    0,
    0,
    0,
    0,
    0,
    0,
    0,
    0,
    0,
    0,
    0,
    0,
    0,
    0,
    0,
    0,
    0,
    0,
    0,
    0,
    0,
    0,
    0,
    0,
    0,
    0,
    0,
    132,
    129,
    129,
    129,
    129,
    129,
    129,
    129,
    101,
    0,
    1208,
    1208,
    1227,
    1228,
    1227,
    1228,
    1227,
    358,
    1228,
    1227,
    358,
    1228,
    1227,
    358,
    1228,
    1309,
    1310,
    0,
    0,
    0,
    0,
    0,
    0,
    0,
    0,
    0,
    0,
    0,
    440,
    441,
    589,
    590,
    337,
    337,
    337,
    337,
    337,
    337,
    337,
    337,
    337,
    337,
    337,
    589,
    590,
    537,
    538,
    0,
    0,
    0,
    0,
    0,
    0,
    0,
    0,
    0,
    0,
    0,
    0,
    0,
    0,
    0,
    0,
    0,
    0,
    0,
    0,
    0,
    0,
    0,
    0,
    0,
    0,
    0,
    0,
    0,
    0,
    0,
    0,
    0,
    0,
    0,
    0,
    0,
    0,
    0,
    0,
    0,
    0,
    0,
    0,
    0,
    0,
    0,
    0,
    0,
    0,
    0,
    0,
    0,
    0,
    0,
    0,
    0,
    0,
    0,
    0,
    0,
    0,
    0,
    0,
    0,
    0,
    0,
    0,
    0,
    0,
    116,
    117,
    189,
    126,
    111,
    110,
    143,
    188,
    2,
    85,
    86,
    1209,
    1208,
    1227,
    1228,
    1227,
    1228,
    1227,
    358,
    1228,
    1227,
    358,
    1228,
    1227,
    358,
    1228,
    1325,
    1326,
    0,
    0,
    0,
    0,
    0,
    0,
    0,
    0,
    0,
    0,
    0,
    449,
    357,
    557,
    558,
    343,
    343,
    343,
    343,
    343,
    343,
    343,
    343,
    343,
    343,
    343,
    557,
    558,
    342,
    546,
    0,
    0,
    0,
    0,
    0,
    0,
    0,
    0,
    0,
    1387,
    0,
    0,
    0,
    0,
    0,
    0,
    0,
    0,
    0,
    0,
    0,
    0,
    0,
    0,
    0,
    0,
    0,
    0,
    0,
    0,
    0,
    0,
    0,
    0,
    0,
    0,
    0,
    0,
    0,
    0,
    0,
    0,
    0,
    0,
    0,
    0,
    0,
    0,
    0,
    0,
    0,
    0,
    0,
    0,
    0,
    0,
    0,
    0,
    0,
    0,
    0,
    0,
    0,
    0,
    0,
    0,
    0,
    0,
    0,
    0,
    131,
    1271,
    189,
    172,
    282,
    298,
    158,
    190,
    0,
    0,
    82,
    1207,
    1208,
    1229,
    1230,
    1227,
    1228,
    1229,
    1232,
    1230,
    1227,
    358,
    1228,
    1227,
    358,
    1228,
    1291,
    1292,
    0,
    0,
    0,
    0,
    0,
    0,
    0,
    0,
    0,
    0,
    434,
    435,
    360,
    573,
    574,
    359,
    359,
    359,
    359,
    359,
    359,
    359,
    359,
    359,
    359,
    359,
    573,
    574,
    260,
    547,
    548,
    0,
    0,
    0,
    0,
    0,
    0,
    0,
    0,
    0,
    0,
    0,
    0,
    0,
    0,
    0,
    0,
    0,
    0,
    0,
    0,
    0,
    0,
    0,
    0,
    0,
    0,
    0,
    0,
    0,
    0,
    0,
    0,
    0,
    0,
    0,
    0,
    0,
    0,
    0,
    0,
    0,
    0,
    0,
    0,
    0,
    0,
    0,
    0,
    0,
    0,
    0,
    0,
    0,
    0,
    0,
    0,
    0,
    0,
    0,
    0,
    0,
    0,
    0,
    0,
    0,
    0,
    0,
    0,
    0,
    130,
    0,
    189,
    124,
    203,
    123,
    125,
    190,
    0,
    0,
    82,
    1208,
    1209,
    1225,
    1226,
    1227,
    1228,
    1225,
    1231,
    1226,
    1227,
    358,
    1228,
    1227,
    358,
    1228,
    1307,
    1308,
    0,
    0,
    0,
    0,
    0,
    0,
    0,
    0,
    0,
    0,
    449,
    362,
    363,
    0,
    0,
    0,
    0,
    189,
    126,
    111,
    112,
    112,
    110,
    143,
    188,
    0,
    0,
    0,
    258,
    259,
    546,
    0,
    0,
    0,
    0,
    0,
    0,
    0,
    0,
    0,
    0,
    0,
    0,
    0,
    0,
    0,
    0,
    0,
    0,
    0,
    0,
    0,
    0,
    0,
    0,
    0,
    0,
    0,
    0,
    0,
    0,
    0,
    0,
    0,
    0,
    0,
    0,
    0,
    0,
    0,
    0,
    0,
    0,
    0,
    0,
    0,
    0,
    0,
    0,
    0,
    0,
    0,
    0,
    0,
    0,
    0,
    0,
    0,
    0,
    0,
    0,
    0,
    0,
    0,
    0,
    0,
    0,
    0,
    0,
    0,
    114,
    0,
    0,
    140,
    219,
    223,
    141,
    187,
    0,
    3,
    82,
    1208,
    1207,
    1227,
    1228,
    1229,
    1230,
    1227,
    358,
    1228,
    1229,
    1232,
    1230,
    1227,
    358,
    1228,
    1323,
    1324,
    0,
    0,
    0,
    0,
    0,
    0,
    0,
    0,
    0,
    434,
    435,
    344,
    1271,
    0,
    0,
    0,
    0,
    189,
    172,
    282,
    266,
    266,
    298,
    159,
    190,
    0,
    0,
    0,
    0,
    244,
    547,
    548,
    0,
    0,
    0,
    0,
    0,
    0,
    0,
    0,
    0,
    0,
    0,
    0,
    0,
    0,
    0,
    0,
    0,
    0,
    0,
    0,
    0,
    0,
    0,
    0,
    0,
    0,
    0,
    0,
    0,
    0,
    0,
    0,
    0,
    0,
    0,
    0,
    0,
    0,
    0,
    0,
    0,
    0,
    0,
    0,
    0,
    0,
    0,
    0,
    0,
    0,
    0,
    0,
    0,
    0,
    0,
    0,
    0,
    0,
    0,
    0,
    0,
    0,
    0,
    0,
    0,
    0,
    0,
    0,
    114,
    0,
    0,
    0,
    0,
    0,
    0,
    0,
    0,
    3,
    82,
    1209,
    1209,
    1227,
    1228,
    920,
    920,
    1227,
    358,
    1228,
    1225,
    1231,
    1226,
    1229,
    1232,
    1230,
    1295,
    1296,
    0,
    0,
    0,
    0,
    0,
    0,
    0,
    0,
    0,
    449,
    362,
    363,
    0,
    0,
    0,
    0,
    0,
    189,
    124,
    123,
    123,
    203,
    123,
    125,
    190,
    0,
    0,
    0,
    0,
    258,
    259,
    546,
    0,
    0,
    0,
    0,
    0,
    0,
    0,
    0,
    0,
    0,
    0,
    0,
    0,
    0,
    0,
    0,
    0,
    0,
    0,
    0,
    0,
    0,
    0,
    0,
    0,
    0,
    0,
    0,
    0,
    0,
    0,
    0,
    0,
    0,
    0,
    0,
    0,
    0,
    0,
    0,
    0,
    0,
    0,
    0,
    0,
    0,
    0,
    0,
    0,
    0,
    0,
    0,
    0,
    0,
    0,
    0,
    0,
    0,
    0,
    0,
    0,
    0,
    0,
    0,
    0,
    0,
    0,
    0,
    133,
    1272,
    477,
    478,
    0,
    0,
    0,
    477,
    478,
    0,
    82,
    1225,
    1226,
    1227,
    1228,
    1208,
    1208,
    1227,
    358,
    1228,
    1227,
    358,
    1228,
    1225,
    1231,
    1226,
    1311,
    1312,
    0,
    0,
    0,
    0,
    0,
    0,
    0,
    0,
    434,
    435,
    344,
    1271,
    0,
    0,
    0,
    0,
    0,
    1269,
    140,
    223,
    139,
    219,
    223,
    141,
    187,
    0,
    0,
    0,
    0,
    0,
    244,
    547,
    548,
    0,
    0,
    0,
    0,
    0,
    0,
    0,
    0,
    0,
    0,
    0,
    0,
    0,
    0,
    0,
    0,
    0,
    0,
    0,
    0,
    0,
    0,
    0,
    0,
    0,
    0,
    0,
    0,
    0,
    0,
    0,
    0,
    0,
    0,
    301,
    302,
    0,
    0,
    0,
    0,
    0,
    0,
    0,
    0,
    0,
    0,
    0,
    301,
    302,
    0,
    0,
    0,
    0,
    0,
    0,
    0,
    0,
    0,
    0,
    0,
    0,
    0,
    0,
    0,
    0,
    0,
    0,
    121,
    122,
    493,
    494,
    1345,
    1346,
    1347,
    493,
    494,
    88,
    89,
    1227,
    1228,
    1229,
    1230,
    921,
    1208,
    1229,
    1232,
    1230,
    1227,
    358,
    1228,
    1227,
    358,
    1228,
    1327,
    1328,
    0,
    0,
    0,
    0,
    0,
    0,
    413,
    414,
    449,
    362,
    363,
    0,
    0,
    0,
    0,
    413,
    414,
    0,
    0,
    0,
    0,
    0,
    0,
    0,
    0,
    413,
    414,
    0,
    0,
    0,
    258,
    259,
    546,
    413,
    414,
    0,
    0,
    0,
    0,
    1387,
    0,
    0,
    0,
    0,
    0,
    0,
    0,
    0,
    0,
    0,
    0,
    0,
    0,
    0,
    0,
    0,
    0,
    0,
    0,
    0,
    0,
    0,
    0,
    0,
    0,
    729,
    730,
    541,
    542,
    353,
    353,
    353,
    353,
    353,
    353,
    353,
    353,
    353,
    353,
    353,
    541,
    542,
    633,
    634,
    0,
    0,
    0,
    0,
    0,
    0,
    0,
    0,
    0,
    0,
    0,
    0,
    0,
    0,
    0,
    0,
    137,
    138,
    509,
    510,
    1361,
    1362,
    1363,
    509,
    510,
    104,
    105,
    1229,
    1230,
    0,
    920,
    920,
    1208,
    1225,
    1231,
    1226,
    1227,
    358,
    1228,
    1227,
    358,
    1228,
    0,
    0,
    0,
    0,
    0,
    440,
    441,
    337,
    589,
    590,
    356,
    344,
    1271,
    0,
    0,
    0,
    134,
    429,
    430,
    113,
    113,
    113,
    113,
    113,
    113,
    113,
    113,
    429,
    430,
    102,
    0,
    0,
    0,
    244,
    341,
    589,
    590,
    337,
    537,
    538,
    0,
    0,
    0,
    0,
    0,
    0,
    0,
    0,
    0,
    0,
    0,
    0,
    0,
    0,
    0,
    0,
    0,
    0,
    0,
    0,
    0,
    0,
    0,
    0,
    0,
    0,
    0,
    737,
    357,
    557,
    558,
    343,
    343,
    343,
    343,
    343,
    343,
    343,
    343,
    343,
    343,
    343,
    557,
    558,
    342,
    642,
    0,
    0,
    0,
    0,
    0,
    0,
    0,
    0,
    0,
    1387,
    0,
    0,
    0,
    0,
    0,
    0,
    0,
    0,
    525,
    526,
    1377,
    1378,
    1379,
    525,
    526,
    0,
    0,
    0,
    0,
    0,
    921,
    1208,
    921,
    1227,
    358,
    1228,
    1227,
    358,
    1228,
    1227,
    358,
    1228,
    0,
    0,
    0,
    0,
    0,
    449,
    357,
    343,
    557,
    558,
    349,
    350,
    0,
    0,
    0,
    0,
    132,
    445,
    446,
    129,
    129,
    129,
    129,
    129,
    129,
    129,
    129,
    445,
    446,
    101,
    0,
    0,
    0,
    246,
    247,
    557,
    558,
    343,
    342,
    546,
    0,
    1387,
    0,
    0,
    0,
    0,
    0,
    0,
    0,
    0,
    0,
    0,
    0,
    0,
    0,
    0,
    0,
    0,
    0,
    0,
    0,
    0,
    0,
    0,
    0,
    0,
    723,
    724,
    360,
    573,
    574,
    359,
    359,
    359,
    359,
    359,
    359,
    359,
    359,
    359,
    359,
    359,
    573,
    574,
    260,
    643,
    644,
    0,
    0,
    0,
    0,
    0,
    0,
    0,
    0,
    0,
    0,
    0,
    0,
    0,
    0,
    0,
    0,
    0,
    0,
    0,
    1387,
    1387,
    0,
    0,
    0,
    0,
    413,
    414,
    0,
    0,
    0,
    1208,
    0,
    1227,
    358,
    1228,
    1227,
    358,
    1228,
    1227,
    358,
    1228,
    0,
    0,
    0,
    0,
    434,
    435,
    360,
    359,
    573,
    574,
    365,
    366,
    0,
    0,
    0,
    116,
    117,
    461,
    462,
    0,
    0,
    0,
    0,
    0,
    0,
    0,
    0,
    461,
    462,
    85,
    86,
    0,
    0,
    262,
    263,
    573,
    574,
    359,
    260,
    547,
    548,
    0,
    0,
    0,
    0,
    0,
    0,
    0,
    0,
    0,
    0,
    0,
    0,
    0,
    0,
    0,
    0,
    0,
    0,
    0,
    0,
    0,
    0,
    0,
    0,
    0,
    737,
    362,
    363,
    0,
    0,
    0,
    0,
    189,
    126,
    111,
    112,
    112,
    110,
    143,
    188,
    0,
    0,
    0,
    258,
    259,
    642,
    0,
    0,
    0,
    0,
    0,
    0,
    0,
    0,
    0,
    0,
    0,
    0,
    0,
    0,
    0,
    0,
    134,
    113,
    113,
    113,
    113,
    113,
    113,
    113,
    113,
    429,
    430,
    102,
    0,
    0,
    921,
    0,
    1227,
    358,
    1228,
    1227,
    358,
    1228,
    1227,
    358,
    1228,
    0,
    0,
    0,
    0,
    449,
    362,
    363,
    0,
    0,
    0,
    0,
    0,
    0,
    0,
    0,
    131,
    1271,
    189,
    126,
    208,
    173,
    173,
    173,
    173,
    173,
    173,
    224,
    143,
    188,
    0,
    84,
    0,
    0,
    0,
    189,
    126,
    71,
    188,
    258,
    259,
    546,
    0,
    0,
    0,
    0,
    0,
    0,
    0,
    0,
    0,
    0,
    0,
    0,
    0,
    0,
    0,
    0,
    0,
    0,
    0,
    0,
    0,
    0,
    0,
    0,
    723,
    724,
    344,
    1271,
    0,
    0,
    0,
    0,
    189,
    172,
    282,
    266,
    266,
    298,
    159,
    190,
    0,
    0,
    0,
    0,
    244,
    643,
    644,
    0,
    0,
    0,
    0,
    0,
    0,
    0,
    0,
    0,
    0,
    0,
    0,
    0,
    0,
    0,
    132,
    129,
    129,
    129,
    129,
    129,
    129,
    129,
    129,
    445,
    446,
    101,
    0,
    0,
    0,
    0,
    1227,
    358,
    1228,
    1229,
    1232,
    1230,
    1227,
    358,
    1228,
    0,
    0,
    0,
    434,
    435,
    344,
    1271,
    0,
    0,
    0,
    0,
    0,
    0,
    0,
    116,
    117,
    0,
    189,
    172,
    156,
    335,
    135,
    135,
    135,
    135,
    336,
    155,
    158,
    190,
    0,
    85,
    86,
    0,
    0,
    189,
    156,
    175,
    190,
    0,
    244,
    547,
    548,
    0,
    0,
    0,
    0,
    0,
    0,
    0,
    0,
    0,
    0,
    0,
    0,
    0,
    0,
    0,
    0,
    0,
    0,
    0,
    0,
    0,
    0,
    0,
    737,
    362,
    363,
    0,
    0,
    0,
    0,
    0,
    189,
    124,
    123,
    123,
    203,
    123,
    125,
    190,
    0,
    0,
    0,
    0,
    258,
    259,
    642,
    0,
    0,
    0,
    0,
    0,
    0,
    0,
    0,
    0,
    0,
    0,
    0,
    0,
    0,
    116,
    117,
    0,
    0,
    0,
    0,
    0,
    0,
    0,
    0,
    461,
    462,
    85,
    86,
    0,
    0,
    0,
    1227,
    358,
    1228,
    1225,
    1231,
    1226,
    1227,
    358,
    1228,
    0,
    0,
    0,
    449,
    362,
    363,
    189,
    126,
    111,
    110,
    143,
    188,
    0,
    0,
    131,
    1271,
    0,
    189,
    156,
    172,
    335,
    135,
    135,
    135,
    135,
    336,
    158,
    155,
    190,
    0,
    0,
    82,
    0,
    0,
    192,
    124,
    125,
    190,
    0,
    258,
    259,
    546,
    0,
    0,
    0,
    0,
    0,
    0,
    0,
    0,
    0,
    0,
    0,
    0,
    0,
    0,
    0,
    0,
    0,
    0,
    0,
    0,
    0,
    0,
    723,
    724,
    344,
    1271,
    0,
    0,
    0,
    0,
    0,
    1269,
    140,
    223,
    139,
    219,
    223,
    141,
    187,
    0,
    0,
    0,
    0,
    0,
    244,
    643,
    644,
    0,
    0,
    0,
    0,
    0,
    0,
    0,
    0,
    0,
    0,
    0,
    0,
    0,
    131,
    1271,
    0,
    189,
    126,
    111,
    110,
    143,
    188,
    0,
    0,
    0,
    0,
    84,
    0,
    0,
    0,
    1227,
    358,
    1228,
    1227,
    358,
    1228,
    1229,
    1232,
    1230,
    0,
    0,
    434,
    435,
    344,
    1271,
    189,
    172,
    335,
    336,
    158,
    190,
    0,
    0,
    130,
    0,
    0,
    189,
    156,
    156,
    282,
    266,
    266,
    266,
    266,
    298,
    159,
    155,
    190,
    0,
    0,
    82,
    0,
    0,
    0,
    140,
    141,
    187,
    0,
    0,
    244,
    547,
    548,
    0,
    0,
    0,
    0,
    0,
    0,
    0,
    0,
    0,
    0,
    0,
    0,
    0,
    0,
    0,
    0,
    0,
    0,
    0,
    301,
    302,
    737,
    362,
    363,
    0,
    0,
    0,
    0,
    413,
    414,
    0,
    0,
    0,
    0,
    0,
    0,
    0,
    0,
    413,
    414,
    0,
    0,
    0,
    258,
    259,
    642,
    301,
    302,
    0,
    0,
    0,
    0,
    1387,
    0,
    0,
    0,
    0,
    0,
    0,
    130,
    0,
    0,
    189,
    172,
    282,
    298,
    158,
    190,
    0,
    0,
    0,
    0,
    85,
    86,
    0,
    0,
    1227,
    358,
    1228,
    1227,
    358,
    1228,
    0,
    0,
    0,
    0,
    0,
    115,
    358,
    130,
    0,
    189,
    156,
    335,
    336,
    125,
    191,
    0,
    0,
    114,
    0,
    0,
    189,
    172,
    128,
    205,
    206,
    154,
    205,
    206,
    154,
    144,
    158,
    190,
    0,
    0,
    82,
    0,
    0,
    189,
    126,
    208,
    224,
    143,
    188,
    98,
    358,
    82,
    0,
    0,
    0,
    0,
    0,
    0,
    0,
    0,
    0,
    0,
    0,
    0,
    0,
    0,
    0,
    0,
    729,
    730,
    353,
    541,
    542,
    356,
    344,
    1271,
    0,
    0,
    0,
    134,
    429,
    430,
    113,
    113,
    113,
    113,
    113,
    113,
    113,
    113,
    429,
    430,
    102,
    0,
    0,
    0,
    244,
    341,
    541,
    542,
    353,
    633,
    634,
    0,
    0,
    0,
    0,
    0,
    0,
    0,
    0,
    114,
    0,
    1269,
    189,
    124,
    203,
    123,
    125,
    190,
    0,
    0,
    0,
    0,
    0,
    82,
    0,
    0,
    1227,
    358,
    1228,
    1227,
    358,
    1228,
    0,
    0,
    0,
    0,
    0,
    115,
    358,
    114,
    0,
    189,
    156,
    335,
    336,
    159,
    190,
    0,
    0,
    114,
    0,
    0,
    189,
    124,
    123,
    221,
    222,
    203,
    221,
    222,
    123,
    123,
    125,
    190,
    0,
    0,
    82,
    0,
    0,
    189,
    172,
    156,
    171,
    158,
    190,
    98,
    358,
    82,
    0,
    0,
    0,
    0,
    0,
    0,
    0,
    0,
    0,
    0,
    0,
    0,
    0,
    0,
    0,
    0,
    737,
    357,
    343,
    557,
    558,
    349,
    350,
    0,
    0,
    0,
    0,
    132,
    445,
    446,
    129,
    129,
    129,
    129,
    129,
    129,
    129,
    129,
    445,
    446,
    101,
    0,
    0,
    0,
    246,
    247,
    557,
    558,
    343,
    342,
    642,
    0,
    1387,
    0,
    0,
    0,
    0,
    0,
    0,
    114,
    0,
    0,
    0,
    140,
    219,
    223,
    141,
    187,
    189,
    126,
    71,
    188,
    0,
    82,
    0,
    0,
    1229,
    1232,
    1230,
    1227,
    358,
    1228,
    0,
    0,
    0,
    0,
    0,
    115,
    358,
    114,
    0,
    189,
    172,
    282,
    298,
    158,
    190,
    0,
    0,
    114,
    0,
    0,
    0,
    140,
    139,
    223,
    139,
    219,
    139,
    223,
    139,
    223,
    141,
    187,
    0,
    0,
    82,
    0,
    0,
    189,
    156,
    156,
    175,
    155,
    190,
    98,
    358,
    82,
    0,
    0,
    0,
    0,
    0,
    0,
    0,
    0,
    0,
    0,
    0,
    0,
    0,
    0,
    0,
    723,
    724,
    360,
    359,
    573,
    574,
    365,
    366,
    0,
    0,
    0,
    116,
    117,
    461,
    462,
    0,
    0,
    0,
    0,
    0,
    0,
    0,
    0,
    461,
    462,
    85,
    86,
    0,
    0,
    262,
    263,
    573,
    574,
    359,
    260,
    643,
    644,
    0,
    0,
    0,
    0,
    0,
    0,
    0,
    114,
    0,
    0,
    0,
    0,
    0,
    3,
    0,
    0,
    189,
    156,
    175,
    190,
    0,
    82,
    0,
    0,
    0,
    0,
    0,
    1227,
    358,
    1228,
    0,
    0,
    0,
    0,
    0,
    115,
    358,
    114,
    0,
    189,
    124,
    170,
    170,
    125,
    191,
    0,
    0,
    114,
    0,
    0,
    189,
    126,
    71,
    188,
    0,
    0,
    0,
    0,
    189,
    126,
    71,
    188,
    0,
    0,
    82,
    0,
    0,
    189,
    156,
    156,
    171,
    155,
    190,
    98,
    358,
    82,
    0,
    0,
    0,
    0,
    0,
    0,
    0,
    0,
    0,
    0,
    0,
    0,
    0,
    0,
    0,
    737,
    362,
    363,
    0,
    0,
    0,
    0,
    0,
    0,
    0,
    0,
    131,
    1271,
    189,
    126,
    208,
    173,
    173,
    173,
    173,
    173,
    173,
    224,
    143,
    188,
    0,
    84,
    0,
    0,
    0,
    189,
    126,
    71,
    188,
    258,
    259,
    642,
    0,
    0,
    0,
    0,
    0,
    0,
    0,
    133,
    1272,
    0,
    0,
    0,
    0,
    0,
    0,
    0,
    192,
    124,
    125,
    190,
    0,
    82,
    0,
    0,
    0,
    0,
    0,
    1227,
    358,
    1228,
    0,
    0,
    0,
    0,
    0,
    115,
    358,
    114,
    0,
    0,
    140,
    139,
    139,
    141,
    187,
    0,
    0,
    133,
    1272,
    0,
    189,
    156,
    175,
    190,
    0,
    0,
    0,
    0,
    189,
    156,
    175,
    190,
    0,
    99,
    100,
    0,
    0,
    192,
    124,
    128,
    144,
    158,
    190,
    98,
    358,
    82,
    0,
    0,
    0,
    0,
    0,
    0,
    0,
    0,
    0,
    0,
    0,
    0,
    0,
    0,
    723,
    724,
    344,
    1271,
    0,
    0,
    0,
    0,
    0,
    0,
    0,
    116,
    117,
    0,
    189,
    172,
    156,
    335,
    135,
    135,
    135,
    135,
    336,
    155,
    158,
    190,
    0,
    85,
    86,
    0,
    0,
    189,
    156,
    175,
    190,
    0,
    244,
    643,
    644,
    0,
    0,
    0,
    0,
    0,
    0,
    118,
    119,
    0,
    0,
    0,
    0,
    0,
    0,
    0,
    0,
    140,
    141,
    187,
    99,
    100,
    0,
    0,
    0,
    0,
    0,
    1227,
    358,
    1228,
    0,
    0,
    0,
    0,
    0,
    115,
    358,
    114,
    0,
    0,
    0,
    0,
    0,
    0,
    0,
    0,
    0,
    118,
    119,
    0,
    189,
    124,
    125,
    191,
    0,
    0,
    0,
    0,
    192,
    124,
    125,
    190,
    0,
    83,
    0,
    0,
    0,
    189,
    124,
    123,
    123,
    125,
    190,
    98,
    358,
    82,
    0,
    0,
    0,
    0,
    0,
    0,
    0,
    0,
    0,
    0,
    0,
    0,
    0,
    0,
    737,
    362,
    363,
    189,
    126,
    111,
    110,
    143,
    188,
    0,
    0,
    131,
    1271,
    0,
    189,
    156,
    172,
    335,
    135,
    135,
    135,
    135,
    336,
    158,
    155,
    190,
    0,
    0,
    82,
    0,
    0,
    192,
    124,
    125,
    190,
    0,
    258,
    259,
    642,
    0,
    0,
    0,
    0,
    0,
    0,
    0,
    133,
    1272,
    477,
    478,
    0,
    0,
    0,
    477,
    478,
    0,
    0,
    0,
    83,
    0,
    0,
    0,
    0,
    0,
    0,
    1227,
    358,
    1228,
    0,
    0,
    0,
    0,
    0,
    450,
    451,
    345,
    1272,
    0,
    189,
    126,
    111,
    110,
    143,
    188,
    0,
    0,
    133,
    1272,
    0,
    140,
    141,
    187,
    0,
    0,
    0,
    0,
    0,
    140,
    141,
    187,
    99,
    100,
    0,
    0,
    0,
    0,
    140,
    223,
    223,
    141,
    187,
    257,
    531,
    532,
    0,
    0,
    0,
    0,
    0,
    0,
    0,
    0,
    0,
    0,
    0,
    0,
    0,
    723,
    724,
    344,
    1271,
    189,
    172,
    335,
    336,
    158,
    190,
    0,
    0,
    130,
    0,
    0,
    189,
    156,
    156,
    282,
    266,
    266,
    266,
    266,
    298,
    159,
    155,
    190,
    0,
    0,
    82,
    0,
    0,
    0,
    140,
    141,
    187,
    0,
    0,
    244,
    643,
    644,
    0,
    0,
    0,
    0,
    0,
    0,
    121,
    122,
    493,
    494,
    1345,
    1346,
    1347,
    493,
    494,
    81,
    81,
    88,
    89,
    0,
    0,
    0,
    0,
    0,
    0,
    1227,
    358,
    1228,
    0,
    0,
    0,
    0,
    0,
    0,
    436,
    346,
    347,
    0,
    189,
    172,
    282,
    298,
    158,
    190,
    0,
    0,
    118,
    119,
    0,
    0,
    477,
    478,
    0,
    0,
    0,
    477,
    478,
    0,
    0,
    0,
    83,
    0,
    0,
    0,
    189,
    126,
    71,
    188,
    0,
    0,
    242,
    243,
    530,
    0,
    0,
    0,
    0,
    0,
    0,
    0,
    0,
    0,
    0,
    0,
    0,
    0,
    0,
    741,
    358,
    130,
    0,
    189,
    156,
    335,
    336,
    125,
    191,
    0,
    0,
    114,
    0,
    0,
    189,
    172,
    128,
    205,
    206,
    154,
    205,
    206,
    154,
    144,
    158,
    190,
    0,
    0,
    82,
    0,
    0,
    189,
    126,
    208,
    224,
    143,
    188,
    98,
    358,
    832,
    0,
    0,
    0,
    0,
    0,
    0,
    137,
    138,
    509,
    510,
    1361,
    1362,
    1363,
    509,
    510,
    97,
    97,
    104,
    105,
    0,
    0,
    0,
    0,
    0,
    0,
    1229,
    1232,
    1230,
    0,
    0,
    0,
    0,
    0,
    0,
    450,
    451,
    345,
    1272,
    189,
    124,
    203,
    123,
    125,
    190,
    0,
    0,
    0,
    120,
    81,
    81,
    493,
    494,
    1345,
    1346,
    1347,
    493,
    494,
    81,
    81,
    88,
    89,
    0,
    0,
    0,
    189,
    156,
    175,
    190,
    0,
    0,
    257,
    531,
    532,
    0,
    0,
    0,
    0,
    0,
    0,
    0,
    0,
    0,
    0,
    0,
    0,
    0,
    0,
    741,
    358,
    114,
    0,
    189,
    156,
    335,
    336,
    159,
    190,
    0,
    0,
    114,
    0,
    0,
    189,
    124,
    123,
    221,
    222,
    203,
    221,
    222,
    123,
    123,
    125,
    190,
    0,
    0,
    82,
    0,
    0,
    189,
    172,
    156,
    171,
    158,
    190,
    98,
    358,
    832,
    0,
    0,
    0,
    0,
    0,
    0,
    0,
    0,
    525,
    526,
    1377,
    1378,
    1379,
    525,
    526,
    0,
    0,
    0,
    0,
    0,
    0,
    0,
    0,
    1210,
    1212,
    1210,
    1211,
    1212,
    1210,
    1211,
    1211,
    1212,
    1230,
    0,
    0,
    436,
    346,
    347,
    0,
    140,
    219,
    223,
    141,
    187,
    0,
    0,
    0,
    136,
    97,
    97,
    509,
    510,
    1361,
    1362,
    1363,
    509,
    510,
    97,
    97,
    104,
    105,
    0,
    0,
    0,
    192,
    124,
    125,
    190,
    0,
    242,
    243,
    530,
    0,
    0,
    0,
    0,
    0,
    0,
    0,
    0,
    0,
    0,
    0,
    0,
    0,
    0,
    0,
    741,
    358,
    114,
    0,
    189,
    172,
    282,
    298,
    158,
    190,
    0,
    0,
    114,
    0,
    0,
    0,
    140,
    139,
    223,
    139,
    219,
    139,
    223,
    139,
    223,
    141,
    187,
    0,
    0,
    82,
    0,
    0,
    189,
    156,
    156,
    175,
    155,
    190,
    98,
    358,
    832,
    0,
    0,
    0,
    0,
    0,
    1387,
    0,
    0,
    413,
    414,
    0,
    0,
    0,
    0,
    1387,
    0,
    1387,
    0,
    413,
    414,
    0,
    0,
    0,
    1210,
    1211,
    1211,
    1211,
    1212,
    0,
    0,
    0,
    0,
    0,
    0,
    0,
    450,
    451,
    345,
    1272,
    0,
    0,
    0,
    0,
    0,
    0,
    0,
    0,
    0,
    0,
    0,
    525,
    526,
    1377,
    1378,
    1379,
    525,
    526,
    0,
    0,
    0,
    0,
    0,
    0,
    0,
    0,
    140,
    141,
    187,
    0,
    257,
    531,
    532,
    0,
    0,
    0,
    0,
    0,
    0,
    0,
    0,
    0,
    0,
    0,
    0,
    0,
    0,
    0,
    741,
    358,
    114,
    0,
    189,
    124,
    170,
    170,
    125,
    191,
    0,
    0,
    114,
    0,
    0,
    189,
    126,
    71,
    188,
    0,
    0,
    0,
    0,
    189,
    126,
    71,
    188,
    0,
    0,
    82,
    0,
    0,
    189,
    156,
    156,
    171,
    155,
    190,
    98,
    358,
    832,
    0,
    0,
    0,
    0,
    0,
    1387,
    1387,
    134,
    429,
    430,
    113,
    113,
    113,
    113,
    113,
    113,
    113,
    113,
    429,
    430,
    102,
    0,
    0,
    922,
    923,
    922,
    1211,
    923,
    922,
    1211,
    1211,
    923,
    0,
    0,
    0,
    0,
    436,
    341,
    1401,
    1402,
    338,
    285,
    286,
    0,
    0,
    0,
    0,
    0,
    0,
    0,
    0,
    0,
    0,
    0,
    0,
    0,
    0,
    0,
    0,
    0,
    0,
    0,
    0,
    0,
    0,
    248,
    338,
    1401,
    1402,
    356,
    530,
    0,
    0,
    0,
    0,
    0,
    0,
    0,
    0,
    0,
    0,
    0,
    0,
    0,
    0,
    0,
    0,
    741,
    358,
    114,
    0,
    0,
    140,
    139,
    139,
    141,
    187,
    0,
    0,
    133,
    0,
    0,
    189,
    156,
    175,
    190,
    0,
    0,
    0,
    0,
    189,
    156,
    175,
    190,
    0,
    99,
    100,
    0,
    0,
    192,
    124,
    128,
    144,
    158,
    190,
    98,
    358,
    832,
    0,
    0,
    0,
    0,
    0,
    1387,
    1387,
    132,
    445,
    446,
    129,
    129,
    129,
    129,
    129,
    129,
    129,
    129,
    445,
    446,
    101,
    0,
    0,
    922,
    1211,
    1211,
    1211,
    923,
    0,
    0,
    0,
    0,
    0,
    0,
    0,
    0,
    438,
    439,
    1417,
    1418,
    529,
    342,
    345,
    1272,
    0,
    189,
    126,
    111,
    110,
    143,
    188,
    0,
    0,
    0,
    0,
    0,
    189,
    126,
    111,
    110,
    143,
    188,
    0,
    0,
    242,
    243,
    340,
    1417,
    1418,
    535,
    536,
    0,
    0,
    0,
    0,
    0,
    0,
    0,
    0,
    0,
    0,
    0,
    0,
    0,
    0,
    0,
    0,
    741,
    358,
    114,
    0,
    0,
    0,
    0,
    0,
    0,
    0,
    0,
    0,
    118,
    119,
    0,
    189,
    124,
    125,
    191,
    0,
    0,
    0,
    0,
    192,
    124,
    125,
    190,
    0,
    83,
    0,
    0,
    0,
    189,
    124,
    123,
    123,
    125,
    190,
    98,
    358,
    832,
    0,
    0,
    0,
    0,
    0,
    0,
    116,
    117,
    461,
    462,
    0,
    0,
    0,
    0,
    0,
    0,
    0,
    0,
    461,
    462,
    85,
    86,
    0,
    1064,
    1065,
    1064,
    1065,
    1064,
    1065,
    1064,
    1065,
    1064,
    1065,
    0,
    0,
    0,
    454,
    455,
    1433,
    1434,
    545,
    452,
    346,
    347,
    0,
    189,
    172,
    282,
    298,
    158,
    190,
    0,
    0,
    0,
    0,
    0,
    189,
    172,
    282,
    298,
    158,
    190,
    0,
    0,
    257,
    553,
    554,
    1433,
    1434,
    551,
    552,
    0,
    0,
    0,
    0,
    0,
    0,
    0,
    0,
    0,
    0,
    0,
    0,
    0,
    0,
    0,
    0,
    739,
    740,
    345,
    0,
    0,
    189,
    126,
    111,
    110,
    143,
    188,
    0,
    0,
    133,
    0,
    0,
    140,
    141,
    187,
    0,
    0,
    0,
    0,
    0,
    140,
    141,
    187,
    99,
    100,
    0,
    0,
    0,
    0,
    140,
    223,
    223,
    141,
    187,
    257,
    627,
    628,
    0,
    0,
    0,
    0,
    0,
    0,
    131,
    1271,
    0,
    0,
    189,
    126,
    111,
    112,
    112,
    110,
    143,
    188,
    0,
    0,
    0,
    84,
    0,
    1227,
    1228,
    1227,
    1228,
    1227,
    1228,
    1227,
    1228,
    1227,
    1228,
    0,
    0,
    1387,
    1387,
    1387,
    1449,
    1450,
    1387,
    450,
    451,
    345,
    1272,
    189,
    124,
    203,
    123,
    125,
    190,
    0,
    0,
    0,
    0,
    0,
    189,
    124,
    203,
    123,
    125,
    190,
    0,
    242,
    243,
    530,
    0,
    1449,
    1450,
    0,
    0,
    0,
    0,
    0,
    0,
    0,
    0,
    0,
    0,
    0,
    0,
    0,
    0,
    0,
    0,
    0,
    0,
    0,
    722,
    346,
    347,
    0,
    189,
    172,
    282,
    298,
    158,
    190,
    0,
    0,
    118,
    119,
    0,
    0,
    477,
    478,
    0,
    0,
    0,
    477,
    478,
    0,
    0,
    0,
    83,
    0,
    0,
    0,
    189,
    126,
    71,
    188,
    0,
    0,
    242,
    243,
    626,
    0,
    0,
    0,
    0,
    0,
    0,
    116,
    117,
    0,
    0,
    0,
    189,
    172,
    282,
    266,
    266,
    298,
    159,
    190,
    0,
    0,
    0,
    85,
    86,
    1066,
    1067,
    1227,
    1228,
    1227,
    1228,
    1227,
    1228,
    1227,
    1228,
    0,
    0,
    0,
    0,
    0,
    0,
    1387,
    1387,
    1387,
    436,
    346,
    347,
    0,
    140,
    219,
    223,
    141,
    187,
    0,
    0,
    0,
    0,
    0,
    0,
    140,
    219,
    223,
    141,
    187,
    0,
    257,
    531,
    532,
    0,
    0,
    0,
    0,
    0,
    0,
    0,
    0,
    0,
    0,
    0,
    0,
    0,
    0,
    0,
    0,
    0,
    0,
    0,
    0,
    0,
    0,
    739,
    740,
    345,
    0,
    189,
    124,
    203,
    123,
    125,
    190,
    0,
    0,
    0,
    120,
    81,
    81,
    493,
    494,
    1345,
    1346,
    1347,
    493,
    494,
    81,
    81,
    88,
    89,
    0,
    0,
    0,
    189,
    156,
    175,
    190,
    0,
    0,
    257,
    627,
    628,
    0,
    0,
    0,
    0,
    0,
    0,
    131,
    1271,
    0,
    0,
    0,
    189,
    124,
    123,
    123,
    203,
    123,
    125,
    190,
    0,
    0,
    0,
    0,
    82,
    0,
    0,
    1066,
    1067,
    1227,
    1228,
    1227,
    1228,
    1227,
    1228,
    0,
    0,
    0,
    0,
    0,
    0,
    0,
    0,
    0,
    450,
    451,
    345,
    1272,
    0,
    189,
    126,
    71,
    188,
    0,
    0,
    0,
    0,
    0,
    189,
    126,
    71,
    188,
    0,
    0,
    242,
    243,
    530,
    0,
    0,
    0,
    0,
    0,
    0,
    0,
    0,
    0,
    0,
    0,
    0,
    0,
    0,
    0,
    0,
    0,
    0,
    0,
    0,
    0,
    0,
    0,
    0,
    722,
    346,
    347,
    0,
    140,
    219,
    223,
    141,
    187,
    0,
    0,
    0,
    136,
    97,
    97,
    509,
    510,
    1361,
    1362,
    1363,
    509,
    510,
    97,
    97,
    104,
    105,
    0,
    0,
    0,
    192,
    124,
    125,
    190,
    0,
    242,
    243,
    626,
    0,
    0,
    0,
    0,
    0,
    0,
    0,
    130,
    0,
    0,
    0,
    0,
    1269,
    140,
    223,
    139,
    219,
    223,
    141,
    187,
    0,
    0,
    0,
    0,
    82,
    1387,
    0,
    0,
    0,
    1066,
    1067,
    1227,
    1228,
    1227,
    1228,
    0,
    0,
    0,
    0,
    0,
    0,
    0,
    0,
    0,
    1387,
    436,
    346,
    347,
    0,
    189,
    156,
    175,
    190,
    0,
    0,
    0,
    0,
    0,
    189,
    156,
    175,
    190,
    0,
    0,
    257,
    531,
    532,
    0,
    0,
    0,
    0,
    0,
    0,
    0,
    0,
    0,
    0,
    0,
    0,
    0,
    0,
    0,
    0,
    0,
    0,
    0,
    0,
    0,
    0,
    0,
    0,
    739,
    740,
    345,
    0,
    0,
    0,
    0,
    0,
    0,
    0,
    0,
    0,
    0,
    0,
    0,
    525,
    526,
    1377,
    1378,
    1379,
    525,
    526,
    0,
    0,
    0,
    0,
    0,
    0,
    0,
    0,
    140,
    141,
    187,
    0,
    257,
    627,
    628,
    0,
    0,
    0,
    0,
    0,
    0,
    0,
    114,
    0,
    0,
    0,
    0,
    0,
    0,
    0,
    0,
    0,
    0,
    0,
    0,
    0,
    0,
    0,
    0,
    82,
    0,
    0,
    0,
    0,
    0,
    0,
    1066,
    1067,
    1227,
    1228,
    0,
    0,
    0,
    0,
    0,
    0,
    0,
    0,
    0,
    0,
    450,
    451,
    345,
    1272,
    189,
    124,
    125,
    191,
    0,
    0,
    0,
    0,
    0,
    192,
    124,
    125,
    190,
    0,
    242,
    243,
    530,
    0,
    0,
    0,
    0,
    0,
    0,
    0,
    0,
    0,
    0,
    0,
    0,
    0,
    0,
    0,
    0,
    0,
    0,
    0,
    0,
    0,
    0,
    0,
    0,
    0,
    0,
    722,
    341,
    1401,
    1402,
    338,
    285,
    286,
    0,
    0,
    0,
    0,
    0,
    0,
    0,
    0,
    0,
    0,
    0,
    0,
    0,
    0,
    0,
    0,
    0,
    0,
    0,
    0,
    0,
    0,
    248,
    338,
    1401,
    1402,
    356,
    626,
    0,
    0,
    0,
    0,
    0,
    0,
    0,
    0,
    114,
    0,
    189,
    126,
    111,
    110,
    143,
    188,
    0,
    0,
    189,
    126,
    111,
    110,
    143,
    188,
    0,
    82,
    0,
    0,
    0,
    0,
    0,
    0,
    0,
    0,
    1066,
    1067,
    0,
    0,
    0,
    0,
    0,
    0,
    0,
    0,
    0,
    0,
    1387,
    436,
    346,
    347,
    0,
    140,
    141,
    187,
    0,
    0,
    0,
    0,
    0,
    0,
    140,
    141,
    187,
    0,
    257,
    531,
    532,
    0,
    0,
    0,
    0,
    0,
    0,
    0,
    0,
    0,
    0,
    0,
    0,
    0,
    0,
    0,
    0,
    0,
    0,
    0,
    0,
    0,
    0,
    0,
    0,
    0,
    0,
    727,
    728,
    1417,
    1418,
    625,
    342,
    345,
    0,
    0,
    189,
    126,
    111,
    110,
    143,
    188,
    0,
    0,
    0,
    0,
    0,
    189,
    126,
    111,
    110,
    143,
    188,
    0,
    0,
    242,
    243,
    340,
    1417,
    1418,
    631,
    632,
    0,
    0,
    0,
    0,
    0,
    0,
    0,
    0,
    114,
    0,
    189,
    172,
    282,
    298,
    158,
    190,
    0,
    0,
    189,
    172,
    282,
    298,
    158,
    190,
    0,
    82,
    1387,
    0,
    0,
    0,
    0,
    0,
    0,
    0,
    0,
    0,
    0,
    0,
    0,
    0,
    0,
    0,
    0,
    0,
    0,
    0,
    0,
    450,
    451,
    355,
    338,
    338,
    338,
    253,
    254,
    0,
    0,
    0,
    251,
    252,
    338,
    338,
    338,
    338,
    356,
    530,
    0,
    0,
    0,
    0,
    0,
    0,
    0,
    0,
    0,
    0,
    0,
    0,
    0,
    0,
    0,
    0,
    0,
    0,
    0,
    0,
    0,
    0,
    0,
    0,
    0,
    0,
    0,
    743,
    744,
    1335,
    1336,
    641,
    738,
    346,
    347,
    0,
    189,
    172,
    282,
    298,
    158,
    190,
    0,
    0,
    0,
    0,
    0,
    189,
    172,
    282,
    298,
    158,
    190,
    0,
    0,
    257,
    649,
    650,
    1335,
    1336,
    647,
    0,
    0,
    0,
    0,
    0,
    0,
    0,
    0,
    0,
    114,
    0,
    189,
    124,
    203,
    123,
    125,
    190,
    0,
    0,
    189,
    124,
    203,
    123,
    125,
    190,
    0,
    82,
    0,
    0,
    0,
    0,
    0,
    0,
    0,
    0,
    0,
    0,
    0,
    0,
    0,
    0,
    0,
    0,
    0,
    0,
    0,
    0,
    0,
    1387,
    437,
    529,
    529,
    529,
    529,
    605,
    606,
    1345,
    1346,
    1347,
    653,
    654,
    529,
    529,
    529,
    529,
    535,
    536,
    0,
    0,
    0,
    0,
    0,
    0,
    0,
    0,
    0,
    0,
    0,
    0,
    0,
    0,
    0,
    0,
    0,
    0,
    0,
    0,
    0,
    0,
    0,
    0,
    0,
    0,
    0,
    0,
    0,
    1351,
    1352,
    0,
    739,
    740,
    345,
    0,
    189,
    124,
    203,
    123,
    125,
    190,
    0,
    0,
    0,
    0,
    0,
    189,
    124,
    203,
    123,
    125,
    190,
    0,
    242,
    243,
    626,
    0,
    1351,
    1352,
    0,
    0,
    0,
    0,
    0,
    0,
    0,
    0,
    0,
    0,
    133,
    1272,
    0,
    140,
    219,
    223,
    141,
    187,
    0,
    0,
    0,
    140,
    219,
    223,
    141,
    187,
    99,
    100,
    0,
    0,
    0,
    0,
    0,
    0,
    0,
    0,
    0,
    0,
    0,
    0,
    0,
    0,
    0,
    0,
    0,
    0,
    0,
    0,
    0,
    1387,
    453,
    545,
    545,
    545,
    545,
    509,
    510,
    1361,
    1362,
    1363,
    509,
    510,
    545,
    545,
    545,
    545,
    551,
    552,
    0,
    0,
    0,
    0,
    0,
    0,
    0,
    0,
    0,
    0,
    0,
    0,
    0,
    0,
    0,
    0,
    0,
    0,
    0,
    0,
    0,
    0,
    0,
    0,
    0,
    0,
    0,
    0,
    0,
    0,
    0,
    0,
    0,
    722,
    346,
    347,
    0,
    140,
    219,
    223,
    141,
    187,
    0,
    0,
    0,
    0,
    0,
    0,
    140,
    219,
    223,
    141,
    187,
    0,
    257,
    627,
    628,
    0,
    0,
    0,
    0,
    0,
    0,
    0,
    0,
    0,
    0,
    0,
    0,
    0,
    118,
    119,
    0,
    0,
    0,
    0,
    0,
    0,
    0,
    0,
    0,
    0,
    0,
    0,
    0,
    0,
    83,
    0,
    0,
    0,
    0,
    0,
    0,
    0,
    0,
    0,
    0,
    0,
    0,
    0,
    0,
    0,
    0,
    0,
    0,
    0,
    0,
    0,
    0,
    0,
    0,
    0,
    0,
    0,
    0,
    525,
    526,
    1377,
    1378,
    1379,
    525,
    526,
    0,
    0,
    0,
    0,
    0,
    0,
    0,
    0,
    0,
    0,
    0,
    0,
    0,
    0,
    0,
    0,
    0,
    0,
    0,
    0,
    0,
    0,
    0,
    0,
    0,
    0,
    0,
    0,
    0,
    0,
    0,
    0,
    0,
    0,
    0,
    0,
    0,
    0,
    0,
    739,
    740,
    345,
    0,
    0,
    189,
    126,
    71,
    188,
    0,
    0,
    0,
    0,
    0,
    189,
    126,
    71,
    188,
    0,
    0,
    242,
    243,
    626,
    0,
    0,
    0,
    0,
    0,
    0,
    0,
    0,
    0,
    0,
    0,
    0,
    0,
    0,
    1387,
    133,
    1272,
    0,
    0,
    0,
    0,
    0,
    0,
    0,
    0,
    0,
    0,
    0,
    0,
    99,
    100,
    0,
    0,
    0,
    0,
    1238,
    1239,
    1240,
    1238,
    1239,
    1239,
    1240,
    1238,
    1239,
    1239,
    1239,
    1240,
    1238,
    1239,
    1239,
    1239,
    1239,
    1240,
    1238,
    1239,
    1239,
    1239,
    1239,
    1239,
    1240,
    0,
    0,
    0,
    0,
    0,
    1064,
    1071,
    1065,
    1064,
    1071,
    1065,
    1064,
    1071,
    1065,
    1064,
    1071,
    1065,
    0,
    0,
    0,
    0,
    0,
    0,
    0,
    0,
    0,
    0,
    0,
    0,
    0,
    0,
    0,
    0,
    0,
    0,
    0,
    0,
    0,
    0,
    0,
    0,
    0,
    0,
    0,
    0,
    0,
    722,
    346,
    347,
    0,
    189,
    156,
    175,
    190,
    0,
    0,
    0,
    0,
    0,
    189,
    156,
    175,
    190,
    0,
    0,
    257,
    627,
    628,
    0,
    0,
    0,
    0,
    0,
    0,
    0,
    0,
    0,
    0,
    0,
    0,
    0,
    0,
    0,
    118,
    119,
    0,
    0,
    477,
    478,
    0,
    0,
    0,
    477,
    478,
    0,
    0,
    0,
    83,
    0,
    0,
    0,
    0,
    0,
    1254,
    1255,
    1256,
    1254,
    1255,
    1255,
    1256,
    1254,
    1255,
    1255,
    1255,
    1256,
    1254,
    1255,
    1255,
    1255,
    1255,
    1256,
    1254,
    1255,
    1255,
    1255,
    1255,
    1255,
    1256,
    0,
    0,
    0,
    0,
    0,
    1227,
    358,
    1228,
    1227,
    358,
    1228,
    1227,
    358,
    1228,
    1227,
    358,
    1228,
    0,
    0,
    0,
    0,
    0,
    0,
    0,
    0,
    0,
    0,
    0,
    0,
    0,
    0,
    0,
    0,
    0,
    0,
    0,
    0,
    0,
    0,
    0,
    0,
    0,
    0,
    0,
    0,
    0,
    739,
    740,
    345,
    0,
    189,
    124,
    125,
    191,
    0,
    0,
    0,
    0,
    0,
    192,
    124,
    125,
    190,
    0,
    242,
    243,
    626,
    0,
    0,
    0,
    0,
    0,
    0,
    0,
    0,
    0,
    0,
    0,
    0,
    0,
    0,
    0,
    0,
    0,
    120,
    81,
    81,
    493,
    494,
    1345,
    1346,
    1347,
    493,
    494,
    81,
    81,
    88,
    89,
    0,
    0,
    0,
    0,
    0,
    1238,
    1239,
    1239,
    1240,
    1238,
    1239,
    1239,
    1239,
    1240,
    1238,
    1239,
    1239,
    1239,
    1239,
    1240,
    1238,
    1239,
    1239,
    1239,
    1239,
    1239,
    1240,
    1238,
    1239,
    1239,
    1239,
    1239,
    1239,
    1239,
    1240,
    1227,
    358,
    1228,
    1227,
    358,
    1228,
    1227,
    358,
    1228,
    1227,
    358,
    1228,
    0,
    0,
    0,
    0,
    0,
    0,
    0,
    0,
    0,
    0,
    0,
    0,
    0,
    0,
    0,
    0,
    0,
    0,
    0,
    0,
    0,
    0,
    0,
    0,
    0,
    0,
    0,
    0,
    0,
    0,
    722,
    346,
    347,
    0,
    140,
    141,
    187,
    0,
    0,
    0,
    0,
    0,
    0,
    140,
    141,
    187,
    0,
    257,
    627,
    628,
    0,
    0,
    0,
    0,
    0,
    0,
    0,
    0,
    0,
    0,
    0,
    0,
    0,
    0,
    0,
    1387,
    0,
    136,
    97,
    97,
    509,
    510,
    1361,
    1362,
    1363,
    509,
    510,
    97,
    97,
    104,
    105,
    0,
    1387,
    0,
    0,
    0,
    1252,
    358,
    358,
    1253,
    1252,
    358,
    358,
    358,
    1253,
    1252,
    358,
    358,
    358,
    358,
    1253,
    1252,
    358,
    358,
    358,
    358,
    358,
    1253,
    1252,
    358,
    358,
    358,
    358,
    358,
    358,
    1253,
    1066,
    1072,
    1067,
    1227,
    358,
    1228,
    1227,
    358,
    1228,
    1227,
    358,
    1228,
    0,
    0,
    0,
    0,
    0,
    0,
    0,
    0,
    0,
    0,
    0,
    0,
    0,
    0,
    0,
    0,
    0,
    0,
    0,
    0,
    0,
    0,
    0,
    0,
    0,
    0,
    0,
    0,
    0,
    0,
    739,
    740,
    355,
    338,
    338,
    338,
    253,
    254,
    0,
    0,
    0,
    251,
    252,
    338,
    338,
    338,
    338,
    356,
    626,
    0,
    0,
    0,
    0,
    0,
    0,
    0,
    0,
    0,
    0,
    0,
    0,
    0,
    0,
    0,
    0,
    0,
    0,
    1387,
    0,
    0,
    525,
    526,
    1377,
    1378,
    1379,
    525,
    526,
    0,
    0,
    0,
    0,
    1387,
    0,
    0,
    0,
    0,
    1254,
    1255,
    1255,
    1256,
    1254,
    1255,
    1255,
    1255,
    1256,
    1254,
    1255,
    1255,
    1255,
    1255,
    1256,
    1254,
    1255,
    1255,
    1255,
    1255,
    1255,
    1256,
    1254,
    1255,
    1255,
    1255,
    1255,
    1255,
    1255,
    1256,
    0,
    0,
    0,
    1066,
    1072,
    1067,
    1227,
    358,
    1228,
    1227,
    358,
    1228,
    0,
    0,
    0,
    0,
    0,
    0,
    0,
    0,
    0,
    0,
    0,
    0,
    0,
    0,
    0,
    0,
    0,
    0,
    0,
    0,
    0,
    0,
    0,
    0,
    0,
    0,
    0,
    0,
    0,
    0,
    0,
    726,
    625,
    625,
    625,
    625,
    605,
    606,
    1345,
    1346,
    1347,
    653,
    654,
    625,
    625,
    625,
    625,
    631,
    632,
    0,
    0,
    0,
    0,
    0,
    0,
    0,
    0,
    0,
    0,
    0,
    0,
    0,
    0,
    0,
    0,
    0,
    0,
    0,
    0,
    0,
    0,
    413,
    414,
    0,
    0,
    0,
    0,
    0,
    0,
    413,
    414,
    0,
    0,
    0,
    1387,
    3,
    1238,
    1239,
    1239,
    1239,
    1239,
    1239,
    1239,
    1239,
    1240,
    1238,
    1239,
    1239,
    1239,
    1239,
    1239,
    1239,
    1239,
    1239,
    1240,
    1238,
    1239,
    1239,
    1239,
    1239,
    1239,
    1239,
    1239,
    1239,
    1239,
    1240,
    0,
    0,
    0,
    0,
    0,
    0,
    1066,
    1072,
    1067,
    1227,
    358,
    1228,
    0,
    0,
    0,
    0,
    0,
    0,
    0,
    0,
    0,
    0,
    0,
    0,
    0,
    0,
    0,
    0,
    0,
    0,
    0,
    0,
    0,
    0,
    0,
    0,
    0,
    0,
    0,
    0,
    0,
    0,
    0,
    742,
    641,
    641,
    641,
    641,
    621,
    622,
    1364,
    1365,
    1366,
    669,
    670,
    641,
    641,
    641,
    641,
    647,
    0,
    0,
    0,
    0,
    0,
    0,
    0,
    0,
    0,
    0,
    0,
    0,
    0,
    0,
    0,
    0,
    0,
    0,
    1387,
    1387,
    440,
    441,
    337,
    589,
    590,
    337,
    337,
    337,
    337,
    337,
    337,
    589,
    590,
    537,
    538,
    1387,
    0,
    0,
    1252,
    358,
    358,
    358,
    358,
    358,
    358,
    358,
    1253,
    1252,
    358,
    358,
    358,
    358,
    358,
    358,
    358,
    358,
    1253,
    1252,
    358,
    358,
    358,
    358,
    358,
    358,
    358,
    358,
    358,
    1253,
    0,
    0,
    0,
    0,
    0,
    0,
    0,
    0,
    0,
    1066,
    1072,
    1067,
    0,
    0,
    0,
    0,
    0,
    0,
    0,
    0,
    0,
    0,
    0,
    0,
    0,
    0,
    0,
    0,
    0,
    0,
    0,
    0,
    0,
    0,
    0,
    0,
    0,
    0,
    0,
    0,
    0,
    0,
    0,
    0,
    0,
    0,
    0,
    0,
    637,
    638,
    1380,
    358,
    1382,
    685,
    686,
    0,
    0,
    0,
    0,
    0,
    0,
    0,
    0,
    0,
    0,
    0,
    0,
    0,
    0,
    0,
    0,
    0,
    0,
    0,
    0,
    0,
    0,
    0,
    1387,
    1387,
    449,
    357,
    343,
    557,
    558,
    343,
    343,
    343,
    343,
    343,
    343,
    557,
    558,
    342,
    546,
    0,
    0,
    0,
    1254,
    1255,
    1255,
    1255,
    1255,
    1255,
    1255,
    1255,
    1256,
    1254,
    1255,
    1255,
    1255,
    1255,
    1255,
    1255,
    1255,
    1255,
    1256,
    1254,
    1255,
    1255,
    1255,
    1255,
    1255,
    1255,
    1255,
    1255,
    1255,
    1256,
    0,
    0,
    0,
    0,
    0,
    0,
    0,
    0,
    0,
    0,
    0,
    0,
    0,
    0,
    0,
    0,
    0,
    0,
    0,
    0,
    0,
    0,
    0,
    0,
    0,
    0,
    0,
    0,
    0,
    0,
    0,
    0,
    0,
    0,
    0,
    0,
    0,
    0,
    0,
    0,
    0,
    0,
    0,
    0,
    0,
    0,
    0,
    0,
    0,
    0,
    1227,
    358,
    1228,
    0,
    0,
    0,
    0,
    0,
    0,
    0,
    0,
    0,
    0,
    0,
    0,
    0,
    0,
    0,
    0,
    0,
    0,
    0,
    0,
    0,
    0,
    0,
    0,
    0,
    1387,
    434,
    435,
    360,
    359,
    573,
    574,
    359,
    359,
    359,
    359,
    359,
    359,
    573,
    574,
    260,
    547,
    548,
    0,
    0,
    1241,
    1239,
    1242,
    1241,
    1239,
    1239,
    1242,
    1241,
    1239,
    1239,
    1239,
    1242,
    1241,
    1239,
    1239,
    1239,
    1239,
    1242,
    0,
    0,
    0,
    0,
    0,
    0,
    0,
    0,
    0,
    0,
    0,
    0,
    0,
    0,
    0,
    0,
    0,
    0,
    0,
    0,
    0,
    0,
    0,
    0,
    0,
    0,
    0,
    0,
    0,
    0,
    0,
    0,
    0,
    0,
    0,
    0,
    0,
    0,
    0,
    0,
    0,
    0,
    0,
    0,
    0,
    0,
    0,
    0,
    0,
    0,
    0,
    0,
    0,
    0,
    0,
    0,
    0,
    0,
    0,
    0,
    0,
    0,
    1229,
    1232,
    1230,
    0,
    0,
    0,
    0,
    0,
    0,
    0,
    0,
    0,
    0,
    0,
    0,
    0,
    0,
    0,
    0,
    0,
    0,
    0,
    0,
    0,
    0,
    0,
    0,
    0,
    1387,
    449,
    362,
    363,
    0,
    0,
    0,
    0,
    0,
    0,
    0,
    0,
    0,
    0,
    0,
    258,
    259,
    546,
    0,
    0,
    1257,
    1255,
    1258,
    1257,
    1255,
    1255,
    1258,
    1257,
    1255,
    1255,
    1255,
    1258,
    1257,
    1255,
    1255,
    1255,
    1255,
    1258,
    0,
    0,
    0,
    0,
    0,
    0,
    0,
    0,
    0,
    0,
    0,
    0,
    0,
    0,
    0,
    0,
    0,
    0,
    0,
    0,
    0,
    0,
    0,
    0,
    0,
    0,
    0,
    0,
    0,
    0,
    0,
    0,
    0,
    0,
    0,
    0,
    0,
    0,
    0,
    0,
    0,
    0,
    0,
    0,
    0,
    0,
    0,
    0,
    0,
    0,
    0,
    0,
    0,
    0,
    0,
    0,
    0,
    0,
    0,
    0,
    0,
    0,
    0,
    0,
    0,
    0,
    0,
    0,
    0,
    0,
    0,
    0,
    0,
    0,
    0,
    0,
    0,
    0,
    0,
    0,
    0,
    0,
    0,
    0,
    0,
    0,
    0,
    0,
    0,
    0,
    434,
    435,
    344,
    1271,
    0,
    3,
    0,
    189,
    126,
    111,
    112,
    112,
    110,
    143,
    188,
    0,
    244,
    547,
    548,
    1387,
    1241,
    1239,
    1239,
    1242,
    1241,
    1239,
    1239,
    1239,
    1242,
    1241,
    1239,
    1239,
    1239,
    1239,
    1242,
    0,
    0,
    0,
    0,
    0,
    0,
    0,
    0,
    0,
    0,
    0,
    0,
    0,
    0,
    0,
    0,
    0,
    0,
    0,
    0,
    0,
    0,
    0,
    0,
    0,
    0,
    0,
    0,
    0,
    0,
    0,
    0,
    0,
    0,
    0,
    0,
    0,
    0,
    0,
    0,
    0,
    0,
    0,
    0,
    0,
    0,
    0,
    0,
    0,
    0,
    0,
    0,
    0,
    0,
    0,
    0,
    0,
    0,
    0,
    0,
    0,
    0,
    0,
    0,
    0,
    0,
    0,
    0,
    0,
    0,
    0,
    0,
    0,
    0,
    0,
    0,
    0,
    0,
    0,
    0,
    0,
    0,
    0,
    0,
    0,
    0,
    0,
    0,
    0,
    0,
    0,
    0,
    1387,
    449,
    362,
    363,
    189,
    126,
    71,
    188,
    189,
    172,
    282,
    266,
    266,
    298,
    159,
    190,
    0,
    258,
    259,
    546,
    0,
    1369,
    358,
    358,
    1370,
    1369,
    358,
    358,
    358,
    1370,
    1369,
    358,
    358,
    358,
    358,
    1370,
    0,
    0,
    0,
    0,
    0,
    0,
    0,
    0,
    0,
    0,
    0,
    0,
    0,
    0,
    0,
    0,
    0,
    0,
    0,
    0,
    0,
    0,
    0,
    0,
    0,
    0,
    0,
    0,
    0,
    0,
    0,
    0,
    0,
    0,
    0,
    0,
    0,
    0,
    0,
    0,
    0,
    0,
    0,
    0,
    0,
    0,
    0,
    0,
    0,
    0,
    0,
    0,
    0,
    0,
    0,
    0,
    0,
    0,
    0,
    0,
    0,
    0,
    0,
    0,
    0,
    0,
    0,
    0,
    0,
    0,
    0,
    0,
    0,
    0,
    0,
    0,
    0,
    0,
    0,
    0,
    0,
    0,
    0,
    0,
    0,
    0,
    0,
    0,
    0,
    0,
    0,
    0,
    434,
    435,
    344,
    1271,
    189,
    156,
    175,
    190,
    189,
    124,
    123,
    123,
    203,
    123,
    125,
    190,
    0,
    0,
    244,
    547,
    548,
    1257,
    1255,
    1255,
    1258,
    1257,
    1255,
    1255,
    1255,
    1258,
    1257,
    1255,
    1255,
    1255,
    1255,
    1258,
    0,
    0,
    0,
    0,
    0,
    0,
    0,
    0,
    0,
    0,
    0,
    0,
    0,
    0,
    0,
    0,
    0,
    0,
    0,
    0,
    0,
    0,
    0,
    0,
    0,
    0,
    0,
    0,
    0,
    0,
    0,
    0,
    0,
    0,
    0,
    0,
    0,
    0,
    0,
    0,
    0,
    0,
    0,
    0,
    0,
    0,
    0,
    0,
    0,
    0,
    0,
    0,
    0,
    0,
    0,
    0,
    0,
    0,
    0,
    0,
    0,
    0,
    0,
    0,
    0,
    0,
    0,
    0,
    0,
    0,
    0,
    0,
    0,
    0,
    0,
    0,
    0,
    0,
    0,
    0,
    0,
    0,
    0,
    0,
    0,
    0,
    0,
    0,
    0,
    0,
    0,
    0,
    115,
    358,
    130,
    0,
    189,
    124,
    125,
    191,
    1269,
    140,
    223,
    139,
    219,
    223,
    141,
    187,
    0,
    0,
    98,
    358,
    82,
    0,
    0,
    0,
    0,
    0,
    0,
    0,
    0,
    0,
    0,
    0,
    0,
    0,
    0,
    0,
    0,
    0,
    0,
    0,
    0,
    0,
    0,
    0,
    0,
    0,
    0,
    0,
    0,
    0,
    0,
    0,
    0,
    0,
    0,
    0,
    0,
    0,
    0,
    0,
    0,
    0,
    0,
    0,
    0,
    0,
    0,
    0,
    0,
    0,
    0,
    0,
    0,
    0,
    0,
    0,
    0,
    0,
    0,
    0,
    0,
    0,
    0,
    0,
    0,
    0,
    0,
    0,
    0,
    0,
    0,
    0,
    0,
    0,
    0,
    0,
    0,
    0,
    0,
    0,
    0,
    0,
    0,
    0,
    0,
    0,
    0,
    0,
    0,
    0,
    0,
    0,
    0,
    0,
    0,
    0,
    0,
    0,
    0,
    0,
    0,
    0,
    0,
    0,
    0,
    0,
    0,
    0,
    115,
    358,
    114,
    0,
    0,
    140,
    141,
    187,
    0,
    0,
    0,
    0,
    0,
    0,
    0,
    0,
    0,
    0,
    98,
    358,
    82,
    0,
    0,
    0,
    0,
    0,
    0,
    0,
    0,
    0,
    0,
    0,
    0,
    0,
    0,
    0,
    0,
    0,
    0,
    0,
    0,
    0,
    0,
    0,
    0,
    0,
    0,
    0,
    0,
    0,
    0,
    0,
    0,
    0,
    0,
    0,
    0,
    0,
    0,
    0,
    0,
    0,
    0,
    0,
    0,
    0,
    0,
    0,
    0,
    0,
    0,
    0,
    0,
    0,
    0,
    0,
    0,
    0,
    0,
    0,
    0,
    0,
    0,
    0,
    0,
    0,
    0,
    0,
    0,
    0,
    0,
    0,
    0,
    0,
    0,
    0,
    0,
    134,
    113,
    113,
    113,
    113,
    113,
    113,
    113,
    102,
    0,
    0,
    0,
    0,
    0,
    0,
    0,
    0,
    0,
    0,
    0,
    0,
    0,
    0,
    0,
    0,
    0,
    0,
    0,
    0,
    0,
    0,
    115,
    358,
    114,
    0,
    0,
    0,
    0,
    0,
    0,
    0,
    0,
    0,
    0,
    0,
    0,
    0,
    0,
    0,
    98,
    358,
    82,
    0,
    0,
    0,
    0,
    0,
    0,
    0,
    0,
    0,
    0,
    0,
    0,
    0,
    0,
    0,
    0,
    0,
    0,
    0,
    0,
    0,
    0,
    0,
    0,
    0,
    0,
    0,
    0,
    0,
    0,
    0,
    0,
    0,
    0,
    0,
    0,
    0,
    0,
    0,
    0,
    0,
    0,
    0,
    0,
    0,
    0,
    0,
    0,
    0,
    0,
    0,
    0,
    0,
    0,
    0,
    0,
    0,
    0,
    0,
    0,
    0,
    0,
    0,
    0,
    0,
    0,
    0,
    0,
    0,
    0,
    0,
    0,
    0,
    0,
    0,
    0,
    132,
    129,
    129,
    129,
    129,
    129,
    129,
    129,
    101,
    0,
    0,
    0,
    0,
    0,
    0,
    0,
    0,
    0,
    0,
    0,
    0,
    0,
    0,
    0,
    0,
    0,
    0,
    0,
    0,
    0,
    0,
    115,
    358,
    114,
    0,
    0,
    189,
    126,
    111,
    110,
    143,
    188,
    189,
    126,
    111,
    110,
    143,
    188,
    0,
    98,
    358,
    82,
    3,
    0,
    0,
    0,
    0,
    0,
    0,
    0,
    0,
    0,
    0,
    0,
    0,
    0,
    0,
    0,
    0,
    0,
    0,
    0,
    0,
    0,
    0,
    0,
    0,
    0,
    0,
    0,
    0,
    0,
    0,
    0,
    0,
    0,
    0,
    0,
    0,
    0,
    0,
    0,
    0,
    0,
    0,
    0,
    0,
    0,
    0,
    0,
    0,
    0,
    0,
    0,
    0,
    0,
    0,
    0,
    0,
    0,
    0,
    0,
    0,
    0,
    0,
    0,
    0,
    0,
    0,
    0,
    0,
    0,
    0,
    0,
    0,
    0,
    0,
    116,
    117,
    189,
    126,
    111,
    110,
    143,
    188,
    2,
    85,
    86,
    0,
    0,
    0,
    0,
    0,
    0,
    0,
    0,
    0,
    0,
    0,
    0,
    0,
    0,
    0,
    0,
    0,
    0,
    0,
    0,
    0,
    450,
    451,
    345,
    1272,
    0,
    189,
    172,
    282,
    298,
    158,
    190,
    189,
    172,
    282,
    298,
    158,
    190,
    0,
    98,
    358,
    82,
    3,
    0,
    0,
    0,
    0,
    0,
    0,
    0,
    0,
    0,
    0,
    0,
    0,
    0,
    0,
    0,
    0,
    0,
    0,
    0,
    0,
    0,
    0,
    0,
    0,
    0,
    0,
    0,
    0,
    0,
    0,
    0,
    0,
    0,
    0,
    0,
    0,
    0,
    0,
    0,
    0,
    0,
    0,
    0,
    0,
    0,
    0,
    0,
    0,
    0,
    0,
    0,
    0,
    0,
    0,
    0,
    0,
    0,
    0,
    0,
    0,
    0,
    0,
    0,
    0,
    0,
    0,
    0,
    0,
    0,
    0,
    0,
    0,
    0,
    0,
    131,
    0,
    189,
    172,
    282,
    298,
    158,
    190,
    0,
    0,
    82,
    0,
    0,
    0,
    0,
    0,
    0,
    0,
    0,
    0,
    0,
    0,
    0,
    0,
    0,
    0,
    0,
    0,
    0,
    0,
    0,
    0,
    0,
    436,
    346,
    347,
    0,
    189,
    124,
    203,
    123,
    125,
    190,
    189,
    124,
    203,
    123,
    125,
    190,
    3,
    257,
    531,
    532,
    3,
    0,
    0,
    0,
    0,
    0,
    0,
    0,
    0,
    0,
    0,
    0,
    0,
    0,
    0,
    0,
    0,
    0,
    0,
    0,
    0,
    0,
    0,
    0,
    0,
    0,
    0,
    0,
    0,
    0,
    0,
    0,
    0,
    0,
    0,
    0,
    0,
    0,
    0,
    0,
    0,
    0,
    0,
    0,
    0,
    0,
    0,
    0,
    0,
    0,
    0,
    0,
    0,
    0,
    0,
    0,
    0,
    0,
    0,
    0,
    0,
    0,
    0,
    0,
    0,
    0,
    0,
    0,
    0,
    0,
    0,
    0,
    0,
    0,
    0,
    130,
    0,
    189,
    124,
    203,
    123,
    125,
    190,
    0,
    0,
    82,
    0,
    0,
    0,
    0,
    0,
    0,
    0,
    0,
    0,
    0,
    0,
    0,
    0,
    0,
    0,
    0,
    0,
    0,
    0,
    0,
    0,
    0,
    450,
    451,
    345,
    1272,
    0,
    140,
    219,
    223,
    141,
    187,
    0,
    140,
    219,
    223,
    141,
    187,
    242,
    243,
    530,
    0,
    0,
    0,
    0,
    0,
    0,
    0,
    0,
    0,
    0,
    0,
    0,
    0,
    0,
    0,
    0,
    0,
    0,
    0,
    0,
    0,
    0,
    0,
    0,
    0,
    0,
    0,
    0,
    0,
    0,
    0,
    0,
    0,
    0,
    0,
    0,
    0,
    0,
    0,
    0,
    0,
    0,
    0,
    0,
    0,
    0,
    0,
    0,
    0,
    0,
    0,
    0,
    0,
    0,
    0,
    0,
    0,
    0,
    0,
    0,
    0,
    0,
    0,
    0,
    0,
    0,
    0,
    0,
    0,
    0,
    0,
    0,
    0,
    0,
    0,
    0,
    114,
    0,
    0,
    140,
    219,
    223,
    141,
    187,
    0,
    3,
    82,
    0,
    0,
    0,
    0,
    0,
    0,
    0,
    0,
    0,
    0,
    0,
    0,
    0,
    0,
    0,
    0,
    0,
    0,
    0,
    0,
    0,
    0,
    0,
    436,
    346,
    347,
    0,
    0,
    0,
    2,
    0,
    0,
    0,
    0,
    0,
    0,
    0,
    0,
    257,
    531,
    532,
    0,
    0,
    0,
    0,
    0,
    0,
    0,
    0,
    0,
    0,
    0,
    0,
    0,
    0,
    0,
    0,
    0,
    0,
    0,
    0,
    0,
    0,
    0,
    0,
    0,
    0,
    0,
    0,
    0,
    0,
    0,
    0,
    0,
    0,
    0,
    0,
    0,
    0,
    0,
    0,
    0,
    0,
    0,
    0,
    0,
    0,
    0,
    0,
    0,
    0,
    0,
    0,
    0,
    0,
    0,
    0,
    0,
    0,
    0,
    0,
    0,
    0,
    0,
    0,
    0,
    0,
    0,
    0,
    0,
    0,
    0,
    0,
    0,
    0,
    0,
    0,
    114,
    0,
    0,
    0,
    0,
    0,
    0,
    0,
    0,
    3,
    82,
    0,
    0,
    0,
    0,
    0,
    0,
    0,
    0,
    0,
    0,
    0,
    0,
    0,
    0,
    0,
    0,
    0,
    0,
    0,
    0,
    0,
    0,
    0,
    450,
    451,
    345,
    1272,
    0,
    0,
    0,
    3,
    0,
    0,
    0,
    0,
    0,
    0,
    242,
    243,
    530,
    0,
    0,
    0,
    0,
    0,
    0,
    0,
    0,
    0,
    0,
    0,
    0,
    0,
    0,
    0,
    0,
    0,
    0,
    0,
    0,
    0,
    0,
    0,
    0,
    0,
    0,
    0,
    0,
    0,
    0,
    0,
    0,
    0,
    0,
    0,
    0,
    0,
    0,
    0,
    0,
    0,
    0,
    0,
    0,
    0,
    0,
    0,
    0,
    0,
    0,
    0,
    0,
    0,
    0,
    0,
    0,
    0,
    0,
    0,
    0,
    0,
    0,
    0,
    0,
    0,
    0,
    0,
    0,
    0,
    0,
    0,
    0,
    0,
    0,
    0,
    0,
    0,
    133,
    0,
    477,
    478,
    0,
    0,
    0,
    477,
    478,
    0,
    82,
    0,
    0,
    0,
    0,
    0,
    0,
    0,
    0,
    0,
    0,
    0,
    0,
    0,
    0,
    0,
    0,
    0,
    0,
    0,
    0,
    0,
    0,
    0,
    0,
    436,
    341,
    338,
    338,
    253,
    254,
    0,
    0,
    0,
    251,
    252,
    338,
    338,
    339,
    531,
    532,
    0,
    0,
    0,
    0,
    0,
    0,
    0,
    0,
    0,
    0,
    0,
    0,
    0,
    0,
    0,
    0,
    0,
    0,
    0,
    0,
    0,
    0,
    0,
    0,
    0,
    0,
    0,
    0,
    0,
    0,
    0,
    0,
    0,
    0,
    0,
    0,
    0,
    0,
    0,
    0,
    0,
    0,
    0,
    0,
    0,
    0,
    0,
    0,
    0,
    0,
    0,
    0,
    0,
    0,
    0,
    0,
    0,
    0,
    0,
    0,
    0,
    0,
    0,
    0,
    0,
    0,
    0,
    0,
    0,
    0,
    0,
    0,
    0,
    0,
    0,
    0,
    0,
    121,
    122,
    493,
    494,
    1345,
    1346,
    1347,
    493,
    494,
    88,
    89,
    0,
    0,
    0,
    0,
    0,
    0,
    0,
    0,
    0,
    0,
    0,
    0,
    0,
    0,
    0,
    0,
    0,
    0,
    0,
    0,
    0,
    0,
    0,
    0,
    438,
    439,
    529,
    529,
    605,
    606,
    1345,
    1346,
    1347,
    653,
    654,
    529,
    529,
    529,
    534,
    0,
    0,
    0,
    0,
    0,
    0,
    0,
    0,
    0,
    0,
    0,
    0,
    0,
    0,
    0,
    0,
    0,
    0,
    0,
    0,
    0,
    0,
    0,
    0,
    0,
    0,
    0,
    0,
    0,
    0,
    0,
    0,
    0,
    0,
    0,
    0,
    0,
    0,
    0,
    0,
    0,
    0,
    0,
    0,
    0,
    0,
    0,
    0,
    0,
    0,
    0,
    0,
    0,
    0,
    0,
    0,
    0,
    0,
    0,
    0,
    0,
    0,
    0,
    0,
    0,
    0,
    0,
    0,
    0,
    0,
    0,
    0,
    0,
    0,
    0,
    0,
    0,
    0,
    137,
    138,
    509,
    510,
    1361,
    1362,
    1363,
    509,
    510,
    104,
    105,
    0,
    0,
    0,
    0,
    0,
    0,
    0,
    0,
    0,
    0,
    0,
    0,
    0,
    0,
    0,
    0,
    0,
    0,
    0,
    0,
    0,
    0,
    1387,
    0,
    454,
    455,
    545,
    545,
    509,
    510,
    1361,
    1362,
    1363,
    509,
    510,
    545,
    545,
    545,
    550,
    0,
    0,
    0,
    0,
    0,
    0,
    0,
    0,
    0,
    0,
    0,
    0,
    0,
    0,
    0,
    0,
    0,
    0,
    0,
    0,
    0,
    0,
    0,
    0,
    0,
    0,
    0,
    0,
    0,
    0,
    0,
    0,
    0,
    0,
    0,
    0,
    0,
    0,
    0,
    0,
    0,
    0,
    0,
    0,
    0,
    0,
    0,
    0,
    0,
    0,
    0,
    0,
    0,
    0,
    0,
    0,
    0,
    0,
    0,
    0,
    0,
    0,
    0,
    0,
    0,
    0,
    0,
    0,
    0,
    0,
    0,
    0,
    0,
    0,
    0,
    0,
    0,
    0,
    0,
    0,
    525,
    526,
    1377,
    1378,
    1379,
    525,
    526,
    0,
    0,
    0,
    0,
    0,
    0,
    0,
    0,
    0,
    0,
    0,
    0,
    0,
    0,
    0,
    0,
    0,
    0,
    0,
    0,
    0,
    0,
    0,
    1387,
    0,
    0,
    0,
    0,
    0,
    0,
    525,
    526,
    1377,
    1378,
    1379,
    525,
    526,
    0,
    0,
    0,
    0,
    0,
    0,
    0,
    0,
    0,
    0,
    0,
    0,
    0,
    0,
    0,
    0,
    0,
    0,
    0,
    0,
    0,
    0,
    0,
    0,
    0,
    0,
    0,
    0,
    0,
    0,
    0,
    0,
    0,
    0,
    0,
    0,
    0,
    0,
    0,
    0,
    0,
    0,
    0,
    0,
    0,
    0,
    0,
    0,
    0,
    0,
    0,
    0,
    0,
    0,
    0,
    0,
    0,
    0,
    0,
    0,
    0,
    0,
    0,
    0,
    0,
    0,
    0,
    0,
    0,
    0,
    0,
    0,
    0,
    0,
    0,
    0,
    0,
    0,
    0,
    0,
    0,
    0,
    0,
    0,
    0,
    0,
    0,
    0,
    0,
    0,
    0,
    0,
    0,
    0,
    0,
    0,
    0,
    0,
    0,
    0,
    0,
    0,
    0,
    0,
    0,
    0,
    0,
    0,
    0,
    0,
    0,
    0,
    0,
    0,
    0,
    0,
    0,
    0,
    0,
    0,
    0,
    1387,
    0,
    0,
    413,
    414,
    0,
    0,
    0,
    0,
    0,
    0,
    0,
    413,
    414,
    0,
    1387,
    0,
    0,
    0,
    0,
    0,
    0,
    0,
    0,
    0,
    0,
    0,
    0,
    0,
    0,
    0,
    0,
    0,
    0,
    0,
    0,
    0,
    0,
    0,
    0,
    0,
    0,
    0,
    0,
    0,
    0,
    0,
    0,
    0,
    0,
    0,
    0,
    0,
    0,
    0,
    0,
    0,
    0,
    0,
    0,
    0,
    0,
    0,
    0,
    0,
    0,
    0,
    0,
    0,
    0,
    0,
    0,
    0,
    0,
    0,
    0,
    0,
    0,
    0,
    0,
    0,
    0,
    0,
    0,
    0,
    0,
    0,
    0,
    0,
    0,
    0,
    0,
    0,
    0,
    0,
    0,
    0,
    0,
    0,
    0,
    0,
    0,
    0,
    0,
    0,
    0,
    0,
    0,
    0,
    0,
    0,
    0,
    0,
    0,
    0,
    0,
    0,
    0,
    0,
    0,
    0,
    0,
    0,
    0,
    0,
    0,
    0,
    0,
    440,
    441,
    337,
    589,
    590,
    337,
    337,
    337,
    337,
    337,
    337,
    337,
    589,
    590,
    337,
    537,
    538,
    0,
    0,
    0,
    0,
    0,
    0,
    0,
    0,
    0,
    0,
    0,
    0,
    0,
    0,
    0,
    0,
    0,
    0,
    0,
    0,
    0,
    0,
    0,
    0,
    0,
    0,
    0,
    0,
    0,
    0,
    0,
    0,
    0,
    0,
    0,
    0,
    0,
    0,
    0,
    0,
    0,
    0,
    0,
    0,
    0,
    0,
    0,
    0,
    0,
    0,
    0,
    0,
    0,
    0,
    0,
    0,
    0,
    0,
    0,
    0,
    0,
    0,
    0,
    0,
    0,
    0,
    0,
    0,
    0,
    0,
    0,
    0,
    0,
    0,
    0,
    0,
    0,
    0,
    0,
    0,
    0,
    0,
    0,
    0,
    0,
    0,
    0,
    0,
    0,
    0,
    0,
    0,
    0,
    0,
    0,
    0,
    0,
    0,
    0,
    0,
    0,
    0,
    0,
    0,
    0,
    0,
    0,
    0,
    0,
    0,
    1387,
    449,
    357,
    343,
    557,
    558,
    343,
    343,
    343,
    343,
    343,
    343,
    343,
    557,
    558,
    343,
    342,
    546,
    0,
    0,
    0,
    0,
    0,
    0,
    0,
    0,
    0,
    0,
    0,
    0,
    0,
    0,
    0,
    0,
    0,
    0,
    0,
    0,
    0,
    0,
    0,
    0,
    0,
    0,
    0,
    0,
    0,
    0,
    0,
    0,
    0,
    0,
    0,
    0,
    0,
    0,
    0,
    0,
    0,
    0,
    0,
    0,
    0,
    0,
    0,
    0,
    0,
    0,
    0,
    0,
    0,
    0,
    0,
    0,
    0,
    0,
    0,
    0,
    0,
    0,
    0,
    0,
    0,
    0,
    0,
    0,
    0,
    0,
    0,
    0,
    0,
    1387,
    1387,
    0,
    0,
    0,
    0,
    413,
    414,
    0,
    0,
    0,
    0,
    0,
    0,
    0,
    0,
    0,
    0,
    0,
    0,
    0,
    0,
    0,
    0,
    0,
    0,
    0,
    0,
    0,
    0,
    0,
    0,
    0,
    0,
    0,
    0,
    0,
    434,
    435,
    360,
    359,
    573,
    574,
    359,
    359,
    359,
    359,
    359,
    359,
    359,
    573,
    574,
    359,
    260,
    547,
    548,
    1387,
    0,
    0,
    0,
    0,
    0,
    0,
    0,
    0,
    0,
    0,
    0,
    0,
    0,
    0,
    0,
    0,
    0,
    0,
    0,
    0,
    0,
    0,
    0,
    0,
    0,
    0,
    0,
    0,
    0,
    0,
    0,
    0,
    0,
    0,
    0,
    0,
    0,
    0,
    0,
    0,
    0,
    0,
    0,
    0,
    0,
    0,
    0,
    0,
    0,
    0,
    0,
    0,
    0,
    0,
    0,
    0,
    0,
    0,
    0,
    0,
    0,
    0,
    0,
    0,
    0,
    0,
    0,
    0,
    134,
    113,
    113,
    113,
    113,
    113,
    113,
    113,
    113,
    429,
    430,
    102,
    0,
    0,
    0,
    0,
    0,
    0,
    0,
    0,
    0,
    0,
    0,
    0,
    0,
    0,
    0,
    0,
    0,
    0,
    0,
    0,
    0,
    0,
    0,
    0,
    0,
    0,
    0,
    1387,
    449,
    362,
    363,
    0,
    0,
    0,
    0,
    0,
    0,
    0,
    0,
    0,
    0,
    0,
    0,
    0,
    258,
    259,
    546,
    0,
    1387,
    0,
    0,
    0,
    0,
    0,
    0,
    0,
    0,
    0,
    0,
    0,
    0,
    0,
    0,
    0,
    0,
    0,
    0,
    0,
    0,
    0,
    0,
    0,
    0,
    0,
    0,
    0,
    0,
    0,
    0,
    0,
    0,
    0,
    0,
    0,
    0,
    0,
    0,
    0,
    0,
    0,
    0,
    0,
    0,
    0,
    0,
    0,
    0,
    0,
    0,
    0,
    0,
    0,
    0,
    0,
    0,
    0,
    0,
    0,
    0,
    0,
    0,
    0,
    0,
    0,
    0,
    0,
    132,
    129,
    129,
    129,
    129,
    129,
    129,
    129,
    129,
    445,
    446,
    101,
    0,
    0,
    0,
    0,
    0,
    0,
    0,
    0,
    0,
    0,
    0,
    0,
    0,
    0,
    0,
    0,
    0,
    0,
    0,
    0,
    0,
    0,
    0,
    0,
    0,
    0,
    1387,
    434,
    435,
    344,
    1271,
    189,
    126,
    111,
    110,
    143,
    188,
    0,
    189,
    126,
    208,
    224,
    143,
    188,
    0,
    244,
    547,
    548,
    1387,
    1387,
    0,
    0,
    0,
    0,
    0,
    0,
    0,
    0,
    0,
    0,
    0,
    0,
    0,
    0,
    0,
    0,
    0,
    0,
    0,
    0,
    0,
    0,
    0,
    0,
    0,
    0,
    0,
    0,
    0,
    0,
    0,
    0,
    0,
    0,
    0,
    0,
    0,
    0,
    0,
    0,
    0,
    0,
    0,
    0,
    0,
    0,
    0,
    0,
    0,
    0,
    0,
    0,
    0,
    0,
    0,
    0,
    0,
    0,
    0,
    0,
    0,
    0,
    0,
    0,
    0,
    116,
    117,
    0,
    0,
    0,
    0,
    0,
    0,
    0,
    0,
    461,
    462,
    85,
    86,
    0,
    0,
    0,
    0,
    0,
    0,
    0,
    0,
    0,
    0,
    0,
    0,
    0,
    0,
    0,
    0,
    0,
    0,
    0,
    0,
    0,
    0,
    0,
    0,
    0,
    1387,
    449,
    362,
    363,
    0,
    189,
    172,
    335,
    336,
    158,
    190,
    0,
    189,
    172,
    156,
    171,
    158,
    190,
    0,
    258,
    259,
    546,
    0,
    1387,
    1387,
    0,
    0,
    0,
    0,
    0,
    0,
    0,
    0,
    0,
    0,
    0,
    0,
    0,
    0,
    0,
    0,
    0,
    0,
    0,
    0,
    0,
    0,
    0,
    0,
    0,
    0,
    0,
    0,
    0,
    0,
    0,
    0,
    0,
    0,
    0,
    0,
    0,
    0,
    0,
    0,
    0,
    0,
    0,
    0,
    0,
    0,
    0,
    0,
    0,
    0,
    0,
    0,
    0,
    0,
    0,
    0,
    0,
    0,
    0,
    0,
    0,
    0,
    0,
    0,
    131,
    0,
    0,
    189,
    126,
    111,
    110,
    143,
    188,
    0,
    0,
    0,
    0,
    84,
    0,
    0,
    0,
    0,
    0,
    0,
    0,
    0,
    0,
    0,
    0,
    0,
    0,
    0,
    0,
    0,
    0,
    0,
    0,
    0,
    0,
    0,
    0,
    0,
    1387,
    434,
    435,
    344,
    1271,
    0,
    189,
    156,
    335,
    336,
    125,
    191,
    0,
    189,
    156,
    156,
    175,
    155,
    190,
    0,
    0,
    244,
    547,
    548,
    0,
    0,
    0,
    0,
    0,
    0,
    0,
    0,
    0,
    0,
    0,
    0,
    0,
    0,
    0,
    0,
    0,
    0,
    0,
    0,
    0,
    0,
    0,
    0,
    0,
    0,
    0,
    0,
    0,
    0,
    0,
    0,
    0,
    0,
    0,
    0,
    0,
    0,
    0,
    0,
    0,
    0,
    0,
    0,
    0,
    0,
    0,
    0,
    0,
    0,
    0,
    0,
    0,
    0,
    0,
    0,
    0,
    0,
    0,
    0,
    0,
    0,
    0,
    0,
    0,
    0,
    130,
    0,
    0,
    189,
    172,
    282,
    298,
    158,
    190,
    0,
    0,
    0,
    0,
    85,
    86,
    0,
    0,
    0,
    0,
    0,
    0,
    0,
    0,
    0,
    0,
    0,
    0,
    0,
    0,
    0,
    0,
    0,
    0,
    0,
    0,
    0,
    0,
    0,
    1387,
    449,
    362,
    363,
    0,
    0,
    189,
    156,
    335,
    336,
    159,
    190,
    0,
    189,
    156,
    156,
    171,
    155,
    190,
    0,
    0,
    258,
    259,
    546,
    0,
    1387,
    0,
    0,
    0,
    0,
    0,
    0,
    0,
    0,
    0,
    0,
    0,
    0,
    0,
    0,
    0,
    0,
    0,
    0,
    0,
    0,
    0,
    0,
    0,
    0,
    0,
    0,
    0,
    0,
    0,
    0,
    0,
    0,
    0,
    0,
    0,
    0,
    0,
    0,
    0,
    0,
    0,
    0,
    0,
    0,
    0,
    0,
    0,
    0,
    0,
    0,
    0,
    0,
    0,
    0,
    0,
    0,
    0,
    0,
    0,
    0,
    0,
    0,
    0,
    0,
    114,
    0,
    1269,
    189,
    124,
    203,
    123,
    125,
    190,
    0,
    0,
    0,
    0,
    0,
    82,
    0,
    0,
    0,
    0,
    0,
    0,
    0,
    0,
    0,
    0,
    0,
    0,
    0,
    0,
    0,
    0,
    0,
    0,
    0,
    0,
    0,
    0,
    1387,
    434,
    435,
    344,
    1271,
    0,
    0,
    189,
    172,
    282,
    298,
    158,
    190,
    0,
    192,
    124,
    128,
    144,
    158,
    190,
    0,
    0,
    0,
    244,
    547,
    548,
    0,
    0,
    0,
    0,
    0,
    0,
    0,
    0,
    0,
    0,
    0,
    0,
    0,
    0,
    0,
    0,
    0,
    0,
    0,
    0,
    0,
    0,
    0,
    0,
    0,
    0,
    0,
    0,
    0,
    0,
    0,
    0,
    0,
    0,
    0,
    0,
    0,
    0,
    0,
    0,
    0,
    0,
    0,
    0,
    0,
    0,
    0,
    0,
    0,
    0,
    0,
    0,
    0,
    0,
    0,
    0,
    0,
    0,
    0,
    0,
    0,
    0,
    0,
    0,
    0,
    114,
    0,
    0,
    0,
    140,
    219,
    223,
    141,
    187,
    189,
    126,
    71,
    188,
    0,
    82,
    0,
    0,
    0,
    0,
    0,
    0,
    0,
    0,
    0,
    0,
    0,
    0,
    0,
    0,
    0,
    0,
    0,
    0,
    0,
    0,
    1387,
    440,
    441,
    765,
    362,
    363,
    0,
    0,
    0,
    189,
    124,
    170,
    170,
    125,
    191,
    0,
    189,
    124,
    123,
    123,
    125,
    190,
    0,
    0,
    0,
    258,
    259,
    766,
    537,
    538,
    1387,
    0,
    0,
    0,
    0,
    0,
    0,
    0,
    0,
    0,
    0,
    0,
    0,
    0,
    0,
    0,
    0,
    0,
    0,
    0,
    0,
    0,
    0,
    0,
    0,
    0,
    0,
    0,
    0,
    0,
    0,
    0,
    0,
    0,
    0,
    0,
    0,
    0,
    0,
    0,
    0,
    0,
    0,
    0,
    0,
    0,
    0,
    0,
    0,
    0,
    0,
    0,
    0,
    0,
    0,
    0,
    0,
    0,
    0,
    0,
    0,
    0,
    0,
    114,
    0,
    0,
    0,
    0,
    0,
    3,
    0,
    0,
    189,
    156,
    175,
    190,
    0,
    82,
    0,
    0,
    0,
    0,
    0,
    0,
    0,
    0,
    0,
    0,
    0,
    0,
    0,
    0,
    0,
    0,
    0,
    0,
    0,
    0,
    1387,
    449,
    357,
    343,
    348,
    1271,
    0,
    0,
    0,
    0,
    140,
    139,
    139,
    141,
    187,
    0,
    0,
    140,
    223,
    223,
    141,
    187,
    0,
    0,
    0,
    0,
    245,
    343,
    342,
    546,
    0,
    0,
    0,
    0,
    0,
    0,
    0,
    0,
    0,
    0,
    0,
    0,
    0,
    0,
    0,
    0,
    0,
    0,
    0,
    0,
    0,
    0,
    0,
    0,
    0,
    0,
    0,
    0,
    0,
    0,
    0,
    0,
    0,
    0,
    0,
    0,
    0,
    0,
    0,
    0,
    0,
    0,
    0,
    0,
    0,
    0,
    0,
    0,
    0,
    0,
    0,
    0,
    0,
    0,
    0,
    0,
    0,
    0,
    0,
    0,
    0,
    0,
    0,
    133,
    0,
    0,
    0,
    0,
    0,
    0,
    0,
    0,
    192,
    124,
    125,
    190,
    0,
    82,
    0,
    0,
    0,
    0,
    0,
    0,
    0,
    0,
    0,
    0,
    0,
    0,
    0,
    0,
    0,
    0,
    0,
    0,
    0,
    0,
    434,
    435,
    360,
    359,
    364,
    0,
    0,
    0,
    0,
    0,
    0,
    0,
    0,
    0,
    0,
    0,
    0,
    0,
    0,
    0,
    0,
    0,
    0,
    0,
    0,
    0,
    261,
    359,
    260,
    547,
    548,
    0,
    0,
    0,
    0,
    0,
    0,
    0,
    0,
    0,
    0,
    0,
    0,
    0,
    0,
    0,
    0,
    0,
    0,
    0,
    0,
    0,
    0,
    0,
    0,
    0,
    0,
    0,
    0,
    0,
    0,
    0,
    0,
    0,
    0,
    0,
    0,
    0,
    0,
    0,
    0,
    0,
    0,
    0,
    0,
    0,
    0,
    0,
    0,
    0,
    0,
    0,
    0,
    0,
    0,
    0,
    0,
    0,
    0,
    0,
    0,
    0,
    0,
    118,
    119,
    0,
    0,
    0,
    0,
    0,
    0,
    0,
    0,
    140,
    141,
    187,
    99,
    100,
    0,
    0,
    0,
    0,
    0,
    0,
    0,
    0,
    0,
    0,
    0,
    0,
    0,
    0,
    0,
    0,
    0,
    0,
    0,
    0,
    115,
    358,
    130,
    0,
    0,
    189,
    126,
    111,
    112,
    112,
    110,
    143,
    188,
    0,
    0,
    0,
    0,
    0,
    0,
    189,
    126,
    111,
    112,
    112,
    110,
    143,
    188,
    0,
    98,
    358,
    82,
    0,
    0,
    0,
    0,
    0,
    0,
    0,
    0,
    0,
    0,
    0,
    0,
    0,
    0,
    0,
    0,
    0,
    0,
    0,
    0,
    0,
    0,
    0,
    0,
    0,
    0,
    0,
    0,
    0,
    0,
    0,
    0,
    0,
    0,
    0,
    0,
    0,
    0,
    0,
    0,
    0,
    0,
    0,
    0,
    0,
    0,
    0,
    0,
    0,
    0,
    0,
    0,
    0,
    0,
    0,
    0,
    0,
    0,
    0,
    0,
    0,
    0,
    0,
    133,
    0,
    477,
    478,
    0,
    0,
    0,
    477,
    478,
    0,
    0,
    0,
    83,
    0,
    0,
    0,
    0,
    0,
    0,
    0,
    0,
    0,
    0,
    0,
    0,
    0,
    0,
    0,
    0,
    0,
    0,
    0,
    0,
    0,
    115,
    358,
    114,
    0,
    0,
    189,
    172,
    282,
    266,
    266,
    298,
    159,
    190,
    189,
    126,
    111,
    110,
    143,
    188,
    189,
    172,
    282,
    266,
    266,
    298,
    159,
    190,
    0,
    98,
    358,
    82,
    0,
    0,
    0,
    0,
    0,
    0,
    0,
    0,
    0,
    0,
    0,
    0,
    0,
    0,
    0,
    0,
    0,
    0,
    0,
    0,
    0,
    0,
    0,
    0,
    0,
    0,
    0,
    0,
    0,
    0,
    0,
    0,
    0,
    0,
    0,
    0,
    0,
    0,
    0,
    0,
    0,
    0,
    0,
    0,
    0,
    0,
    0,
    0,
    0,
    0,
    0,
    0,
    0,
    0,
    0,
    0,
    0,
    0,
    0,
    0,
    0,
    0,
    0,
    121,
    122,
    493,
    494,
    1345,
    1346,
    1347,
    493,
    494,
    81,
    81,
    88,
    89,
    0,
    0,
    0,
    0,
    0,
    0,
    0,
    0,
    0,
    0,
    0,
    0,
    0,
    0,
    0,
    0,
    0,
    0,
    0,
    0,
    0,
    115,
    358,
    114,
    0,
    0,
    189,
    124,
    123,
    123,
    203,
    123,
    125,
    190,
    189,
    172,
    282,
    298,
    158,
    190,
    189,
    124,
    123,
    123,
    203,
    123,
    125,
    190,
    0,
    98,
    358,
    82,
    0,
    0,
    0,
    0,
    0,
    0,
    0,
    0,
    0,
    0,
    0,
    0,
    0,
    0,
    0,
    0,
    0,
    0,
    0,
    0,
    0,
    0,
    0,
    0,
    0,
    0,
    0,
    0,
    0,
    0,
    0,
    0,
    0,
    0,
    0,
    0,
    0,
    0,
    0,
    0,
    0,
    0,
    0,
    0,
    0,
    0,
    0,
    0,
    0,
    0,
    0,
    0,
    0,
    0,
    0,
    0,
    0,
    0,
    0,
    0,
    0,
    0,
    0,
    137,
    138,
    509,
    510,
    1361,
    1362,
    1363,
    509,
    510,
    97,
    97,
    104,
    105,
    0,
    0,
    0,
    0,
    0,
    0,
    0,
    0,
    0,
    0,
    0,
    0,
    0,
    0,
    0,
    0,
    0,
    0,
    0,
    0,
    0,
    450,
    451,
    345,
    1272,
    0,
    1269,
    140,
    223,
    139,
    219,
    223,
    141,
    187,
    189,
    124,
    203,
    123,
    125,
    190,
    1269,
    140,
    223,
    139,
    219,
    223,
    141,
    187,
    0,
    257,
    531,
    532,
    0,
    0,
    0,
    0,
    0,
    0,
    0,
    0,
    0,
    0,
    0,
    0,
    0,
    0,
    0,
    0,
    0,
    0,
    0,
    0,
    0,
    0,
    0,
    0,
    0,
    0,
    0,
    0,
    0,
    0,
    0,
    0,
    0,
    0,
    0,
    0,
    0,
    0,
    0,
    0,
    0,
    0,
    0,
    0,
    0,
    0,
    0,
    0,
    0,
    0,
    0,
    0,
    0,
    0,
    0,
    0,
    0,
    0,
    0,
    0,
    0,
    0,
    0,
    0,
    0,
    525,
    526,
    1377,
    1378,
    1379,
    525,
    526,
    0,
    0,
    0,
    0,
    0,
    0,
    0,
    0,
    0,
    0,
    0,
    0,
    0,
    0,
    0,
    0,
    0,
    0,
    0,
    0,
    0,
    0,
    0,
    0,
    0,
    0,
    436,
    341,
    1401,
    1402,
    338,
    285,
    286,
    0,
    0,
    0,
    0,
    0,
    0,
    140,
    219,
    223,
    141,
    187,
    0,
    0,
    0,
    0,
    0,
    248,
    338,
    1401,
    1402,
    356,
    530,
    0,
    0,
    0,
    0,
    0,
    0,
    0,
    0,
    0,
    0,
    0,
    0,
    0,
    0,
    0,
    0,
    0,
    0,
    0,
    0,
    0,
    0,
    0,
    0,
    0,
    0,
    0,
    0,
    0,
    0,
    0,
    0,
    0,
    0,
    0,
    0,
    0,
    0,
    0,
    0,
    0,
    0,
    0,
    0,
    0,
    0,
    0,
    0,
    0,
    0,
    0,
    0,
    0,
    0,
    0,
    0,
    0,
    0,
    0,
    0,
    0,
    0,
    0,
    0,
    0,
    0,
    0,
    0,
    0,
    0,
    0,
    0,
    0,
    0,
    0,
    0,
    0,
    0,
    0,
    0,
    0,
    0,
    0,
    0,
    0,
    0,
    0,
    0,
    0,
    0,
    0,
    0,
    0,
    0,
    0,
    0,
    0,
    0,
    1387,
    438,
    439,
    1417,
    1418,
    529,
    342,
    345,
    1272,
    0,
    0,
    0,
    0,
    0,
    0,
    0,
    0,
    0,
    0,
    0,
    0,
    0,
    0,
    242,
    243,
    340,
    1417,
    1418,
    535,
    536,
    0,
    0,
    0,
    0,
    0,
    0,
    0,
    0,
    0,
    0,
    0,
    0,
    0,
    0,
    0,
    0,
    0,
    0,
    0,
    0,
    0,
    0,
    0,
    0,
    0,
    0,
    0,
    0,
    0,
    0,
    0,
    0,
    0,
    0,
    0,
    0,
    0,
    0,
    0,
    0,
    0,
    0,
    0,
    0,
    0,
    0,
    0,
    0,
    0,
    0,
    0,
    0,
    0,
    0,
    0,
    0,
    0,
    0,
    0,
    0,
    0,
    0,
    0,
    0,
    0,
    0,
    0,
    0,
    0,
    0,
    0,
    0,
    0,
    0,
    0,
    0,
    0,
    0,
    0,
    0,
    0,
    0,
    0,
    0,
    0,
    0,
    0,
    0,
    0,
    0,
    0,
    0,
    0,
    0,
    0,
    0,
    0,
    0,
    0,
    454,
    455,
    1433,
    1434,
    545,
    452,
    346,
    347,
    0,
    0,
    189,
    126,
    71,
    188,
    0,
    0,
    189,
    126,
    71,
    188,
    0,
    0,
    257,
    553,
    554,
    1433,
    1434,
    551,
    552,
    0,
    0,
    0,
    0,
    0,
    0,
    0,
    0,
    0,
    0,
    0,
    0,
    0,
    0,
    0,
    0,
    0,
    0,
    0,
    0,
    0,
    0,
    0,
    0,
    0,
    0,
    0,
    0,
    0,
    0,
    0,
    0,
    0,
    0,
    0,
    0,
    0,
    0,
    0,
    0,
    0,
    0,
    0,
    0,
    0,
    0,
    0,
    0,
    0,
    0,
    0,
    0,
    0,
    0,
    0,
    0,
    0,
    0,
    0,
    0,
    0,
    0,
    0,
    0,
    0,
    0,
    0,
    0,
    0,
    0,
    0,
    0,
    0,
    0,
    0,
    0,
    0,
    0,
    0,
    0,
    0,
    0,
    0,
    0,
    0,
    0,
    0,
    0,
    0,
    0,
    0,
    0,
    0,
    0,
    0,
    0,
    0,
    0,
    0,
    0,
    0,
    1449,
    1450,
    0,
    450,
    451,
    345,
    1272,
    0,
    189,
    156,
    175,
    190,
    0,
    0,
    189,
    156,
    175,
    190,
    0,
    242,
    243,
    530,
    0,
    1449,
    1450,
    0,
    0,
    0,
    0,
    0,
    0,
    0,
    0,
    0,
    0,
    0,
    0,
    0,
    0,
    0,
    0,
    0,
    0,
    0,
    0,
    0,
    0,
    0,
    0,
    0,
    0,
    0,
    0,
    0,
    0,
    0,
    0,
    0,
    0,
    0,
    0,
    0,
    0,
    0,
    0,
    0,
    0,
    0,
    0,
    0,
    0,
    0,
    0,
    0,
    0,
    0,
    0,
    0,
    0,
    0,
    0,
    0,
    0,
    0,
    0,
    0,
    0,
    0,
    1387,
    0,
    0,
    413,
    414,
    0,
    1387,
    0,
    0,
    1387,
    0,
    1387,
    0,
    413,
    414,
    0,
    0,
    0,
    0,
    0,
    0,
    0,
    0,
    0,
    0,
    0,
    0,
    0,
    0,
    0,
    0,
    0,
    0,
    0,
    0,
    0,
    0,
    0,
    0,
    0,
    0,
    0,
    0,
    0,
    436,
    346,
    347,
    0,
    189,
    124,
    125,
    191,
    0,
    0,
    192,
    124,
    125,
    190,
    0,
    257,
    531,
    532,
    0,
    0,
    0,
    0,
    0,
    0,
    0,
    0,
    0,
    0,
    0,
    0,
    0,
    0,
    0,
    0,
    0,
    0,
    0,
    0,
    0,
    0,
    0,
    0,
    0,
    0,
    0,
    0,
    0,
    0,
    0,
    0,
    0,
    0,
    0,
    0,
    0,
    0,
    0,
    0,
    0,
    0,
    0,
    0,
    0,
    0,
    0,
    0,
    0,
    0,
    0,
    0,
    0,
    0,
    0,
    0,
    0,
    0,
    0,
    0,
    0,
    0,
    0,
    0,
    0,
    0,
    0,
    0,
    134,
    429,
    430,
    113,
    113,
    113,
    113,
    113,
    113,
    113,
    113,
    429,
    430,
    102,
    0,
    0,
    0,
    0,
    0,
    0,
    0,
    0,
    0,
    0,
    0,
    0,
    0,
    0,
    0,
    0,
    0,
    0,
    0,
    0,
    0,
    0,
    0,
    0,
    0,
    0,
    0,
    0,
    450,
    451,
    345,
    1272,
    0,
    140,
    141,
    187,
    0,
    0,
    0,
    140,
    141,
    187,
    242,
    243,
    530,
    0,
    0,
    0,
    1387,
    1387,
    0,
    0,
    0,
    0,
    0,
    0,
    0,
    0,
    0,
    0,
    0,
    0,
    0,
    0,
    0,
    0,
    0,
    0,
    0,
    0,
    0,
    0,
    0,
    0,
    0,
    0,
    0,
    0,
    0,
    0,
    0,
    0,
    0,
    0,
    0,
    0,
    0,
    0,
    0,
    0,
    0,
    0,
    0,
    0,
    0,
    0,
    0,
    0,
    0,
    0,
    0,
    0,
    0,
    0,
    0,
    0,
    0,
    0,
    0,
    0,
    0,
    0,
    1387,
    0,
    132,
    445,
    446,
    129,
    129,
    129,
    129,
    129,
    129,
    129,
    129,
    445,
    446,
    101,
    0,
    0,
    0,
    0,
    0,
    0,
    0,
    0,
    0,
    0,
    0,
    0,
    0,
    0,
    0,
    0,
    0,
    0,
    0,
    0,
    0,
    0,
    0,
    0,
    0,
    0,
    0,
    0,
    0,
    436,
    341,
    338,
    338,
    253,
    254,
    0,
    0,
    0,
    251,
    252,
    338,
    338,
    339,
    531,
    532,
    0,
    0,
    1387,
    1387,
    0,
    0,
    0,
    0,
    0,
    0,
    0,
    0,
    0,
    0,
    0,
    0,
    0,
    0,
    0,
    0,
    0,
    0,
    0,
    0,
    0,
    0,
    0,
    0,
    0,
    0,
    0,
    0,
    0,
    0,
    0,
    0,
    0,
    0,
    0,
    0,
    0,
    0,
    0,
    0,
    0,
    0,
    0,
    0,
    0,
    0,
    0,
    0,
    0,
    0,
    0,
    0,
    0,
    0,
    0,
    0,
    0,
    0,
    0,
    0,
    0,
    0,
    0,
    0,
    116,
    117,
    461,
    462,
    0,
    0,
    0,
    0,
    0,
    0,
    0,
    0,
    461,
    462,
    85,
    86,
    0,
    0,
    0,
    0,
    0,
    0,
    0,
    0,
    0,
    0,
    0,
    0,
    0,
    0,
    0,
    0,
    0,
    0,
    0,
    0,
    0,
    0,
    0,
    0,
    0,
    1387,
    1387,
    1387,
    438,
    439,
    529,
    529,
    605,
    606,
    1345,
    1346,
    1347,
    653,
    654,
    529,
    529,
    529,
    534,
    0,
    0,
    0,
    0,
    0,
    0,
    0,
    0,
    0,
    0,
    0,
    0,
    0,
    0,
    0,
    0,
    0,
    0,
    0,
    0,
    0,
    0,
    0,
    0,
    0,
    0,
    0,
    0,
    0,
    0,
    0,
    0,
    0,
    0,
    0,
    0,
    0,
    0,
    0,
    0,
    0,
    0,
    0,
    0,
    0,
    0,
    0,
    0,
    0,
    0,
    0,
    0,
    0,
    0,
    0,
    0,
    0,
    0,
    0,
    0,
    0,
    0,
    0,
    0,
    0,
    0,
    0,
    0,
    0,
    131,
    0,
    0,
    0,
    189,
    126,
    111,
    112,
    112,
    110,
    143,
    188,
    0,
    0,
    0,
    84,
    0,
    0,
    0,
    0,
    0,
    0,
    0,
    0,
    0,
    0,
    0,
    0,
    0,
    0,
    0,
    0,
    0,
    0,
    0,
    0,
    1387,
    0,
    0,
    0,
    0,
    0,
    1387,
    1387,
    454,
    455,
    545,
    545,
    509,
    510,
    1361,
    1362,
    1363,
    509,
    510,
    545,
    545,
    545,
    550,
    0,
    0,
    0,
    0,
    0,
    0,
    0,
    0,
    0,
    0,
    0,
    0,
    0,
    0,
    0,
    0,
    0,
    0,
    0,
    0,
    0,
    0,
    0,
    0,
    0,
    0,
    0,
    0,
    0,
    0,
    0,
    0,
    0,
    0,
    0,
    0,
    0,
    0,
    0,
    0,
    0,
    0,
    0,
    0,
    0,
    0,
    0,
    0,
    0,
    0,
    0,
    0,
    0,
    0,
    0,
    0,
    0,
    0,
    0,
    0,
    0,
    0,
    0,
    0,
    0,
    0,
    0,
    0,
    116,
    117,
    0,
    0,
    0,
    189,
    172,
    282,
    266,
    266,
    298,
    159,
    190,
    0,
    0,
    0,
    85,
    86,
    0,
    0,
    0,
    0,
    0,
    0,
    0,
    0,
    0,
    0,
    0,
    0,
    0,
    0,
    0,
    0,
    0,
    0,
    0,
    0,
    0,
    0,
    0,
    0,
    1387,
    0,
    0,
    0,
    0,
    0,
    0,
    525,
    526,
    1377,
    1378,
    1379,
    525,
    526,
    0,
    0,
    0,
    0,
    0,
    0,
    0,
    0,
    0,
    0,
    1383,
    1383,
    1383,
    0,
    0,
    0,
    0,
    0,
    0,
    0,
    0,
    0,
    0,
    0,
    0,
    0,
    0,
    0,
    0,
    0,
    0,
    0,
    0,
    0,
    0,
    0,
    0,
    0,
    0,
    0,
    0,
    0,
    0,
    0,
    0,
    0,
    0,
    0,
    0,
    0,
    0,
    0,
    0,
    0,
    0,
    0,
    0,
    0,
    0,
    0,
    0,
    0,
    0,
    0,
    0,
    0,
    0,
    0,
    0,
    0,
    0,
    0,
    131,
    0,
    0,
    0,
    0,
    189,
    124,
    123,
    123,
    203,
    123,
    125,
    190,
    0,
    0,
    0,
    0,
    82,
    0,
    0,
    0,
    0,
    0,
    0,
    0,
    0,
    0,
    0,
    0,
    0,
    0,
    0,
    0,
    0,
    0,
    0,
    0,
    0,
    0,
    0,
    0,
    0,
    0,
    0,
    0,
    0,
    0,
    0,
    0,
    0,
    0,
    0,
    0,
    0,
    0,
    0,
    0,
    0,
    0,
    0,
    0,
    0,
    0,
    0,
    0,
    0,
    1383,
    1383,
    1383,
    0,
    0,
    0,
    0,
    0,
    0,
    0,
    0,
    0,
    0,
    0,
    0,
    0,
    0,
    0,
    0,
    0,
    0,
    0,
    0,
    0,
    0,
    0,
    0,
    0,
    0,
    0,
    0,
    0,
    0,
    0,
    0,
    0,
    0,
    0,
    0,
    0,
    0,
    0,
    0,
    0,
    0,
    0,
    0,
    0,
    0,
    0,
    0,
    0,
    0,
    0,
    0,
    0,
    0,
    0,
    0,
    0,
    0,
    0,
    130,
    0,
    0,
    0,
    0,
    1269,
    140,
    223,
    139,
    219,
    223,
    141,
    187,
    0,
    0,
    0,
    0,
    82,
    0,
    0,
    0,
    0,
    0,
    0,
    0,
    0,
    0,
    0,
    0,
    0,
    0,
    0,
    0,
    0,
    0,
    0,
    0,
    0,
    0,
    0,
    0,
    0,
    0,
    0,
    0,
    0,
    0,
    0,
    0,
    0,
    0,
    0,
    0,
    0,
    1383,
    1383,
    1383,
    1383,
    1383,
    1383,
    0,
    0,
    0,
    0,
    0,
    0,
    1383,
    1383,
    1383,
    1387,
    0,
    0,
    0,
    0,
    0,
    0,
    0,
    0,
    0,
    0,
    0,
    0,
    0,
    0,
    0,
    0,
    0,
    0,
    0,
    0,
    0,
    0,
    0,
    0,
    0,
    0,
    0,
    0,
    0,
    0,
    0,
    0,
    0,
    0,
    0,
    0,
    0,
    0,
    0,
    0,
    0,
    0,
    0,
    0,
    0,
    0,
    0,
    0,
    0,
    0,
    0,
    0,
    0,
    0,
    0,
    0,
    0,
    0,
    114,
    0,
    0,
    0,
    0,
    0,
    0,
    0,
    0,
    0,
    0,
    0,
    0,
    0,
    0,
    0,
    0,
    82,
    0,
    0,
    0,
    0,
    0,
    0,
    0,
    0,
    0,
    0,
    0,
    0,
    0,
    0,
    0,
    0,
    0,
    0,
    0,
    0,
    0,
    0,
    0,
    0,
    0,
    0,
    0,
    0,
    0,
    0,
    0,
    0,
    0,
    0,
    0,
    0,
    1383,
    1383,
    1383,
    1383,
    1383,
    1383,
    1383,
    1383,
    1383,
    1383,
    1383,
    1383,
    1383,
    1383,
    1383,
    1383,
    1383,
    0,
    0,
    0,
    0,
    0,
    0,
    0,
    0,
    0,
    0,
    0,
    0,
    0,
    0,
    0,
    0,
    0,
    0,
    0,
    0,
    0,
    0,
    0,
    0,
    0,
    0,
    0,
    0,
    0,
    0,
    0,
    0,
    0,
    0,
    0,
    0,
    0,
    0,
    0,
    0,
    0,
    0,
    0,
    0,
    0,
    0,
    0,
    0,
    0,
    0,
    0,
    0,
    0,
    0,
    0,
    0,
    0,
    114,
    0,
    189,
    126,
    111,
    110,
    143,
    188,
    0,
    0,
    189,
    126,
    111,
    110,
    143,
    188,
    0,
    82,
    0,
    0,
    0,
    0,
    0,
    0,
    0,
    0,
    0,
    0,
    0,
    0,
    0,
    0,
    0,
    0,
    0,
    0,
    0,
    0,
    0,
    0,
    0,
    0,
    0,
    0,
    0,
    0,
    0,
    0,
    0,
    0,
    0,
    0,
    0,
    1383,
    1383,
    1383,
    1383,
    1383,
    1383,
    0,
    1383,
    1383,
    1383,
    1383,
    1383,
    1383,
    1383,
    1383,
    1383,
    1383,
    1383,
    1383,
    1383,
    0,
    0,
    0,
    0,
    0,
    0,
    0,
    0,
    0,
    0,
    0,
    0,
    0,
    0,
    0,
    0,
    0,
    0,
    0,
    0,
    0,
    0,
    0,
    0,
    0,
    0,
    0,
    0,
    0,
    0,
    0,
    0,
    0,
    0,
    0,
    0,
    0,
    0,
    0,
    0,
    0,
    0,
    0,
    0,
    0,
    0,
    0,
    0,
    0,
    0,
    0,
    0,
    0,
    0,
    0,
    114,
    0,
    189,
    172,
    282,
    298,
    158,
    190,
    0,
    0,
    189,
    172,
    282,
    298,
    158,
    190,
    0,
    82,
    1387,
    0,
    0,
    0,
    0,
    0,
    0,
    0,
    0,
    0,
    0,
    0,
    0,
    0,
    0,
    0,
    0,
    0,
    0,
    0,
    0,
    0,
    0,
    0,
    0,
    0,
    0,
    0,
    0,
    0,
    0,
    0,
    0,
    0,
    0,
    1383,
    1383,
    1383,
    0,
    0,
    0,
    0,
    0,
    0,
    0,
    1383,
    1383,
    1383,
    1383,
    0,
    0,
    0,
    0,
    0,
    1383,
    0,
    0,
    0,
    0,
    0,
    0,
    0,
    0,
    0,
    0,
    0,
    0,
    0,
    0,
    0,
    0,
    0,
    0,
    0,
    0,
    0,
    0,
    0,
    0,
    301,
    302,
    0,
    0,
    0,
    0,
    0,
    0,
    301,
    302,
    0,
    0,
    0,
    1387,
    3,
    0,
    0,
    0,
    0,
    0,
    0,
    0,
    0,
    0,
    0,
    0,
    0,
    0,
    0,
    0,
    0,
    114,
    0,
    189,
    124,
    203,
    123,
    125,
    190,
    0,
    0,
    189,
    124,
    203,
    123,
    125,
    190,
    0,
    82,
    0,
    0,
    0,
    0,
    0,
    0,
    0,
    0,
    0,
    0,
    0,
    0,
    0,
    0,
    0,
    0,
    0,
    0,
    0,
    0,
    0,
    0,
    0,
    0,
    0,
    0,
    0,
    0,
    0,
    0,
    0,
    0,
    0,
    0,
    1387,
    1383,
    1383,
    0,
    0,
    0,
    0,
    301,
    302,
    0,
    0,
    0,
    0,
    0,
    0,
    0,
    301,
    302,
    0,
    0,
    0,
    0,
    0,
    0,
    0,
    0,
    0,
    0,
    0,
    0,
    0,
    0,
    0,
    0,
    0,
    0,
    0,
    0,
    0,
    0,
    0,
    0,
    729,
    730,
    353,
    541,
    542,
    353,
    353,
    353,
    353,
    353,
    353,
    541,
    542,
    633,
    634,
    0,
    0,
    0,
    0,
    0,
    0,
    0,
    0,
    0,
    0,
    0,
    0,
    0,
    0,
    0,
    0,
    0,
    0,
    0,
    133,
    0,
    0,
    140,
    219,
    223,
    141,
    187,
    0,
    0,
    0,
    140,
    219,
    223,
    141,
    187,
    99,
    100,
    0,
    0,
    0,
    0,
    0,
    0,
    0,
    0,
    0,
    0,
    0,
    0,
    0,
    0,
    0,
    0,
    0,
    0,
    0,
    0,
    0,
    0,
    0,
    0,
    0,
    0,
    0,
    0,
    0,
    0,
    0,
    0,
    0,
    0,
    1383,
    1383,
    0,
    0,
    729,
    730,
    353,
    541,
    542,
    353,
    353,
    353,
    353,
    353,
    353,
    353,
    541,
    542,
    353,
    633,
    634,
    0,
    0,
    0,
    0,
    0,
    0,
    0,
    0,
    0,
    0,
    0,
    0,
    0,
    0,
    0,
    0,
    0,
    0,
    0,
    0,
    0,
    737,
    357,
    343,
    557,
    558,
    343,
    343,
    343,
    343,
    343,
    343,
    557,
    558,
    342,
    642,
    0,
    0,
    0,
    0,
    0,
    0,
    0,
    0,
    0,
    0,
    0,
    0,
    0,
    0,
    0,
    0,
    0,
    0,
    0,
    118,
    119,
    0,
    0,
    0,
    0,
    0,
    0,
    0,
    0,
    0,
    0,
    0,
    0,
    0,
    0,
    83,
    0,
    0,
    0,
    0,
    0,
    0,
    0,
    0,
    0,
    0,
    0,
    0,
    0,
    0,
    0,
    0,
    0,
    0,
    0,
    0,
    0,
    0,
    0,
    0,
    0,
    0,
    0,
    0,
    0,
    0,
    0,
    0,
    0,
    1383,
    1383,
    1383,
    1383,
    0,
    0,
    737,
    357,
    343,
    557,
    558,
    343,
    343,
    343,
    343,
    343,
    343,
    343,
    557,
    558,
    343,
    342,
    642,
    0,
    0,
    0,
    0,
    0,
    0,
    0,
    0,
    0,
    0,
    0,
    0,
    0,
    0,
    0,
    0,
    0,
    0,
    0,
    0,
    723,
    724,
    360,
    359,
    573,
    574,
    359,
    359,
    359,
    359,
    359,
    359,
    573,
    574,
    260,
    643,
    644,
    0,
    0,
    0,
    0,
    0,
    0,
    0,
    0,
    0,
    0,
    0,
    0,
    0,
    0,
    0,
    0,
    0,
    0,
    1387,
    133,
    0,
    0,
    0,
    0,
    0,
    0,
    0,
    0,
    0,
    0,
    0,
    0,
    0,
    99,
    100,
    0,
    0,
    0,
    0,
    0,
    0,
    0,
    0,
    0,
    0,
    0,
    0,
    0,
    0,
    0,
    0,
    0,
    0,
    0,
    0,
    0,
    0,
    0,
    0,
    0,
    0,
    0,
    0,
    0,
    0,
    0,
    0,
    0,
    1383,
    1383,
    1383,
    1383,
    0,
    723,
    724,
    360,
    359,
    573,
    574,
    359,
    359,
    359,
    359,
    359,
    359,
    359,
    573,
    574,
    359,
    260,
    643,
    644,
    0,
    0,
    0,
    0,
    0,
    0,
    0,
    0,
    0,
    0,
    0,
    0,
    0,
    0,
    0,
    0,
    0,
    0,
    0,
    737,
    362,
    363,
    0,
    0,
    0,
    0,
    0,
    0,
    0,
    0,
    0,
    0,
    0,
    258,
    259,
    642,
    0,
    0,
    0,
    0,
    0,
    0,
    0,
    0,
    0,
    0,
    0,
    0,
    0,
    0,
    0,
    0,
    0,
    0,
    0,
    118,
    119,
    0,
    0,
    477,
    478,
    0,
    0,
    0,
    477,
    478,
    0,
    0,
    0,
    83,
    0,
    0,
    0,
    0,
    0,
    0,
    0,
    0,
    0,
    0,
    0,
    0,
    0,
    0,
    0,
    0,
    0,
    0,
    0,
    0,
    0,
    0,
    0,
    0,
    0,
    0,
    0,
    0,
    0,
    0,
    0,
    0,
    0,
    0,
    1383,
    1383,
    1383,
    0,
    0,
    737,
    362,
    363,
    0,
    0,
    0,
    0,
    0,
    0,
    0,
    0,
    0,
    0,
    0,
    0,
    0,
    258,
    259,
    642,
    0,
    0,
    0,
    0,
    0,
    0,
    0,
    0,
    0,
    0,
    0,
    0,
    0,
    0,
    0,
    0,
    0,
    0,
    723,
    724,
    344,
    1271,
    0,
    3,
    0,
    189,
    126,
    111,
    112,
    112,
    110,
    143,
    188,
    0,
    244,
    643,
    644,
    0,
    0,
    0,
    0,
    0,
    0,
    0,
    0,
    0,
    0,
    0,
    0,
    0,
    0,
    0,
    0,
    0,
    0,
    0,
    120,
    81,
    81,
    493,
    494,
    1345,
    1346,
    1347,
    493,
    494,
    81,
    81,
    88,
    89,
    0,
    0,
    0,
    0,
    0,
    0,
    0,
    0,
    0,
    0,
    0,
    0,
    0,
    0,
    0,
    0,
    0,
    0,
    0,
    0,
    0,
    0,
    0,
    0,
    0,
    0,
    0,
    0,
    0,
    0,
    0,
    0,
    0,
    0,
    0,
    0,
    0,
    0,
    723,
    724,
    344,
    1271,
    189,
    126,
    111,
    110,
    143,
    188,
    0,
    189,
    126,
    208,
    224,
    143,
    188,
    0,
    244,
    643,
    644,
    0,
    0,
    0,
    0,
    0,
    0,
    0,
    0,
    0,
    0,
    0,
    0,
    0,
    0,
    0,
    0,
    0,
    737,
    362,
    363,
    189,
    126,
    71,
    188,
    189,
    172,
    282,
    266,
    266,
    298,
    159,
    190,
    0,
    258,
    259,
    642,
    0,
    0,
    0,
    0,
    0,
    0,
    0,
    0,
    0,
    0,
    0,
    0,
    0,
    0,
    0,
    0,
    0,
    1387,
    0,
    136,
    97,
    97,
    509,
    510,
    1361,
    1362,
    1363,
    509,
    510,
    97,
    97,
    104,
    105,
    0,
    0,
    0,
    0,
    0,
    0,
    0,
    0,
    0,
    0,
    0,
    0,
    0,
    0,
    0,
    0,
    0,
    0,
    0,
    0,
    0,
    0,
    0,
    0,
    0,
    0,
    0,
    0,
    0,
    0,
    0,
    1383,
    1383,
    1383,
    0,
    0,
    0,
    0,
    737,
    362,
    363,
    0,
    189,
    172,
    335,
    336,
    158,
    190,
    0,
    189,
    172,
    156,
    171,
    158,
    190,
    0,
    258,
    259,
    642,
    0,
    0,
    1387,
    0,
    0,
    0,
    0,
    0,
    0,
    0,
    0,
    0,
    0,
    0,
    0,
    0,
    723,
    724,
    344,
    1271,
    189,
    156,
    175,
    190,
    189,
    124,
    123,
    123,
    203,
    123,
    125,
    190,
    0,
    0,
    244,
    643,
    644,
    0,
    0,
    0,
    0,
    0,
    0,
    0,
    0,
    0,
    0,
    0,
    0,
    0,
    0,
    0,
    0,
    0,
    0,
    1387,
    0,
    0,
    525,
    526,
    1377,
    1378,
    1379,
    525,
    526,
    0,
    0,
    0,
    0,
    0,
    1387,
    0,
    0,
    0,
    0,
    0,
    0,
    0,
    0,
    0,
    0,
    0,
    0,
    0,
    0,
    0,
    0,
    0,
    0,
    0,
    0,
    0,
    0,
    0,
    0,
    0,
    0,
    0,
    0,
    0,
    1383,
    1383,
    1383,
    0,
    0,
    0,
    723,
    724,
    344,
    1271,
    0,
    189,
    156,
    335,
    336,
    125,
    191,
    0,
    189,
    156,
    156,
    175,
    155,
    190,
    0,
    0,
    244,
    643,
    644,
    0,
    0,
    0,
    0,
    0,
    0,
    0,
    0,
    0,
    0,
    0,
    0,
    0,
    0,
    0,
    741,
    358,
    130,
    0,
    189,
    124,
    125,
    191,
    1269,
    140,
    223,
    139,
    219,
    223,
    141,
    187,
    0,
    0,
    98,
    358,
    832,
    0,
    0,
    0,
    0,
    0,
    0,
    0,
    0,
    0,
    0,
    0,
    0,
    0,
    0,
    0,
    0,
    0,
    0,
    0,
    0,
    0,
    0,
    0,
    0,
    0,
    0,
    0,
    0,
    0,
    0,
    0,
    0,
    0,
    0,
    0,
    0,
    0,
    0,
    0,
    0,
    0,
    0,
    0,
    0,
    0,
    0,
    0,
    0,
    0,
    0,
    0,
    0,
    0,
    0,
    0,
    0,
    0,
    0,
    0,
    0,
    0,
    0,
    0,
    1383,
    1383,
    1383,
    0,
    0,
    0,
    737,
    362,
    363,
    0,
    0,
    189,
    156,
    335,
    336,
    159,
    190,
    0,
    189,
    156,
    156,
    171,
    155,
    190,
    0,
    0,
    258,
    259,
    642,
    0,
    0,
    0,
    0,
    0,
    0,
    0,
    0,
    0,
    0,
    0,
    0,
    0,
    0,
    0,
    741,
    358,
    114,
    0,
    0,
    140,
    141,
    187,
    0,
    0,
    0,
    0,
    0,
    0,
    0,
    0,
    0,
    0,
    98,
    358,
    832,
    0,
    0,
    0,
    0,
    0,
    0,
    0,
    0,
    0,
    0,
    0,
    0,
    0,
    0,
    0,
    0,
    0,
    0,
    0,
    0,
    0,
    0,
    0,
    0,
    0,
    0,
    0,
    0,
    0,
    0,
    0,
    0,
    0,
    0,
    0,
    0,
    0,
    0,
    0,
    0,
    0,
    0,
    0,
    0,
    0,
    0,
    0,
    0,
    0,
    0,
    0,
    0,
    0,
    0,
    0,
    0,
    0,
    0,
    0,
    0,
    0,
    0,
    1383,
    1383,
    1383,
    0,
    0,
    0,
    723,
    724,
    344,
    1271,
    0,
    0,
    189,
    172,
    282,
    298,
    158,
    190,
    0,
    192,
    124,
    128,
    144,
    158,
    190,
    0,
    0,
    0,
    244,
    643,
    644,
    0,
    0,
    0,
    0,
    0,
    0,
    0,
    0,
    0,
    0,
    0,
    0,
    0,
    0,
    741,
    358,
    114,
    0,
    0,
    0,
    0,
    0,
    0,
    0,
    0,
    0,
    0,
    0,
    0,
    0,
    0,
    0,
    98,
    358,
    832,
    0,
    0,
    0,
    0,
    0,
    0,
    0,
    0,
    0,
    0,
    0,
    0,
    0,
    0,
    0,
    0,
    0,
    0,
    0,
    0,
    0,
    0,
    0,
    0,
    0,
    0,
    0,
    0,
    0,
    0,
    0,
    0,
    0,
    0,
    0,
    0,
    0,
    0,
    0,
    0,
    0,
    0,
    0,
    0,
    0,
    0,
    0,
    0,
    0,
    0,
    0,
    0,
    0,
    0,
    0,
    0,
    0,
    0,
    0,
    0,
    0,
    0,
    1383,
    1383,
    1383,
    0,
    729,
    730,
    765,
    362,
    363,
    0,
    0,
    0,
    189,
    124,
    170,
    170,
    125,
    191,
    0,
    189,
    124,
    123,
    123,
    125,
    190,
    0,
    0,
    0,
    258,
    259,
    766,
    633,
    634,
    0,
    0,
    0,
    0,
    0,
    0,
    0,
    0,
    0,
    0,
    0,
    0,
    741,
    358,
    114,
    0,
    0,
    189,
    126,
    111,
    110,
    143,
    188,
    189,
    126,
    111,
    110,
    143,
    188,
    0,
    98,
    358,
    832,
    0,
    0,
    0,
    0,
    0,
    0,
    0,
    0,
    0,
    0,
    0,
    0,
    0,
    0,
    0,
    0,
    0,
    0,
    0,
    0,
    0,
    0,
    0,
    0,
    0,
    0,
    0,
    0,
    0,
    0,
    0,
    0,
    0,
    0,
    0,
    0,
    0,
    0,
    0,
    0,
    0,
    0,
    0,
    0,
    0,
    0,
    0,
    0,
    0,
    0,
    0,
    0,
    0,
    0,
    0,
    0,
    0,
    0,
    0,
    0,
    0,
    0,
    1383,
    1383,
    0,
    0,
    737,
    357,
    343,
    348,
    1271,
    0,
    0,
    0,
    0,
    140,
    139,
    139,
    141,
    187,
    0,
    0,
    140,
    223,
    223,
    141,
    187,
    0,
    0,
    0,
    0,
    245,
    343,
    342,
    642,
    0,
    0,
    0,
    0,
    0,
    0,
    0,
    0,
    0,
    0,
    0,
    0,
    739,
    740,
    345,
    1272,
    0,
    189,
    172,
    282,
    298,
    158,
    190,
    189,
    172,
    282,
    298,
    158,
    190,
    0,
    98,
    358,
    832,
    0,
    0,
    0,
    0,
    0,
    0,
    0,
    0,
    0,
    0,
    0,
    0,
    0,
    0,
    0,
    0,
    0,
    0,
    0,
    0,
    0,
    0,
    0,
    0,
    0,
    0,
    0,
    0,
    0,
    0,
    0,
    0,
    0,
    0,
    0,
    0,
    0,
    0,
    0,
    0,
    0,
    0,
    0,
    0,
    0,
    0,
    0,
    0,
    0,
    0,
    0,
    0,
    0,
    0,
    0,
    0,
    0,
    0,
    0,
    0,
    0,
    0,
    1383,
    1383,
    0,
    723,
    724,
    360,
    359,
    364,
    0,
    0,
    0,
    0,
    0,
    0,
    0,
    0,
    0,
    0,
    0,
    0,
    0,
    0,
    0,
    0,
    0,
    0,
    0,
    0,
    0,
    261,
    359,
    260,
    643,
    644,
    0,
    0,
    0,
    0,
    0,
    0,
    0,
    0,
    0,
    0,
    0,
    0,
    722,
    346,
    347,
    0,
    189,
    124,
    203,
    123,
    125,
    190,
    189,
    124,
    203,
    123,
    125,
    190,
    3,
    257,
    627,
    628,
    0,
    0,
    0,
    0,
    0,
    0,
    0,
    0,
    0,
    0,
    0,
    0,
    0,
    0,
    0,
    0,
    0,
    0,
    0,
    0,
    0,
    0,
    0,
    0,
    0,
    0,
    0,
    0,
    0,
    0,
    0,
    0,
    0,
    0,
    0,
    0,
    0,
    0,
    0,
    0,
    0,
    0,
    0,
    0,
    0,
    0,
    0,
    0,
    0,
    0,
    0,
    0,
    0,
    0,
    0,
    0,
    0,
    0,
    0,
    0,
    0,
    0,
    1383,
    1383,
    0,
    741,
    358,
    130,
    0,
    0,
    189,
    126,
    111,
    112,
    112,
    110,
    143,
    188,
    0,
    0,
    0,
    0,
    0,
    0,
    189,
    126,
    111,
    112,
    112,
    110,
    143,
    188,
    0,
    98,
    358,
    832,
    0,
    0,
    0,
    0,
    0,
    0,
    0,
    0,
    0,
    0,
    0,
    0,
    739,
    740,
    345,
    1272,
    0,
    140,
    219,
    223,
    141,
    187,
    0,
    140,
    219,
    223,
    141,
    187,
    242,
    243,
    626,
    0,
    0,
    0,
    0,
    0,
    0,
    0,
    0,
    0,
    0,
    0,
    0,
    0,
    0,
    0,
    0,
    0,
    0,
    0,
    0,
    0,
    0,
    0,
    0,
    0,
    0,
    0,
    0,
    0,
    0,
    0,
    0,
    0,
    0,
    0,
    0,
    0,
    0,
    0,
    0,
    0,
    0,
    0,
    0,
    0,
    0,
    0,
    0,
    0,
    0,
    0,
    0,
    0,
    0,
    0,
    0,
    0,
    0,
    0,
    0,
    0,
    0,
    0,
    1383,
    1383,
    0,
    741,
    358,
    114,
    0,
    0,
    189,
    172,
    282,
    266,
    266,
    298,
    159,
    190,
    0,
    126,
    111,
    110,
    143,
    188,
    189,
    172,
    282,
    266,
    266,
    298,
    159,
    190,
    0,
    98,
    358,
    832,
    0,
    0,
    0,
    0,
    0,
    0,
    0,
    0,
    0,
    0,
    0,
    0,
    0,
    722,
    346,
    347,
    0,
    0,
    0,
    2,
    0,
    0,
    0,
    0,
    0,
    0,
    0,
    0,
    257,
    627,
    628,
    0,
    0,
    0,
    0,
    0,
    0,
    0,
    0,
    0,
    0,
    0,
    0,
    0,
    0,
    0,
    0,
    0,
    0,
    0,
    0,
    0,
    0,
    0,
    0,
    0,
    0,
    0,
    0,
    0,
    0,
    0,
    0,
    0,
    0,
    0,
    0,
    0,
    0,
    0,
    0,
    0,
    0,
    0,
    0,
    0,
    0,
    0,
    0,
    0,
    0,
    0,
    0,
    0,
    0,
    0,
    0,
    0,
    0,
    0,
    0,
    0,
    0,
    0,
    1383,
    0,
    0,
    741,
    358,
    114,
    0,
    0,
    189,
    124,
    123,
    123,
    203,
    123,
    125,
    190,
    0,
    172,
    282,
    298,
    158,
    190,
    189,
    124,
    123,
    123,
    203,
    123,
    125,
    190,
    0,
    98,
    358,
    832,
    0,
    0,
    0,
    0,
    0,
    0,
    0,
    0,
    0,
    0,
    0,
    0,
    0,
    739,
    740,
    345,
    1272,
    0,
    0,
    0,
    3,
    0,
    0,
    0,
    0,
    0,
    0,
    242,
    243,
    626,
    0,
    0,
    0,
    0,
    0,
    0,
    0,
    0,
    0,
    0,
    0,
    0,
    0,
    0,
    0,
    0,
    0,
    0,
    0,
    0,
    0,
    0,
    0,
    0,
    0,
    0,
    0,
    0,
    0,
    0,
    0,
    0,
    0,
    0,
    0,
    0,
    0,
    0,
    0,
    0,
    0,
    0,
    0,
    0,
    0,
    0,
    0,
    0,
    0,
    0,
    0,
    0,
    0,
    0,
    0,
    0,
    0,
    0,
    0,
    0,
    0,
    0,
    0,
    0,
    1383,
    1383,
    0,
    739,
    740,
    345,
    1272,
    0,
    1269,
    140,
    223,
    139,
    219,
    223,
    141,
    187,
    0,
    124,
    203,
    123,
    125,
    190,
    1269,
    140,
    223,
    139,
    219,
    223,
    141,
    187,
    0,
    257,
    627,
    628,
    0,
    0,
    0,
    0,
    0,
    0,
    0,
    0,
    0,
    0,
    0,
    0,
    0,
    0,
    722,
    341,
    338,
    338,
    253,
    254,
    0,
    0,
    0,
    251,
    252,
    338,
    338,
    339,
    627,
    628,
    0,
    0,
    0,
    0,
    0,
    0,
    0,
    0,
    0,
    0,
    0,
    0,
    0,
    0,
    0,
    0,
    0,
    0,
    0,
    0,
    0,
    0,
    0,
    0,
    0,
    0,
    0,
    0,
    0,
    0,
    0,
    0,
    0,
    0,
    0,
    0,
    0,
    0,
    0,
    0,
    0,
    0,
    0,
    0,
    0,
    0,
    0,
    0,
    0,
    0,
    0,
    0,
    0,
    0,
    0,
    0,
    0,
    0,
    0,
    0,
    0,
    0,
    0,
    0,
    0,
    0,
    0,
    0,
    722,
    341,
    1401,
    1402,
    338,
    285,
    286,
    0,
    0,
    0,
    0,
    0,
    0,
    140,
    219,
    223,
    141,
    187,
    0,
    0,
    0,
    0,
    0,
    248,
    338,
    1401,
    1402,
    356,
    626,
    0,
    0,
    0,
    0,
    0,
    0,
    0,
    0,
    0,
    0,
    0,
    0,
    0,
    0,
    0,
    727,
    728,
    625,
    625,
    605,
    606,
    1345,
    1346,
    1347,
    653,
    654,
    625,
    625,
    625,
    630,
    0,
    0,
    0,
    0,
    0,
    0,
    0,
    0,
    0,
    0,
    0,
    0,
    0,
    0,
    0,
    0,
    0,
    0,
    0,
    0,
    0,
    0,
    0,
    0,
    0,
    0,
    0,
    0,
    0,
    0,
    0,
    0,
    0,
    0,
    0,
    0,
    0,
    0,
    0,
    0,
    0,
    0,
    0,
    0,
    0,
    0,
    0,
    0,
    0,
    0,
    0,
    0,
    0,
    0,
    0,
    0,
    0,
    0,
    0,
    0,
    0,
    0,
    0,
    0,
    0,
    0,
    0,
    0,
    0,
    727,
    728,
    1417,
    1418,
    625,
    342,
    345,
    1272,
    0,
    0,
    0,
    0,
    0,
    0,
    0,
    0,
    0,
    0,
    0,
    0,
    0,
    0,
    242,
    243,
    340,
    1417,
    1418,
    631,
    632,
    0,
    0,
    0,
    0,
    0,
    0,
    0,
    0,
    0,
    0,
    0,
    0,
    0,
    0,
    0,
    743,
    744,
    641,
    641,
    621,
    622,
    1364,
    1365,
    1366,
    669,
    670,
    641,
    641,
    641,
    646,
    0,
    0,
    3,
    0,
    0,
    0,
    0,
    0,
    0,
    0,
    0,
    0,
    0,
    0,
    0,
    0,
    0,
    0,
    0,
    0,
    0,
    0,
    0,
    0,
    0,
    0,
    0,
    0,
    0,
    0,
    0,
    0,
    0,
    0,
    0,
    0,
    0,
    0,
    0,
    0,
    0,
    0,
    0,
    0,
    0,
    0,
    0,
    0,
    0,
    0,
    0,
    0,
    0,
    0,
    0,
    0,
    0,
    0,
    0,
    0,
    0,
    0,
    0,
    0,
    0,
    0,
    0,
    0,
    0,
    743,
    744,
    1335,
    1336,
    641,
    738,
    346,
    347,
    0,
    0,
    189,
    126,
    71,
    188,
    0,
    0,
    189,
    126,
    71,
    188,
    0,
    0,
    257,
    649,
    650,
    1335,
    1336,
    647,
    0,
    0,
    0,
    0,
    0,
    0,
    0,
    0,
    0,
    0,
    0,
    0,
    0,
    0,
    0,
    0,
    0,
    0,
    0,
    0,
    637,
    638,
    1380,
    358,
    1382,
    685,
    686,
    0,
    0,
    0,
    0,
    0,
    0,
    0,
    0,
    0,
    0,
    0,
    0,
    0,
    0,
    0,
    0,
    0,
    0,
    0,
    0,
    0,
    0,
    0,
    0,
    0,
    0,
    0,
    0,
    0,
    0,
    0,
    0,
    0,
    0,
    0,
    0,
    0,
    0,
    0,
    0,
    0,
    0,
    0,
    0,
    0,
    0,
    0,
    0,
    0,
    0,
    0,
    0,
    0,
    0,
    0,
    0,
    0,
    0,
    0,
    0,
    0,
    0,
    0,
    0,
    0,
    0,
    0,
    0,
    0,
    0,
    0,
    0,
    0,
    0,
    0,
    1351,
    1352,
    0,
    739,
    740,
    345,
    1272,
    0,
    189,
    156,
    175,
    190,
    0,
    0,
    189,
    156,
    175,
    190,
    0,
    242,
    243,
    626,
    0,
    1351,
    1352,
    0,
    0,
    0,
    0,
    0,
    0,
    0,
    0,
    0,
    0,
    0,
    0,
    0,
    0,
    0,
    0,
    0,
    0,
    0,
    0,
    0,
    0,
    0,
    1227,
    358,
    1228,
    0,
    0,
    0,
    0,
    0,
    0,
    0,
    0,
    0,
    0,
    0,
    0,
    0,
    0,
    0,
    0,
    0,
    0,
    0,
    0,
    0,
    0,
    0,
    0,
    0,
    0,
    0,
    0,
    0,
    0,
    0,
    0,
    0,
    0,
    0,
    0,
    0,
    0,
    0,
    0,
    0,
    0,
    0,
    0,
    0,
    0,
    0,
    0,
    0,
    0,
    0,
    0,
    0,
    0,
    0,
    0,
    0,
    0,
    0,
    0,
    0,
    0,
    0,
    0,
    0,
    0,
    0,
    0,
    0,
    0,
    0,
    0,
    0,
    0,
    0,
    0,
    0,
    0,
    0,
    0,
    0,
    722,
    346,
    347,
    0,
    189,
    124,
    125,
    191,
    0,
    0,
    192,
    124,
    125,
    190,
    0,
    257,
    627,
    628,
    0,
    0,
    0,
    0,
    0,
    0,
    0,
    0,
    0,
    0,
    0,
    0,
    0,
    0,
    0,
    0,
    0,
    0,
    0,
    0,
    0,
    0,
    0,
    0,
    0,
    0,
    1229,
    1232,
    1230,
    0,
    0,
    0,
    0,
    0,
    0,
    0,
    0,
    0,
    0,
    0,
    0,
    0,
    0,
    0,
    0,
    0,
    0,
    0,
    0,
    0,
    0,
    0,
    0,
    0,
    0,
    0,
    0,
    0,
    0,
    0,
    0,
    0,
    0,
    0,
    0,
    0,
    0,
    0,
    0,
    0,
    0,
    0,
    0,
    0,
    0,
    0,
    0,
    0,
    0,
    0,
    0,
    0,
    0,
    0,
    0,
    0,
    0,
    0,
    0,
    0,
    0,
    0,
    0,
    0,
    0,
    0,
    0,
    0,
    0,
    0,
    0,
    0,
    0,
    0,
    0,
    0,
    0,
    0,
    0,
    0,
    739,
    740,
    345,
    1272,
    0,
    140,
    141,
    187,
    0,
    0,
    0,
    140,
    141,
    187,
    242,
    243,
    626,
    0,
    0,
    0,
    0,
    0,
    0,
    0,
    0,
    0,
    0,
    0,
    0,
    0,
    0,
    0,
    0,
    0,
    0,
    0,
    0,
    0,
    0,
    0,
    0,
    0,
    0,
    0,
    0,
    0,
    0,
    0,
    0,
    0,
    0,
    0,
    0,
    0,
    0,
    0,
    0,
    0,
    0,
    0,
    0,
    0,
    0,
    0,
    0,
    0,
    0,
    0,
    0,
    0,
    0,
    0,
    0,
    0,
    0,
    0,
    0,
    0,
    0,
    0,
    0,
    0,
    0,
    0,
    0,
    0,
    0,
    0,
    0,
    0,
    0,
    0,
    0,
    0,
    0,
    0,
    0,
    0,
    0,
    0,
    0,
    0,
    0,
    0,
    0,
    0,
    0,
    0,
    0,
    0,
    0,
    0,
    0,
    0,
    0,
    0,
    0,
    0,
    0,
    0,
    0,
    0,
    0,
    0,
    0,
    0,
    0,
    0,
    0,
    722,
    341,
    338,
    338,
    253,
    254,
    0,
    0,
    0,
    251,
    252,
    338,
    338,
    339,
    627,
    628,
    0,
    0,
    0,
    0,
    0,
    0,
    0,
    0,
    0,
    0,
    0,
    0,
    0,
    0,
    0,
    0,
    0,
    0,
    0,
    0,
    0,
    0,
    0,
    0,
    0,
    0,
    0,
    0,
    0,
    0,
    0,
    0,
    0,
    0,
    0,
    0,
    0,
    0,
    0,
    0,
    0,
    0,
    0,
    0,
    0,
    0,
    0,
    0,
    0,
    0,
    0,
    0,
    0,
    0,
    0,
    0,
    0,
    0,
    0,
    0,
    0,
    0,
    0,
    0,
    0,
    0,
    0,
    0,
    0,
    0,
    0,
    0,
    0,
    0,
    0,
    0,
    0,
    0,
    0,
    0,
    0,
    0,
    0,
    0,
    0,
    0,
    0,
    0,
    0,
    0,
    0,
    0,
    0,
    0,
    0,
    0,
    0,
    0,
    0,
    0,
    0,
    0,
    0,
    0,
    0,
    0,
    0,
    0,
    0,
    0,
    0,
    0,
    727,
    728,
    625,
    625,
    605,
    606,
    1345,
    1346,
    1347,
    653,
    654,
    625,
    625,
    625,
    630,
    0,
    0,
    0,
    0,
    0,
    0,
    0,
    0,
    0,
    0,
    0,
    0,
    0,
    0,
    0,
    0,
    0,
    0,
    0,
    0,
    0,
    0,
    0,
    0,
    0,
    0,
    0,
    0,
    0,
    0,
    0,
    0,
    0,
    0,
    0,
    0,
    0,
    0,
    0,
    0,
    0,
    0,
    0,
    0,
    0,
    0,
    0,
    0,
    0,
    0,
    0,
    0,
    0,
    0,
    0,
    0,
    0,
    0,
    0,
    0,
    0,
    0,
    0,
    0,
    0,
    0,
    0,
    0,
    0,
    0,
    0,
    0,
    0,
    0,
    0,
    0,
    0,
    0,
    0,
    0,
    0,
    0,
    0,
    0,
    0,
    0,
    0,
    0,
    0,
    0,
    0,
    0,
    0,
    0,
    0,
    0,
    0,
    0,
    0,
    0,
    0,
    0,
    0,
    0,
    0,
    0,
    0,
    0,
    0,
    0,
    0,
    0,
    0,
    743,
    744,
    641,
    641,
    621,
    622,
    1364,
    1365,
    1366,
    669,
    670,
    641,
    641,
    641,
    646,
    0,
    0,
    0,
    0,
    0,
    0,
    0,
    0,
    0,
    0,
    0,
    0,
    0,
    0,
    0,
    0,
    0,
    0,
    0,
    0,
    0,
    0,
    0,
    0,
    0,
    0,
    0,
    0,
    0,
    0,
    0,
    0,
    0,
    0,
    0,
    0,
    0,
    0,
    0,
    0,
    0,
    0,
    0,
    0,
    0,
    0,
    0,
    0,
    0,
    0,
    0,
    0,
    0,
    0,
    0,
    0,
    0,
    0,
    0,
    0,
    0,
    0,
    0,
    0,
    0,
    0,
    0,
    0,
    0,
    0,
    0,
    0,
    0,
    0,
    0,
    0,
    0,
    0,
    0,
    0,
    0,
    0,
    0,
    0,
    0,
    0,
    0,
    0,
    0,
    0,
    0,
    0,
    0,
    0,
    0,
    0,
    0,
    0,
    0,
    0,
    0,
    0,
    0,
    0,
    0,
    0,
    0,
    0,
    0,
    0,
    0,
    0,
    0,
    0,
    0,
    0,
    0,
    637,
    638,
    1380,
    358,
    1382,
    685,
    686,
    0,
    0,
    0,
    0,
    0,
    0,
    0,
    0,
    0,
    0,
    0,
    0,
    0,
    0,
    0,
    0,
    0,
    0,
    0,
    0,
    0,
    0,
    0,
    0,
    0,
    0,
    0,
    0,
    0,
    0,
    0,
    0,
    0,
    0,
    0,
    0,
    0,
    0,
    0,
    0,
    0,
    0,
    0,
    0,
    0,
    0,
    0,
    0,
    0,
    0,
    0,
    0,
    0,
    0,
    0,
    0,
    0,
    0,
    0,
    0,
    0,
    0,
    0,
    0,
    0,
    0,
    0,
    0,
    0,
    0,
    0,
    0,
    0,
    0,
    0,
    0,
    0,
    0,
    0,
    0,
    0,
    0,
    0,
    0,
    0,
    0,
    0,
    0,
    0,
    0,
    0,
    0,
    0,
    0,
    0,
    0,
    0,
    0,
    0,
    0,
    0,
    0,
    0,
    0,
    0,
    0,
    0,
    0,
    0,
    0,
    0,
    0,
    0,
    0,
    0,
    0,
    0,
    0,
    0,
    0,
    0,
    0,
    0,
    1227,
    358,
    1228,
    0,
    0,
    0,
    0,
    0,
    0,
    0,
    0,
    0,
    0,
    0,
    0,
    0,
    0,
    0,
    0,
    0,
    0,
    0,
    0,
    0,
    0,
    0,
    0,
    0,
    0,
    0,
    0,
    0,
    0,
    0,
    0,
    0,
    0,
    0,
    0,
    0,
    0,
    0,
    0,
    0,
    0,
    0,
    0,
    0,
    0,
    0,
    0,
    0,
    0,
    0,
    0,
    0,
    0,
    0,
    0,
    0,
    0,
    0,
    0,
    0,
    0,
    0,
    0,
    0,
    0,
    0,
    0,
    0,
    0,
    0,
    0,
    0,
    0,
    0,
    0,
    0,
    0,
    0,
    0,
    0,
    0,
    0,
    0,
    0,
    0,
    0,
    0,
    0,
    0,
    0,
    0,
    0,
    0,
    0,
    0,
    0,
    0,
    0,
    0,
    0,
    0,
    0,
    0,
    0,
    0,
    0,
    0,
    0,
    0,
    0,
    0,
    0,
    0,
    0,
    0,
    0,
    0,
    0,
    0,
    0,
    0,
    0,
    0,
    0,
    1229,
    1232,
    1230,
    0,
    0,
    0,
    0,
    0,
    0,
    0,
    0,
    0,
    0,
    0,
    0,
    0,
    0,
    0,
    0,
    0,
    0,
    0,
    0,
    0,
    0,
    0,
    0,
    0,
    0,
    0,
    0,
    0,
    0,
    0,
    0,
    0,
    0,
    0,
    0,
    0,
    0,
    0,
    0,
    0,
    0,
    0,
    0,
    0,
    0,
    0,
    0,
    0,
    0,
    0,
    0,
    0,
    0,
    0,
    0,
    0,
    0,
    0,
    0,
    0,
    0,
    0,
    0,
    0,
    0,
    0,
    0,
    0,
    0,
    0,
    0,
    0,
    0,
    0,
    0,
    0,
    0,
    0,
    0,
    0,
    0,
    0,
    0,
    0,
    0,
    0,
    0,
    0,
    0,
    0,
    0,
    0,
    0,
    0,
    0,
    0,
    0,
    0,
    0,
    0,
    0,
    0,
    0,
    0,
    0,
    0,
    0,
    0,
    0,
    0,
    0,
    0,
    0,
    0,
    0,
    0,
    0,
    0,
    0,
    0,
    0,
    0,
    0,
    0,
    0,
    0,
    0,
    0,
    0,
    0,
    0,
    0,
    0,
    0,
    0,
    0,
    0,
    0,
    0,
    0,
    0,
    0,
    0,
    0,
    0,
    0,
    0,
    0,
    0,
    0,
    0,
    0,
    0,
    0,
    0,
    0,
    0,
    0,
    0,
    0,
    0,
    0,
    0,
    0,
    0,
    0,
    0,
    0,
    0,
    0,
    0,
    0,
    0,
    0,
    0,
    0,
    0,
    0,
    0,
    0,
    0,
    0,
    0,
    0,
    0,
    0,
    0,
    0,
    0,
    0,
    0,
    0,
    0,
    0,
    0,
    0,
    0,
    0,
    0,
    0,
    0,
    0,
    0,
    0,
    0,
    0,
    0,
    0,
    0,
    0,
    0,
    0,
    0,
    0,
    0,
    0,
    0,
    0,
    0,
    0,
    0,
    0,
    0,
    0,
    0,
    0
   ]
  },
  {
   "id": 3,
   "name": "ruined",
   "type": "tilelayer",
   "x": 0,
   "y": 0,
   "width": 128,
   "height": 128,
   "opacity": 1,
   "visible": false,
   "data": [
    0,
    198,
    177,
    177,
    177,
    177,
    177,
    177,
    177,
    166,
    0,
    0,
    0,
    0,
    0,
    0,
    0,
    0,
    0,
    0,
    0,
    0,
    0,
    0,
    0,
    0,
    1341,
    1342,
    0,
    0,
    0,
    0,
    0,
    0,
    0,
    0,
    0,
    0,
    0,
    0,
    0,
    415,
    416,
    0,
    0,
    0,
    0,
    0,
    0,
    0,
    0,
    0,
    0,
    0,
    415,
    416,
    0,
    0,
    0,
    0,
    0,
    0,
    0,
    0,
    0,
    0,
    0,
    0,
    0,
    0,
    0,
    0,
    0,
    0,
    0,
    0,
    0,
    0,
    0,
    0,
    0,
    0,
    0,
    0,
    0,
    0,
    0,
    0,
    0,
    0,
    0,
    0,
    0,
    0,
    0,
    0,
    0,
    0,
    0,
    0,
    0,
    0,
    0,
    0,
    0,
    0,
    0,
    0,
    0,
    0,
    0,
    0,
    0,
    0,
    0,
    0,
    0,
    0,
    0,
    0,
    0,
    0,
    0,
    0,
    0,
    0,
    0,
    0,
    0,
    196,
    193,
    193,
    193,
    193,
    193,
    193,
    193,
    165,
    0,
    0,
    0,
    0,
    0,
    0,
    0,
    0,
    390,
    0,
    0,
    390,
    0,
    0,
    390,
    0,
    1357,
    1358,
    0,
    0,
    0,
    0,
    0,
    0,
    0,
    0,
    0,
    0,
    0,
    472,
    473,
    591,
    592,
    369,
    369,
    369,
    369,
    369,
    369,
    369,
    369,
    369,
    369,
    369,
    591,
    592,
    569,
    570,
    0,
    0,
    0,
    0,
    0,
    0,
    0,
    0,
    0,
    0,
    0,
    0,
    0,
    0,
    0,
    0,
    0,
    0,
    0,
    0,
    0,
    0,
    0,
    0,
    0,
    0,
    0,
    0,
    0,
    0,
    0,
    0,
    0,
    0,
    0,
    0,
    0,
    0,
    0,
    0,
    0,
    0,
    0,
    0,
    0,
    0,
    0,
    0,
    0,
    0,
    0,
    0,
    0,
    0,
    0,
    0,
    0,
    0,
    0,
    0,
    0,
    0,
    0,
    0,
    0,
    0,
    0,
    0,
    0,
    0,
    180,
    181,
    0,
    0,
    0,
    0,
    0,
    0,
    2,
    149,
    150,
    0,
    0,
    0,
    0,
    0,
    0,
    0,
    390,
    0,
    0,
    390,
    0,
    0,
    390,
    0,
    1373,
    1374,
    0,
    0,
    0,
    0,
    0,
    0,
    0,
    0,
    0,
    0,
    0,
    481,
    389,
    559,
    560,
    375,
    375,
    375,
    375,
    375,
    375,
    375,
    375,
    375,
    375,
    375,
    559,
    560,
    374,
    578,
    0,
    0,
    0,
    0,
    0,
    0,
    0,
    0,
    0,
    1387,
    0,
    0,
    0,
    0,
    0,
    0,
    0,
    0,
    0,
    0,
    0,
    0,
    0,
    0,
    0,
    0,
    0,
    0,
    0,
    0,
    0,
    0,
    0,
    0,
    0,
    0,
    0,
    0,
    0,
    0,
    0,
    0,
    0,
    0,
    0,
    0,
    0,
    0,
    0,
    0,
    0,
    0,
    0,
    0,
    0,
    0,
    0,
    0,
    0,
    0,
    0,
    0,
    0,
    0,
    0,
    0,
    0,
    0,
    0,
    0,
    195,
    1271,
    0,
    0,
    0,
    0,
    0,
    0,
    0,
    0,
    146,
    0,
    0,
    0,
    0,
    0,
    0,
    0,
    0,
    0,
    0,
    390,
    0,
    0,
    390,
    0,
    1339,
    1340,
    0,
    0,
    0,
    0,
    0,
    0,
    0,
    0,
    0,
    0,
    466,
    467,
    392,
    575,
    576,
    391,
    391,
    391,
    391,
    391,
    391,
    391,
    391,
    391,
    391,
    391,
    575,
    576,
    292,
    579,
    580,
    0,
    0,
    0,
    0,
    0,
    0,
    0,
    0,
    0,
    0,
    0,
    0,
    0,
    0,
    0,
    0,
    0,
    0,
    0,
    0,
    0,
    0,
    0,
    0,
    0,
    0,
    0,
    0,
    0,
    0,
    0,
    0,
    0,
    0,
    0,
    0,
    0,
    0,
    0,
    0,
    0,
    0,
    0,
    0,
    0,
    0,
    0,
    0,
    0,
    0,
    0,
    0,
    0,
    0,
    0,
    0,
    0,
    0,
    0,
    0,
    0,
    0,
    0,
    0,
    0,
    0,
    0,
    0,
    0,
    194,
    0,
    0,
    0,
    0,
    0,
    0,
    0,
    0,
    0,
    146,
    0,
    0,
    0,
    0,
    0,
    0,
    0,
    0,
    0,
    0,
    390,
    0,
    0,
    390,
    0,
    1355,
    1356,
    0,
    0,
    0,
    0,
    0,
    0,
    0,
    0,
    0,
    0,
    481,
    378,
    379,
    0,
    0,
    0,
    0,
    0,
    0,
    0,
    0,
    0,
    0,
    0,
    0,
    0,
    0,
    0,
    290,
    291,
    578,
    0,
    0,
    0,
    0,
    0,
    0,
    0,
    0,
    0,
    0,
    0,
    0,
    0,
    0,
    0,
    0,
    0,
    0,
    0,
    0,
    0,
    0,
    0,
    0,
    0,
    0,
    0,
    0,
    0,
    0,
    0,
    0,
    0,
    0,
    0,
    0,
    0,
    0,
    0,
    0,
    0,
    0,
    0,
    0,
    0,
    0,
    0,
    0,
    0,
    0,
    0,
    0,
    0,
    0,
    0,
    0,
    0,
    0,
    0,
    0,
    0,
    0,
    0,
    0,
    0,
    0,
    0,
    0,
    0,
    178,
    0,
    0,
    0,
    0,
    0,
    0,
    0,
    0,
    3,
    146,
    0,
    0,
    0,
    0,
    0,
    0,
    0,
    390,
    0,
    0,
    0,
    0,
    0,
    390,
    0,
    1371,
    1372,
    0,
    0,
    0,
    0,
    0,
    0,
    0,
    0,
    0,
    466,
    467,
    376,
    1271,
    0,
    0,
    0,
    0,
    0,
    0,
    0,
    0,
    0,
    0,
    0,
    0,
    0,
    0,
    0,
    0,
    276,
    579,
    580,
    0,
    0,
    0,
    0,
    0,
    0,
    0,
    0,
    0,
    0,
    0,
    0,
    0,
    0,
    0,
    0,
    0,
    0,
    0,
    0,
    0,
    0,
    0,
    0,
    0,
    0,
    0,
    0,
    0,
    0,
    0,
    0,
    0,
    0,
    0,
    0,
    0,
    0,
    0,
    0,
    0,
    0,
    0,
    0,
    0,
    0,
    0,
    0,
    0,
    0,
    0,
    0,
    0,
    0,
    0,
    0,
    0,
    0,
    0,
    0,
    0,
    0,
    0,
    0,
    0,
    0,
    0,
    0,
    178,
    0,
    0,
    0,
    0,
    0,
    0,
    0,
    0,
    3,
    146,
    0,
    0,
    0,
    0,
    0,
    0,
    0,
    390,
    0,
    0,
    0,
    0,
    0,
    0,
    0,
    1343,
    1344,
    0,
    0,
    0,
    0,
    0,
    0,
    0,
    0,
    0,
    481,
    378,
    379,
    0,
    0,
    0,
    0,
    0,
    0,
    0,
    0,
    0,
    0,
    0,
    0,
    0,
    0,
    0,
    0,
    0,
    290,
    291,
    578,
    0,
    0,
    0,
    0,
    0,
    0,
    0,
    0,
    0,
    0,
    0,
    0,
    0,
    0,
    0,
    0,
    0,
    0,
    0,
    0,
    0,
    0,
    0,
    0,
    0,
    0,
    0,
    0,
    0,
    0,
    0,
    0,
    0,
    0,
    0,
    0,
    0,
    0,
    0,
    0,
    0,
    0,
    0,
    0,
    0,
    0,
    0,
    0,
    0,
    0,
    0,
    0,
    0,
    0,
    0,
    0,
    0,
    0,
    0,
    0,
    0,
    0,
    0,
    0,
    0,
    0,
    0,
    0,
    197,
    1272,
    479,
    480,
    0,
    0,
    0,
    479,
    480,
    0,
    146,
    0,
    0,
    0,
    0,
    0,
    0,
    0,
    390,
    0,
    0,
    390,
    0,
    0,
    0,
    0,
    1359,
    1360,
    0,
    0,
    0,
    0,
    0,
    0,
    0,
    0,
    466,
    467,
    376,
    1271,
    0,
    0,
    0,
    0,
    0,
    0,
    0,
    0,
    0,
    0,
    0,
    0,
    0,
    0,
    0,
    0,
    0,
    0,
    276,
    579,
    580,
    0,
    0,
    0,
    0,
    0,
    0,
    0,
    0,
    0,
    0,
    0,
    0,
    0,
    0,
    0,
    0,
    0,
    0,
    0,
    0,
    0,
    0,
    0,
    0,
    0,
    0,
    0,
    0,
    0,
    0,
    0,
    0,
    0,
    0,
    303,
    304,
    0,
    0,
    0,
    0,
    0,
    0,
    0,
    0,
    0,
    0,
    0,
    303,
    304,
    0,
    0,
    0,
    0,
    0,
    0,
    0,
    0,
    0,
    0,
    0,
    0,
    0,
    0,
    0,
    0,
    0,
    0,
    185,
    186,
    495,
    496,
    1393,
    1394,
    1395,
    495,
    496,
    152,
    153,
    0,
    0,
    0,
    0,
    0,
    0,
    0,
    0,
    0,
    0,
    390,
    0,
    0,
    390,
    0,
    1375,
    1376,
    0,
    0,
    0,
    0,
    0,
    0,
    415,
    416,
    481,
    378,
    379,
    0,
    0,
    0,
    0,
    415,
    416,
    0,
    0,
    0,
    0,
    0,
    0,
    0,
    0,
    415,
    416,
    0,
    0,
    0,
    290,
    291,
    578,
    415,
    416,
    0,
    0,
    0,
    0,
    1387,
    0,
    0,
    0,
    0,
    0,
    0,
    0,
    0,
    0,
    0,
    0,
    0,
    0,
    0,
    0,
    0,
    0,
    0,
    0,
    0,
    0,
    0,
    0,
    0,
    0,
    761,
    762,
    543,
    544,
    385,
    385,
    385,
    385,
    385,
    385,
    385,
    385,
    385,
    385,
    385,
    543,
    544,
    665,
    666,
    0,
    0,
    0,
    0,
    0,
    0,
    0,
    0,
    0,
    0,
    0,
    0,
    0,
    0,
    0,
    0,
    201,
    202,
    511,
    512,
    1409,
    1410,
    1411,
    511,
    512,
    168,
    169,
    0,
    0,
    0,
    0,
    0,
    0,
    0,
    0,
    0,
    0,
    390,
    0,
    0,
    390,
    0,
    0,
    0,
    0,
    0,
    0,
    472,
    473,
    369,
    591,
    592,
    388,
    376,
    1271,
    0,
    0,
    0,
    198,
    431,
    432,
    177,
    177,
    177,
    177,
    177,
    177,
    177,
    177,
    431,
    432,
    166,
    0,
    0,
    0,
    276,
    373,
    591,
    592,
    369,
    569,
    570,
    0,
    0,
    0,
    0,
    0,
    0,
    0,
    0,
    0,
    0,
    0,
    0,
    0,
    0,
    0,
    0,
    0,
    0,
    0,
    0,
    0,
    0,
    0,
    0,
    0,
    0,
    0,
    769,
    389,
    559,
    560,
    375,
    375,
    375,
    375,
    375,
    375,
    375,
    375,
    375,
    375,
    375,
    559,
    560,
    374,
    674,
    0,
    0,
    0,
    0,
    0,
    0,
    0,
    0,
    0,
    1387,
    0,
    0,
    0,
    0,
    0,
    0,
    0,
    0,
    527,
    528,
    1425,
    1426,
    1427,
    527,
    528,
    0,
    0,
    0,
    0,
    0,
    0,
    0,
    0,
    0,
    390,
    0,
    0,
    390,
    0,
    0,
    390,
    0,
    0,
    0,
    0,
    0,
    0,
    481,
    389,
    375,
    559,
    560,
    381,
    382,
    0,
    0,
    0,
    0,
    196,
    447,
    448,
    193,
    193,
    193,
    193,
    193,
    193,
    193,
    193,
    447,
    448,
    165,
    0,
    0,
    0,
    278,
    279,
    559,
    560,
    375,
    374,
    578,
    0,
    1387,
    0,
    0,
    0,
    0,
    0,
    0,
    0,
    0,
    0,
    0,
    0,
    0,
    0,
    0,
    0,
    0,
    0,
    0,
    0,
    0,
    0,
    0,
    0,
    0,
    755,
    756,
    392,
    575,
    576,
    391,
    391,
    391,
    391,
    391,
    391,
    391,
    391,
    391,
    391,
    391,
    575,
    576,
    292,
    675,
    676,
    0,
    0,
    0,
    0,
    0,
    0,
    0,
    0,
    0,
    0,
    0,
    0,
    0,
    0,
    0,
    0,
    0,
    0,
    0,
    1387,
    1387,
    0,
    0,
    0,
    0,
    415,
    416,
    0,
    0,
    0,
    0,
    0,
    0,
    390,
    0,
    0,
    390,
    0,
    0,
    390,
    0,
    0,
    0,
    0,
    0,
    466,
    467,
    392,
    391,
    575,
    576,
    397,
    398,
    0,
    0,
    0,
    180,
    181,
    463,
    464,
    0,
    0,
    0,
    0,
    0,
    0,
    0,
    0,
    463,
    464,
    149,
    150,
    0,
    0,
    294,
    295,
    575,
    576,
    391,
    292,
    579,
    580,
    0,
    0,
    0,
    0,
    0,
    0,
    0,
    0,
    0,
    0,
    0,
    0,
    0,
    0,
    0,
    0,
    0,
    0,
    0,
    0,
    0,
    0,
    0,
    0,
    0,
    769,
    378,
    379,
    0,
    0,
    0,
    0,
    0,
    0,
    0,
    0,
    0,
    0,
    0,
    0,
    0,
    0,
    0,
    290,
    291,
    674,
    0,
    0,
    0,
    0,
    0,
    0,
    0,
    0,
    0,
    0,
    0,
    0,
    0,
    0,
    0,
    0,
    198,
    177,
    177,
    177,
    177,
    177,
    177,
    177,
    177,
    431,
    432,
    166,
    0,
    0,
    0,
    0,
    0,
    390,
    0,
    0,
    390,
    0,
    0,
    390,
    0,
    0,
    0,
    0,
    0,
    481,
    378,
    379,
    0,
    0,
    0,
    0,
    0,
    0,
    0,
    0,
    195,
    1271,
    0,
    0,
    0,
    0,
    0,
    0,
    0,
    0,
    0,
    0,
    0,
    0,
    0,
    148,
    0,
    0,
    0,
    0,
    0,
    0,
    0,
    290,
    291,
    578,
    0,
    0,
    0,
    0,
    0,
    0,
    0,
    0,
    0,
    0,
    0,
    0,
    0,
    0,
    0,
    0,
    0,
    0,
    0,
    0,
    0,
    0,
    0,
    0,
    755,
    756,
    376,
    1271,
    0,
    0,
    0,
    0,
    0,
    0,
    0,
    0,
    0,
    0,
    0,
    0,
    0,
    0,
    0,
    0,
    276,
    675,
    676,
    0,
    0,
    0,
    0,
    0,
    0,
    0,
    0,
    0,
    0,
    0,
    0,
    0,
    0,
    0,
    196,
    193,
    193,
    193,
    193,
    193,
    193,
    193,
    193,
    447,
    448,
    165,
    0,
    0,
    0,
    0,
    0,
    390,
    0,
    0,
    0,
    0,
    0,
    390,
    0,
    0,
    0,
    0,
    466,
    467,
    376,
    1271,
    0,
    0,
    0,
    0,
    0,
    0,
    0,
    180,
    181,
    0,
    0,
    0,
    0,
    0,
    0,
    0,
    0,
    0,
    0,
    0,
    0,
    0,
    0,
    149,
    150,
    0,
    0,
    0,
    0,
    0,
    0,
    0,
    276,
    579,
    580,
    0,
    0,
    0,
    0,
    0,
    0,
    0,
    0,
    0,
    0,
    0,
    0,
    0,
    0,
    0,
    0,
    0,
    0,
    0,
    0,
    0,
    0,
    0,
    769,
    378,
    379,
    0,
    0,
    0,
    0,
    0,
    0,
    0,
    0,
    0,
    0,
    0,
    0,
    0,
    0,
    0,
    0,
    0,
    290,
    291,
    674,
    0,
    0,
    0,
    0,
    0,
    0,
    0,
    0,
    0,
    0,
    0,
    0,
    0,
    0,
    180,
    181,
    0,
    0,
    0,
    0,
    0,
    0,
    0,
    0,
    463,
    464,
    149,
    150,
    0,
    0,
    0,
    0,
    390,
    0,
    0,
    0,
    0,
    0,
    390,
    0,
    0,
    0,
    0,
    481,
    378,
    379,
    391,
    0,
    0,
    0,
    0,
    0,
    0,
    0,
    195,
    1271,
    0,
    0,
    0,
    0,
    0,
    0,
    0,
    0,
    0,
    0,
    0,
    0,
    0,
    0,
    0,
    146,
    0,
    0,
    0,
    0,
    0,
    0,
    0,
    290,
    291,
    578,
    0,
    0,
    0,
    0,
    0,
    0,
    0,
    0,
    0,
    0,
    0,
    0,
    0,
    0,
    0,
    0,
    0,
    0,
    0,
    0,
    0,
    0,
    755,
    756,
    376,
    1271,
    0,
    0,
    0,
    0,
    0,
    0,
    0,
    0,
    0,
    0,
    0,
    0,
    0,
    0,
    0,
    0,
    0,
    0,
    276,
    675,
    676,
    0,
    0,
    0,
    0,
    0,
    0,
    0,
    0,
    0,
    0,
    0,
    0,
    0,
    195,
    1271,
    0,
    0,
    0,
    0,
    0,
    0,
    0,
    0,
    0,
    0,
    0,
    148,
    0,
    0,
    0,
    0,
    390,
    0,
    0,
    390,
    0,
    0,
    0,
    0,
    0,
    0,
    466,
    467,
    376,
    1271,
    0,
    0,
    0,
    0,
    0,
    0,
    0,
    0,
    194,
    0,
    0,
    0,
    0,
    0,
    0,
    0,
    0,
    0,
    0,
    0,
    0,
    0,
    0,
    0,
    0,
    146,
    0,
    0,
    0,
    0,
    0,
    0,
    0,
    0,
    276,
    579,
    580,
    0,
    0,
    0,
    0,
    0,
    0,
    0,
    0,
    0,
    0,
    0,
    0,
    0,
    0,
    0,
    0,
    0,
    0,
    0,
    303,
    304,
    769,
    378,
    379,
    0,
    0,
    0,
    0,
    415,
    416,
    0,
    0,
    0,
    0,
    0,
    0,
    0,
    0,
    415,
    416,
    0,
    0,
    0,
    290,
    291,
    674,
    303,
    304,
    0,
    0,
    0,
    0,
    1387,
    0,
    0,
    0,
    0,
    0,
    0,
    194,
    0,
    0,
    0,
    0,
    0,
    0,
    0,
    0,
    0,
    0,
    0,
    0,
    149,
    150,
    0,
    0,
    0,
    390,
    0,
    0,
    390,
    0,
    0,
    0,
    0,
    0,
    0,
    179,
    390,
    194,
    0,
    0,
    0,
    0,
    0,
    0,
    0,
    0,
    0,
    178,
    0,
    0,
    0,
    0,
    0,
    0,
    0,
    0,
    0,
    0,
    0,
    0,
    0,
    0,
    0,
    0,
    146,
    0,
    0,
    0,
    0,
    0,
    0,
    0,
    0,
    162,
    390,
    146,
    0,
    0,
    0,
    0,
    0,
    0,
    0,
    0,
    0,
    0,
    0,
    0,
    0,
    0,
    0,
    0,
    761,
    762,
    385,
    543,
    544,
    388,
    376,
    1271,
    0,
    0,
    0,
    198,
    431,
    432,
    177,
    177,
    177,
    177,
    177,
    177,
    177,
    177,
    431,
    432,
    166,
    0,
    0,
    0,
    276,
    373,
    543,
    544,
    385,
    665,
    666,
    0,
    0,
    0,
    0,
    0,
    0,
    0,
    0,
    178,
    0,
    0,
    0,
    0,
    0,
    0,
    0,
    0,
    0,
    0,
    0,
    0,
    0,
    146,
    0,
    0,
    0,
    390,
    0,
    0,
    390,
    0,
    0,
    0,
    0,
    0,
    0,
    179,
    390,
    178,
    0,
    0,
    0,
    0,
    0,
    0,
    0,
    0,
    0,
    178,
    0,
    0,
    0,
    0,
    0,
    0,
    0,
    0,
    0,
    0,
    0,
    0,
    0,
    0,
    0,
    0,
    146,
    0,
    0,
    0,
    0,
    0,
    0,
    0,
    0,
    162,
    390,
    146,
    0,
    0,
    0,
    0,
    0,
    0,
    0,
    0,
    0,
    0,
    0,
    0,
    0,
    0,
    0,
    0,
    769,
    389,
    375,
    559,
    560,
    381,
    382,
    0,
    0,
    0,
    0,
    196,
    447,
    448,
    193,
    193,
    193,
    193,
    193,
    193,
    193,
    193,
    447,
    448,
    165,
    0,
    0,
    0,
    278,
    279,
    559,
    560,
    375,
    374,
    674,
    0,
    1387,
    0,
    0,
    0,
    0,
    0,
    0,
    178,
    0,
    0,
    0,
    0,
    0,
    0,
    0,
    0,
    0,
    0,
    0,
    0,
    0,
    146,
    0,
    0,
    0,
    0,
    0,
    0,
    390,
    0,
    0,
    0,
    0,
    0,
    0,
    179,
    390,
    178,
    0,
    0,
    0,
    0,
    0,
    0,
    0,
    0,
    0,
    178,
    0,
    0,
    0,
    0,
    0,
    0,
    0,
    0,
    0,
    0,
    0,
    0,
    0,
    0,
    0,
    0,
    146,
    0,
    0,
    0,
    0,
    0,
    0,
    0,
    0,
    162,
    390,
    146,
    0,
    0,
    0,
    0,
    0,
    0,
    0,
    0,
    0,
    0,
    0,
    0,
    0,
    0,
    0,
    755,
    756,
    392,
    391,
    575,
    576,
    397,
    398,
    0,
    0,
    0,
    180,
    181,
    463,
    464,
    0,
    0,
    0,
    0,
    0,
    0,
    0,
    0,
    463,
    464,
    149,
    150,
    0,
    0,
    294,
    295,
    575,
    576,
    391,
    292,
    675,
    676,
    0,
    0,
    0,
    0,
    0,
    0,
    0,
    178,
    0,
    0,
    0,
    0,
    0,
    3,
    0,
    0,
    0,
    0,
    0,
    0,
    0,
    146,
    0,
    0,
    0,
    0,
    0,
    0,
    390,
    0,
    0,
    0,
    0,
    0,
    0,
    179,
    390,
    178,
    0,
    0,
    0,
    0,
    0,
    0,
    0,
    0,
    0,
    178,
    0,
    0,
    0,
    0,
    0,
    0,
    0,
    0,
    0,
    0,
    0,
    0,
    0,
    0,
    0,
    0,
    146,
    0,
    0,
    0,
    0,
    0,
    0,
    0,
    0,
    162,
    390,
    146,
    0,
    0,
    0,
    0,
    0,
    0,
    0,
    0,
    0,
    0,
    0,
    0,
    0,
    0,
    0,
    769,
    378,
    379,
    0,
    0,
    0,
    0,
    0,
    0,
    0,
    0,
    195,
    1271,
    0,
    0,
    0,
    0,
    0,
    0,
    0,
    0,
    0,
    0,
    0,
    0,
    0,
    148,
    0,
    0,
    0,
    0,
    0,
    0,
    0,
    290,
    291,
    674,
    0,
    0,
    0,
    0,
    0,
    0,
    0,
    197,
    1272,
    0,
    0,
    0,
    0,
    0,
    0,
    0,
    0,
    0,
    0,
    0,
    0,
    146,
    0,
    0,
    0,
    0,
    0,
    0,
    390,
    0,
    0,
    0,
    0,
    0,
    0,
    179,
    390,
    178,
    0,
    0,
    0,
    0,
    0,
    0,
    0,
    0,
    0,
    197,
    1272,
    0,
    0,
    0,
    0,
    0,
    0,
    0,
    0,
    0,
    0,
    0,
    0,
    0,
    0,
    163,
    164,
    0,
    0,
    0,
    0,
    0,
    0,
    0,
    0,
    162,
    390,
    146,
    0,
    0,
    0,
    0,
    0,
    0,
    0,
    0,
    0,
    0,
    0,
    0,
    0,
    0,
    755,
    756,
    376,
    1271,
    0,
    0,
    0,
    0,
    0,
    0,
    0,
    180,
    181,
    0,
    0,
    0,
    0,
    0,
    0,
    0,
    0,
    0,
    0,
    0,
    0,
    0,
    0,
    149,
    150,
    0,
    0,
    0,
    0,
    0,
    0,
    0,
    276,
    675,
    676,
    0,
    0,
    0,
    0,
    0,
    0,
    182,
    183,
    0,
    0,
    0,
    0,
    0,
    0,
    0,
    0,
    0,
    0,
    0,
    163,
    164,
    0,
    0,
    0,
    0,
    0,
    0,
    390,
    0,
    0,
    0,
    0,
    0,
    0,
    179,
    390,
    178,
    0,
    0,
    0,
    0,
    0,
    0,
    0,
    0,
    0,
    182,
    183,
    0,
    0,
    0,
    0,
    0,
    0,
    0,
    0,
    0,
    0,
    0,
    0,
    0,
    0,
    147,
    0,
    0,
    0,
    0,
    0,
    0,
    0,
    0,
    0,
    162,
    390,
    146,
    0,
    0,
    0,
    0,
    0,
    0,
    0,
    0,
    0,
    0,
    0,
    0,
    0,
    0,
    769,
    378,
    379,
    391,
    0,
    0,
    0,
    0,
    0,
    0,
    0,
    195,
    1271,
    0,
    0,
    0,
    0,
    0,
    0,
    0,
    0,
    0,
    0,
    0,
    0,
    0,
    0,
    0,
    146,
    0,
    0,
    0,
    0,
    0,
    0,
    0,
    290,
    291,
    674,
    0,
    0,
    0,
    0,
    0,
    0,
    0,
    197,
    1272,
    479,
    480,
    0,
    0,
    0,
    479,
    480,
    0,
    0,
    0,
    147,
    0,
    0,
    0,
    0,
    0,
    0,
    0,
    390,
    0,
    0,
    0,
    0,
    0,
    0,
    482,
    483,
    377,
    1272,
    0,
    0,
    0,
    0,
    0,
    0,
    0,
    0,
    0,
    197,
    1272,
    0,
    0,
    0,
    0,
    0,
    0,
    0,
    0,
    0,
    0,
    0,
    0,
    163,
    164,
    0,
    0,
    0,
    0,
    0,
    0,
    0,
    0,
    0,
    289,
    563,
    564,
    0,
    0,
    0,
    0,
    0,
    0,
    0,
    0,
    0,
    0,
    0,
    0,
    0,
    755,
    756,
    376,
    1271,
    0,
    0,
    0,
    0,
    0,
    0,
    0,
    0,
    194,
    0,
    0,
    0,
    0,
    0,
    0,
    0,
    0,
    0,
    0,
    0,
    0,
    0,
    0,
    0,
    0,
    146,
    0,
    0,
    0,
    0,
    0,
    0,
    0,
    0,
    276,
    675,
    676,
    0,
    0,
    0,
    0,
    0,
    0,
    185,
    186,
    495,
    496,
    1393,
    1394,
    1395,
    495,
    496,
    145,
    145,
    152,
    153,
    0,
    0,
    0,
    0,
    0,
    0,
    0,
    390,
    0,
    0,
    0,
    0,
    0,
    0,
    0,
    468,
    394,
    395,
    0,
    0,
    0,
    0,
    0,
    0,
    0,
    0,
    0,
    182,
    183,
    0,
    0,
    479,
    480,
    0,
    0,
    0,
    479,
    480,
    0,
    0,
    0,
    147,
    0,
    0,
    0,
    0,
    0,
    0,
    0,
    0,
    0,
    274,
    275,
    562,
    0,
    0,
    0,
    0,
    0,
    0,
    0,
    0,
    0,
    0,
    0,
    0,
    0,
    0,
    773,
    390,
    194,
    0,
    0,
    0,
    0,
    0,
    0,
    0,
    0,
    0,
    178,
    0,
    0,
    0,
    0,
    0,
    0,
    0,
    0,
    0,
    0,
    0,
    0,
    0,
    0,
    0,
    0,
    146,
    0,
    0,
    0,
    0,
    0,
    0,
    0,
    0,
    162,
    390,
    848,
    0,
    0,
    0,
    0,
    0,
    0,
    201,
    202,
    511,
    512,
    1409,
    1410,
    1411,
    511,
    512,
    161,
    161,
    168,
    169,
    0,
    0,
    0,
    0,
    0,
    0,
    0,
    0,
    0,
    0,
    0,
    0,
    0,
    0,
    0,
    482,
    483,
    377,
    1272,
    0,
    0,
    0,
    0,
    0,
    0,
    0,
    0,
    0,
    184,
    145,
    145,
    495,
    496,
    1393,
    1394,
    1395,
    495,
    496,
    145,
    145,
    152,
    153,
    0,
    0,
    0,
    0,
    0,
    0,
    0,
    0,
    0,
    289,
    563,
    564,
    0,
    0,
    0,
    0,
    0,
    0,
    0,
    0,
    0,
    0,
    0,
    0,
    0,
    0,
    773,
    390,
    178,
    0,
    0,
    0,
    0,
    0,
    0,
    0,
    0,
    0,
    178,
    0,
    0,
    0,
    0,
    0,
    0,
    0,
    0,
    0,
    0,
    0,
    0,
    0,
    0,
    0,
    0,
    146,
    0,
    0,
    0,
    0,
    0,
    0,
    0,
    0,
    162,
    390,
    848,
    0,
    0,
    0,
    0,
    0,
    0,
    0,
    0,
    527,
    528,
    1425,
    1426,
    1427,
    527,
    528,
    0,
    0,
    0,
    0,
    0,
    0,
    0,
    0,
    0,
    0,
    0,
    0,
    0,
    0,
    0,
    0,
    0,
    0,
    0,
    0,
    468,
    394,
    395,
    0,
    0,
    0,
    0,
    0,
    0,
    0,
    0,
    0,
    200,
    161,
    161,
    511,
    512,
    1409,
    1410,
    1411,
    511,
    512,
    161,
    161,
    168,
    169,
    0,
    0,
    0,
    0,
    0,
    0,
    0,
    0,
    274,
    275,
    562,
    0,
    0,
    0,
    0,
    0,
    0,
    0,
    0,
    0,
    0,
    0,
    0,
    0,
    0,
    0,
    773,
    390,
    178,
    0,
    0,
    0,
    0,
    0,
    0,
    0,
    0,
    0,
    178,
    0,
    0,
    0,
    0,
    0,
    0,
    0,
    0,
    0,
    0,
    0,
    0,
    0,
    0,
    0,
    0,
    146,
    0,
    0,
    0,
    0,
    0,
    0,
    0,
    0,
    162,
    390,
    848,
    0,
    0,
    0,
    0,
    0,
    1387,
    0,
    0,
    415,
    416,
    0,
    0,
    0,
    0,
    1387,
    0,
    1387,
    0,
    415,
    416,
    0,
    0,
    0,
    0,
    0,
    0,
    0,
    0,
    0,
    0,
    0,
    0,
    0,
    0,
    0,
    482,
    483,
    377,
    1272,
    0,
    0,
    0,
    0,
    0,
    0,
    0,
    0,
    0,
    0,
    0,
    527,
    528,
    1425,
    1426,
    1427,
    527,
    528,
    0,
    0,
    0,
    0,
    0,
    0,
    0,
    0,
    0,
    0,
    0,
    0,
    289,
    563,
    564,
    0,
    0,
    0,
    0,
    0,
    0,
    0,
    0,
    0,
    0,
    0,
    0,
    0,
    0,
    0,
    773,
    390,
    178,
    0,
    0,
    0,
    0,
    0,
    0,
    0,
    0,
    0,
    178,
    0,
    0,
    0,
    0,
    0,
    0,
    0,
    0,
    0,
    0,
    0,
    0,
    0,
    0,
    0,
    0,
    146,
    0,
    0,
    0,
    0,
    0,
    0,
    0,
    0,
    162,
    390,
    848,
    0,
    0,
    0,
    0,
    0,
    1387,
    1387,
    198,
    431,
    432,
    177,
    177,
    177,
    177,
    177,
    177,
    177,
    177,
    431,
    432,
    166,
    0,
    0,
    0,
    0,
    0,
    0,
    0,
    0,
    0,
    0,
    0,
    0,
    0,
    0,
    0,
    468,
    373,
    1403,
    1404,
    370,
    287,
    288,
    0,
    0,
    0,
    0,
    0,
    0,
    0,
    0,
    0,
    0,
    0,
    0,
    0,
    0,
    0,
    0,
    0,
    0,
    0,
    0,
    0,
    0,
    280,
    370,
    1403,
    1404,
    388,
    562,
    0,
    0,
    0,
    0,
    0,
    0,
    0,
    0,
    0,
    0,
    0,
    0,
    0,
    0,
    0,
    0,
    773,
    390,
    178,
    0,
    0,
    0,
    0,
    0,
    0,
    0,
    0,
    0,
    197,
    0,
    0,
    0,
    0,
    0,
    0,
    0,
    0,
    0,
    0,
    0,
    0,
    0,
    0,
    0,
    163,
    164,
    0,
    0,
    0,
    0,
    0,
    0,
    0,
    0,
    162,
    390,
    848,
    0,
    0,
    0,
    0,
    0,
    1387,
    1387,
    196,
    447,
    448,
    193,
    193,
    193,
    193,
    193,
    193,
    193,
    193,
    447,
    448,
    165,
    0,
    0,
    0,
    0,
    0,
    0,
    0,
    0,
    0,
    0,
    0,
    0,
    0,
    0,
    0,
    470,
    471,
    1419,
    1420,
    561,
    374,
    377,
    1272,
    0,
    0,
    0,
    0,
    0,
    0,
    0,
    0,
    0,
    0,
    0,
    0,
    0,
    0,
    0,
    0,
    0,
    0,
    0,
    0,
    274,
    275,
    372,
    1419,
    1420,
    567,
    568,
    0,
    0,
    0,
    0,
    0,
    0,
    0,
    0,
    0,
    0,
    0,
    0,
    0,
    0,
    0,
    0,
    773,
    390,
    178,
    0,
    0,
    0,
    0,
    0,
    0,
    0,
    0,
    0,
    182,
    183,
    0,
    0,
    0,
    0,
    0,
    0,
    0,
    0,
    0,
    0,
    0,
    0,
    0,
    0,
    147,
    0,
    0,
    0,
    0,
    0,
    0,
    0,
    0,
    0,
    162,
    390,
    848,
    0,
    0,
    0,
    0,
    0,
    0,
    180,
    181,
    463,
    464,
    0,
    0,
    0,
    0,
    0,
    0,
    0,
    0,
    463,
    464,
    149,
    150,
    0,
    0,
    0,
    0,
    0,
    0,
    0,
    0,
    0,
    0,
    0,
    0,
    0,
    0,
    486,
    487,
    1435,
    1436,
    577,
    484,
    394,
    395,
    0,
    0,
    0,
    0,
    0,
    0,
    0,
    0,
    0,
    0,
    0,
    0,
    0,
    0,
    0,
    0,
    0,
    0,
    0,
    0,
    289,
    585,
    586,
    1435,
    1436,
    583,
    584,
    0,
    0,
    0,
    0,
    0,
    0,
    0,
    0,
    0,
    0,
    0,
    0,
    0,
    0,
    0,
    0,
    771,
    772,
    377,
    0,
    0,
    0,
    0,
    0,
    0,
    0,
    0,
    0,
    0,
    197,
    0,
    0,
    0,
    0,
    0,
    0,
    0,
    0,
    0,
    0,
    0,
    0,
    0,
    163,
    164,
    0,
    0,
    0,
    0,
    0,
    0,
    0,
    0,
    0,
    289,
    659,
    660,
    0,
    0,
    0,
    0,
    0,
    0,
    195,
    1271,
    0,
    0,
    0,
    0,
    0,
    0,
    0,
    0,
    0,
    0,
    0,
    0,
    0,
    148,
    0,
    0,
    0,
    0,
    0,
    0,
    0,
    0,
    0,
    0,
    0,
    0,
    0,
    1387,
    1387,
    1387,
    1451,
    1452,
    1387,
    482,
    483,
    377,
    1272,
    0,
    0,
    0,
    0,
    0,
    0,
    0,
    0,
    0,
    0,
    0,
    0,
    0,
    0,
    0,
    0,
    0,
    0,
    274,
    275,
    562,
    0,
    1451,
    1452,
    0,
    0,
    0,
    0,
    0,
    0,
    0,
    0,
    0,
    0,
    0,
    0,
    0,
    0,
    0,
    0,
    0,
    0,
    0,
    754,
    394,
    395,
    0,
    0,
    0,
    0,
    0,
    0,
    0,
    0,
    0,
    182,
    183,
    0,
    0,
    479,
    480,
    0,
    0,
    0,
    479,
    480,
    0,
    0,
    0,
    147,
    0,
    0,
    0,
    0,
    0,
    0,
    0,
    0,
    0,
    274,
    275,
    658,
    0,
    0,
    0,
    0,
    0,
    0,
    180,
    181,
    0,
    0,
    0,
    0,
    0,
    0,
    0,
    0,
    0,
    0,
    0,
    0,
    0,
    0,
    149,
    150,
    0,
    0,
    0,
    0,
    0,
    0,
    0,
    0,
    0,
    0,
    0,
    0,
    0,
    0,
    0,
    0,
    1387,
    1387,
    1387,
    468,
    394,
    395,
    0,
    0,
    0,
    0,
    0,
    0,
    0,
    0,
    0,
    0,
    0,
    0,
    0,
    0,
    0,
    0,
    0,
    0,
    289,
    563,
    564,
    0,
    0,
    0,
    0,
    0,
    0,
    0,
    0,
    0,
    0,
    0,
    0,
    0,
    0,
    0,
    0,
    0,
    0,
    0,
    0,
    0,
    0,
    771,
    772,
    377,
    0,
    0,
    0,
    0,
    0,
    0,
    0,
    0,
    0,
    0,
    184,
    145,
    145,
    495,
    496,
    1393,
    1394,
    1395,
    495,
    496,
    145,
    145,
    152,
    153,
    0,
    0,
    0,
    0,
    0,
    0,
    0,
    0,
    0,
    289,
    659,
    660,
    0,
    0,
    0,
    0,
    0,
    0,
    195,
    1271,
    0,
    0,
    0,
    0,
    0,
    0,
    0,
    0,
    0,
    0,
    0,
    0,
    0,
    0,
    0,
    146,
    0,
    0,
    0,
    0,
    0,
    0,
    0,
    0,
    0,
    0,
    0,
    0,
    0,
    0,
    0,
    0,
    0,
    0,
    0,
    482,
    483,
    377,
    1272,
    0,
    0,
    0,
    0,
    0,
    0,
    0,
    0,
    0,
    0,
    0,
    0,
    0,
    0,
    0,
    0,
    274,
    275,
    562,
    0,
    0,
    0,
    0,
    0,
    0,
    0,
    0,
    0,
    0,
    0,
    0,
    0,
    0,
    0,
    0,
    0,
    0,
    0,
    0,
    0,
    0,
    0,
    0,
    754,
    394,
    395,
    0,
    0,
    0,
    0,
    0,
    0,
    0,
    0,
    0,
    200,
    161,
    161,
    511,
    512,
    1409,
    1410,
    1411,
    511,
    512,
    161,
    161,
    168,
    169,
    0,
    0,
    0,
    0,
    0,
    0,
    0,
    0,
    274,
    275,
    658,
    0,
    0,
    0,
    0,
    0,
    0,
    0,
    194,
    0,
    0,
    0,
    0,
    0,
    0,
    0,
    0,
    0,
    0,
    0,
    0,
    0,
    0,
    0,
    0,
    146,
    1387,
    0,
    0,
    0,
    0,
    0,
    0,
    0,
    0,
    0,
    0,
    0,
    0,
    0,
    0,
    0,
    0,
    0,
    0,
    1387,
    468,
    394,
    395,
    0,
    0,
    0,
    0,
    0,
    0,
    0,
    0,
    0,
    0,
    0,
    0,
    0,
    0,
    0,
    0,
    289,
    563,
    564,
    0,
    0,
    0,
    0,
    0,
    0,
    0,
    0,
    0,
    0,
    0,
    0,
    0,
    0,
    0,
    0,
    0,
    0,
    0,
    0,
    0,
    0,
    0,
    0,
    771,
    772,
    377,
    0,
    0,
    0,
    0,
    0,
    0,
    0,
    0,
    0,
    0,
    0,
    0,
    527,
    528,
    1425,
    1426,
    1427,
    527,
    528,
    0,
    0,
    0,
    0,
    0,
    0,
    0,
    0,
    0,
    0,
    0,
    0,
    289,
    659,
    660,
    0,
    0,
    0,
    0,
    0,
    0,
    0,
    178,
    0,
    0,
    0,
    0,
    0,
    0,
    0,
    0,
    0,
    0,
    0,
    0,
    0,
    0,
    0,
    0,
    146,
    0,
    0,
    0,
    0,
    0,
    0,
    0,
    0,
    0,
    0,
    0,
    0,
    0,
    0,
    0,
    0,
    0,
    0,
    0,
    0,
    482,
    483,
    377,
    1272,
    0,
    0,
    0,
    0,
    0,
    0,
    0,
    0,
    0,
    0,
    0,
    0,
    0,
    0,
    274,
    275,
    562,
    0,
    0,
    0,
    0,
    0,
    0,
    0,
    0,
    0,
    0,
    0,
    0,
    0,
    0,
    0,
    0,
    0,
    0,
    0,
    0,
    0,
    0,
    0,
    0,
    0,
    0,
    754,
    373,
    1403,
    1404,
    370,
    287,
    288,
    0,
    0,
    0,
    0,
    0,
    0,
    0,
    0,
    0,
    0,
    0,
    0,
    0,
    0,
    0,
    0,
    0,
    0,
    0,
    0,
    0,
    0,
    280,
    370,
    1403,
    1404,
    388,
    658,
    0,
    0,
    0,
    0,
    0,
    0,
    0,
    0,
    178,
    0,
    0,
    0,
    0,
    0,
    0,
    0,
    0,
    0,
    0,
    0,
    0,
    0,
    0,
    0,
    0,
    146,
    0,
    0,
    0,
    0,
    0,
    0,
    0,
    0,
    0,
    0,
    0,
    0,
    0,
    0,
    0,
    0,
    0,
    0,
    0,
    0,
    1387,
    468,
    394,
    395,
    0,
    0,
    0,
    0,
    0,
    0,
    0,
    0,
    0,
    0,
    0,
    0,
    0,
    0,
    289,
    563,
    564,
    0,
    0,
    0,
    0,
    0,
    0,
    0,
    0,
    0,
    0,
    0,
    0,
    0,
    0,
    0,
    0,
    0,
    0,
    0,
    0,
    0,
    0,
    0,
    0,
    0,
    0,
    759,
    760,
    1419,
    1420,
    657,
    374,
    377,
    0,
    0,
    0,
    0,
    0,
    0,
    0,
    0,
    0,
    0,
    0,
    0,
    0,
    0,
    0,
    0,
    0,
    0,
    0,
    0,
    0,
    274,
    275,
    372,
    1419,
    1420,
    663,
    664,
    0,
    0,
    0,
    0,
    0,
    0,
    0,
    0,
    178,
    0,
    0,
    0,
    0,
    0,
    0,
    0,
    0,
    0,
    0,
    0,
    0,
    0,
    0,
    0,
    0,
    146,
    1387,
    0,
    0,
    0,
    0,
    0,
    0,
    0,
    0,
    0,
    0,
    0,
    0,
    0,
    0,
    0,
    0,
    0,
    0,
    0,
    0,
    482,
    483,
    387,
    370,
    370,
    370,
    269,
    270,
    0,
    0,
    0,
    267,
    268,
    370,
    370,
    370,
    370,
    388,
    562,
    0,
    0,
    0,
    0,
    0,
    0,
    0,
    0,
    0,
    0,
    0,
    0,
    0,
    0,
    0,
    0,
    0,
    0,
    0,
    0,
    0,
    0,
    0,
    0,
    0,
    0,
    0,
    775,
    776,
    1337,
    1338,
    673,
    770,
    394,
    395,
    0,
    0,
    0,
    0,
    0,
    0,
    0,
    0,
    0,
    0,
    0,
    0,
    0,
    0,
    0,
    0,
    0,
    0,
    0,
    0,
    289,
    681,
    682,
    1337,
    1338,
    679,
    0,
    0,
    0,
    0,
    0,
    0,
    0,
    0,
    0,
    178,
    0,
    0,
    0,
    0,
    0,
    0,
    0,
    0,
    0,
    0,
    0,
    0,
    0,
    0,
    0,
    0,
    146,
    0,
    0,
    0,
    0,
    0,
    0,
    0,
    0,
    0,
    0,
    0,
    0,
    0,
    0,
    0,
    0,
    0,
    0,
    0,
    0,
    0,
    1387,
    469,
    561,
    561,
    561,
    561,
    607,
    608,
    1393,
    1394,
    1395,
    655,
    656,
    561,
    561,
    561,
    561,
    567,
    568,
    0,
    0,
    0,
    0,
    0,
    0,
    0,
    0,
    0,
    0,
    0,
    0,
    0,
    0,
    0,
    0,
    0,
    0,
    0,
    0,
    0,
    0,
    0,
    0,
    0,
    0,
    0,
    0,
    0,
    1353,
    1354,
    0,
    771,
    772,
    377,
    0,
    0,
    0,
    0,
    0,
    0,
    0,
    0,
    0,
    0,
    0,
    0,
    0,
    0,
    0,
    0,
    0,
    0,
    0,
    274,
    275,
    658,
    0,
    1353,
    1354,
    0,
    0,
    0,
    0,
    0,
    0,
    0,
    0,
    0,
    0,
    197,
    1272,
    0,
    0,
    0,
    0,
    0,
    0,
    0,
    0,
    0,
    0,
    0,
    0,
    0,
    0,
    163,
    164,
    0,
    0,
    0,
    0,
    0,
    0,
    0,
    0,
    0,
    0,
    0,
    0,
    0,
    0,
    0,
    0,
    0,
    0,
    0,
    0,
    0,
    1387,
    485,
    577,
    577,
    577,
    577,
    511,
    512,
    1409,
    1410,
    1411,
    511,
    512,
    577,
    577,
    577,
    577,
    583,
    584,
    0,
    0,
    0,
    0,
    0,
    0,
    0,
    0,
    0,
    0,
    0,
    0,
    0,
    0,
    0,
    0,
    0,
    0,
    0,
    0,
    0,
    0,
    0,
    0,
    0,
    0,
    0,
    0,
    0,
    0,
    0,
    0,
    0,
    754,
    394,
    395,
    0,
    0,
    0,
    0,
    0,
    0,
    0,
    0,
    0,
    0,
    0,
    0,
    0,
    0,
    0,
    0,
    0,
    0,
    289,
    659,
    660,
    0,
    0,
    0,
    0,
    0,
    0,
    0,
    0,
    0,
    0,
    0,
    0,
    0,
    182,
    183,
    0,
    0,
    0,
    0,
    0,
    0,
    0,
    0,
    0,
    0,
    0,
    0,
    0,
    0,
    147,
    0,
    0,
    0,
    0,
    0,
    0,
    0,
    0,
    0,
    0,
    0,
    0,
    0,
    0,
    0,
    0,
    0,
    0,
    0,
    0,
    0,
    0,
    0,
    0,
    0,
    0,
    0,
    0,
    527,
    528,
    1425,
    1426,
    1427,
    527,
    528,
    0,
    0,
    0,
    0,
    0,
    0,
    0,
    0,
    0,
    0,
    0,
    0,
    0,
    0,
    0,
    0,
    0,
    0,
    0,
    0,
    0,
    0,
    0,
    0,
    0,
    0,
    0,
    0,
    0,
    0,
    0,
    0,
    0,
    0,
    0,
    0,
    0,
    0,
    0,
    771,
    772,
    377,
    0,
    0,
    0,
    0,
    0,
    0,
    0,
    0,
    0,
    0,
    0,
    0,
    0,
    0,
    0,
    0,
    0,
    274,
    275,
    658,
    0,
    0,
    0,
    0,
    0,
    0,
    0,
    0,
    0,
    0,
    0,
    0,
    0,
    0,
    1387,
    197,
    1272,
    0,
    0,
    0,
    0,
    0,
    0,
    0,
    0,
    0,
    0,
    0,
    0,
    163,
    164,
    0,
    0,
    0,
    0,
    0,
    0,
    0,
    0,
    0,
    0,
    0,
    0,
    0,
    0,
    0,
    0,
    0,
    0,
    0,
    0,
    0,
    0,
    0,
    0,
    0,
    0,
    0,
    0,
    0,
    0,
    0,
    0,
    0,
    0,
    0,
    0,
    0,
    0,
    0,
    0,
    0,
    0,
    0,
    0,
    0,
    0,
    0,
    0,
    0,
    0,
    0,
    0,
    0,
    0,
    0,
    0,
    0,
    0,
    0,
    0,
    0,
    0,
    0,
    0,
    0,
    0,
    0,
    0,
    0,
    0,
    0,
    0,
    0,
    0,
    0,
    754,
    394,
    395,
    0,
    0,
    0,
    0,
    0,
    0,
    0,
    0,
    0,
    0,
    0,
    0,
    0,
    0,
    0,
    0,
    289,
    659,
    660,
    0,
    0,
    0,
    0,
    0,
    0,
    0,
    0,
    0,
    0,
    0,
    0,
    0,
    0,
    0,
    182,
    183,
    0,
    0,
    479,
    480,
    0,
    0,
    0,
    479,
    480,
    0,
    0,
    0,
    147,
    0,
    0,
    0,
    0,
    0,
    0,
    0,
    0,
    0,
    0,
    0,
    0,
    0,
    0,
    0,
    0,
    0,
    0,
    0,
    0,
    0,
    0,
    0,
    0,
    0,
    0,
    0,
    0,
    0,
    0,
    0,
    0,
    0,
    0,
    0,
    0,
    390,
    0,
    0,
    390,
    0,
    0,
    390,
    0,
    0,
    390,
    0,
    0,
    0,
    0,
    0,
    0,
    0,
    0,
    0,
    0,
    0,
    0,
    0,
    0,
    0,
    0,
    0,
    0,
    0,
    0,
    0,
    0,
    0,
    0,
    0,
    0,
    0,
    0,
    0,
    0,
    771,
    772,
    377,
    0,
    0,
    0,
    0,
    0,
    0,
    0,
    0,
    0,
    0,
    0,
    0,
    0,
    0,
    0,
    274,
    275,
    658,
    0,
    0,
    0,
    0,
    0,
    0,
    0,
    0,
    0,
    0,
    0,
    0,
    0,
    0,
    0,
    0,
    0,
    184,
    145,
    145,
    495,
    496,
    1393,
    1394,
    1395,
    495,
    496,
    145,
    145,
    152,
    153,
    0,
    0,
    0,
    0,
    0,
    0,
    0,
    0,
    0,
    0,
    0,
    0,
    0,
    0,
    0,
    0,
    0,
    0,
    0,
    0,
    0,
    0,
    0,
    0,
    0,
    0,
    0,
    0,
    0,
    0,
    0,
    0,
    0,
    0,
    0,
    0,
    390,
    0,
    0,
    390,
    0,
    0,
    390,
    0,
    0,
    390,
    0,
    0,
    0,
    0,
    0,
    0,
    0,
    0,
    0,
    0,
    0,
    0,
    0,
    0,
    0,
    0,
    0,
    0,
    0,
    0,
    0,
    0,
    0,
    0,
    0,
    0,
    0,
    0,
    0,
    0,
    0,
    754,
    394,
    395,
    0,
    0,
    0,
    0,
    0,
    0,
    0,
    0,
    0,
    0,
    0,
    0,
    0,
    0,
    289,
    659,
    660,
    0,
    0,
    0,
    0,
    0,
    0,
    0,
    0,
    0,
    0,
    0,
    0,
    0,
    0,
    0,
    1387,
    0,
    200,
    161,
    161,
    511,
    512,
    1409,
    1410,
    1411,
    511,
    512,
    161,
    161,
    168,
    169,
    0,
    1387,
    0,
    0,
    0,
    0,
    390,
    390,
    0,
    0,
    390,
    390,
    390,
    0,
    0,
    390,
    390,
    390,
    390,
    0,
    0,
    390,
    390,
    390,
    390,
    390,
    0,
    0,
    390,
    390,
    390,
    390,
    390,
    390,
    0,
    0,
    0,
    0,
    0,
    390,
    0,
    0,
    390,
    0,
    0,
    390,
    0,
    0,
    0,
    0,
    0,
    0,
    0,
    0,
    0,
    0,
    0,
    0,
    0,
    0,
    0,
    0,
    0,
    0,
    0,
    0,
    0,
    0,
    0,
    0,
    0,
    0,
    0,
    0,
    0,
    0,
    0,
    771,
    772,
    387,
    370,
    370,
    370,
    269,
    270,
    0,
    0,
    0,
    267,
    268,
    370,
    370,
    370,
    370,
    388,
    658,
    0,
    0,
    0,
    0,
    0,
    0,
    0,
    0,
    0,
    0,
    0,
    0,
    0,
    0,
    0,
    0,
    0,
    0,
    1387,
    0,
    0,
    527,
    528,
    1425,
    1426,
    1427,
    527,
    528,
    0,
    0,
    0,
    0,
    1387,
    0,
    0,
    0,
    0,
    0,
    0,
    0,
    0,
    0,
    0,
    0,
    0,
    0,
    0,
    0,
    0,
    0,
    0,
    0,
    0,
    0,
    0,
    0,
    0,
    0,
    0,
    0,
    0,
    0,
    0,
    0,
    0,
    0,
    0,
    0,
    0,
    0,
    0,
    0,
    0,
    0,
    390,
    0,
    0,
    390,
    0,
    0,
    0,
    0,
    0,
    0,
    0,
    0,
    0,
    0,
    0,
    0,
    0,
    0,
    0,
    0,
    0,
    0,
    0,
    0,
    0,
    0,
    0,
    0,
    0,
    0,
    0,
    0,
    0,
    0,
    0,
    0,
    758,
    657,
    657,
    657,
    657,
    607,
    608,
    1393,
    1394,
    1395,
    655,
    656,
    657,
    657,
    657,
    657,
    663,
    664,
    0,
    0,
    0,
    0,
    0,
    0,
    0,
    0,
    0,
    0,
    0,
    0,
    0,
    0,
    0,
    0,
    0,
    0,
    0,
    0,
    0,
    0,
    415,
    416,
    0,
    0,
    0,
    0,
    0,
    0,
    415,
    416,
    0,
    0,
    0,
    1387,
    3,
    0,
    0,
    0,
    0,
    0,
    0,
    0,
    0,
    0,
    0,
    0,
    0,
    0,
    0,
    0,
    0,
    0,
    0,
    0,
    0,
    0,
    0,
    0,
    0,
    0,
    0,
    0,
    0,
    0,
    0,
    0,
    0,
    0,
    0,
    0,
    0,
    0,
    0,
    0,
    0,
    390,
    0,
    0,
    0,
    0,
    0,
    0,
    0,
    0,
    0,
    0,
    0,
    0,
    0,
    0,
    0,
    0,
    0,
    0,
    0,
    0,
    0,
    0,
    0,
    0,
    0,
    0,
    0,
    0,
    0,
    0,
    0,
    0,
    774,
    673,
    673,
    673,
    673,
    623,
    624,
    1412,
    1413,
    1414,
    671,
    672,
    673,
    673,
    673,
    673,
    679,
    0,
    0,
    0,
    0,
    0,
    0,
    0,
    0,
    0,
    0,
    0,
    0,
    0,
    0,
    0,
    0,
    0,
    0,
    1387,
    1387,
    472,
    473,
    369,
    591,
    592,
    369,
    369,
    369,
    369,
    369,
    369,
    591,
    592,
    569,
    570,
    1387,
    0,
    0,
    0,
    390,
    390,
    390,
    390,
    390,
    390,
    390,
    0,
    0,
    390,
    390,
    390,
    390,
    390,
    390,
    390,
    390,
    0,
    0,
    390,
    390,
    390,
    390,
    390,
    390,
    390,
    390,
    390,
    0,
    0,
    0,
    0,
    0,
    0,
    0,
    0,
    0,
    0,
    0,
    0,
    0,
    0,
    0,
    0,
    0,
    0,
    0,
    0,
    0,
    0,
    0,
    0,
    0,
    0,
    0,
    0,
    0,
    0,
    0,
    0,
    0,
    0,
    0,
    0,
    0,
    0,
    0,
    0,
    0,
    0,
    0,
    0,
    0,
    0,
    0,
    0,
    0,
    639,
    640,
    1428,
    390,
    1430,
    687,
    688,
    0,
    0,
    0,
    0,
    0,
    0,
    0,
    0,
    0,
    0,
    0,
    0,
    0,
    0,
    0,
    0,
    0,
    0,
    0,
    0,
    0,
    0,
    0,
    1387,
    1387,
    481,
    389,
    375,
    559,
    560,
    375,
    375,
    375,
    375,
    375,
    375,
    559,
    560,
    374,
    578,
    0,
    0,
    0,
    0,
    0,
    0,
    0,
    0,
    0,
    0,
    0,
    0,
    0,
    0,
    0,
    0,
    0,
    0,
    0,
    0,
    0,
    0,
    0,
    0,
    0,
    0,
    0,
    0,
    0,
    0,
    0,
    0,
    0,
    0,
    0,
    0,
    0,
    0,
    0,
    0,
    0,
    0,
    0,
    0,
    0,
    0,
    0,
    0,
    0,
    0,
    0,
    0,
    0,
    0,
    0,
    0,
    0,
    0,
    0,
    0,
    0,
    0,
    0,
    0,
    0,
    0,
    0,
    0,
    0,
    0,
    0,
    0,
    0,
    0,
    0,
    0,
    0,
    0,
    0,
    0,
    0,
    0,
    0,
    0,
    390,
    0,
    0,
    0,
    0,
    0,
    0,
    0,
    0,
    0,
    0,
    0,
    0,
    0,
    0,
    0,
    0,
    0,
    0,
    0,
    0,
    0,
    0,
    0,
    0,
    0,
    0,
    1387,
    466,
    467,
    392,
    391,
    575,
    576,
    391,
    391,
    391,
    391,
    391,
    391,
    575,
    576,
    292,
    579,
    580,
    0,
    0,
    0,
    0,
    0,
    0,
    0,
    0,
    0,
    0,
    0,
    0,
    0,
    0,
    0,
    0,
    0,
    0,
    0,
    0,
    0,
    0,
    0,
    0,
    0,
    0,
    0,
    0,
    0,
    0,
    0,
    0,
    0,
    0,
    0,
    0,
    0,
    0,
    0,
    0,
    0,
    0,
    0,
    0,
    0,
    0,
    0,
    0,
    0,
    0,
    0,
    0,
    0,
    0,
    0,
    0,
    0,
    0,
    0,
    0,
    0,
    0,
    0,
    0,
    0,
    0,
    0,
    0,
    0,
    0,
    0,
    0,
    0,
    0,
    0,
    0,
    0,
    0,
    0,
    0,
    0,
    0,
    0,
    0,
    0,
    0,
    0,
    0,
    0,
    0,
    0,
    0,
    0,
    0,
    0,
    0,
    0,
    0,
    0,
    0,
    0,
    0,
    0,
    0,
    0,
    0,
    0,
    0,
    0,
    0,
    1387,
    481,
    378,
    379,
    0,
    0,
    0,
    0,
    0,
    0,
    0,
    0,
    0,
    0,
    0,
    290,
    291,
    578,
    0,
    0,
    0,
    0,
    0,
    0,
    0,
    0,
    0,
    0,
    0,
    0,
    0,
    0,
    0,
    0,
    0,
    0,
    0,
    0,
    0,
    0,
    0,
    0,
    0,
    0,
    0,
    0,
    0,
    0,
    0,
    0,
    0,
    0,
    0,
    0,
    0,
    0,
    0,
    0,
    0,
    0,
    0,
    0,
    0,
    0,
    0,
    0,
    0,
    0,
    0,
    0,
    0,
    0,
    0,
    0,
    0,
    0,
    0,
    0,
    0,
    0,
    0,
    0,
    0,
    0,
    0,
    0,
    0,
    0,
    0,
    0,
    0,
    0,
    0,
    0,
    0,
    0,
    0,
    0,
    0,
    0,
    0,
    0,
    0,
    0,
    0,
    0,
    0,
    0,
    0,
    0,
    0,
    0,
    0,
    0,
    0,
    0,
    0,
    0,
    0,
    0,
    0,
    0,
    0,
    0,
    0,
    0,
    0,
    0,
    466,
    467,
    376,
    1271,
    0,
    3,
    0,
    0,
    0,
    0,
    0,
    0,
    0,
    0,
    0,
    0,
    276,
    579,
    580,
    1387,
    0,
    0,
    0,
    0,
    0,
    0,
    0,
    0,
    0,
    0,
    0,
    0,
    0,
    0,
    0,
    0,
    0,
    0,
    0,
    0,
    0,
    0,
    0,
    0,
    0,
    0,
    0,
    0,
    0,
    0,
    0,
    0,
    0,
    0,
    0,
    0,
    0,
    0,
    0,
    0,
    0,
    0,
    0,
    0,
    0,
    0,
    0,
    0,
    0,
    0,
    0,
    0,
    0,
    0,
    0,
    0,
    0,
    0,
    0,
    0,
    0,
    0,
    0,
    0,
    0,
    0,
    0,
    0,
    0,
    0,
    0,
    0,
    0,
    0,
    0,
    0,
    0,
    0,
    0,
    0,
    0,
    0,
    0,
    0,
    0,
    0,
    0,
    0,
    0,
    0,
    0,
    0,
    0,
    0,
    0,
    0,
    0,
    0,
    0,
    0,
    0,
    0,
    0,
    0,
    0,
    0,
    0,
    1387,
    481,
    378,
    379,
    0,
    0,
    0,
    0,
    0,
    0,
    0,
    0,
    0,
    0,
    0,
    0,
    0,
    290,
    291,
    578,
    0,
    0,
    390,
    390,
    0,
    0,
    390,
    390,
    390,
    0,
    0,
    390,
    390,
    390,
    390,
    0,
    0,
    0,
    0,
    0,
    0,
    0,
    0,
    0,
    0,
    0,
    0,
    0,
    0,
    0,
    0,
    0,
    0,
    0,
    0,
    0,
    0,
    0,
    0,
    0,
    0,
    0,
    0,
    0,
    0,
    0,
    0,
    0,
    0,
    0,
    0,
    0,
    0,
    0,
    0,
    0,
    0,
    0,
    0,
    0,
    0,
    0,
    0,
    0,
    0,
    0,
    0,
    0,
    0,
    0,
    0,
    0,
    0,
    0,
    0,
    0,
    0,
    0,
    0,
    0,
    0,
    0,
    0,
    0,
    0,
    0,
    0,
    0,
    0,
    0,
    0,
    0,
    0,
    0,
    0,
    0,
    0,
    0,
    0,
    0,
    0,
    0,
    0,
    0,
    0,
    0,
    0,
    0,
    466,
    467,
    376,
    1271,
    0,
    0,
    0,
    0,
    0,
    0,
    0,
    0,
    0,
    0,
    0,
    0,
    0,
    0,
    276,
    579,
    580,
    0,
    0,
    0,
    0,
    0,
    0,
    0,
    0,
    0,
    0,
    0,
    0,
    0,
    0,
    0,
    0,
    0,
    0,
    0,
    0,
    0,
    0,
    0,
    0,
    0,
    0,
    0,
    0,
    0,
    0,
    0,
    0,
    0,
    0,
    0,
    0,
    0,
    0,
    0,
    0,
    0,
    0,
    0,
    0,
    0,
    0,
    0,
    0,
    0,
    0,
    0,
    0,
    0,
    0,
    0,
    0,
    0,
    0,
    0,
    0,
    0,
    0,
    0,
    0,
    0,
    0,
    0,
    0,
    0,
    0,
    0,
    0,
    0,
    0,
    0,
    0,
    0,
    0,
    0,
    0,
    0,
    0,
    0,
    0,
    0,
    0,
    0,
    0,
    0,
    0,
    0,
    0,
    0,
    0,
    0,
    0,
    0,
    0,
    0,
    0,
    0,
    0,
    0,
    0,
    0,
    0,
    0,
    179,
    390,
    194,
    0,
    0,
    0,
    0,
    0,
    0,
    0,
    0,
    0,
    0,
    0,
    0,
    0,
    0,
    0,
    162,
    390,
    146,
    0,
    0,
    0,
    0,
    0,
    0,
    0,
    0,
    0,
    0,
    0,
    0,
    0,
    0,
    0,
    0,
    0,
    0,
    0,
    0,
    0,
    0,
    0,
    0,
    0,
    0,
    0,
    0,
    0,
    0,
    0,
    0,
    0,
    0,
    0,
    0,
    0,
    0,
    0,
    0,
    0,
    0,
    0,
    0,
    0,
    0,
    0,
    0,
    0,
    0,
    0,
    0,
    0,
    0,
    0,
    0,
    0,
    0,
    0,
    0,
    0,
    0,
    0,
    0,
    0,
    0,
    0,
    0,
    0,
    0,
    0,
    0,
    0,
    0,
    0,
    0,
    0,
    0,
    0,
    0,
    0,
    0,
    0,
    0,
    0,
    0,
    0,
    0,
    0,
    0,
    0,
    0,
    0,
    0,
    0,
    0,
    0,
    0,
    0,
    0,
    0,
    0,
    0,
    0,
    0,
    0,
    0,
    179,
    390,
    178,
    0,
    0,
    0,
    0,
    0,
    0,
    0,
    0,
    0,
    0,
    0,
    0,
    0,
    0,
    0,
    162,
    390,
    146,
    0,
    0,
    0,
    0,
    0,
    0,
    0,
    0,
    0,
    0,
    0,
    0,
    0,
    0,
    0,
    0,
    0,
    0,
    0,
    0,
    0,
    0,
    0,
    0,
    0,
    0,
    0,
    0,
    0,
    0,
    0,
    0,
    0,
    0,
    0,
    0,
    0,
    0,
    0,
    0,
    0,
    0,
    0,
    0,
    0,
    0,
    0,
    0,
    0,
    0,
    0,
    0,
    0,
    0,
    0,
    0,
    0,
    0,
    0,
    0,
    0,
    0,
    0,
    0,
    0,
    0,
    0,
    0,
    0,
    0,
    0,
    0,
    0,
    0,
    0,
    0,
    198,
    177,
    177,
    177,
    177,
    177,
    177,
    177,
    166,
    0,
    0,
    0,
    0,
    0,
    0,
    0,
    0,
    0,
    0,
    0,
    0,
    0,
    0,
    0,
    0,
    0,
    0,
    0,
    0,
    0,
    0,
    179,
    390,
    178,
    0,
    0,
    0,
    0,
    0,
    0,
    0,
    0,
    0,
    0,
    0,
    0,
    0,
    0,
    0,
    162,
    390,
    146,
    0,
    0,
    0,
    0,
    0,
    0,
    0,
    0,
    0,
    0,
    0,
    0,
    0,
    0,
    0,
    0,
    0,
    0,
    0,
    0,
    0,
    0,
    0,
    0,
    0,
    0,
    0,
    0,
    0,
    0,
    0,
    0,
    0,
    0,
    0,
    0,
    0,
    0,
    0,
    0,
    0,
    0,
    0,
    0,
    0,
    0,
    0,
    0,
    0,
    0,
    0,
    0,
    0,
    0,
    0,
    0,
    0,
    0,
    0,
    0,
    0,
    0,
    0,
    0,
    0,
    0,
    0,
    0,
    0,
    0,
    0,
    0,
    0,
    0,
    0,
    0,
    196,
    193,
    193,
    193,
    193,
    193,
    193,
    193,
    165,
    0,
    0,
    0,
    0,
    0,
    0,
    0,
    0,
    0,
    0,
    0,
    0,
    0,
    0,
    0,
    0,
    0,
    0,
    0,
    0,
    0,
    0,
    179,
    390,
    178,
    0,
    0,
    0,
    0,
    0,
    0,
    0,
    0,
    0,
    0,
    0,
    0,
    0,
    0,
    0,
    162,
    390,
    146,
    3,
    0,
    0,
    0,
    0,
    0,
    0,
    0,
    0,
    0,
    0,
    0,
    0,
    0,
    0,
    0,
    0,
    0,
    0,
    0,
    0,
    0,
    0,
    0,
    0,
    0,
    0,
    0,
    0,
    0,
    0,
    0,
    0,
    0,
    0,
    0,
    0,
    0,
    0,
    0,
    0,
    0,
    0,
    0,
    0,
    0,
    0,
    0,
    0,
    0,
    0,
    0,
    0,
    0,
    0,
    0,
    0,
    0,
    0,
    0,
    0,
    0,
    0,
    0,
    0,
    0,
    0,
    0,
    0,
    0,
    0,
    0,
    0,
    0,
    0,
    180,
    181,
    0,
    0,
    0,
    0,
    0,
    0,
    2,
    149,
    150,
    0,
    0,
    0,
    0,
    0,
    0,
    0,
    0,
    0,
    0,
    0,
    0,
    0,
    0,
    0,
    0,
    0,
    0,
    0,
    0,
    0,
    482,
    483,
    377,
    1272,
    0,
    0,
    0,
    0,
    0,
    0,
    0,
    0,
    0,
    0,
    0,
    0,
    0,
    0,
    162,
    390,
    146,
    3,
    0,
    0,
    0,
    0,
    0,
    0,
    0,
    0,
    0,
    0,
    0,
    0,
    0,
    0,
    0,
    0,
    0,
    0,
    0,
    0,
    0,
    0,
    0,
    0,
    0,
    0,
    0,
    0,
    0,
    0,
    0,
    0,
    0,
    0,
    0,
    0,
    0,
    0,
    0,
    0,
    0,
    0,
    0,
    0,
    0,
    0,
    0,
    0,
    0,
    0,
    0,
    0,
    0,
    0,
    0,
    0,
    0,
    0,
    0,
    0,
    0,
    0,
    0,
    0,
    0,
    0,
    0,
    0,
    0,
    0,
    0,
    0,
    0,
    0,
    195,
    0,
    0,
    0,
    0,
    0,
    0,
    0,
    0,
    0,
    146,
    0,
    0,
    0,
    0,
    0,
    0,
    0,
    0,
    0,
    0,
    0,
    0,
    0,
    0,
    0,
    0,
    0,
    0,
    0,
    0,
    0,
    0,
    468,
    394,
    395,
    0,
    0,
    0,
    0,
    0,
    0,
    0,
    0,
    0,
    0,
    0,
    0,
    0,
    3,
    289,
    563,
    564,
    3,
    0,
    0,
    0,
    0,
    0,
    0,
    0,
    0,
    0,
    0,
    0,
    0,
    0,
    0,
    0,
    0,
    0,
    0,
    0,
    0,
    0,
    0,
    0,
    0,
    0,
    0,
    0,
    0,
    0,
    0,
    0,
    0,
    0,
    0,
    0,
    0,
    0,
    0,
    0,
    0,
    0,
    0,
    0,
    0,
    0,
    0,
    0,
    0,
    0,
    0,
    0,
    0,
    0,
    0,
    0,
    0,
    0,
    0,
    0,
    0,
    0,
    0,
    0,
    0,
    0,
    0,
    0,
    0,
    0,
    0,
    0,
    0,
    0,
    0,
    194,
    0,
    0,
    0,
    0,
    0,
    0,
    0,
    0,
    0,
    146,
    0,
    0,
    0,
    0,
    0,
    0,
    0,
    0,
    0,
    0,
    0,
    0,
    0,
    0,
    0,
    0,
    0,
    0,
    0,
    0,
    0,
    0,
    482,
    483,
    377,
    1272,
    0,
    0,
    0,
    0,
    0,
    0,
    0,
    0,
    0,
    0,
    0,
    0,
    274,
    275,
    562,
    0,
    0,
    0,
    0,
    0,
    0,
    0,
    0,
    0,
    0,
    0,
    0,
    0,
    0,
    0,
    0,
    0,
    0,
    0,
    0,
    0,
    0,
    0,
    0,
    0,
    0,
    0,
    0,
    0,
    0,
    0,
    0,
    0,
    0,
    0,
    0,
    0,
    0,
    0,
    0,
    0,
    0,
    0,
    0,
    0,
    0,
    0,
    0,
    0,
    0,
    0,
    0,
    0,
    0,
    0,
    0,
    0,
    0,
    0,
    0,
    0,
    0,
    0,
    0,
    0,
    0,
    0,
    0,
    0,
    0,
    0,
    0,
    0,
    0,
    0,
    0,
    178,
    0,
    0,
    0,
    0,
    0,
    0,
    0,
    0,
    3,
    146,
    0,
    0,
    0,
    0,
    0,
    0,
    0,
    0,
    0,
    0,
    0,
    0,
    0,
    0,
    0,
    0,
    0,
    0,
    0,
    0,
    0,
    0,
    0,
    468,
    394,
    395,
    0,
    0,
    0,
    2,
    0,
    0,
    0,
    0,
    0,
    0,
    0,
    0,
    289,
    563,
    564,
    0,
    0,
    0,
    0,
    0,
    0,
    0,
    0,
    0,
    0,
    0,
    0,
    0,
    0,
    0,
    0,
    0,
    0,
    0,
    0,
    0,
    0,
    0,
    0,
    0,
    0,
    0,
    0,
    0,
    0,
    0,
    0,
    0,
    0,
    0,
    0,
    0,
    0,
    0,
    0,
    0,
    0,
    0,
    0,
    0,
    0,
    0,
    0,
    0,
    0,
    0,
    0,
    0,
    0,
    0,
    0,
    0,
    0,
    0,
    0,
    0,
    0,
    0,
    0,
    0,
    0,
    0,
    0,
    0,
    0,
    0,
    0,
    0,
    0,
    0,
    0,
    178,
    0,
    0,
    0,
    0,
    0,
    0,
    0,
    0,
    3,
    146,
    0,
    0,
    0,
    0,
    0,
    0,
    0,
    0,
    0,
    0,
    0,
    0,
    0,
    0,
    0,
    0,
    0,
    0,
    0,
    0,
    0,
    0,
    0,
    482,
    483,
    377,
    1272,
    0,
    0,
    0,
    3,
    0,
    0,
    0,
    0,
    0,
    0,
    274,
    275,
    562,
    0,
    0,
    0,
    0,
    0,
    0,
    0,
    0,
    0,
    0,
    0,
    0,
    0,
    0,
    0,
    0,
    0,
    0,
    0,
    0,
    0,
    0,
    0,
    0,
    0,
    0,
    0,
    0,
    0,
    0,
    0,
    0,
    0,
    0,
    0,
    0,
    0,
    0,
    0,
    0,
    0,
    0,
    0,
    0,
    0,
    0,
    0,
    0,
    0,
    0,
    0,
    0,
    0,
    0,
    0,
    0,
    0,
    0,
    0,
    0,
    0,
    0,
    0,
    0,
    0,
    0,
    0,
    0,
    0,
    0,
    0,
    0,
    0,
    0,
    0,
    0,
    0,
    197,
    0,
    479,
    480,
    0,
    0,
    0,
    479,
    480,
    0,
    146,
    0,
    0,
    0,
    0,
    0,
    0,
    0,
    0,
    0,
    0,
    0,
    0,
    0,
    0,
    0,
    0,
    0,
    0,
    0,
    0,
    0,
    0,
    0,
    0,
    468,
    373,
    370,
    370,
    269,
    270,
    0,
    0,
    0,
    267,
    268,
    370,
    370,
    371,
    563,
    564,
    0,
    0,
    0,
    0,
    0,
    0,
    0,
    0,
    0,
    0,
    0,
    0,
    0,
    0,
    0,
    0,
    0,
    0,
    0,
    0,
    0,
    0,
    0,
    0,
    0,
    0,
    0,
    0,
    0,
    0,
    0,
    0,
    0,
    0,
    0,
    0,
    0,
    0,
    0,
    0,
    0,
    0,
    0,
    0,
    0,
    0,
    0,
    0,
    0,
    0,
    0,
    0,
    0,
    0,
    0,
    0,
    0,
    0,
    0,
    0,
    0,
    0,
    0,
    0,
    0,
    0,
    0,
    0,
    0,
    0,
    0,
    0,
    0,
    0,
    0,
    0,
    0,
    185,
    186,
    495,
    496,
    1393,
    1394,
    1395,
    495,
    496,
    152,
    153,
    0,
    0,
    0,
    0,
    0,
    0,
    0,
    0,
    0,
    0,
    0,
    0,
    0,
    0,
    0,
    0,
    0,
    0,
    0,
    0,
    0,
    0,
    0,
    0,
    470,
    471,
    561,
    561,
    607,
    608,
    1393,
    1394,
    1395,
    655,
    656,
    561,
    561,
    561,
    566,
    0,
    0,
    0,
    0,
    0,
    0,
    0,
    0,
    0,
    0,
    0,
    0,
    0,
    0,
    0,
    0,
    0,
    0,
    0,
    0,
    0,
    0,
    0,
    0,
    0,
    0,
    0,
    0,
    0,
    0,
    0,
    0,
    0,
    0,
    0,
    0,
    0,
    0,
    0,
    0,
    0,
    0,
    0,
    0,
    0,
    0,
    0,
    0,
    0,
    0,
    0,
    0,
    0,
    0,
    0,
    0,
    0,
    0,
    0,
    0,
    0,
    0,
    0,
    0,
    0,
    0,
    0,
    0,
    0,
    0,
    0,
    0,
    0,
    0,
    0,
    0,
    0,
    0,
    201,
    202,
    511,
    512,
    1409,
    1410,
    1411,
    511,
    512,
    168,
    169,
    0,
    0,
    0,
    0,
    0,
    0,
    0,
    0,
    0,
    0,
    0,
    0,
    0,
    0,
    0,
    0,
    0,
    0,
    0,
    0,
    0,
    0,
    1387,
    0,
    486,
    487,
    577,
    577,
    511,
    512,
    1409,
    1410,
    1411,
    511,
    512,
    577,
    577,
    577,
    582,
    0,
    0,
    0,
    0,
    0,
    0,
    0,
    0,
    0,
    0,
    0,
    0,
    0,
    0,
    0,
    0,
    0,
    0,
    0,
    0,
    0,
    0,
    0,
    0,
    0,
    0,
    0,
    0,
    0,
    0,
    0,
    0,
    0,
    0,
    0,
    0,
    0,
    0,
    0,
    0,
    0,
    0,
    0,
    0,
    0,
    0,
    0,
    0,
    0,
    0,
    0,
    0,
    0,
    0,
    0,
    0,
    0,
    0,
    0,
    0,
    0,
    0,
    0,
    0,
    0,
    0,
    0,
    0,
    0,
    0,
    0,
    0,
    0,
    0,
    0,
    0,
    0,
    0,
    0,
    0,
    527,
    528,
    1425,
    1426,
    1427,
    527,
    528,
    0,
    0,
    0,
    0,
    0,
    0,
    0,
    0,
    0,
    0,
    0,
    0,
    0,
    0,
    0,
    0,
    0,
    0,
    0,
    0,
    0,
    0,
    0,
    1387,
    0,
    0,
    0,
    0,
    0,
    0,
    527,
    528,
    1425,
    1426,
    1427,
    527,
    528,
    0,
    0,
    0,
    0,
    0,
    0,
    0,
    0,
    0,
    0,
    0,
    0,
    0,
    0,
    0,
    0,
    0,
    0,
    0,
    0,
    0,
    0,
    0,
    0,
    0,
    0,
    0,
    0,
    0,
    0,
    0,
    0,
    0,
    0,
    0,
    0,
    0,
    0,
    0,
    0,
    0,
    0,
    0,
    0,
    0,
    0,
    0,
    0,
    0,
    0,
    0,
    0,
    0,
    0,
    0,
    0,
    0,
    0,
    0,
    0,
    0,
    0,
    0,
    0,
    0,
    0,
    0,
    0,
    0,
    0,
    0,
    0,
    0,
    0,
    0,
    0,
    0,
    0,
    0,
    0,
    0,
    0,
    0,
    0,
    0,
    0,
    0,
    0,
    0,
    0,
    0,
    0,
    0,
    0,
    0,
    0,
    0,
    0,
    0,
    0,
    0,
    0,
    0,
    0,
    0,
    0,
    0,
    0,
    0,
    0,
    0,
    0,
    0,
    0,
    0,
    0,
    0,
    0,
    0,
    0,
    0,
    1387,
    0,
    0,
    415,
    416,
    0,
    0,
    0,
    0,
    0,
    0,
    0,
    415,
    416,
    0,
    1387,
    0,
    0,
    0,
    0,
    0,
    0,
    0,
    0,
    0,
    0,
    0,
    0,
    0,
    0,
    0,
    0,
    0,
    0,
    0,
    0,
    0,
    0,
    0,
    0,
    0,
    0,
    0,
    0,
    0,
    0,
    0,
    0,
    0,
    0,
    0,
    0,
    0,
    0,
    0,
    0,
    0,
    0,
    0,
    0,
    0,
    0,
    0,
    0,
    0,
    0,
    0,
    0,
    0,
    0,
    0,
    0,
    0,
    0,
    0,
    0,
    0,
    0,
    0,
    0,
    0,
    0,
    0,
    0,
    0,
    0,
    0,
    0,
    0,
    0,
    0,
    0,
    0,
    0,
    0,
    0,
    0,
    0,
    0,
    0,
    0,
    0,
    0,
    0,
    0,
    0,
    0,
    0,
    0,
    0,
    0,
    0,
    0,
    0,
    0,
    0,
    0,
    0,
    0,
    0,
    0,
    0,
    0,
    0,
    0,
    0,
    0,
    0,
    472,
    473,
    369,
    591,
    592,
    369,
    369,
    369,
    369,
    369,
    369,
    369,
    591,
    592,
    369,
    569,
    570,
    0,
    0,
    0,
    0,
    0,
    0,
    0,
    0,
    0,
    0,
    0,
    0,
    0,
    0,
    0,
    0,
    0,
    0,
    0,
    0,
    0,
    0,
    0,
    0,
    0,
    0,
    0,
    0,
    0,
    0,
    0,
    0,
    0,
    0,
    0,
    0,
    0,
    0,
    0,
    0,
    0,
    0,
    0,
    0,
    0,
    0,
    0,
    0,
    0,
    0,
    0,
    0,
    0,
    0,
    0,
    0,
    0,
    0,
    0,
    0,
    0,
    0,
    0,
    0,
    0,
    0,
    0,
    0,
    0,
    0,
    0,
    0,
    0,
    0,
    0,
    0,
    0,
    0,
    0,
    0,
    0,
    0,
    0,
    0,
    0,
    0,
    0,
    0,
    0,
    0,
    0,
    0,
    0,
    0,
    0,
    0,
    0,
    0,
    0,
    0,
    0,
    0,
    0,
    0,
    0,
    0,
    0,
    0,
    0,
    0,
    1387,
    481,
    389,
    375,
    559,
    560,
    375,
    375,
    375,
    375,
    375,
    375,
    375,
    559,
    560,
    375,
    374,
    578,
    0,
    0,
    0,
    0,
    0,
    0,
    0,
    0,
    0,
    0,
    0,
    0,
    0,
    0,
    0,
    0,
    0,
    0,
    0,
    0,
    0,
    0,
    0,
    0,
    0,
    0,
    0,
    0,
    0,
    0,
    0,
    0,
    0,
    0,
    0,
    0,
    0,
    0,
    0,
    0,
    0,
    0,
    0,
    0,
    0,
    0,
    0,
    0,
    0,
    0,
    0,
    0,
    0,
    0,
    0,
    0,
    0,
    0,
    0,
    0,
    0,
    0,
    0,
    0,
    0,
    0,
    0,
    0,
    0,
    0,
    0,
    0,
    0,
    1387,
    1387,
    0,
    0,
    0,
    0,
    415,
    416,
    0,
    0,
    0,
    0,
    0,
    0,
    0,
    0,
    0,
    0,
    0,
    0,
    0,
    0,
    0,
    0,
    0,
    0,
    0,
    0,
    0,
    0,
    0,
    0,
    0,
    0,
    0,
    0,
    0,
    466,
    467,
    392,
    391,
    575,
    576,
    391,
    391,
    391,
    391,
    391,
    391,
    391,
    575,
    576,
    391,
    292,
    579,
    580,
    1387,
    0,
    0,
    0,
    0,
    0,
    0,
    0,
    0,
    0,
    0,
    0,
    0,
    0,
    0,
    0,
    0,
    0,
    0,
    0,
    0,
    0,
    0,
    0,
    0,
    0,
    0,
    0,
    0,
    0,
    0,
    0,
    0,
    0,
    0,
    0,
    0,
    0,
    0,
    0,
    0,
    0,
    0,
    0,
    0,
    0,
    0,
    0,
    0,
    0,
    0,
    0,
    0,
    0,
    0,
    0,
    0,
    0,
    0,
    0,
    0,
    0,
    0,
    0,
    0,
    0,
    0,
    0,
    0,
    198,
    177,
    177,
    177,
    177,
    177,
    177,
    177,
    177,
    431,
    432,
    166,
    0,
    0,
    0,
    0,
    0,
    0,
    0,
    0,
    0,
    0,
    0,
    0,
    0,
    0,
    0,
    0,
    0,
    0,
    0,
    0,
    0,
    0,
    0,
    0,
    0,
    0,
    0,
    1387,
    481,
    378,
    379,
    0,
    0,
    0,
    0,
    0,
    0,
    0,
    0,
    0,
    0,
    0,
    0,
    0,
    290,
    291,
    578,
    0,
    1387,
    0,
    0,
    0,
    0,
    0,
    0,
    0,
    0,
    0,
    0,
    0,
    0,
    0,
    0,
    0,
    0,
    0,
    0,
    0,
    0,
    0,
    0,
    0,
    0,
    0,
    0,
    0,
    0,
    0,
    0,
    0,
    0,
    0,
    0,
    0,
    0,
    0,
    0,
    0,
    0,
    0,
    0,
    0,
    0,
    0,
    0,
    0,
    0,
    0,
    0,
    0,
    0,
    0,
    0,
    0,
    0,
    0,
    0,
    0,
    0,
    0,
    0,
    0,
    0,
    0,
    0,
    0,
    196,
    193,
    193,
    193,
    193,
    193,
    193,
    193,
    193,
    447,
    448,
    165,
    0,
    0,
    0,
    0,
    0,
    0,
    0,
    0,
    0,
    0,
    0,
    0,
    0,
    0,
    0,
    0,
    0,
    0,
    0,
    0,
    0,
    0,
    0,
    0,
    0,
    0,
    1387,
    466,
    467,
    376,
    1271,
    391,
    0,
    0,
    0,
    0,
    0,
    0,
    0,
    0,
    0,
    0,
    0,
    0,
    0,
    276,
    579,
    580,
    1387,
    1387,
    0,
    0,
    0,
    0,
    0,
    0,
    0,
    0,
    0,
    0,
    0,
    0,
    0,
    0,
    0,
    0,
    0,
    0,
    0,
    0,
    0,
    0,
    0,
    0,
    0,
    0,
    0,
    0,
    0,
    0,
    0,
    0,
    0,
    0,
    0,
    0,
    0,
    0,
    0,
    0,
    0,
    0,
    0,
    0,
    0,
    0,
    0,
    0,
    0,
    0,
    0,
    0,
    0,
    0,
    0,
    0,
    0,
    0,
    0,
    0,
    0,
    0,
    0,
    0,
    0,
    180,
    181,
    0,
    0,
    0,
    0,
    0,
    0,
    0,
    0,
    463,
    464,
    149,
    150,
    0,
    0,
    0,
    0,
    0,
    0,
    0,
    0,
    0,
    0,
    0,
    0,
    0,
    0,
    0,
    0,
    0,
    0,
    0,
    0,
    0,
    0,
    0,
    0,
    0,
    1387,
    481,
    378,
    379,
    0,
    0,
    0,
    0,
    0,
    0,
    0,
    0,
    0,
    0,
    0,
    0,
    0,
    0,
    0,
    290,
    291,
    578,
    0,
    1387,
    1387,
    0,
    0,
    0,
    0,
    0,
    0,
    0,
    0,
    0,
    0,
    0,
    0,
    0,
    0,
    0,
    0,
    0,
    0,
    0,
    0,
    0,
    0,
    0,
    0,
    0,
    0,
    0,
    0,
    0,
    0,
    0,
    0,
    0,
    0,
    0,
    0,
    0,
    0,
    0,
    0,
    0,
    0,
    0,
    0,
    0,
    0,
    0,
    0,
    0,
    0,
    0,
    0,
    0,
    0,
    0,
    0,
    0,
    0,
    0,
    0,
    0,
    0,
    0,
    0,
    195,
    0,
    0,
    0,
    0,
    0,
    0,
    0,
    0,
    0,
    0,
    0,
    0,
    148,
    0,
    0,
    0,
    0,
    0,
    0,
    0,
    0,
    0,
    0,
    0,
    0,
    0,
    0,
    0,
    0,
    0,
    0,
    0,
    0,
    0,
    0,
    0,
    0,
    1387,
    466,
    467,
    376,
    1271,
    0,
    0,
    0,
    0,
    0,
    0,
    0,
    0,
    0,
    0,
    0,
    0,
    0,
    0,
    0,
    0,
    276,
    579,
    580,
    0,
    0,
    0,
    0,
    0,
    0,
    0,
    0,
    0,
    0,
    0,
    0,
    0,
    0,
    0,
    0,
    0,
    0,
    0,
    0,
    0,
    0,
    0,
    0,
    0,
    0,
    0,
    0,
    0,
    0,
    0,
    0,
    0,
    0,
    0,
    0,
    0,
    0,
    0,
    0,
    0,
    0,
    0,
    0,
    0,
    0,
    0,
    0,
    0,
    0,
    0,
    0,
    0,
    0,
    0,
    0,
    0,
    0,
    0,
    0,
    0,
    0,
    0,
    0,
    0,
    0,
    194,
    0,
    0,
    0,
    0,
    0,
    0,
    0,
    0,
    0,
    0,
    0,
    0,
    149,
    150,
    0,
    0,
    0,
    0,
    0,
    0,
    0,
    0,
    0,
    0,
    0,
    0,
    0,
    0,
    0,
    0,
    0,
    0,
    0,
    0,
    0,
    0,
    0,
    1387,
    481,
    378,
    379,
    0,
    0,
    0,
    0,
    0,
    0,
    0,
    0,
    0,
    0,
    0,
    0,
    0,
    0,
    0,
    0,
    0,
    290,
    291,
    578,
    0,
    1387,
    0,
    0,
    0,
    0,
    0,
    0,
    0,
    0,
    0,
    0,
    0,
    0,
    0,
    0,
    0,
    0,
    0,
    0,
    0,
    0,
    0,
    0,
    0,
    0,
    0,
    0,
    0,
    0,
    0,
    0,
    0,
    0,
    0,
    0,
    0,
    0,
    0,
    0,
    0,
    0,
    0,
    0,
    0,
    0,
    0,
    0,
    0,
    0,
    0,
    0,
    0,
    0,
    0,
    0,
    0,
    0,
    0,
    0,
    0,
    0,
    0,
    0,
    0,
    0,
    178,
    0,
    0,
    0,
    0,
    0,
    0,
    0,
    0,
    0,
    0,
    0,
    0,
    0,
    146,
    0,
    0,
    0,
    0,
    0,
    0,
    0,
    0,
    0,
    0,
    0,
    0,
    0,
    0,
    0,
    0,
    0,
    0,
    0,
    0,
    0,
    0,
    1387,
    466,
    467,
    376,
    1271,
    0,
    0,
    0,
    0,
    0,
    0,
    0,
    0,
    0,
    0,
    0,
    0,
    0,
    0,
    0,
    0,
    0,
    0,
    276,
    579,
    580,
    0,
    0,
    0,
    0,
    0,
    0,
    0,
    0,
    0,
    0,
    0,
    0,
    0,
    0,
    0,
    0,
    0,
    0,
    0,
    0,
    0,
    0,
    0,
    0,
    0,
    0,
    0,
    0,
    0,
    0,
    0,
    0,
    0,
    0,
    0,
    0,
    0,
    0,
    0,
    0,
    0,
    0,
    0,
    0,
    0,
    0,
    0,
    0,
    0,
    0,
    0,
    0,
    0,
    0,
    0,
    0,
    0,
    0,
    0,
    0,
    0,
    0,
    0,
    0,
    0,
    178,
    0,
    0,
    0,
    0,
    0,
    0,
    0,
    0,
    0,
    0,
    0,
    0,
    0,
    146,
    0,
    0,
    0,
    0,
    0,
    0,
    0,
    0,
    0,
    0,
    0,
    0,
    0,
    0,
    0,
    0,
    0,
    0,
    0,
    0,
    1387,
    472,
    473,
    781,
    378,
    379,
    0,
    0,
    0,
    0,
    0,
    0,
    0,
    0,
    0,
    0,
    0,
    0,
    0,
    0,
    0,
    0,
    0,
    0,
    0,
    290,
    291,
    782,
    569,
    570,
    1387,
    0,
    0,
    0,
    0,
    0,
    0,
    0,
    0,
    0,
    0,
    0,
    0,
    0,
    0,
    0,
    0,
    0,
    0,
    0,
    0,
    0,
    0,
    0,
    0,
    0,
    0,
    0,
    0,
    0,
    0,
    0,
    0,
    0,
    0,
    0,
    0,
    0,
    0,
    0,
    0,
    0,
    0,
    0,
    0,
    0,
    0,
    0,
    0,
    0,
    0,
    0,
    0,
    0,
    0,
    0,
    0,
    0,
    0,
    0,
    0,
    0,
    0,
    178,
    0,
    0,
    0,
    0,
    0,
    3,
    0,
    0,
    0,
    0,
    0,
    0,
    0,
    146,
    0,
    0,
    0,
    0,
    0,
    0,
    0,
    0,
    0,
    0,
    0,
    0,
    0,
    0,
    0,
    0,
    0,
    0,
    0,
    0,
    1387,
    481,
    389,
    375,
    380,
    1271,
    0,
    0,
    0,
    0,
    0,
    0,
    0,
    0,
    0,
    0,
    0,
    0,
    0,
    0,
    0,
    0,
    0,
    0,
    0,
    0,
    277,
    375,
    374,
    578,
    0,
    0,
    0,
    0,
    0,
    0,
    0,
    0,
    0,
    0,
    0,
    0,
    0,
    0,
    0,
    0,
    0,
    0,
    0,
    0,
    0,
    0,
    0,
    0,
    0,
    0,
    0,
    0,
    0,
    0,
    0,
    0,
    0,
    0,
    0,
    0,
    0,
    0,
    0,
    0,
    0,
    0,
    0,
    0,
    0,
    0,
    0,
    0,
    0,
    0,
    0,
    0,
    0,
    0,
    0,
    0,
    0,
    0,
    0,
    0,
    0,
    0,
    0,
    197,
    0,
    0,
    0,
    0,
    0,
    0,
    0,
    0,
    0,
    0,
    0,
    0,
    0,
    146,
    0,
    0,
    0,
    0,
    0,
    0,
    0,
    0,
    0,
    0,
    0,
    0,
    0,
    0,
    0,
    0,
    0,
    0,
    0,
    0,
    466,
    467,
    392,
    391,
    396,
    0,
    0,
    0,
    0,
    0,
    0,
    0,
    0,
    0,
    0,
    0,
    0,
    0,
    0,
    0,
    0,
    0,
    0,
    0,
    0,
    0,
    293,
    391,
    292,
    579,
    580,
    0,
    0,
    0,
    0,
    0,
    0,
    0,
    0,
    0,
    0,
    0,
    0,
    0,
    0,
    0,
    0,
    0,
    0,
    0,
    0,
    0,
    0,
    0,
    0,
    0,
    0,
    0,
    0,
    0,
    0,
    0,
    0,
    0,
    0,
    0,
    0,
    0,
    0,
    0,
    0,
    0,
    0,
    0,
    0,
    0,
    0,
    0,
    0,
    0,
    0,
    0,
    0,
    0,
    0,
    0,
    0,
    0,
    0,
    0,
    0,
    0,
    0,
    182,
    183,
    0,
    0,
    0,
    0,
    0,
    0,
    0,
    0,
    0,
    0,
    0,
    163,
    164,
    0,
    0,
    0,
    0,
    0,
    0,
    0,
    0,
    0,
    0,
    0,
    0,
    0,
    0,
    0,
    0,
    0,
    0,
    0,
    0,
    179,
    390,
    194,
    0,
    0,
    0,
    0,
    0,
    0,
    0,
    0,
    0,
    0,
    0,
    0,
    0,
    0,
    0,
    0,
    0,
    0,
    0,
    0,
    0,
    0,
    0,
    0,
    0,
    162,
    390,
    146,
    0,
    0,
    0,
    0,
    0,
    0,
    0,
    0,
    0,
    0,
    0,
    0,
    0,
    0,
    0,
    0,
    0,
    0,
    0,
    0,
    0,
    0,
    0,
    0,
    0,
    0,
    0,
    0,
    0,
    0,
    0,
    0,
    0,
    0,
    0,
    0,
    0,
    0,
    0,
    0,
    0,
    0,
    0,
    0,
    0,
    0,
    0,
    0,
    0,
    0,
    0,
    0,
    0,
    0,
    0,
    0,
    0,
    0,
    0,
    0,
    0,
    0,
    0,
    197,
    0,
    479,
    480,
    0,
    0,
    0,
    479,
    480,
    0,
    0,
    0,
    147,
    0,
    0,
    0,
    0,
    0,
    0,
    0,
    0,
    0,
    0,
    0,
    0,
    0,
    0,
    0,
    0,
    0,
    0,
    0,
    0,
    0,
    179,
    390,
    178,
    0,
    0,
    0,
    0,
    0,
    0,
    0,
    0,
    0,
    0,
    0,
    0,
    0,
    0,
    0,
    0,
    0,
    0,
    0,
    0,
    0,
    0,
    0,
    0,
    0,
    162,
    390,
    146,
    0,
    0,
    0,
    0,
    0,
    0,
    0,
    0,
    0,
    0,
    0,
    0,
    0,
    0,
    0,
    0,
    0,
    0,
    0,
    0,
    0,
    0,
    0,
    0,
    0,
    0,
    0,
    0,
    0,
    0,
    0,
    0,
    0,
    0,
    0,
    0,
    0,
    0,
    0,
    0,
    0,
    0,
    0,
    0,
    0,
    0,
    0,
    0,
    0,
    0,
    0,
    0,
    0,
    0,
    0,
    0,
    0,
    0,
    0,
    0,
    0,
    0,
    0,
    185,
    186,
    495,
    496,
    1393,
    1394,
    1395,
    495,
    496,
    145,
    145,
    152,
    153,
    0,
    0,
    0,
    0,
    0,
    0,
    0,
    0,
    0,
    0,
    0,
    0,
    0,
    0,
    0,
    0,
    0,
    0,
    0,
    0,
    0,
    179,
    390,
    178,
    0,
    0,
    0,
    0,
    0,
    0,
    0,
    0,
    0,
    0,
    0,
    0,
    0,
    0,
    0,
    0,
    0,
    0,
    0,
    0,
    0,
    0,
    0,
    0,
    0,
    162,
    390,
    146,
    0,
    0,
    0,
    0,
    0,
    0,
    0,
    0,
    0,
    0,
    0,
    0,
    0,
    0,
    0,
    0,
    0,
    0,
    0,
    0,
    0,
    0,
    0,
    0,
    0,
    0,
    0,
    0,
    0,
    0,
    0,
    0,
    0,
    0,
    0,
    0,
    0,
    0,
    0,
    0,
    0,
    0,
    0,
    0,
    0,
    0,
    0,
    0,
    0,
    0,
    0,
    0,
    0,
    0,
    0,
    0,
    0,
    0,
    0,
    0,
    0,
    0,
    0,
    201,
    202,
    511,
    512,
    1409,
    1410,
    1411,
    511,
    512,
    161,
    161,
    168,
    169,
    0,
    0,
    0,
    0,
    0,
    0,
    0,
    0,
    0,
    0,
    0,
    0,
    0,
    0,
    0,
    0,
    0,
    0,
    0,
    0,
    0,
    482,
    483,
    377,
    1272,
    0,
    0,
    0,
    0,
    0,
    0,
    0,
    0,
    0,
    0,
    0,
    0,
    0,
    0,
    0,
    0,
    0,
    0,
    0,
    0,
    0,
    0,
    0,
    0,
    289,
    563,
    564,
    0,
    0,
    0,
    0,
    0,
    0,
    0,
    0,
    0,
    0,
    0,
    0,
    0,
    0,
    0,
    0,
    0,
    0,
    0,
    0,
    0,
    0,
    0,
    0,
    0,
    0,
    0,
    0,
    0,
    0,
    0,
    0,
    0,
    0,
    0,
    0,
    0,
    0,
    0,
    0,
    0,
    0,
    0,
    0,
    0,
    0,
    0,
    0,
    0,
    0,
    0,
    0,
    0,
    0,
    0,
    0,
    0,
    0,
    0,
    0,
    0,
    0,
    0,
    0,
    0,
    527,
    528,
    1425,
    1426,
    1427,
    527,
    528,
    0,
    0,
    0,
    0,
    0,
    0,
    0,
    0,
    0,
    0,
    0,
    0,
    0,
    0,
    0,
    0,
    0,
    0,
    0,
    0,
    0,
    0,
    0,
    0,
    0,
    0,
    468,
    373,
    1403,
    1404,
    370,
    287,
    288,
    0,
    0,
    0,
    0,
    0,
    0,
    0,
    0,
    0,
    0,
    0,
    0,
    0,
    0,
    0,
    0,
    280,
    370,
    1403,
    1404,
    388,
    562,
    0,
    0,
    0,
    0,
    0,
    0,
    0,
    0,
    0,
    0,
    0,
    0,
    0,
    0,
    0,
    0,
    0,
    0,
    0,
    0,
    0,
    0,
    0,
    0,
    0,
    0,
    0,
    0,
    0,
    0,
    0,
    0,
    0,
    0,
    0,
    0,
    0,
    0,
    0,
    0,
    0,
    0,
    0,
    0,
    0,
    0,
    0,
    0,
    0,
    0,
    0,
    0,
    0,
    0,
    0,
    0,
    0,
    0,
    0,
    0,
    0,
    0,
    0,
    0,
    0,
    0,
    0,
    0,
    0,
    0,
    0,
    0,
    0,
    0,
    0,
    0,
    0,
    0,
    0,
    0,
    0,
    0,
    0,
    0,
    0,
    0,
    0,
    0,
    0,
    0,
    0,
    0,
    0,
    0,
    0,
    0,
    0,
    0,
    1387,
    470,
    471,
    1419,
    1420,
    561,
    374,
    377,
    1272,
    0,
    0,
    0,
    0,
    0,
    0,
    0,
    0,
    0,
    0,
    0,
    0,
    0,
    0,
    274,
    275,
    372,
    1419,
    1420,
    567,
    568,
    0,
    0,
    0,
    0,
    0,
    0,
    0,
    0,
    0,
    0,
    0,
    0,
    0,
    0,
    0,
    0,
    0,
    0,
    0,
    0,
    0,
    0,
    0,
    0,
    0,
    0,
    0,
    0,
    0,
    0,
    0,
    0,
    0,
    0,
    0,
    0,
    0,
    0,
    0,
    0,
    0,
    0,
    0,
    0,
    0,
    0,
    0,
    0,
    0,
    0,
    0,
    0,
    0,
    0,
    0,
    0,
    0,
    0,
    0,
    0,
    0,
    0,
    0,
    0,
    0,
    0,
    0,
    0,
    0,
    0,
    0,
    0,
    0,
    0,
    0,
    0,
    0,
    0,
    0,
    0,
    0,
    0,
    0,
    0,
    0,
    0,
    0,
    0,
    0,
    0,
    0,
    0,
    0,
    0,
    0,
    0,
    0,
    0,
    0,
    486,
    487,
    1435,
    1436,
    577,
    484,
    394,
    395,
    0,
    0,
    0,
    0,
    0,
    0,
    0,
    0,
    0,
    0,
    0,
    0,
    0,
    0,
    289,
    585,
    586,
    1435,
    1436,
    583,
    584,
    0,
    0,
    0,
    0,
    0,
    0,
    0,
    0,
    0,
    0,
    0,
    0,
    0,
    0,
    0,
    0,
    0,
    0,
    0,
    0,
    0,
    0,
    0,
    0,
    0,
    0,
    0,
    0,
    0,
    0,
    0,
    0,
    0,
    0,
    0,
    0,
    0,
    0,
    0,
    0,
    0,
    0,
    0,
    0,
    0,
    0,
    0,
    0,
    0,
    0,
    0,
    0,
    0,
    0,
    0,
    0,
    0,
    0,
    0,
    0,
    0,
    0,
    0,
    0,
    0,
    0,
    0,
    0,
    0,
    0,
    0,
    0,
    0,
    0,
    0,
    0,
    0,
    0,
    0,
    0,
    0,
    0,
    0,
    0,
    0,
    0,
    0,
    0,
    0,
    0,
    0,
    0,
    0,
    0,
    0,
    0,
    0,
    0,
    0,
    0,
    0,
    1451,
    1452,
    0,
    482,
    483,
    377,
    1272,
    0,
    0,
    0,
    0,
    0,
    0,
    0,
    0,
    0,
    0,
    0,
    0,
    274,
    275,
    562,
    0,
    1451,
    1452,
    0,
    0,
    0,
    0,
    0,
    0,
    0,
    0,
    0,
    0,
    0,
    0,
    0,
    0,
    0,
    0,
    0,
    0,
    0,
    0,
    0,
    0,
    0,
    0,
    0,
    0,
    0,
    0,
    0,
    0,
    0,
    0,
    0,
    0,
    0,
    0,
    0,
    0,
    0,
    0,
    0,
    0,
    0,
    0,
    0,
    0,
    0,
    0,
    0,
    0,
    0,
    0,
    0,
    0,
    0,
    0,
    0,
    0,
    0,
    0,
    0,
    0,
    0,
    1387,
    0,
    0,
    415,
    416,
    0,
    1387,
    0,
    0,
    1387,
    0,
    1387,
    0,
    415,
    416,
    0,
    0,
    0,
    0,
    0,
    0,
    0,
    0,
    0,
    0,
    0,
    0,
    0,
    0,
    0,
    0,
    0,
    0,
    0,
    0,
    0,
    0,
    0,
    0,
    0,
    0,
    0,
    0,
    0,
    468,
    394,
    395,
    0,
    0,
    0,
    0,
    0,
    0,
    0,
    0,
    0,
    0,
    0,
    0,
    289,
    563,
    564,
    0,
    0,
    0,
    0,
    0,
    0,
    0,
    0,
    0,
    0,
    0,
    0,
    0,
    0,
    0,
    0,
    0,
    0,
    0,
    0,
    0,
    0,
    0,
    0,
    0,
    0,
    0,
    0,
    0,
    0,
    0,
    0,
    0,
    0,
    0,
    0,
    0,
    0,
    0,
    0,
    0,
    0,
    0,
    0,
    0,
    0,
    0,
    0,
    0,
    0,
    0,
    0,
    0,
    0,
    0,
    0,
    0,
    0,
    0,
    0,
    0,
    0,
    0,
    0,
    0,
    0,
    0,
    0,
    198,
    431,
    432,
    177,
    177,
    177,
    177,
    177,
    177,
    177,
    177,
    431,
    432,
    166,
    0,
    0,
    0,
    0,
    0,
    0,
    0,
    0,
    0,
    0,
    0,
    0,
    0,
    0,
    0,
    0,
    0,
    0,
    0,
    0,
    0,
    0,
    0,
    0,
    0,
    0,
    0,
    0,
    482,
    483,
    377,
    1272,
    0,
    0,
    0,
    0,
    0,
    0,
    0,
    0,
    0,
    0,
    274,
    275,
    562,
    0,
    0,
    0,
    1387,
    1387,
    0,
    0,
    0,
    0,
    0,
    0,
    0,
    0,
    0,
    0,
    0,
    0,
    0,
    0,
    0,
    0,
    0,
    0,
    0,
    0,
    0,
    0,
    0,
    0,
    0,
    0,
    0,
    0,
    0,
    0,
    0,
    0,
    0,
    0,
    0,
    0,
    0,
    0,
    0,
    0,
    0,
    0,
    0,
    0,
    0,
    0,
    0,
    0,
    0,
    0,
    0,
    0,
    0,
    0,
    0,
    0,
    0,
    0,
    0,
    0,
    0,
    0,
    1387,
    0,
    196,
    447,
    448,
    193,
    193,
    193,
    193,
    193,
    193,
    193,
    193,
    447,
    448,
    165,
    0,
    0,
    0,
    0,
    0,
    0,
    0,
    0,
    0,
    0,
    0,
    0,
    0,
    0,
    0,
    0,
    0,
    0,
    0,
    0,
    0,
    0,
    0,
    0,
    0,
    0,
    0,
    0,
    0,
    468,
    373,
    370,
    370,
    269,
    270,
    0,
    0,
    0,
    267,
    268,
    370,
    370,
    371,
    563,
    564,
    0,
    0,
    1387,
    1387,
    0,
    0,
    0,
    0,
    0,
    0,
    0,
    0,
    0,
    0,
    0,
    0,
    0,
    0,
    0,
    0,
    0,
    0,
    0,
    0,
    0,
    0,
    0,
    0,
    0,
    0,
    0,
    0,
    0,
    0,
    0,
    0,
    0,
    0,
    0,
    0,
    0,
    0,
    0,
    0,
    0,
    0,
    0,
    0,
    0,
    0,
    0,
    0,
    0,
    0,
    0,
    0,
    0,
    0,
    0,
    0,
    0,
    0,
    0,
    0,
    0,
    0,
    0,
    0,
    180,
    181,
    463,
    464,
    0,
    0,
    0,
    0,
    0,
    0,
    0,
    0,
    463,
    464,
    149,
    150,
    0,
    0,
    0,
    0,
    0,
    0,
    0,
    0,
    0,
    0,
    0,
    0,
    0,
    0,
    0,
    0,
    0,
    0,
    0,
    0,
    0,
    0,
    0,
    0,
    0,
    1387,
    1387,
    1387,
    470,
    471,
    561,
    561,
    607,
    608,
    1393,
    1394,
    1395,
    655,
    656,
    561,
    561,
    561,
    566,
    0,
    0,
    0,
    0,
    0,
    0,
    0,
    0,
    0,
    0,
    0,
    0,
    0,
    0,
    0,
    0,
    0,
    0,
    0,
    0,
    0,
    0,
    0,
    0,
    0,
    0,
    0,
    0,
    0,
    0,
    0,
    0,
    0,
    0,
    0,
    0,
    0,
    0,
    0,
    0,
    0,
    0,
    0,
    0,
    0,
    0,
    0,
    0,
    0,
    0,
    0,
    0,
    0,
    0,
    0,
    0,
    0,
    0,
    0,
    0,
    0,
    0,
    0,
    0,
    0,
    0,
    0,
    0,
    0,
    195,
    0,
    0,
    0,
    0,
    0,
    0,
    0,
    0,
    0,
    0,
    0,
    0,
    0,
    0,
    148,
    0,
    0,
    0,
    0,
    0,
    0,
    0,
    0,
    0,
    0,
    0,
    0,
    0,
    0,
    0,
    0,
    0,
    0,
    0,
    0,
    1387,
    0,
    0,
    0,
    0,
    0,
    1387,
    1387,
    486,
    487,
    577,
    577,
    511,
    512,
    1409,
    1410,
    1411,
    511,
    512,
    577,
    577,
    577,
    582,
    0,
    0,
    0,
    0,
    0,
    0,
    0,
    0,
    0,
    0,
    0,
    0,
    0,
    0,
    0,
    0,
    0,
    0,
    0,
    0,
    0,
    0,
    0,
    0,
    0,
    0,
    0,
    0,
    0,
    0,
    0,
    0,
    0,
    0,
    0,
    0,
    0,
    0,
    0,
    0,
    0,
    0,
    0,
    0,
    0,
    0,
    0,
    0,
    0,
    0,
    0,
    0,
    0,
    0,
    0,
    0,
    0,
    0,
    0,
    0,
    0,
    0,
    0,
    0,
    0,
    0,
    0,
    0,
    180,
    181,
    0,
    0,
    0,
    0,
    0,
    0,
    0,
    0,
    0,
    0,
    0,
    0,
    0,
    0,
    149,
    150,
    0,
    0,
    0,
    0,
    0,
    0,
    0,
    0,
    0,
    0,
    0,
    0,
    0,
    0,
    0,
    0,
    0,
    0,
    0,
    0,
    0,
    0,
    0,
    0,
    1387,
    0,
    0,
    0,
    0,
    0,
    0,
    527,
    528,
    1425,
    1426,
    1427,
    527,
    528,
    0,
    0,
    0,
    0,
    0,
    0,
    0,
    0,
    0,
    0,
    1383,
    1383,
    1383,
    0,
    0,
    0,
    0,
    0,
    0,
    0,
    0,
    0,
    0,
    0,
    0,
    0,
    0,
    0,
    0,
    0,
    0,
    0,
    0,
    0,
    0,
    0,
    0,
    0,
    0,
    0,
    0,
    0,
    0,
    0,
    0,
    0,
    0,
    0,
    0,
    0,
    0,
    0,
    0,
    0,
    0,
    0,
    0,
    0,
    0,
    0,
    0,
    0,
    0,
    0,
    0,
    0,
    0,
    0,
    0,
    0,
    0,
    0,
    195,
    0,
    0,
    0,
    0,
    0,
    0,
    0,
    0,
    0,
    0,
    0,
    0,
    0,
    0,
    0,
    0,
    146,
    0,
    0,
    0,
    0,
    0,
    0,
    0,
    0,
    0,
    0,
    0,
    0,
    0,
    0,
    0,
    0,
    0,
    0,
    0,
    0,
    0,
    0,
    0,
    0,
    0,
    0,
    0,
    0,
    0,
    0,
    0,
    0,
    0,
    0,
    0,
    0,
    0,
    0,
    0,
    0,
    0,
    0,
    0,
    0,
    0,
    0,
    0,
    0,
    1383,
    1383,
    1383,
    0,
    0,
    0,
    0,
    0,
    0,
    0,
    0,
    0,
    0,
    0,
    0,
    0,
    0,
    0,
    0,
    0,
    0,
    0,
    0,
    0,
    0,
    0,
    0,
    0,
    0,
    0,
    0,
    0,
    0,
    0,
    0,
    0,
    0,
    0,
    0,
    0,
    0,
    0,
    0,
    0,
    0,
    0,
    0,
    0,
    0,
    0,
    0,
    0,
    0,
    0,
    0,
    0,
    0,
    0,
    0,
    0,
    0,
    0,
    194,
    0,
    0,
    0,
    0,
    0,
    0,
    0,
    0,
    0,
    0,
    0,
    0,
    0,
    0,
    0,
    0,
    146,
    0,
    0,
    0,
    0,
    0,
    0,
    0,
    0,
    0,
    0,
    0,
    0,
    0,
    0,
    0,
    0,
    0,
    0,
    0,
    0,
    0,
    0,
    0,
    0,
    0,
    0,
    0,
    0,
    0,
    0,
    0,
    0,
    0,
    0,
    0,
    0,
    1383,
    1383,
    1383,
    1383,
    1383,
    1383,
    0,
    0,
    0,
    0,
    0,
    0,
    1383,
    1383,
    1383,
    1387,
    0,
    0,
    0,
    0,
    0,
    0,
    0,
    0,
    0,
    0,
    0,
    0,
    0,
    0,
    0,
    0,
    0,
    0,
    0,
    0,
    0,
    0,
    0,
    0,
    0,
    0,
    0,
    0,
    0,
    0,
    0,
    0,
    0,
    0,
    0,
    0,
    0,
    0,
    0,
    0,
    0,
    0,
    0,
    0,
    0,
    0,
    0,
    0,
    0,
    0,
    0,
    0,
    0,
    0,
    0,
    0,
    0,
    0,
    178,
    0,
    0,
    0,
    0,
    0,
    0,
    0,
    0,
    0,
    0,
    0,
    0,
    0,
    0,
    0,
    0,
    146,
    0,
    0,
    0,
    0,
    0,
    0,
    0,
    0,
    0,
    0,
    0,
    0,
    0,
    0,
    0,
    0,
    0,
    0,
    0,
    0,
    0,
    0,
    0,
    0,
    0,
    0,
    0,
    0,
    0,
    0,
    0,
    0,
    0,
    0,
    0,
    0,
    1383,
    1383,
    1383,
    1383,
    1383,
    1383,
    1383,
    1383,
    1383,
    1383,
    1383,
    1383,
    1383,
    1383,
    1383,
    1383,
    1383,
    0,
    0,
    0,
    0,
    0,
    0,
    0,
    0,
    0,
    0,
    0,
    0,
    0,
    0,
    0,
    0,
    0,
    0,
    0,
    0,
    0,
    0,
    0,
    0,
    0,
    0,
    0,
    0,
    0,
    0,
    0,
    0,
    0,
    0,
    0,
    0,
    0,
    0,
    0,
    0,
    0,
    0,
    0,
    0,
    0,
    0,
    0,
    0,
    0,
    0,
    0,
    0,
    0,
    0,
    0,
    0,
    0,
    178,
    0,
    0,
    0,
    0,
    0,
    0,
    0,
    0,
    0,
    0,
    0,
    0,
    0,
    0,
    0,
    0,
    146,
    0,
    0,
    0,
    0,
    0,
    0,
    0,
    0,
    0,
    0,
    0,
    0,
    0,
    0,
    0,
    0,
    0,
    0,
    0,
    0,
    0,
    0,
    0,
    0,
    0,
    0,
    0,
    0,
    0,
    0,
    0,
    0,
    0,
    0,
    0,
    1383,
    1383,
    1383,
    1383,
    1383,
    1383,
    0,
    1383,
    1383,
    1383,
    1383,
    1383,
    1383,
    1383,
    1383,
    1383,
    1383,
    1383,
    1383,
    1383,
    0,
    0,
    0,
    0,
    0,
    0,
    0,
    0,
    0,
    0,
    0,
    0,
    0,
    0,
    0,
    0,
    0,
    0,
    0,
    0,
    0,
    0,
    0,
    0,
    0,
    0,
    0,
    0,
    0,
    0,
    0,
    0,
    0,
    0,
    0,
    0,
    0,
    0,
    0,
    0,
    0,
    0,
    0,
    0,
    0,
    0,
    0,
    0,
    0,
    0,
    0,
    0,
    0,
    0,
    0,
    178,
    0,
    0,
    0,
    0,
    0,
    0,
    0,
    0,
    0,
    0,
    0,
    0,
    0,
    0,
    0,
    0,
    146,
    1387,
    0,
    0,
    0,
    0,
    0,
    0,
    0,
    0,
    0,
    0,
    0,
    0,
    0,
    0,
    0,
    0,
    0,
    0,
    0,
    0,
    0,
    0,
    0,
    0,
    0,
    0,
    0,
    0,
    0,
    0,
    0,
    0,
    0,
    0,
    1383,
    1383,
    1383,
    0,
    0,
    0,
    0,
    0,
    0,
    0,
    1383,
    1383,
    1383,
    1383,
    0,
    0,
    0,
    0,
    0,
    1383,
    0,
    0,
    0,
    0,
    0,
    0,
    0,
    0,
    0,
    0,
    0,
    0,
    0,
    0,
    0,
    0,
    0,
    0,
    0,
    0,
    0,
    0,
    0,
    0,
    303,
    304,
    0,
    0,
    0,
    0,
    0,
    0,
    303,
    304,
    0,
    0,
    0,
    1387,
    3,
    0,
    0,
    0,
    0,
    0,
    0,
    0,
    0,
    0,
    0,
    0,
    0,
    0,
    0,
    0,
    0,
    178,
    0,
    0,
    0,
    0,
    0,
    0,
    0,
    0,
    0,
    0,
    0,
    0,
    0,
    0,
    0,
    0,
    146,
    0,
    0,
    0,
    0,
    0,
    0,
    0,
    0,
    0,
    0,
    0,
    0,
    0,
    0,
    0,
    0,
    0,
    0,
    0,
    0,
    0,
    0,
    0,
    0,
    0,
    0,
    0,
    0,
    0,
    0,
    0,
    0,
    0,
    0,
    1387,
    1383,
    1383,
    0,
    0,
    0,
    0,
    303,
    304,
    0,
    0,
    0,
    0,
    0,
    0,
    0,
    303,
    304,
    0,
    0,
    0,
    0,
    0,
    0,
    0,
    0,
    0,
    0,
    0,
    0,
    0,
    0,
    0,
    0,
    0,
    0,
    0,
    0,
    0,
    0,
    0,
    0,
    761,
    762,
    385,
    543,
    544,
    385,
    385,
    385,
    385,
    385,
    385,
    543,
    544,
    665,
    666,
    0,
    0,
    0,
    0,
    0,
    0,
    0,
    0,
    0,
    0,
    0,
    0,
    0,
    0,
    0,
    0,
    0,
    0,
    0,
    197,
    0,
    0,
    0,
    0,
    0,
    0,
    0,
    0,
    0,
    0,
    0,
    0,
    0,
    0,
    0,
    163,
    164,
    0,
    0,
    0,
    0,
    0,
    0,
    0,
    0,
    0,
    0,
    0,
    0,
    0,
    0,
    0,
    0,
    0,
    0,
    0,
    0,
    0,
    0,
    0,
    0,
    0,
    0,
    0,
    0,
    0,
    0,
    0,
    0,
    0,
    0,
    1383,
    1383,
    0,
    0,
    761,
    762,
    385,
    543,
    544,
    385,
    385,
    385,
    385,
    385,
    385,
    385,
    543,
    544,
    385,
    665,
    666,
    0,
    0,
    0,
    0,
    0,
    0,
    0,
    0,
    0,
    0,
    0,
    0,
    0,
    0,
    0,
    0,
    0,
    0,
    0,
    0,
    0,
    769,
    389,
    375,
    559,
    560,
    375,
    375,
    375,
    375,
    375,
    375,
    559,
    560,
    374,
    674,
    0,
    0,
    0,
    0,
    0,
    0,
    0,
    0,
    0,
    0,
    0,
    0,
    0,
    0,
    0,
    0,
    0,
    0,
    0,
    182,
    183,
    0,
    0,
    0,
    0,
    0,
    0,
    0,
    0,
    0,
    0,
    0,
    0,
    0,
    0,
    147,
    0,
    0,
    0,
    0,
    0,
    0,
    0,
    0,
    0,
    0,
    0,
    0,
    0,
    0,
    0,
    0,
    0,
    0,
    0,
    0,
    0,
    0,
    0,
    0,
    0,
    0,
    0,
    0,
    0,
    0,
    0,
    0,
    0,
    1383,
    1383,
    1383,
    1383,
    0,
    0,
    769,
    389,
    375,
    559,
    560,
    375,
    375,
    375,
    375,
    375,
    375,
    375,
    559,
    560,
    375,
    374,
    674,
    0,
    0,
    0,
    0,
    0,
    0,
    0,
    0,
    0,
    0,
    0,
    0,
    0,
    0,
    0,
    0,
    0,
    0,
    0,
    0,
    755,
    756,
    392,
    391,
    575,
    576,
    391,
    391,
    391,
    391,
    391,
    391,
    575,
    576,
    292,
    675,
    676,
    0,
    0,
    0,
    0,
    0,
    0,
    0,
    0,
    0,
    0,
    0,
    0,
    0,
    0,
    0,
    0,
    0,
    0,
    1387,
    197,
    0,
    0,
    0,
    0,
    0,
    0,
    0,
    0,
    0,
    0,
    0,
    0,
    0,
    163,
    164,
    0,
    0,
    0,
    0,
    0,
    0,
    0,
    0,
    0,
    0,
    0,
    0,
    0,
    0,
    0,
    0,
    0,
    0,
    0,
    0,
    0,
    0,
    0,
    0,
    0,
    0,
    0,
    0,
    0,
    0,
    0,
    0,
    0,
    1383,
    1383,
    1383,
    1383,
    0,
    755,
    756,
    392,
    391,
    575,
    576,
    391,
    391,
    391,
    391,
    391,
    391,
    391,
    575,
    576,
    391,
    292,
    675,
    676,
    0,
    0,
    0,
    0,
    0,
    0,
    0,
    0,
    0,
    0,
    0,
    0,
    0,
    0,
    0,
    0,
    0,
    0,
    0,
    769,
    378,
    379,
    0,
    0,
    0,
    0,
    0,
    0,
    0,
    0,
    0,
    0,
    0,
    290,
    291,
    674,
    0,
    0,
    0,
    0,
    0,
    0,
    0,
    0,
    0,
    0,
    0,
    0,
    0,
    0,
    0,
    0,
    0,
    0,
    0,
    182,
    183,
    0,
    0,
    479,
    480,
    0,
    0,
    0,
    479,
    480,
    0,
    0,
    0,
    147,
    0,
    0,
    0,
    0,
    0,
    0,
    0,
    0,
    0,
    0,
    0,
    0,
    0,
    0,
    0,
    0,
    0,
    0,
    0,
    0,
    0,
    0,
    0,
    0,
    0,
    0,
    0,
    0,
    0,
    0,
    0,
    0,
    0,
    0,
    1383,
    1383,
    1383,
    0,
    0,
    769,
    378,
    379,
    0,
    0,
    0,
    0,
    0,
    0,
    0,
    0,
    0,
    0,
    0,
    0,
    0,
    290,
    291,
    674,
    0,
    0,
    0,
    0,
    0,
    0,
    0,
    0,
    0,
    0,
    0,
    0,
    0,
    0,
    0,
    0,
    0,
    0,
    755,
    756,
    376,
    1271,
    0,
    3,
    0,
    0,
    0,
    0,
    0,
    0,
    0,
    0,
    0,
    0,
    276,
    675,
    676,
    0,
    0,
    0,
    0,
    0,
    0,
    0,
    0,
    0,
    0,
    0,
    0,
    0,
    0,
    0,
    0,
    0,
    0,
    0,
    184,
    145,
    145,
    495,
    496,
    1393,
    1394,
    1395,
    495,
    496,
    145,
    145,
    152,
    153,
    0,
    0,
    0,
    0,
    0,
    0,
    0,
    0,
    0,
    0,
    0,
    0,
    0,
    0,
    0,
    0,
    0,
    0,
    0,
    0,
    0,
    0,
    0,
    0,
    0,
    0,
    0,
    0,
    0,
    0,
    0,
    0,
    0,
    0,
    0,
    0,
    0,
    0,
    755,
    756,
    376,
    1271,
    391,
    0,
    0,
    0,
    0,
    0,
    0,
    0,
    0,
    0,
    0,
    0,
    0,
    0,
    276,
    675,
    676,
    0,
    0,
    0,
    0,
    0,
    0,
    0,
    0,
    0,
    0,
    0,
    0,
    0,
    0,
    0,
    0,
    0,
    769,
    378,
    379,
    0,
    0,
    0,
    0,
    0,
    0,
    0,
    0,
    0,
    0,
    0,
    0,
    0,
    290,
    291,
    674,
    0,
    0,
    0,
    0,
    0,
    0,
    0,
    0,
    0,
    0,
    0,
    0,
    0,
    0,
    0,
    0,
    0,
    1387,
    0,
    200,
    161,
    161,
    511,
    512,
    1409,
    1410,
    1411,
    511,
    512,
    161,
    161,
    168,
    169,
    0,
    0,
    0,
    0,
    0,
    0,
    0,
    0,
    0,
    0,
    0,
    0,
    0,
    0,
    0,
    0,
    0,
    0,
    0,
    0,
    0,
    0,
    0,
    0,
    0,
    0,
    0,
    0,
    0,
    0,
    0,
    1383,
    1383,
    1383,
    0,
    0,
    0,
    0,
    769,
    378,
    379,
    0,
    0,
    0,
    0,
    0,
    0,
    0,
    0,
    0,
    0,
    0,
    0,
    0,
    0,
    0,
    290,
    291,
    674,
    0,
    0,
    1387,
    0,
    0,
    0,
    0,
    0,
    0,
    0,
    0,
    0,
    0,
    0,
    0,
    0,
    755,
    756,
    376,
    1271,
    0,
    0,
    0,
    0,
    0,
    0,
    0,
    0,
    0,
    0,
    0,
    0,
    0,
    0,
    276,
    675,
    676,
    0,
    0,
    0,
    0,
    0,
    0,
    0,
    0,
    0,
    0,
    0,
    0,
    0,
    0,
    0,
    0,
    0,
    0,
    1387,
    0,
    0,
    527,
    528,
    1425,
    1426,
    1427,
    527,
    528,
    0,
    0,
    0,
    0,
    0,
    1387,
    0,
    0,
    0,
    0,
    0,
    0,
    0,
    0,
    0,
    0,
    0,
    0,
    0,
    0,
    0,
    0,
    0,
    0,
    0,
    0,
    0,
    0,
    0,
    0,
    0,
    0,
    0,
    0,
    0,
    1383,
    1383,
    1383,
    0,
    0,
    0,
    755,
    756,
    376,
    1271,
    0,
    0,
    0,
    0,
    0,
    0,
    0,
    0,
    0,
    0,
    0,
    0,
    0,
    0,
    0,
    0,
    276,
    675,
    676,
    0,
    0,
    0,
    0,
    0,
    0,
    0,
    0,
    0,
    0,
    0,
    0,
    0,
    0,
    0,
    773,
    390,
    194,
    0,
    0,
    0,
    0,
    0,
    0,
    0,
    0,
    0,
    0,
    0,
    0,
    0,
    0,
    0,
    162,
    390,
    848,
    0,
    0,
    0,
    0,
    0,
    0,
    0,
    0,
    0,
    0,
    0,
    0,
    0,
    0,
    0,
    0,
    0,
    0,
    0,
    0,
    0,
    0,
    0,
    0,
    0,
    0,
    0,
    0,
    0,
    0,
    0,
    0,
    0,
    0,
    0,
    0,
    0,
    0,
    0,
    0,
    0,
    0,
    0,
    0,
    0,
    0,
    0,
    0,
    0,
    0,
    0,
    0,
    0,
    0,
    0,
    0,
    0,
    0,
    0,
    0,
    0,
    0,
    0,
    1383,
    1383,
    1383,
    0,
    0,
    0,
    769,
    378,
    379,
    0,
    0,
    0,
    0,
    0,
    0,
    0,
    0,
    0,
    0,
    0,
    0,
    0,
    0,
    0,
    0,
    0,
    290,
    291,
    674,
    0,
    0,
    0,
    0,
    0,
    0,
    0,
    0,
    0,
    0,
    0,
    0,
    0,
    0,
    0,
    773,
    390,
    178,
    0,
    0,
    0,
    0,
    0,
    0,
    0,
    0,
    0,
    0,
    0,
    0,
    0,
    0,
    0,
    162,
    390,
    848,
    0,
    0,
    0,
    0,
    0,
    0,
    0,
    0,
    0,
    0,
    0,
    0,
    0,
    0,
    0,
    0,
    0,
    0,
    0,
    0,
    0,
    0,
    0,
    0,
    0,
    0,
    0,
    0,
    0,
    0,
    0,
    0,
    0,
    0,
    0,
    0,
    0,
    0,
    0,
    0,
    0,
    0,
    0,
    0,
    0,
    0,
    0,
    0,
    0,
    0,
    0,
    0,
    0,
    0,
    0,
    0,
    0,
    0,
    0,
    0,
    0,
    0,
    1383,
    1383,
    1383,
    0,
    0,
    0,
    755,
    756,
    376,
    1271,
    0,
    0,
    0,
    0,
    0,
    0,
    0,
    0,
    0,
    0,
    0,
    0,
    0,
    0,
    0,
    0,
    0,
    0,
    276,
    675,
    676,
    0,
    0,
    0,
    0,
    0,
    0,
    0,
    0,
    0,
    0,
    0,
    0,
    0,
    0,
    773,
    390,
    178,
    0,
    0,
    0,
    0,
    0,
    0,
    0,
    0,
    0,
    0,
    0,
    0,
    0,
    0,
    0,
    162,
    390,
    848,
    0,
    0,
    0,
    0,
    0,
    0,
    0,
    0,
    0,
    0,
    0,
    0,
    0,
    0,
    0,
    0,
    0,
    0,
    0,
    0,
    0,
    0,
    0,
    0,
    0,
    0,
    0,
    0,
    0,
    0,
    0,
    0,
    0,
    0,
    0,
    0,
    0,
    0,
    0,
    0,
    0,
    0,
    0,
    0,
    0,
    0,
    0,
    0,
    0,
    0,
    0,
    0,
    0,
    0,
    0,
    0,
    0,
    0,
    0,
    0,
    0,
    0,
    1383,
    1383,
    1383,
    0,
    761,
    762,
    781,
    378,
    379,
    0,
    0,
    0,
    0,
    0,
    0,
    0,
    0,
    0,
    0,
    0,
    0,
    0,
    0,
    0,
    0,
    0,
    0,
    0,
    290,
    291,
    782,
    665,
    666,
    0,
    0,
    0,
    0,
    0,
    0,
    0,
    0,
    0,
    0,
    0,
    0,
    773,
    390,
    178,
    0,
    0,
    0,
    0,
    0,
    0,
    0,
    0,
    0,
    0,
    0,
    0,
    0,
    0,
    0,
    162,
    390,
    848,
    0,
    0,
    0,
    0,
    0,
    0,
    0,
    0,
    0,
    0,
    0,
    0,
    0,
    0,
    0,
    0,
    0,
    0,
    0,
    0,
    0,
    0,
    0,
    0,
    0,
    0,
    0,
    0,
    0,
    0,
    0,
    0,
    0,
    0,
    0,
    0,
    0,
    0,
    0,
    0,
    0,
    0,
    0,
    0,
    0,
    0,
    0,
    0,
    0,
    0,
    0,
    0,
    0,
    0,
    0,
    0,
    0,
    0,
    0,
    0,
    0,
    0,
    1383,
    1383,
    0,
    0,
    769,
    389,
    375,
    380,
    1271,
    0,
    0,
    0,
    0,
    0,
    0,
    0,
    0,
    0,
    0,
    0,
    0,
    0,
    0,
    0,
    0,
    0,
    0,
    0,
    0,
    277,
    375,
    374,
    674,
    0,
    0,
    0,
    0,
    0,
    0,
    0,
    0,
    0,
    0,
    0,
    0,
    771,
    772,
    377,
    1272,
    0,
    0,
    0,
    0,
    0,
    0,
    0,
    0,
    0,
    0,
    0,
    0,
    0,
    0,
    162,
    390,
    848,
    0,
    0,
    0,
    0,
    0,
    0,
    0,
    0,
    0,
    0,
    0,
    0,
    0,
    0,
    0,
    0,
    0,
    0,
    0,
    0,
    0,
    0,
    0,
    0,
    0,
    0,
    0,
    0,
    0,
    0,
    0,
    0,
    0,
    0,
    0,
    0,
    0,
    0,
    0,
    0,
    0,
    0,
    0,
    0,
    0,
    0,
    0,
    0,
    0,
    0,
    0,
    0,
    0,
    0,
    0,
    0,
    0,
    0,
    0,
    0,
    0,
    0,
    1383,
    1383,
    0,
    755,
    756,
    392,
    391,
    396,
    0,
    0,
    0,
    0,
    0,
    0,
    0,
    0,
    0,
    0,
    0,
    0,
    0,
    0,
    0,
    0,
    0,
    0,
    0,
    0,
    0,
    293,
    391,
    292,
    675,
    676,
    0,
    0,
    0,
    0,
    0,
    0,
    0,
    0,
    0,
    0,
    0,
    0,
    754,
    394,
    395,
    0,
    0,
    0,
    0,
    0,
    0,
    0,
    0,
    0,
    0,
    0,
    0,
    0,
    3,
    289,
    659,
    660,
    0,
    0,
    0,
    0,
    0,
    0,
    0,
    0,
    0,
    0,
    0,
    0,
    0,
    0,
    0,
    0,
    0,
    0,
    0,
    0,
    0,
    0,
    0,
    0,
    0,
    0,
    0,
    0,
    0,
    0,
    0,
    0,
    0,
    0,
    0,
    0,
    0,
    0,
    0,
    0,
    0,
    0,
    0,
    0,
    0,
    0,
    0,
    0,
    0,
    0,
    0,
    0,
    0,
    0,
    0,
    0,
    0,
    0,
    0,
    0,
    0,
    0,
    1383,
    1383,
    0,
    773,
    390,
    194,
    0,
    0,
    0,
    0,
    0,
    0,
    0,
    0,
    0,
    0,
    0,
    0,
    0,
    0,
    0,
    0,
    0,
    0,
    0,
    0,
    0,
    0,
    0,
    0,
    0,
    162,
    390,
    848,
    0,
    0,
    0,
    0,
    0,
    0,
    0,
    0,
    0,
    0,
    0,
    0,
    771,
    772,
    377,
    1272,
    0,
    0,
    0,
    0,
    0,
    0,
    0,
    0,
    0,
    0,
    0,
    0,
    274,
    275,
    658,
    0,
    0,
    0,
    0,
    0,
    0,
    0,
    0,
    0,
    0,
    0,
    0,
    0,
    0,
    0,
    0,
    0,
    0,
    0,
    0,
    0,
    0,
    0,
    0,
    0,
    0,
    0,
    0,
    0,
    0,
    0,
    0,
    0,
    0,
    0,
    0,
    0,
    0,
    0,
    0,
    0,
    0,
    0,
    0,
    0,
    0,
    0,
    0,
    0,
    0,
    0,
    0,
    0,
    0,
    0,
    0,
    0,
    0,
    0,
    0,
    0,
    0,
    0,
    1383,
    1383,
    0,
    773,
    390,
    178,
    0,
    0,
    0,
    0,
    0,
    0,
    0,
    0,
    0,
    0,
    0,
    0,
    0,
    0,
    0,
    0,
    0,
    0,
    0,
    0,
    0,
    0,
    0,
    0,
    0,
    162,
    390,
    848,
    0,
    0,
    0,
    0,
    0,
    0,
    0,
    0,
    0,
    0,
    0,
    0,
    0,
    754,
    394,
    395,
    0,
    0,
    0,
    2,
    0,
    0,
    0,
    0,
    0,
    0,
    0,
    0,
    289,
    659,
    660,
    0,
    0,
    0,
    0,
    0,
    0,
    0,
    0,
    0,
    0,
    0,
    0,
    0,
    0,
    0,
    0,
    0,
    0,
    0,
    0,
    0,
    0,
    0,
    0,
    0,
    0,
    0,
    0,
    0,
    0,
    0,
    0,
    0,
    0,
    0,
    0,
    0,
    0,
    0,
    0,
    0,
    0,
    0,
    0,
    0,
    0,
    0,
    0,
    0,
    0,
    0,
    0,
    0,
    0,
    0,
    0,
    0,
    0,
    0,
    0,
    0,
    0,
    0,
    1383,
    0,
    0,
    773,
    390,
    178,
    0,
    0,
    0,
    0,
    0,
    0,
    0,
    0,
    0,
    0,
    0,
    0,
    0,
    0,
    0,
    0,
    0,
    0,
    0,
    0,
    0,
    0,
    0,
    0,
    0,
    162,
    390,
    848,
    0,
    0,
    0,
    0,
    0,
    0,
    0,
    0,
    0,
    0,
    0,
    0,
    0,
    771,
    772,
    377,
    1272,
    0,
    0,
    0,
    3,
    0,
    0,
    0,
    0,
    0,
    0,
    274,
    275,
    658,
    0,
    0,
    0,
    0,
    0,
    0,
    0,
    0,
    0,
    0,
    0,
    0,
    0,
    0,
    0,
    0,
    0,
    0,
    0,
    0,
    0,
    0,
    0,
    0,
    0,
    0,
    0,
    0,
    0,
    0,
    0,
    0,
    0,
    0,
    0,
    0,
    0,
    0,
    0,
    0,
    0,
    0,
    0,
    0,
    0,
    0,
    0,
    0,
    0,
    0,
    0,
    0,
    0,
    0,
    0,
    0,
    0,
    0,
    0,
    0,
    0,
    0,
    0,
    0,
    1383,
    1383,
    0,
    771,
    772,
    377,
    1272,
    0,
    0,
    0,
    0,
    0,
    0,
    0,
    0,
    0,
    0,
    0,
    0,
    0,
    0,
    0,
    0,
    0,
    0,
    0,
    0,
    0,
    0,
    0,
    0,
    289,
    659,
    660,
    0,
    0,
    0,
    0,
    0,
    0,
    0,
    0,
    0,
    0,
    0,
    0,
    0,
    0,
    754,
    373,
    370,
    370,
    269,
    270,
    0,
    0,
    0,
    267,
    268,
    370,
    370,
    371,
    659,
    660,
    0,
    0,
    0,
    0,
    0,
    0,
    0,
    0,
    0,
    0,
    0,
    0,
    0,
    0,
    0,
    0,
    0,
    0,
    0,
    0,
    0,
    0,
    0,
    0,
    0,
    0,
    0,
    0,
    0,
    0,
    0,
    0,
    0,
    0,
    0,
    0,
    0,
    0,
    0,
    0,
    0,
    0,
    0,
    0,
    0,
    0,
    0,
    0,
    0,
    0,
    0,
    0,
    0,
    0,
    0,
    0,
    0,
    0,
    0,
    0,
    0,
    0,
    0,
    0,
    0,
    0,
    0,
    0,
    754,
    373,
    1403,
    1404,
    370,
    287,
    288,
    0,
    0,
    0,
    0,
    0,
    0,
    0,
    0,
    0,
    0,
    0,
    0,
    0,
    0,
    0,
    0,
    280,
    370,
    1403,
    1404,
    388,
    658,
    0,
    0,
    0,
    0,
    0,
    0,
    0,
    0,
    0,
    0,
    0,
    0,
    0,
    0,
    0,
    759,
    760,
    657,
    657,
    607,
    608,
    1393,
    1394,
    1395,
    655,
    656,
    657,
    657,
    657,
    662,
    0,
    0,
    0,
    0,
    0,
    0,
    0,
    0,
    0,
    0,
    0,
    0,
    0,
    0,
    0,
    0,
    0,
    0,
    0,
    0,
    0,
    0,
    0,
    0,
    0,
    0,
    0,
    0,
    0,
    0,
    0,
    0,
    0,
    0,
    0,
    0,
    0,
    0,
    0,
    0,
    0,
    0,
    0,
    0,
    0,
    0,
    0,
    0,
    0,
    0,
    0,
    0,
    0,
    0,
    0,
    0,
    0,
    0,
    0,
    0,
    0,
    0,
    0,
    0,
    0,
    0,
    0,
    0,
    0,
    759,
    760,
    1419,
    1420,
    657,
    374,
    377,
    1272,
    0,
    0,
    0,
    0,
    0,
    0,
    0,
    0,
    0,
    0,
    0,
    0,
    0,
    0,
    274,
    275,
    372,
    1419,
    1420,
    663,
    664,
    0,
    0,
    0,
    0,
    0,
    0,
    0,
    0,
    0,
    0,
    0,
    0,
    0,
    0,
    0,
    775,
    776,
    673,
    673,
    623,
    624,
    1412,
    1413,
    1414,
    671,
    672,
    673,
    673,
    673,
    678,
    0,
    0,
    3,
    0,
    0,
    0,
    0,
    0,
    0,
    0,
    0,
    0,
    0,
    0,
    0,
    0,
    0,
    0,
    0,
    0,
    0,
    0,
    0,
    0,
    0,
    0,
    0,
    0,
    0,
    0,
    0,
    0,
    0,
    0,
    0,
    0,
    0,
    0,
    0,
    0,
    0,
    0,
    0,
    0,
    0,
    0,
    0,
    0,
    0,
    0,
    0,
    0,
    0,
    0,
    0,
    0,
    0,
    0,
    0,
    0,
    0,
    0,
    0,
    0,
    0,
    0,
    0,
    0,
    0,
    775,
    776,
    1337,
    1338,
    673,
    770,
    394,
    395,
    0,
    0,
    0,
    0,
    0,
    0,
    0,
    0,
    0,
    0,
    0,
    0,
    0,
    0,
    289,
    681,
    682,
    1337,
    1338,
    679,
    0,
    0,
    0,
    0,
    0,
    0,
    0,
    0,
    0,
    0,
    0,
    0,
    0,
    0,
    0,
    0,
    0,
    0,
    0,
    0,
    639,
    640,
    1428,
    390,
    1430,
    687,
    688,
    0,
    0,
    0,
    0,
    0,
    0,
    0,
    0,
    0,
    0,
    0,
    0,
    0,
    0,
    0,
    0,
    0,
    0,
    0,
    0,
    0,
    0,
    0,
    0,
    0,
    0,
    0,
    0,
    0,
    0,
    0,
    0,
    0,
    0,
    0,
    0,
    0,
    0,
    0,
    0,
    0,
    0,
    0,
    0,
    0,
    0,
    0,
    0,
    0,
    0,
    0,
    0,
    0,
    0,
    0,
    0,
    0,
    0,
    0,
    0,
    0,
    0,
    0,
    0,
    0,
    0,
    0,
    0,
    0,
    0,
    0,
    0,
    0,
    0,
    0,
    1353,
    1354,
    0,
    771,
    772,
    377,
    1272,
    0,
    0,
    0,
    0,
    0,
    0,
    0,
    0,
    0,
    0,
    0,
    0,
    274,
    275,
    658,
    0,
    1353,
    1354,
    0,
    0,
    0,
    0,
    0,
    0,
    0,
    0,
    0,
    0,
    0,
    0,
    0,
    0,
    0,
    0,
    0,
    0,
    0,
    0,
    0,
    0,
    0,
    0,
    390,
    0,
    0,
    0,
    0,
    0,
    0,
    0,
    0,
    0,
    0,
    0,
    0,
    0,
    0,
    0,
    0,
    0,
    0,
    0,
    0,
    0,
    0,
    0,
    0,
    0,
    0,
    0,
    0,
    0,
    0,
    0,
    0,
    0,
    0,
    0,
    0,
    0,
    0,
    0,
    0,
    0,
    0,
    0,
    0,
    0,
    0,
    0,
    0,
    0,
    0,
    0,
    0,
    0,
    0,
    0,
    0,
    0,
    0,
    0,
    0,
    0,
    0,
    0,
    0,
    0,
    0,
    0,
    0,
    0,
    0,
    0,
    0,
    0,
    0,
    0,
    0,
    0,
    0,
    0,
    0,
    0,
    0,
    754,
    394,
    395,
    0,
    0,
    0,
    0,
    0,
    0,
    0,
    0,
    0,
    0,
    0,
    0,
    289,
    659,
    660,
    0,
    0,
    0,
    0,
    0,
    0,
    0,
    0,
    0,
    0,
    0,
    0,
    0,
    0,
    0,
    0,
    0,
    0,
    0,
    0,
    0,
    0,
    0,
    0,
    0,
    0,
    0,
    0,
    0,
    0,
    0,
    0,
    0,
    0,
    0,
    0,
    0,
    0,
    0,
    0,
    0,
    0,
    0,
    0,
    0,
    0,
    0,
    0,
    0,
    0,
    0,
    0,
    0,
    0,
    0,
    0,
    0,
    0,
    0,
    0,
    0,
    0,
    0,
    0,
    0,
    0,
    0,
    0,
    0,
    0,
    0,
    0,
    0,
    0,
    0,
    0,
    0,
    0,
    0,
    0,
    0,
    0,
    0,
    0,
    0,
    0,
    0,
    0,
    0,
    0,
    0,
    0,
    0,
    0,
    0,
    0,
    0,
    0,
    0,
    0,
    0,
    0,
    0,
    0,
    0,
    0,
    0,
    0,
    0,
    0,
    771,
    772,
    377,
    1272,
    0,
    0,
    0,
    0,
    0,
    0,
    0,
    0,
    0,
    0,
    274,
    275,
    658,
    0,
    0,
    0,
    0,
    0,
    0,
    0,
    0,
    0,
    0,
    0,
    0,
    0,
    0,
    0,
    0,
    0,
    0,
    0,
    0,
    0,
    0,
    0,
    0,
    0,
    0,
    0,
    0,
    0,
    0,
    0,
    0,
    0,
    0,
    0,
    0,
    0,
    0,
    0,
    0,
    0,
    0,
    0,
    0,
    0,
    0,
    0,
    0,
    0,
    0,
    0,
    0,
    0,
    0,
    0,
    0,
    0,
    0,
    0,
    0,
    0,
    0,
    0,
    0,
    0,
    0,
    0,
    0,
    0,
    0,
    0,
    0,
    0,
    0,
    0,
    0,
    0,
    0,
    0,
    0,
    0,
    0,
    0,
    0,
    0,
    0,
    0,
    0,
    0,
    0,
    0,
    0,
    0,
    0,
    0,
    0,
    0,
    0,
    0,
    0,
    0,
    0,
    0,
    0,
    0,
    0,
    0,
    0,
    0,
    0,
    0,
    0,
    754,
    373,
    370,
    370,
    269,
    270,
    0,
    0,
    0,
    267,
    268,
    370,
    370,
    371,
    659,
    660,
    0,
    0,
    0,
    0,
    0,
    0,
    0,
    0,
    0,
    0,
    0,
    0,
    0,
    0,
    0,
    0,
    0,
    0,
    0,
    0,
    0,
    0,
    0,
    0,
    0,
    0,
    0,
    0,
    0,
    0,
    0,
    0,
    0,
    0,
    0,
    0,
    0,
    0,
    0,
    0,
    0,
    0,
    0,
    0,
    0,
    0,
    0,
    0,
    0,
    0,
    0,
    0,
    0,
    0,
    0,
    0,
    0,
    0,
    0,
    0,
    0,
    0,
    0,
    0,
    0,
    0,
    0,
    0,
    0,
    0,
    0,
    0,
    0,
    0,
    0,
    0,
    0,
    0,
    0,
    0,
    0,
    0,
    0,
    0,
    0,
    0,
    0,
    0,
    0,
    0,
    0,
    0,
    0,
    0,
    0,
    0,
    0,
    0,
    0,
    0,
    0,
    0,
    0,
    0,
    0,
    0,
    0,
    0,
    0,
    0,
    0,
    0,
    759,
    760,
    657,
    657,
    607,
    608,
    1393,
    1394,
    1395,
    655,
    656,
    657,
    657,
    657,
    662,
    0,
    0,
    0,
    0,
    0,
    0,
    0,
    0,
    0,
    0,
    0,
    0,
    0,
    0,
    0,
    0,
    0,
    0,
    0,
    0,
    0,
    0,
    0,
    0,
    0,
    0,
    0,
    0,
    0,
    0,
    0,
    0,
    0,
    0,
    0,
    0,
    0,
    0,
    0,
    0,
    0,
    0,
    0,
    0,
    0,
    0,
    0,
    0,
    0,
    0,
    0,
    0,
    0,
    0,
    0,
    0,
    0,
    0,
    0,
    0,
    0,
    0,
    0,
    0,
    0,
    0,
    0,
    0,
    0,
    0,
    0,
    0,
    0,
    0,
    0,
    0,
    0,
    0,
    0,
    0,
    0,
    0,
    0,
    0,
    0,
    0,
    0,
    0,
    0,
    0,
    0,
    0,
    0,
    0,
    0,
    0,
    0,
    0,
    0,
    0,
    0,
    0,
    0,
    0,
    0,
    0,
    0,
    0,
    0,
    0,
    0,
    0,
    0,
    775,
    776,
    673,
    673,
    623,
    624,
    1412,
    1413,
    1414,
    671,
    672,
    673,
    673,
    673,
    678,
    0,
    0,
    0,
    0,
    0,
    0,
    0,
    0,
    0,
    0,
    0,
    0,
    0,
    0,
    0,
    0,
    0,
    0,
    0,
    0,
    0,
    0,
    0,
    0,
    0,
    0,
    0,
    0,
    0,
    0,
    0,
    0,
    0,
    0,
    0,
    0,
    0,
    0,
    0,
    0,
    0,
    0,
    0,
    0,
    0,
    0,
    0,
    0,
    0,
    0,
    0,
    0,
    0,
    0,
    0,
    0,
    0,
    0,
    0,
    0,
    0,
    0,
    0,
    0,
    0,
    0,
    0,
    0,
    0,
    0,
    0,
    0,
    0,
    0,
    0,
    0,
    0,
    0,
    0,
    0,
    0,
    0,
    0,
    0,
    0,
    0,
    0,
    0,
    0,
    0,
    0,
    0,
    0,
    0,
    0,
    0,
    0,
    0,
    0,
    0,
    0,
    0,
    0,
    0,
    0,
    0,
    0,
    0,
    0,
    0,
    0,
    0,
    0,
    0,
    0,
    0,
    0,
    639,
    640,
    1428,
    390,
    1430,
    687,
    688,
    0,
    0,
    0,
    0,
    0,
    0,
    0,
    0,
    0,
    0,
    0,
    0,
    0,
    0,
    0,
    0,
    0,
    0,
    0,
    0,
    0,
    0,
    0,
    0,
    0,
    0,
    0,
    0,
    0,
    0,
    0,
    0,
    0,
    0,
    0,
    0,
    0,
    0,
    0,
    0,
    0,
    0,
    0,
    0,
    0,
    0,
    0,
    0,
    0,
    0,
    0,
    0,
    0,
    0,
    0,
    0,
    0,
    0,
    0,
    0,
    0,
    0,
    0,
    0,
    0,
    0,
    0,
    0,
    0,
    0,
    0,
    0,
    0,
    0,
    0,
    0,
    0,
    0,
    0,
    0,
    0,
    0,
    0,
    0,
    0,
    0,
    0,
    0,
    0,
    0,
    0,
    0,
    0,
    0,
    0,
    0,
    0,
    0,
    0,
    0,
    0,
    0,
    0,
    0,
    0,
    0,
    0,
    0,
    0,
    0,
    0,
    0,
    0,
    0,
    0,
    0,
    0,
    0,
    0,
    0,
    0,
    0,
    0,
    0,
    390,
    0,
    0,
    0,
    0,
    0,
    0,
    0,
    0,
    0,
    0,
    0,
    0,
    0,
    0,
    0,
    0,
    0,
    0,
    0,
    0,
    0,
    0,
    0,
    0,
    0,
    0,
    0,
    0,
    0,
    0,
    0,
    0,
    0,
    0,
    0,
    0,
    0,
    0,
    0,
    0,
    0,
    0,
    0,
    0,
    0,
    0,
    0,
    0,
    0,
    0,
    0,
    0,
    0,
    0,
    0,
    0,
    0,
    0,
    0,
    0,
    0,
    0,
    0,
    0,
    0,
    0,
    0,
    0,
    0,
    0,
    0,
    0,
    0,
    0,
    0,
    0,
    0,
    0,
    0,
    0,
    0,
    0,
    0,
    0,
    0,
    0,
    0,
    0,
    0,
    0,
    0,
    0,
    0,
    0,
    0,
    0,
    0,
    0,
    0,
    0,
    0,
    0,
    0,
    0,
    0,
    0,
    0,
    0,
    0,
    0,
    0,
    0,
    0,
    0,
    0,
    0,
    0,
    0,
    0,
    0,
    0,
    0,
    0,
    0,
    0,
    0,
    0,
    0,
    0,
    0,
    0,
    0,
    0,
    0,
    0,
    0,
    0,
    0,
    0,
    0,
    0,
    0,
    0,
    0,
    0,
    0,
    0,
    0,
    0,
    0,
    0,
    0,
    0,
    0,
    0,
    0,
    0,
    0,
    0,
    0,
    0,
    0,
    0,
    0,
    0,
    0,
    0,
    0,
    0,
    0,
    0,
    0,
    0,
    0,
    0,
    0,
    0,
    0,
    0,
    0,
    0,
    0,
    0,
    0,
    0,
    0,
    0,
    0,
    0,
    0,
    0,
    0,
    0,
    0,
    0,
    0,
    0,
    0,
    0,
    0,
    0,
    0,
    0,
    0,
    0,
    0,
    0,
    0,
    0,
    0,
    0,
    0,
    0,
    0,
    0,
    0,
    0,
    0,
    0,
    0,
    0,
    0,
    0,
    0,
    0,
    0,
    0,
    0,
    0,
    0,
    0,
    0,
    0,
    0,
    0,
    0,
    0,
    0,
    0,
    0,
    0,
    0,
    0,
    0,
    0,
    0,
    0,
    0,
    0,
    0,
    0,
    0,
    0,
    0,
    0,
    0,
    0,
    0,
    0,
    0,
    0,
    0,
    0,
    0,
    0,
    0,
    0,
    0,
    0,
    0,
    0,
    0,
    0,
    0,
    0,
    0,
    0,
    0,
    0,
    0,
    0,
    0,
    0,
    0,
    0,
    0,
    0,
    0,
    0,
    0,
    0,
    0,
    0,
    0,
    0,
    0,
    0,
    0,
    0,
    0,
    0,
    0,
    0,
    0,
    0,
    0,
    0,
    0,
    0,
    0,
    0,
    0,
    0,
    0,
    0,
    0,
    0,
    0,
    0,
    0,
    0,
    0,
    0,
    0,
    0,
    0,
    0,
    0,
    0,
    0,
    0,
    0,
    0,
    0,
    0,
    0,
    0,
    0,
    0,
    0,
    0,
    0,
    0,
    0,
    0,
    0,
    0,
    0,
    0,
    0,
    0,
    0,
    0,
    0,
    0,
    0
   ]
  },
  {
   "id": 4,
   "name": "spawns",
   "type": "objectgroup",
   "x": 0,
   "y": 0,
   "width": 0,
   "height": 0,
   "opacity": 1,
   "visible": true,
   "draworder": "topdown",
   "objects": []
  }
 ]
}
