{
 "type": "map",
 "version": 1.1,
 "tiledversion": "1.11.0",
 "orientation": "orthogonal",
 "renderorder": "right-down",
 "width": 128,
 "height": 128,
 "tilewidth": 40,
 "tileheight": 40,
 "infinite": false,
 "nextlayerid": 5,
 "nextobjectid": 37,
 "compressionlevel": -1,
 "properties": [],
 "tilesets": [
  {
   "firstgid": 1,
   "source": "terrain.tsx"
  }
 ],
 "layers": [
  {
   "id": 1,
   "name": "terrain",
   "type": "tilelayer",
   "x": 0,
   "y": 0,
   "width": 128,
   "height": 128,
   "opacity": 1,
   "visible": true,
   "data": [
    703,
    367,
    368,
    1304,
    367,
    367,
    368,
    367,
    703,
    367,
    703,
    367,
    368,
    368,
    1320,
    1304,
    703,
    368,
    1304,
    1319,
    1320,
    989,
    990,
    991,
    1090,
    1385,
    1387,
    1384,
    1164,
    1383,
    1383,
    1384,
    1384,
    1386,
    1388,
    1385,
    1387,
    1383,
    1386,
    1386,
    1384,
    1388,
    1388,
    1387,
    1384,
    1388,
    702,
    1385,
    1388,
    1383,
    1383,
    1387,
    1386,
    1388,
    1387,
    1383,
    1384,
    1388,
    1387,
    1388,
    1388,
    1383,
    1386,
    731,
    732,
    1182,
    731,
    732,
    731,
    732,
    733,
    1182,
    1384,
    1387,
    1386,
    1385,
    1387,
    1385,
    1388,
    1385,
    1384,
    1384,
    1383,
    1384,
    1386,
    1387,
    1385,
    1385,
    1387,
    1387,
    1384,
    1387,
    1384,
    1387,
    1387,
    1383,
    1386,
    1383,
    1385,
    1383,
    1385,
    1386,
    1387,
    1388,
    1386,
    1385,
    1383,
    1387,
    1385,
    1386,
    1384,
    1383,
    1385,
    1387,
    1384,
    1386,
    1386,
    1388,
    1388,
    1385,
    1385,
    1383,
    1383,
    1388,
    1386,
    1383,
    1384,
    1387,
    703,
    383,
    384,
    367,
    703,
    703,
    384,
    703,
    719,
    703,
    719,
    703,
    384,
    384,
    367,
    367,
    719,
    368,
    992,
    1179,
    944,
    1005,
    1006,
    1090,
    1388,
    1384,
    1387,
    1384,
    1387,
    733,
    731,
    732,
    1384,
    1384,
    1384,
    1387,
    1388,
    1384,
    1164,
    1385,
    1387,
    1387,
    1387,
    1384,
    1387,
    1387,
    1384,
    1383,
    1385,
    1386,
    1163,
    1384,
    1383,
    1387,
    1386,
    1386,
    1387,
    1384,
    1387,
    1388,
    1384,
    1385,
    1383,
    747,
    748,
    11,
    747,
    748,
    747,
    748,
    1388,
    1388,
    1388,
    1384,
    1385,
    1388,
    1384,
    1388,
    1387,
    1386,
    1386,
    1388,
    1388,
    1384,
    1383,
    1386,
    1386,
    1383,
    1383,
    1386,
    1388,
    1386,
    1387,
    1388,
    1385,
    1383,
    1385,
    1383,
    1383,
    1385,
    1388,
    1383,
    1385,
    1387,
    1386,
    1385,
    1384,
    1386,
    1384,
    1385,
    1388,
    1386,
    1386,
    1384,
    1384,
    1384,
    1387,
    1385,
    1385,
    1385,
    1385,
    1383,
    1385,
    1388,
    1386,
    1385,
    1388,
    1387,
    719,
    399,
    703,
    703,
    719,
    703,
    703,
    719,
    703,
    719,
    719,
    719,
    400,
    368,
    367,
    368,
    383,
    703,
    1008,
    959,
    960,
    1090,
    1091,
    1385,
    1388,
    1384,
    1385,
    1386,
    1387,
    1384,
    747,
    748,
    1383,
    733,
    1383,
    733,
    1384,
    927,
    1388,
    1387,
    1388,
    1383,
    1165,
    1388,
    1384,
    1386,
    1387,
    1384,
    1387,
    1388,
    1388,
    1387,
    1385,
    1384,
    1383,
    1384,
    1387,
    1384,
    1388,
    1386,
    1384,
    1383,
    1387,
    1384,
    731,
    732,
    1385,
    731,
    732,
    1182,
    1387,
    1386,
    1383,
    1385,
    1388,
    1386,
    1383,
    1388,
    1387,
    1388,
    1385,
    1385,
    1383,
    1388,
    1384,
    1386,
    1388,
    1388,
    1383,
    1388,
    1384,
    1384,
    1388,
    1385,
    1164,
    1383,
    1388,
    1383,
    1385,
    1386,
    1388,
    1385,
    1386,
    1383,
    1384,
    1388,
    1383,
    1386,
    1384,
    1388,
    1385,
    1383,
    1387,
    1383,
    1386,
    1385,
    1385,
    1388,
    1385,
    1385,
    1384,
    1383,
    1385,
    1383,
    1385,
    1383,
    1384,
    1384,
    367,
    368,
    719,
    703,
    703,
    703,
    719,
    368,
    703,
    719,
    703,
    703,
    384,
    703,
    703,
    703,
    703,
    719,
    989,
    990,
    991,
    1106,
    1163,
    1385,
    1384,
    1388,
    1386,
    1383,
    731,
    732,
    733,
    1386,
    1182,
    1384,
    1383,
    1388,
    1387,
    1384,
    1385,
    1384,
    1386,
    1387,
    1386,
    1385,
    1386,
    1386,
    1388,
    1384,
    1385,
    1385,
    1383,
    1387,
    1388,
    1384,
    1383,
    1388,
    1387,
    1387,
    1383,
    1388,
    1386,
    1386,
    1386,
    1384,
    747,
    748,
    1182,
    747,
    748,
    1385,
    1182,
    1386,
    1386,
    1387,
    1383,
    1383,
    1164,
    1385,
    1387,
    1385,
    1383,
    1387,
    1384,
    1383,
    1383,
    1385,
    1386,
    1383,
    1384,
    1387,
    1388,
    1384,
    1383,
    1383,
    1383,
    1387,
    1383,
    1386,
    1163,
    1385,
    1387,
    1387,
    1384,
    1384,
    1387,
    1384,
    1383,
    1387,
    1387,
    1386,
    1387,
    1388,
    1388,
    1383,
    1386,
    1384,
    1384,
    1386,
    1386,
    1388,
    1388,
    1383,
    1387,
    1163,
    1385,
    1385,
    1388,
    1384,
    703,
    384,
    384,
    719,
    719,
    719,
    703,
    384,
    719,
    384,
    719,
    703,
    400,
    719,
    719,
    719,
    719,
    1014,
    1005,
    1006,
    1090,
    1384,
    1385,
    1388,
    1386,
    1384,
    1384,
    1384,
    747,
    748,
    1388,
    1182,
    1182,
    731,
    732,
    1387,
    1385,
    1386,
    1384,
    1385,
    1385,
    1387,
    1386,
    1384,
    1388,
    1385,
    1386,
    1385,
    1384,
    1387,
    1384,
    1388,
    1383,
    1386,
    1383,
    1388,
    1387,
    1384,
    1387,
    1383,
    1383,
    1387,
    1383,
    1383,
    1388,
    731,
    732,
    10,
    1165,
    1386,
    1387,
    1384,
    1383,
    1388,
    1385,
    1386,
    1387,
    1388,
    1385,
    1386,
    1383,
    1388,
    1386,
    1387,
    1384,
    1386,
    1388,
    1388,
    1386,
    1383,
    1384,
    1387,
    1386,
    1384,
    1386,
    1386,
    1384,
    1383,
    1385,
    1386,
    1386,
    1386,
    1384,
    1384,
    1385,
    1384,
    1384,
    1383,
    1386,
    1387,
    1383,
    1384,
    1384,
    1383,
    1386,
    1385,
    1387,
    1386,
    1384,
    1388,
    1383,
    1386,
    1384,
    1387,
    1386,
    1388,
    1387,
    1387,
    719,
    400,
    400,
    703,
    367,
    368,
    719,
    703,
    703,
    703,
    703,
    719,
    384,
    1320,
    719,
    1028,
    1029,
    1030,
    1090,
    1091,
    1383,
    1388,
    1386,
    1384,
    1165,
    1388,
    1385,
    1384,
    1388,
    1385,
    731,
    732,
    733,
    747,
    748,
    731,
    732,
    1387,
    1386,
    1384,
    1387,
    1388,
    1387,
    1387,
    1383,
    1386,
    1383,
    1388,
    1388,
    1388,
    1383,
    1384,
    1384,
    1388,
    1385,
    1386,
    1386,
    1384,
    1383,
    1388,
    1386,
    1387,
    1384,
    731,
    732,
    747,
    748,
    1182,
    731,
    732,
    1385,
    1383,
    1385,
    1383,
    1165,
    1388,
    1383,
    1383,
    1384,
    1386,
    1387,
    1387,
    1387,
    1386,
    1386,
    1383,
    1164,
    1385,
    1384,
    1386,
    1386,
    1388,
    1383,
    1388,
    1383,
    1387,
    1383,
    1384,
    1386,
    1386,
    1386,
    1385,
    1383,
    1388,
    1383,
    1384,
    1388,
    1386,
    1388,
    1386,
    1384,
    1385,
    1384,
    1383,
    1388,
    1387,
    1388,
    1385,
    1388,
    1385,
    1385,
    1383,
    1386,
    1384,
    1383,
    1387,
    1388,
    1388,
    1319,
    1320,
    1179,
    719,
    383,
    992,
    703,
    719,
    719,
    719,
    703,
    399,
    400,
    719,
    944,
    1044,
    1045,
    1090,
    1386,
    1385,
    1383,
    1388,
    1387,
    1385,
    1388,
    1388,
    1386,
    733,
    1385,
    1182,
    747,
    748,
    1150,
    1151,
    1182,
    747,
    748,
    1387,
    1386,
    1383,
    1383,
    1385,
    1386,
    1384,
    1386,
    1384,
    1384,
    1384,
    1386,
    1388,
    1164,
    1385,
    1384,
    1388,
    1384,
    1388,
    1384,
    1385,
    1388,
    1383,
    1386,
    1387,
    1388,
    747,
    748,
    733,
    731,
    732,
    747,
    748,
    1182,
    1384,
    1384,
    1387,
    1385,
    1385,
    1385,
    1386,
    1388,
    1385,
    1383,
    1385,
    1386,
    1387,
    1387,
    1388,
    1388,
    1388,
    1384,
    1384,
    1387,
    1383,
    1388,
    1385,
    1386,
    1387,
    1386,
    1384,
    1388,
    1387,
    1384,
    1384,
    1388,
    1383,
    1384,
    1387,
    1384,
    1384,
    1388,
    1388,
    1384,
    1384,
    1385,
    1386,
    1383,
    1163,
    1387,
    1383,
    1387,
    1387,
    1386,
    1387,
    1388,
    1384,
    1386,
    1384,
    1388,
    1388,
    703,
    703,
    368,
    703,
    399,
    1008,
    719,
    399,
    1304,
    719,
    719,
    399,
    719,
    959,
    960,
    1090,
    1091,
    1388,
    1383,
    1383,
    1383,
    1385,
    1388,
    1388,
    1387,
    1384,
    1164,
    1388,
    731,
    732,
    1182,
    733,
    1166,
    1167,
    1383,
    927,
    731,
    732,
    1385,
    1383,
    1388,
    1387,
    1388,
    1384,
    1384,
    1388,
    1388,
    1387,
    1383,
    1383,
    1387,
    1384,
    1388,
    1384,
    1388,
    1384,
    1388,
    1386,
    1386,
    1383,
    1383,
    1388,
    731,
    732,
    1150,
    1151,
    747,
    748,
    733,
    1163,
    1386,
    1384,
    1386,
    1384,
    1384,
    1387,
    1386,
    1388,
    1388,
    1383,
    1384,
    1385,
    1385,
    1388,
    1384,
    1384,
    1383,
    1386,
    1384,
    1386,
    1387,
    1388,
    1388,
    1383,
    1383,
    1387,
    1384,
    1387,
    1384,
    1388,
    1383,
    1386,
    1384,
    1386,
    1385,
    1386,
    1384,
    1383,
    1383,
    1386,
    1388,
    1383,
    1387,
    1386,
    1384,
    1384,
    1383,
    1387,
    1386,
    1385,
    1387,
    1383,
    1388,
    1388,
    1387,
    1384,
    1387,
    1383,
    719,
    719,
    384,
    719,
    987,
    988,
    975,
    976,
    975,
    976,
    985,
    986,
    989,
    990,
    991,
    1106,
    1164,
    1383,
    1165,
    1383,
    1387,
    1388,
    1383,
    1387,
    1388,
    1384,
    1386,
    1388,
    747,
    748,
    731,
    732,
    1182,
    733,
    1182,
    1182,
    747,
    748,
    1383,
    1387,
    1384,
    1386,
    1385,
    1387,
    1384,
    1386,
    1386,
    1383,
    1388,
    1385,
    1388,
    1388,
    1383,
    1384,
    1388,
    1388,
    1387,
    1387,
    1388,
    1384,
    1388,
    1383,
    747,
    748,
    1166,
    1167,
    1182,
    1384,
    1385,
    1383,
    1386,
    1383,
    1383,
    1387,
    1385,
    1385,
    1383,
    1385,
    1387,
    1383,
    1387,
    1385,
    1387,
    1384,
    1384,
    1384,
    1383,
    1386,
    1383,
    1386,
    1386,
    1385,
    1386,
    1383,
    1385,
    1384,
    1385,
    1384,
    1387,
    1383,
    1385,
    1386,
    1383,
    1388,
    1384,
    1388,
    1387,
    1385,
    1387,
    1385,
    1383,
    1388,
    1388,
    1386,
    1385,
    1385,
    1388,
    1385,
    1383,
    1387,
    1386,
    1388,
    1387,
    1387,
    1388,
    1386,
    1388,
    1385,
    703,
    399,
    400,
    1014,
    1003,
    1004,
    1090,
    1091,
    1091,
    1092,
    1001,
    1002,
    1005,
    1006,
    1090,
    1384,
    1383,
    1387,
    1387,
    1387,
    1388,
    1383,
    1383,
    1384,
    1387,
    1388,
    1385,
    927,
    1384,
    1385,
    747,
    748,
    1383,
    1182,
    731,
    732,
    1182,
    1385,
    1388,
    1384,
    1384,
    1386,
    1383,
    1385,
    1182,
    733,
    1388,
    1383,
    1384,
    1388,
    1388,
    1388,
    1386,
    1383,
    1386,
    1384,
    1388,
    1388,
    1386,
    1388,
    1383,
    1384,
    1384,
    1388,
    1147,
    1165,
    733,
    1388,
    1386,
    1383,
    1383,
    1383,
    1386,
    1384,
    1387,
    1385,
    1386,
    1387,
    1383,
    1388,
    1388,
    1387,
    1386,
    1388,
    1383,
    1384,
    1387,
    1385,
    1383,
    1385,
    1386,
    1387,
    1385,
    1388,
    1165,
    1385,
    1385,
    1383,
    1386,
    1388,
    1387,
    1387,
    1386,
    1388,
    1388,
    1387,
    1383,
    1387,
    1383,
    1386,
    1383,
    1387,
    1384,
    1387,
    1387,
    1388,
    1386,
    1383,
    1383,
    1387,
    1387,
    1388,
    1386,
    1386,
    1384,
    1387,
    1387,
    1387,
    719,
    1028,
    1029,
    1030,
    7,
    1089,
    1387,
    1164,
    1386,
    1387,
    1092,
    15,
    13,
    1089,
    1387,
    1386,
    1383,
    1388,
    1387,
    1385,
    1383,
    1384,
    1386,
    1386,
    1386,
    1383,
    1383,
    1387,
    1387,
    1387,
    1387,
    1385,
    1386,
    1383,
    747,
    748,
    1182,
    1164,
    1385,
    1384,
    1386,
    1384,
    1384,
    1182,
    731,
    732,
    1182,
    1384,
    733,
    1386,
    1385,
    731,
    732,
    1384,
    1388,
    1388,
    1383,
    1386,
    1384,
    1384,
    1387,
    1383,
    1388,
    1383,
    1164,
    927,
    1182,
    1383,
    1383,
    1385,
    1387,
    1384,
    1383,
    1383,
    1386,
    1383,
    1385,
    1384,
    1388,
    1383,
    1387,
    1384,
    1388,
    1388,
    1383,
    1387,
    1384,
    1383,
    1387,
    1386,
    1386,
    1386,
    1384,
    1384,
    1385,
    1387,
    1383,
    1386,
    1383,
    1388,
    1388,
    1385,
    1384,
    1386,
    1385,
    1385,
    1388,
    1386,
    1387,
    1387,
    1387,
    1385,
    1388,
    1384,
    1383,
    1386,
    1383,
    1388,
    1384,
    1387,
    1386,
    1384,
    1384,
    1384,
    1384,
    1383,
    1384,
    1384,
    944,
    1044,
    1045,
    1090,
    1091,
    1387,
    1385,
    1385,
    1383,
    1384,
    1384,
    1091,
    1091,
    731,
    732,
    1182,
    1385,
    1383,
    1182,
    1386,
    1384,
    1386,
    1386,
    1388,
    1387,
    1387,
    1165,
    1388,
    1383,
    1182,
    1385,
    1384,
    927,
    1387,
    1383,
    1386,
    1385,
    927,
    1388,
    1386,
    1383,
    1388,
    731,
    732,
    747,
    748,
    731,
    732,
    733,
    1383,
    1182,
    747,
    748,
    1384,
    1182,
    1383,
    731,
    732,
    1386,
    1388,
    1385,
    1385,
    1385,
    1386,
    1384,
    733,
    1386,
    1165,
    1388,
    1387,
    1386,
    1387,
    1385,
    1387,
    1385,
    1385,
    1384,
    1387,
    1163,
    1388,
    1388,
    1388,
    1385,
    1386,
    1387,
    1386,
    1383,
    1387,
    1388,
    1387,
    1384,
    1388,
    1385,
    1384,
    1384,
    1383,
    1385,
    1384,
    1388,
    1386,
    1388,
    1388,
    1384,
    1385,
    1388,
    1385,
    1384,
    1383,
    1388,
    1385,
    1388,
    1387,
    1386,
    1387,
    1386,
    1386,
    1386,
    1383,
    1386,
    1387,
    1383,
    1383,
    1385,
    1383,
    1384,
    1383,
    1385,
    1388,
    960,
    1090,
    1091,
    1165,
    1386,
    1384,
    1388,
    1386,
    1385,
    1386,
    1386,
    1182,
    1182,
    747,
    748,
    1388,
    731,
    732,
    1150,
    1151,
    1385,
    1383,
    1383,
    1385,
    1388,
    1384,
    1388,
    1388,
    1386,
    1385,
    1387,
    1388,
    1388,
    1386,
    1386,
    1387,
    1386,
    1384,
    1386,
    1385,
    1387,
    1388,
    747,
    748,
    731,
    732,
    747,
    748,
    1182,
    731,
    732,
    1150,
    1151,
    731,
    732,
    1182,
    747,
    748,
    1182,
    1386,
    1388,
    1387,
    1385,
    1383,
    1383,
    1385,
    1383,
    1384,
    1385,
    1388,
    1387,
    1388,
    1383,
    1387,
    1386,
    1388,
    1383,
    1388,
    1384,
    1385,
    1387,
    1384,
    1387,
    1387,
    1388,
    1385,
    1384,
    1383,
    1388,
    1384,
    1385,
    1387,
    1387,
    1384,
    1384,
    1387,
    1163,
    1385,
    1387,
    1388,
    1387,
    1384,
    1386,
    1384,
    1386,
    1386,
    1388,
    1386,
    1386,
    1384,
    1384,
    1388,
    1388,
    1387,
    1383,
    1386,
    1387,
    1383,
    1384,
    1385,
    1386,
    1386,
    1384,
    1385,
    1388,
    1384,
    1386,
    1383,
    991,
    1106,
    1385,
    1387,
    1384,
    1385,
    1383,
    1384,
    1386,
    1385,
    1150,
    1151,
    731,
    732,
    1150,
    1151,
    747,
    748,
    1166,
    1167,
    1383,
    1383,
    1387,
    1383,
    1385,
    1387,
    1387,
    1388,
    1387,
    1384,
    1387,
    1385,
    1385,
    1386,
    1387,
    1383,
    1385,
    1385,
    1384,
    1384,
    1386,
    733,
    1388,
    1182,
    747,
    748,
    1182,
    1150,
    1151,
    747,
    748,
    1166,
    1167,
    747,
    748,
    1150,
    1151,
    733,
    731,
    732,
    1385,
    1386,
    1386,
    1388,
    1383,
    1385,
    1384,
    1388,
    1387,
    1385,
    1386,
    1383,
    1384,
    1384,
    1388,
    1387,
    1385,
    1385,
    1388,
    1388,
    1384,
    1386,
    1385,
    1386,
    1384,
    1388,
    1387,
    1384,
    1383,
    1385,
    1388,
    1384,
    1388,
    1385,
    1387,
    1386,
    1383,
    1387,
    1385,
    1388,
    1383,
    1386,
    1386,
    1386,
    1383,
    1383,
    1383,
    1387,
    1383,
    1388,
    1387,
    1384,
    1385,
    1387,
    1385,
    1385,
    1383,
    1383,
    1384,
    1388,
    1387,
    1384,
    1163,
    1387,
    1384,
    1386,
    1387,
    1384,
    1007,
    1106,
    1385,
    1386,
    1388,
    1387,
    1387,
    1388,
    1386,
    1386,
    1166,
    1167,
    747,
    748,
    1166,
    1167,
    1383,
    1182,
    1182,
    1388,
    1383,
    1386,
    1387,
    1383,
    1387,
    1386,
    1385,
    1384,
    1388,
    1388,
    1385,
    1386,
    1388,
    1387,
    1386,
    1386,
    1385,
    1387,
    1387,
    1387,
    1387,
    1383,
    1387,
    1387,
    1384,
    1388,
    733,
    1166,
    1167,
    1385,
    1182,
    731,
    732,
    11,
    1182,
    1166,
    1167,
    1182,
    747,
    748,
    1384,
    1386,
    1384,
    1383,
    1388,
    1388,
    1387,
    1387,
    1387,
    1387,
    1385,
    1385,
    1385,
    1384,
    1387,
    1387,
    1384,
    1383,
    1385,
    1384,
    1385,
    1388,
    1384,
    1388,
    1388,
    1387,
    1383,
    1384,
    1388,
    1385,
    1383,
    1387,
    1387,
    1387,
    1385,
    1388,
    1383,
    1383,
    1388,
    1383,
    1385,
    1387,
    1384,
    1385,
    1386,
    1383,
    1383,
    1386,
    1387,
    1385,
    1385,
    1386,
    1383,
    1387,
    1383,
    1387,
    1388,
    1388,
    1386,
    1387,
    1385,
    1383,
    1383,
    1385,
    1388,
    1388,
    1385,
    1383,
    1090,
    1386,
    1387,
    1383,
    1386,
    1383,
    1383,
    1383,
    1384,
    1383,
    1383,
    1385,
    1182,
    1385,
    1383,
    1383,
    731,
    732,
    1386,
    1388,
    1164,
    1388,
    1383,
    1384,
    1383,
    1384,
    1383,
    1387,
    1386,
    1385,
    1388,
    1384,
    1386,
    1388,
    1387,
    1383,
    1388,
    1385,
    1387,
    1388,
    1385,
    1383,
    1387,
    1384,
    1384,
    1388,
    1388,
    1386,
    1384,
    1182,
    1387,
    747,
    748,
    731,
    732,
    1147,
    733,
    731,
    732,
    1384,
    733,
    1385,
    1388,
    1388,
    1384,
    1385,
    1387,
    1384,
    1383,
    1387,
    1385,
    1386,
    1383,
    1388,
    1383,
    1388,
    1386,
    1387,
    1385,
    1383,
    1388,
    1388,
    1388,
    1388,
    1384,
    1387,
    1387,
    1384,
    1387,
    1387,
    1385,
    1387,
    1388,
    1385,
    1388,
    1388,
    1387,
    1387,
    1385,
    1384,
    1388,
    1387,
    1385,
    1385,
    1387,
    1387,
    1388,
    1388,
    1383,
    1383,
    1386,
    1384,
    1386,
    1384,
    1388,
    1388,
    1386,
    1386,
    1387,
    1385,
    1388,
    1383,
    1387,
    1383,
    1388,
    1385,
    1387,
    1385,
    1384,
    1385,
    1388,
    1383,
    1388,
    1383,
    1386,
    1385,
    1385,
    1388,
    1387,
    1383,
    1383,
    731,
    732,
    1182,
    747,
    748,
    1384,
    1388,
    1386,
    1385,
    1385,
    1384,
    1388,
    1383,
    1386,
    1386,
    1388,
    1384,
    1385,
    1387,
    1385,
    1385,
    1386,
    1388,
    1383,
    1387,
    1383,
    1383,
    1383,
    1386,
    1387,
    1387,
    1388,
    1383,
    1383,
    1384,
    1383,
    1385,
    1384,
    1385,
    1387,
    747,
    748,
    1384,
    1386,
    747,
    748,
    1182,
    1387,
    1383,
    1386,
    1385,
    1386,
    1383,
    1385,
    1388,
    1385,
    1388,
    1384,
    1383,
    1388,
    1387,
    1385,
    1383,
    1388,
    1387,
    1385,
    1387,
    1387,
    1385,
    1384,
    1383,
    1388,
    1387,
    1385,
    1386,
    1383,
    1385,
    1383,
    1386,
    1383,
    1386,
    1384,
    1384,
    1384,
    1383,
    1383,
    1384,
    1383,
    1384,
    1385,
    1387,
    1383,
    1164,
    1388,
    1383,
    1384,
    1384,
    1387,
    1385,
    1383,
    1388,
    1384,
    1384,
    1384,
    1386,
    1387,
    1386,
    1387,
    1385,
    1383,
    1386,
    1384,
    1383,
    1386,
    1388,
    1165,
    1384,
    1387,
    1388,
    1385,
    1384,
    1383,
    1388,
    1387,
    1384,
    1383,
    1388,
    1387,
    747,
    748,
    731,
    732,
    1385,
    1182,
    1384,
    1383,
    1383,
    1385,
    1386,
    1388,
    1386,
    1385,
    1388,
    1383,
    1385,
    1383,
    1383,
    1383,
    1383,
    1386,
    1384,
    1383,
    1388,
    1387,
    1385,
    1385,
    1386,
    1383,
    1383,
    1387,
    1385,
    1385,
    1164,
    1385,
    1383,
    1388,
    1384,
    1388,
    1388,
    1383,
    1384,
    1387,
    1388,
    1385,
    1384,
    1165,
    1147,
    1388,
    1383,
    1388,
    1386,
    1384,
    1387,
    1386,
    1385,
    1388,
    1387,
    1385,
    1383,
    1385,
    1383,
    1387,
    1383,
    1164,
    1387,
    1388,
    1383,
    1385,
    1384,
    1383,
    1385,
    1387,
    1384,
    1387,
    1387,
    1387,
    1388,
    1387,
    1383,
    1388,
    1384,
    1387,
    1383,
    1386,
    1385,
    1386,
    1388,
    1387,
    1383,
    1387,
    1384,
    1383,
    1385,
    1385,
    1386,
    1388,
    1388,
    1386,
    1387,
    1387,
    1388,
    1383,
    1386,
    1384,
    1383,
    1383,
    1384,
    1387,
    1386,
    1388,
    1385,
    1388,
    1383,
    1383,
    1383,
    1388,
    1385,
    1388,
    1385,
    1383,
    1388,
    1388,
    1384,
    1385,
    1384,
    1386,
    1385,
    1182,
    747,
    748,
    1383,
    1383,
    1383,
    1386,
    1385,
    1383,
    1387,
    1388,
    1386,
    1386,
    1386,
    1386,
    1384,
    1387,
    1387,
    1384,
    1384,
    1384,
    1165,
    1388,
    1385,
    1387,
    1385,
    1388,
    1385,
    1383,
    1383,
    1386,
    1384,
    1387,
    1385,
    1383,
    1385,
    1386,
    1385,
    1386,
    1387,
    1386,
    1384,
    1384,
    1387,
    1385,
    1385,
    1182,
    1164,
    1387,
    1386,
    1388,
    1383,
    1387,
    1386,
    1385,
    1387,
    1384,
    1388,
    1387,
    1388,
    1388,
    1383,
    1388,
    1387,
    1384,
    1384,
    1386,
    1385,
    1384,
    1385,
    1384,
    1383,
    1388,
    1383,
    1384,
    1385,
    1387,
    1385,
    1385,
    1384,
    1386,
    1384,
    1383,
    1385,
    1387,
    1384,
    1385,
    1383,
    1384,
    1388,
    1383,
    1385,
    1385,
    1388,
    1384,
    1386,
    1384,
    1387,
    1385,
    1388,
    1385,
    1386,
    1387,
    1387,
    1386,
    1384,
    1384,
    1387,
    1387,
    1384,
    1384,
    1386,
    1388,
    1383,
    702,
    1388,
    1388,
    1384,
    1385,
    1383,
    1383,
    1165,
    1388,
    1387,
    1387,
    1384,
    1388,
    1386,
    1383,
    1388,
    1385,
    1384,
    1384,
    1386,
    1387,
    1388,
    1385,
    1387,
    1383,
    1385,
    1384,
    1384,
    1388,
    1388,
    1383,
    1383,
    1384,
    1386,
    1387,
    1383,
    1387,
    1384,
    1386,
    1385,
    1385,
    1388,
    1383,
    1385,
    731,
    732,
    1182,
    1384,
    1383,
    1385,
    1383,
    1385,
    1385,
    1387,
    1385,
    1387,
    1383,
    1384,
    1388,
    1385,
    1383,
    1383,
    1387,
    1387,
    1387,
    1383,
    1388,
    1387,
    1387,
    1385,
    1386,
    1388,
    1388,
    1388,
    1388,
    1386,
    1387,
    1383,
    1386,
    1388,
    1388,
    1385,
    1385,
    1387,
    1385,
    1383,
    1385,
    1383,
    1388,
    1383,
    1386,
    1388,
    1387,
    1385,
    1387,
    1386,
    1388,
    1386,
    1383,
    1388,
    1388,
    1386,
    1385,
    1383,
    1383,
    1383,
    1385,
    1385,
    1383,
    1383,
    1388,
    1383,
    1387,
    1384,
    1386,
    1386,
    1384,
    1385,
    1385,
    1388,
    1163,
    1387,
    1385,
    1385,
    1386,
    1383,
    1383,
    1385,
    1384,
    1387,
    1383,
    1385,
    1387,
    1383,
    1385,
    1383,
    1387,
    1386,
    1388,
    1384,
    1385,
    1384,
    1387,
    1386,
    1383,
    1384,
    1383,
    1388,
    1387,
    1385,
    1386,
    1384,
    1388,
    1386,
    1387,
    1383,
    1385,
    1387,
    1388,
    1385,
    1385,
    1383,
    1384,
    1384,
    1386,
    1386,
    1383,
    1386,
    1383,
    1387,
    1387,
    1182,
    747,
    748,
    1385,
    1147,
    1383,
    1387,
    1383,
    1387,
    1386,
    1388,
    1388,
    1385,
    1383,
    1385,
    1386,
    1383,
    1388,
    1387,
    1387,
    1387,
    1385,
    1385,
    1384,
    1388,
    1388,
    1386,
    1387,
    1383,
    1385,
    1383,
    1385,
    1387,
    1387,
    1384,
    1384,
    1387,
    1388,
    1387,
    1385,
    1385,
    1384,
    1165,
    1387,
    1388,
    1387,
    1385,
    1388,
    1386,
    1388,
    1387,
    1386,
    1387,
    1164,
    1384,
    1388,
    1388,
    1387,
    1384,
    1384,
    1388,
    1386,
    1386,
    1387,
    1387,
    1386,
    1383,
    1386,
    1386,
    1387,
    1385,
    1387,
    1388,
    1385,
    1388,
    1387,
    1388,
    1384,
    1386,
    1383,
    1383,
    1383,
    1383,
    1388,
    1384,
    1383,
    1388,
    1383,
    1383,
    1388,
    1385,
    1388,
    1387,
    1384,
    1383,
    1383,
    1385,
    1386,
    1164,
    1388,
    1387,
    1386,
    1384,
    1386,
    1385,
    1384,
    1383,
    1383,
    1384,
    1385,
    1385,
    1387,
    1385,
    1387,
    1388,
    1386,
    1387,
    1385,
    1388,
    1385,
    1383,
    1386,
    1387,
    1384,
    1387,
    1384,
    1387,
    1386,
    1150,
    1151,
    731,
    732,
    1387,
    1388,
    1383,
    1386,
    1383,
    1385,
    1386,
    1386,
    1388,
    1385,
    1387,
    1388,
    1385,
    1385,
    1386,
    1388,
    1387,
    1383,
    1383,
    1385,
    1383,
    1385,
    1388,
    1387,
    1386,
    1383,
    1385,
    1383,
    1388,
    1387,
    1384,
    1384,
    1383,
    1385,
    1383,
    1387,
    1386,
    1386,
    1383,
    1383,
    1388,
    1386,
    1386,
    1388,
    1387,
    1383,
    1387,
    1383,
    1384,
    1388,
    1387,
    1388,
    1383,
    1384,
    1388,
    1384,
    1388,
    1384,
    1388,
    1388,
    1385,
    1383,
    1385,
    1386,
    1386,
    1383,
    1388,
    1386,
    1387,
    1383,
    1388,
    1388,
    1385,
    1386,
    1385,
    1384,
    1385,
    1385,
    1386,
    1386,
    1388,
    1384,
    1387,
    1384,
    1385,
    1387,
    1388,
    1383,
    1384,
    1388,
    1385,
    1387,
    1383,
    1386,
    1383,
    1385,
    1388,
    1386,
    1383,
    1387,
    1384,
    1385,
    1386,
    1388,
    1386,
    1384,
    1385,
    1384,
    1384,
    1388,
    1383,
    1384,
    1385,
    1387,
    1385,
    1384,
    1383,
    1386,
    1387,
    1386,
    1387,
    1388,
    1385,
    1182,
    1166,
    1167,
    747,
    748,
    731,
    732,
    1387,
    1385,
    1385,
    1383,
    1388,
    1385,
    1383,
    1385,
    1386,
    1384,
    1384,
    1383,
    1386,
    1384,
    1384,
    1388,
    1384,
    1384,
    1386,
    1386,
    1384,
    1383,
    1388,
    1383,
    1384,
    1388,
    1386,
    1385,
    1384,
    1387,
    1386,
    1385,
    1388,
    1388,
    1386,
    1387,
    1387,
    1385,
    1388,
    1384,
    1386,
    1388,
    1387,
    1383,
    1388,
    1388,
    1385,
    1385,
    1385,
    1383,
    1383,
    1383,
    1385,
    1386,
    1385,
    1387,
    1384,
    1388,
    1383,
    1384,
    1386,
    1383,
    1384,
    1388,
    1387,
    1383,
    1385,
    1388,
    1388,
    1388,
    1388,
    1384,
    1383,
    1387,
    1386,
    1385,
    1387,
    1385,
    1386,
    1385,
    1388,
    1383,
    1386,
    1383,
    1387,
    1388,
    1384,
    1386,
    1383,
    1384,
    1385,
    1387,
    1388,
    1387,
    1387,
    1387,
    1385,
    1388,
    1386,
    1387,
    1385,
    1384,
    1383,
    1387,
    1387,
    1386,
    1383,
    1386,
    1383,
    1387,
    1385,
    1384,
    1387,
    1383,
    1384,
    1385,
    1383,
    1387,
    1384,
    1383,
    1385,
    1165,
    1147,
    1128,
    1128,
    1387,
    747,
    748,
    1388,
    1383,
    1383,
    1388,
    1384,
    1388,
    1384,
    1386,
    1387,
    1387,
    1384,
    1387,
    1384,
    1388,
    1388,
    1388,
    1387,
    1388,
    1387,
    1383,
    1388,
    1388,
    1383,
    1385,
    1388,
    1387,
    1383,
    1386,
    1386,
    1384,
    1385,
    1386,
    1386,
    1385,
    1386,
    1388,
    1383,
    1388,
    1387,
    1384,
    1388,
    1388,
    1383,
    1386,
    1385,
    1385,
    1387,
    1386,
    1384,
    1387,
    1163,
    1383,
    1387,
    1388,
    1385,
    1385,
    1384,
    1388,
    1387,
    1385,
    1387,
    1384,
    1386,
    1386,
    1383,
    1386,
    1385,
    1386,
    1385,
    1386,
    1384,
    1388,
    1387,
    1384,
    1384,
    1387,
    1387,
    1386,
    1385,
    1385,
    1388,
    1163,
    1384,
    1383,
    1384,
    1384,
    1384,
    1383,
    1385,
    1388,
    1383,
    1383,
    1182,
    1384,
    1386,
    1182,
    1383,
    733,
    1387,
    1384,
    1385,
    1384,
    1384,
    1383,
    1385,
    1384,
    1387,
    1385,
    1383,
    1385,
    1386,
    1386,
    1387,
    1387,
    1386,
    1386,
    1386,
    1385,
    1386,
    1384,
    1383,
    1387,
    1130,
    1086,
    1087,
    1126,
    1385,
    1182,
    731,
    732,
    1387,
    1385,
    1384,
    1386,
    1383,
    1383,
    1385,
    1384,
    1383,
    1387,
    1385,
    1388,
    1384,
    1385,
    1388,
    1387,
    1387,
    1387,
    1387,
    1385,
    1386,
    1385,
    1384,
    1386,
    1386,
    1386,
    1383,
    1385,
    1386,
    1386,
    1384,
    1387,
    1384,
    1383,
    1387,
    1386,
    1383,
    1385,
    1388,
    1387,
    1385,
    1383,
    1387,
    1384,
    1385,
    1383,
    1385,
    1386,
    1385,
    1384,
    1385,
    1385,
    1388,
    1383,
    1387,
    1387,
    1387,
    1385,
    1384,
    1387,
    1388,
    1384,
    1388,
    1383,
    1384,
    1385,
    1385,
    1384,
    1383,
    1387,
    1384,
    1386,
    1386,
    1386,
    1387,
    1387,
    1386,
    1384,
    1387,
    1384,
    1386,
    1383,
    1385,
    1388,
    1386,
    1386,
    1388,
    1385,
    1386,
    733,
    1182,
    731,
    732,
    733,
    731,
    732,
    1385,
    1386,
    1385,
    1384,
    1383,
    1384,
    1383,
    1385,
    1384,
    1385,
    1385,
    1384,
    1385,
    1383,
    1385,
    1385,
    1384,
    1384,
    1386,
    1384,
    1386,
    11,
    1388,
    1129,
    1083,
    1083,
    1117,
    1083,
    1127,
    1164,
    747,
    748,
    1386,
    1385,
    1386,
    1384,
    1387,
    1383,
    1387,
    1386,
    1383,
    1387,
    1387,
    1386,
    1387,
    1387,
    1387,
    1384,
    1384,
    1387,
    1388,
    1388,
    1385,
    1388,
    1386,
    1387,
    1383,
    1383,
    1383,
    1384,
    1386,
    1384,
    1385,
    1384,
    1386,
    1386,
    1164,
    1387,
    1386,
    1387,
    1387,
    1383,
    1386,
    1383,
    1387,
    1383,
    1385,
    1385,
    1384,
    1384,
    1383,
    1387,
    1388,
    1386,
    1384,
    1386,
    1386,
    1386,
    1384,
    1387,
    1383,
    1386,
    1384,
    1385,
    1388,
    1384,
    1388,
    1388,
    1387,
    1387,
    1388,
    1388,
    1388,
    1386,
    1383,
    1386,
    1388,
    1383,
    1385,
    1387,
    1388,
    1386,
    1388,
    1388,
    1387,
    1182,
    1386,
    1386,
    1384,
    1386,
    1182,
    731,
    732,
    747,
    748,
    1182,
    747,
    748,
    1384,
    1383,
    1387,
    1387,
    1385,
    1386,
    1388,
    1383,
    1388,
    1387,
    1388,
    1385,
    1388,
    1388,
    1385,
    1386,
    1383,
    1386,
    1384,
    1384,
    1388,
    1384,
    1130,
    1144,
    1144,
    1144,
    1144,
    1144,
    1144,
    1127,
    1128,
    1386,
    1147,
    1384,
    1387,
    1386,
    1383,
    1387,
    1387,
    1383,
    1388,
    1386,
    1384,
    1384,
    1387,
    1385,
    1385,
    1384,
    1385,
    1385,
    1386,
    1385,
    1384,
    1388,
    1385,
    1384,
    1384,
    1383,
    1386,
    1384,
    1385,
    1388,
    1385,
    1383,
    1383,
    1384,
    1385,
    1384,
    1387,
    1388,
    1165,
    1384,
    1386,
    1386,
    1386,
    1387,
    1385,
    1385,
    1384,
    1385,
    1385,
    1384,
    1383,
    1387,
    1385,
    1384,
    1386,
    1384,
    1386,
    1386,
    1387,
    1383,
    1386,
    1386,
    1384,
    1386,
    1384,
    1384,
    1385,
    1387,
    1385,
    1386,
    1387,
    1383,
    1384,
    1386,
    1386,
    1387,
    1388,
    1386,
    1383,
    1384,
    1182,
    1385,
    731,
    732,
    1388,
    1386,
    1384,
    1386,
    1387,
    747,
    748,
    1386,
    731,
    732,
    1182,
    733,
    1384,
    1384,
    1386,
    1383,
    1388,
    1384,
    1384,
    1386,
    1384,
    1385,
    1387,
    1385,
    1385,
    1384,
    1384,
    1384,
    1383,
    1387,
    1384,
    1386,
    1388,
    1113,
    1114,
    1159,
    1160,
    1160,
    1160,
    1160,
    1160,
    1161,
    1083,
    1126,
    1387,
    1182,
    1384,
    1385,
    1383,
    1385,
    1386,
    1387,
    1383,
    1386,
    1386,
    1383,
    1386,
    1384,
    1386,
    1386,
    1384,
    1388,
    1386,
    1388,
    1388,
    1387,
    1385,
    1384,
    1383,
    1387,
    1384,
    1386,
    1383,
    1384,
    1383,
    1384,
    1385,
    1383,
    1388,
    1384,
    1383,
    1383,
    1384,
    1383,
    1386,
    1387,
    1387,
    1387,
    1383,
    1386,
    1383,
    1386,
    1386,
    1385,
    1386,
    1387,
    1386,
    1385,
    1385,
    1388,
    1387,
    1386,
    1383,
    1386,
    1383,
    1385,
    1385,
    1384,
    1383,
    1387,
    1384,
    1385,
    1384,
    1383,
    1383,
    1385,
    1384,
    1386,
    1386,
    1386,
    1387,
    1386,
    1388,
    1384,
    731,
    732,
    747,
    748,
    1388,
    1182,
    1384,
    1386,
    1387,
    1383,
    1386,
    733,
    747,
    748,
    1384,
    1384,
    1387,
    1388,
    1384,
    1388,
    1384,
    1387,
    1384,
    1383,
    1384,
    1163,
    1385,
    1384,
    1388,
    1387,
    1384,
    1387,
    1388,
    1383,
    1383,
    1386,
    1164,
    1129,
    1159,
    1304,
    703,
    367,
    703,
    703,
    703,
    1304,
    1162,
    1110,
    1111,
    1386,
    1386,
    1386,
    1384,
    1388,
    1387,
    1383,
    1383,
    1384,
    1384,
    1388,
    1386,
    1385,
    1384,
    1387,
    1387,
    1386,
    1388,
    1388,
    1385,
    1385,
    1383,
    1384,
    1386,
    1386,
    1383,
    1386,
    1384,
    1385,
    1387,
    1385,
    1385,
    1384,
    1384,
    1388,
    1387,
    1385,
    1386,
    1386,
    1383,
    1387,
    1383,
    1386,
    1386,
    1388,
    1387,
    1385,
    1385,
    1388,
    1387,
    1383,
    1386,
    1387,
    1388,
    1385,
    1388,
    1383,
    1384,
    1386,
    1387,
    1384,
    1383,
    1386,
    1383,
    1387,
    1388,
    1387,
    1384,
    1388,
    1383,
    1384,
    1383,
    1383,
    1383,
    1386,
    1388,
    1384,
    731,
    732,
    747,
    748,
    1150,
    1151,
    731,
    732,
    1383,
    1384,
    1388,
    1386,
    1384,
    1388,
    1386,
    1388,
    1384,
    1383,
    1388,
    1388,
    1388,
    1387,
    1385,
    1383,
    1385,
    1385,
    1387,
    1388,
    1388,
    1387,
    1388,
    1385,
    1386,
    1385,
    1385,
    1387,
    1387,
    1386,
    1130,
    1158,
    1303,
    703,
    719,
    383,
    719,
    719,
    719,
    1320,
    703,
    1178,
    1127,
    1128,
    1163,
    1385,
    1383,
    1387,
    1387,
    1387,
    1386,
    1384,
    1387,
    1386,
    1383,
    1385,
    1387,
    1384,
    1387,
    1388,
    1387,
    1383,
    1383,
    1384,
    1388,
    1388,
    1387,
    1384,
    1386,
    1386,
    1388,
    1388,
    1388,
    1386,
    1386,
    1387,
    1388,
    1384,
    1385,
    1383,
    1387,
    1383,
    1386,
    1383,
    1386,
    1383,
    1385,
    1384,
    1385,
    1388,
    1387,
    1386,
    1388,
    1388,
    1387,
    1383,
    1383,
    1385,
    1383,
    1385,
    1385,
    1387,
    1385,
    1386,
    1383,
    1383,
    1384,
    1385,
    1383,
    1388,
    1387,
    1383,
    1384,
    1387,
    1387,
    1386,
    1384,
    1383,
    1388,
    1182,
    747,
    748,
    1384,
    1383,
    1166,
    1167,
    747,
    748,
    1386,
    1383,
    1385,
    1388,
    1387,
    1383,
    1383,
    1383,
    1387,
    1386,
    1388,
    1388,
    1383,
    1385,
    1388,
    1386,
    1383,
    1388,
    1385,
    1385,
    1386,
    1386,
    1385,
    1383,
    1384,
    1385,
    1384,
    1128,
    1128,
    1129,
    1159,
    1304,
    1319,
    719,
    367,
    399,
    719,
    367,
    719,
    1304,
    719,
    1162,
    1086,
    1087,
    1126,
    1383,
    1383,
    1387,
    1385,
    1386,
    1385,
    1387,
    1383,
    1383,
    1388,
    1385,
    1385,
    1387,
    1383,
    1386,
    1387,
    1388,
    1387,
    1386,
    1384,
    1386,
    1384,
    1384,
    1387,
    1388,
    1383,
    1387,
    1385,
    1384,
    1384,
    1383,
    1387,
    1383,
    1383,
    1388,
    1388,
    1388,
    1385,
    1385,
    1384,
    1385,
    1386,
    1384,
    1386,
    1384,
    1384,
    1386,
    1384,
    1385,
    1386,
    1388,
    1388,
    1383,
    1383,
    1386,
    1383,
    1384,
    1385,
    1386,
    1384,
    1386,
    1388,
    1384,
    1384,
    1388,
    1385,
    1388,
    1385,
    1387,
    1388,
    1386,
    1386,
    1386,
    1384,
    731,
    732,
    731,
    732,
    1182,
    731,
    732,
    1182,
    1388,
    1385,
    1383,
    1385,
    1388,
    1163,
    1388,
    1385,
    1386,
    1387,
    1385,
    1383,
    1384,
    1385,
    1385,
    1384,
    1386,
    1383,
    1384,
    1385,
    1383,
    1385,
    1387,
    1386,
    1385,
    1386,
    1165,
    1129,
    1144,
    1144,
    1158,
    1303,
    703,
    1319,
    1320,
    703,
    384,
    367,
    368,
    384,
    992,
    1303,
    1304,
    1161,
    1083,
    1110,
    1111,
    1182,
    1385,
    1386,
    1388,
    1388,
    1383,
    1384,
    1383,
    1383,
    1387,
    1385,
    1384,
    1387,
    1384,
    1383,
    1384,
    1386,
    1386,
    1384,
    1384,
    1386,
    1385,
    1383,
    1386,
    1385,
    1385,
    1388,
    1387,
    1385,
    1386,
    1383,
    1384,
    1384,
    1387,
    1387,
    1386,
    1388,
    1387,
    1386,
    1386,
    1388,
    1385,
    1384,
    1385,
    1388,
    1385,
    1386,
    1387,
    1386,
    1388,
    1383,
    1384,
    1386,
    1383,
    1383,
    1387,
    1387,
    1383,
    1388,
    1386,
    1386,
    1386,
    1386,
    1384,
    1385,
    1383,
    1385,
    1383,
    1384,
    1388,
    1387,
    1384,
    1387,
    747,
    748,
    747,
    748,
    1383,
    747,
    748,
    1182,
    1385,
    1385,
    1386,
    1385,
    1384,
    1384,
    1386,
    1384,
    1385,
    1386,
    1386,
    1385,
    1163,
    1384,
    1386,
    1383,
    1384,
    1383,
    1384,
    1384,
    1383,
    1385,
    1383,
    1387,
    1385,
    1387,
    1129,
    1159,
    1160,
    1160,
    703,
    1319,
    719,
    367,
    368,
    719,
    400,
    703,
    367,
    368,
    1008,
    1319,
    703,
    1304,
    1162,
    1083,
    1127,
    1385,
    1387,
    1383,
    1388,
    1384,
    1388,
    1388,
    1388,
    1385,
    1385,
    1388,
    1386,
    1384,
    1387,
    1385,
    1385,
    1388,
    1388,
    1383,
    1388,
    1385,
    1385,
    1384,
    1383,
    1383,
    1383,
    1387,
    1386,
    1384,
    1386,
    1383,
    1387,
    1384,
    1383,
    1387,
    1385,
    1385,
    1388,
    1386,
    1383,
    1388,
    1386,
    1386,
    1384,
    1384,
    1384,
    1386,
    1384,
    1386,
    1383,
    1384,
    1388,
    1383,
    1385,
    1383,
    1386,
    1386,
    1387,
    1386,
    1387,
    1387,
    1388,
    1384,
    1383,
    1384,
    1384,
    1387,
    1384,
    1383,
    1384,
    1385,
    1387,
    1383,
    1384,
    1386,
    1388,
    1386,
    1386,
    1384,
    1383,
    1384,
    1386,
    1385,
    1386,
    1386,
    1383,
    1384,
    1386,
    1388,
    1383,
    1387,
    1387,
    1386,
    1388,
    1386,
    1383,
    1387,
    1385,
    1386,
    1388,
    1384,
    1388,
    1388,
    1385,
    1383,
    1386,
    1129,
    1158,
    367,
    703,
    703,
    719,
    1319,
    703,
    367,
    368,
    1304,
    367,
    719,
    383,
    384,
    368,
    1304,
    719,
    703,
    1304,
    1162,
    1083,
    1127,
    1383,
    1385,
    1385,
    1388,
    1385,
    1388,
    1386,
    1386,
    1383,
    1384,
    1383,
    1386,
    1388,
    1388,
    1385,
    1383,
    1385,
    1384,
    1386,
    1387,
    1385,
    1388,
    1384,
    1384,
    1388,
    1383,
    1383,
    1384,
    1385,
    1385,
    1388,
    1385,
    1385,
    1386,
    1386,
    1387,
    1384,
    1384,
    1385,
    1388,
    1383,
    1383,
    1386,
    1383,
    1386,
    1383,
    1388,
    1385,
    1388,
    1383,
    1385,
    1386,
    1383,
    1387,
    1383,
    1384,
    1385,
    1383,
    1386,
    1385,
    1383,
    1386,
    1388,
    1388,
    1385,
    1385,
    1383,
    1387,
    1383,
    1384,
    1384,
    1388,
    1385,
    1387,
    731,
    732,
    1387,
    1384,
    1388,
    1388,
    1386,
    1388,
    1388,
    1386,
    1384,
    1388,
    1384,
    1383,
    1384,
    1385,
    1387,
    1383,
    1386,
    1387,
    1384,
    1385,
    1385,
    1384,
    1383,
    1385,
    1388,
    1383,
    1386,
    1386,
    1130,
    1159,
    703,
    383,
    703,
    719,
    1303,
    1304,
    719,
    367,
    368,
    703,
    383,
    384,
    399,
    400,
    703,
    703,
    703,
    1320,
    1320,
    703,
    1161,
    1110,
    1111,
    1387,
    1388,
    1383,
    1386,
    1384,
    1388,
    1385,
    1388,
    1386,
    1386,
    1387,
    1387,
    1385,
    1385,
    1386,
    1383,
    1386,
    1387,
    1388,
    1384,
    1388,
    1385,
    1384,
    1383,
    1388,
    1384,
    1386,
    1384,
    1388,
    1383,
    1387,
    1387,
    1388,
    1383,
    1383,
    1384,
    1384,
    1388,
    1388,
    1383,
    1384,
    1388,
    1383,
    1386,
    1383,
    1387,
    1386,
    1387,
    1383,
    1385,
    1384,
    1387,
    1386,
    1385,
    1387,
    1384,
    1388,
    1386,
    1385,
    1388,
    1383,
    1387,
    1386,
    1387,
    1387,
    1384,
    1384,
    1386,
    1387,
    1387,
    1385,
    731,
    732,
    747,
    748,
    1388,
    731,
    732,
    1182,
    733,
    1383,
    1386,
    1384,
    1386,
    1388,
    1384,
    1387,
    1385,
    1388,
    1388,
    1386,
    1384,
    1386,
    1386,
    1385,
    1387,
    1387,
    1383,
    1384,
    1386,
    1387,
    1164,
    1129,
    1174,
    1175,
    703,
    399,
    719,
    703,
    367,
    368,
    703,
    703,
    384,
    719,
    703,
    367,
    368,
    703,
    719,
    719,
    703,
    703,
    1320,
    719,
    1193,
    1110,
    1111,
    1383,
    1383,
    1384,
    1385,
    1385,
    1388,
    1383,
    1384,
    1386,
    1386,
    1388,
    1386,
    1383,
    1384,
    1386,
    1388,
    1388,
    1387,
    1387,
    1383,
    1388,
    1385,
    1385,
    1385,
    1384,
    1386,
    1387,
    1387,
    1386,
    1386,
    1386,
    1388,
    1383,
    1388,
    1385,
    1388,
    1385,
    1387,
    1388,
    1387,
    1386,
    1383,
    1383,
    1388,
    1388,
    1386,
    1383,
    1387,
    1387,
    1385,
    1386,
    1386,
    1383,
    1388,
    1386,
    1386,
    1384,
    1387,
    1387,
    1384,
    1388,
    1387,
    1385,
    1385,
    1385,
    1386,
    1384,
    1388,
    1386,
    1387,
    1388,
    747,
    748,
    1383,
    1182,
    1182,
    747,
    748,
    1387,
    1387,
    1384,
    1385,
    1383,
    1383,
    1388,
    1385,
    1387,
    1388,
    1385,
    1387,
    1385,
    1388,
    1384,
    1383,
    1383,
    1384,
    1385,
    1388,
    1387,
    1388,
    1165,
    1113,
    1114,
    1174,
    1175,
    719,
    367,
    368,
    719,
    703,
    703,
    719,
    719,
    400,
    367,
    703,
    703,
    368,
    703,
    703,
    368,
    719,
    703,
    1304,
    1194,
    1083,
    1095,
    1387,
    1386,
    1386,
    1385,
    1387,
    1386,
    1383,
    1383,
    1384,
    1384,
    1383,
    1384,
    1387,
    1388,
    1383,
    1383,
    1386,
    1385,
    1163,
    1386,
    1383,
    1385,
    1385,
    1385,
    1383,
    1387,
    1388,
    1385,
    1387,
    1387,
    1388,
    1383,
    1388,
    1384,
    1388,
    1388,
    1387,
    1385,
    1386,
    1386,
    1385,
    1383,
    1385,
    1384,
    1388,
    1385,
    1385,
    1386,
    1384,
    1387,
    1386,
    1383,
    1384,
    1386,
    1384,
    1386,
    1387,
    1385,
    1388,
    1386,
    1387,
    1384,
    1387,
    1384,
    1386,
    1388,
    1384,
    1387,
    1387,
    1384,
    1387,
    1385,
    1182,
    1150,
    1151,
    731,
    732,
    1182,
    1387,
    1150,
    1151,
    1182,
    733,
    1385,
    1388,
    1385,
    1384,
    1384,
    1388,
    1385,
    1386,
    1383,
    1388,
    1383,
    1385,
    1387,
    1384,
    1388,
    1385,
    1383,
    1383,
    11,
    1387,
    1097,
    1083,
    1191,
    719,
    383,
    703,
    703,
    719,
    719,
    1319,
    367,
    368,
    383,
    719,
    719,
    703,
    719,
    719,
    384,
    367,
    703,
    1320,
    1178,
    1110,
    1111,
    11,
    1387,
    1386,
    1385,
    1383,
    1384,
    1385,
    1384,
    1383,
    1387,
    1384,
    1387,
    1384,
    1388,
    1385,
    1388,
    1387,
    1383,
    1388,
    1384,
    1388,
    1386,
    1385,
    1383,
    1386,
    1384,
    1383,
    1387,
    1383,
    1386,
    1385,
    1387,
    1387,
    1383,
    1386,
    1384,
    1388,
    1387,
    1387,
    1384,
    1386,
    1383,
    1383,
    1383,
    1384,
    1386,
    1383,
    1384,
    1386,
    1384,
    1386,
    1386,
    1387,
    1385,
    1384,
    1385,
    1385,
    1385,
    1387,
    1383,
    1165,
    1383,
    1384,
    1383,
    1388,
    1386,
    1387,
    1387,
    1383,
    1384,
    1388,
    1385,
    733,
    1166,
    1167,
    747,
    748,
    1147,
    1388,
    1166,
    1167,
    1386,
    1182,
    1387,
    1385,
    1388,
    1385,
    1386,
    1384,
    1383,
    1388,
    1383,
    1385,
    1386,
    1386,
    1385,
    1386,
    1383,
    1384,
    1385,
    1386,
    1388,
    1385,
    1164,
    1098,
    1083,
    1190,
    399,
    719,
    719,
    367,
    368,
    1304,
    383,
    384,
    367,
    368,
    703,
    703,
    368,
    703,
    703,
    383,
    719,
    1304,
    1178,
    1083,
    1127,
    1163,
    1386,
    1387,
    1386,
    1385,
    1385,
    1385,
    1387,
    1388,
    1388,
    1383,
    1388,
    1383,
    1384,
    1388,
    1387,
    1384,
    1386,
    1383,
    1386,
    1385,
    1383,
    1388,
    1386,
    1388,
    1384,
    1387,
    1387,
    1388,
    1387,
    1388,
    1387,
    1387,
    1386,
    1383,
    1383,
    1388,
    1387,
    1385,
    1386,
    1383,
    1386,
    1384,
    1386,
    1384,
    1385,
    1386,
    1388,
    1385,
    1385,
    1383,
    1383,
    1388,
    1384,
    1385,
    1388,
    1384,
    1384,
    1385,
    1384,
    1384,
    1383,
    1387,
    1385,
    1164,
    1387,
    1386,
    1387,
    1388,
    1387,
    1383,
    1387,
    731,
    732,
    1182,
    1384,
    731,
    732,
    733,
    731,
    732,
    733,
    1383,
    1385,
    1383,
    1383,
    1384,
    1383,
    1387,
    1385,
    1383,
    1385,
    1388,
    1388,
    1163,
    1386,
    1384,
    1388,
    1385,
    1383,
    1388,
    1386,
    1383,
    1386,
    1386,
    1097,
    1083,
    1190,
    1319,
    1320,
    703,
    703,
    703,
    399,
    703,
    703,
    368,
    719,
    719,
    384,
    719,
    719,
    399,
    719,
    1320,
    1162,
    1086,
    1087,
    1127,
    1128,
    1387,
    1386,
    1387,
    1386,
    1387,
    1387,
    1385,
    1384,
    1384,
    1383,
    1386,
    1388,
    1387,
    1388,
    1386,
    1388,
    1388,
    1386,
    1383,
    1388,
    1384,
    1383,
    1385,
    1384,
    1387,
    1388,
    1384,
    1386,
    1385,
    1384,
    1384,
    1385,
    1386,
    1384,
    1383,
    1387,
    1385,
    1384,
    1384,
    1384,
    1384,
    1383,
    1384,
    1386,
    1388,
    1387,
    1386,
    1383,
    1385,
    1387,
    1388,
    1387,
    1388,
    1388,
    1387,
    1384,
    1383,
    1386,
    1385,
    1386,
    1387,
    1384,
    1387,
    1387,
    1384,
    1385,
    1384,
    1163,
    1386,
    1386,
    747,
    748,
    11,
    733,
    747,
    748,
    1182,
    747,
    748,
    1387,
    733,
    1387,
    1388,
    1385,
    1387,
    1388,
    1384,
    1386,
    1383,
    1388,
    1386,
    1387,
    1388,
    1383,
    1384,
    1386,
    1386,
    1383,
    1387,
    1388,
    1388,
    1386,
    1165,
    1129,
    1083,
    1158,
    1304,
    1192,
    719,
    719,
    719,
    703,
    719,
    719,
    384,
    703,
    384,
    703,
    368,
    719,
    992,
    703,
    1303,
    1304,
    1162,
    1144,
    1144,
    1083,
    1126,
    1383,
    1384,
    1385,
    1384,
    1388,
    1388,
    1387,
    1385,
    1387,
    1385,
    1388,
    1383,
    1385,
    1383,
    1386,
    1388,
    1386,
    1385,
    1383,
    1387,
    1383,
    1383,
    1387,
    1163,
    1384,
    1384,
    1383,
    1386,
    1387,
    1387,
    1383,
    1386,
    1387,
    1165,
    1386,
    1388,
    1387,
    1388,
    1384,
    1386,
    1383,
    1384,
    1387,
    1385,
    1383,
    1386,
    1385,
    1386,
    1384,
    1384,
    1384,
    1385,
    1387,
    1384,
    1385,
    1386,
    1386,
    1388,
    1388,
    1385,
    1385,
    1388,
    1387,
    1384,
    1384,
    1387,
    1383,
    1388,
    1386,
    1147,
    731,
    732,
    1387,
    733,
    731,
    732,
    1150,
    1151,
    1182,
    1383,
    1386,
    1388,
    1386,
    1385,
    1383,
    1384,
    1386,
    1388,
    1383,
    1388,
    1384,
    1385,
    1386,
    1384,
    1386,
    1386,
    1387,
    1386,
    1385,
    1147,
    1384,
    1129,
    1083,
    1159,
    1304,
    1194,
    1143,
    1190,
    1319,
    1320,
    703,
    384,
    399,
    703,
    719,
    400,
    719,
    368,
    719,
    1008,
    719,
    1319,
    1320,
    1304,
    1160,
    1160,
    1162,
    1083,
    1127,
    1128,
    1163,
    1384,
    1383,
    1386,
    1383,
    1386,
    1383,
    1383,
    1385,
    1385,
    1383,
    1385,
    1383,
    1384,
    1387,
    1385,
    1385,
    1388,
    1387,
    1387,
    1385,
    1383,
    1383,
    1384,
    1385,
    1388,
    1386,
    1386,
    1388,
    1385,
    1387,
    1386,
    1385,
    1384,
    1383,
    1387,
    1388,
    1384,
    1385,
    1386,
    1385,
    1386,
    1386,
    1388,
    1388,
    1383,
    1383,
    1386,
    1384,
    1385,
    1388,
    1388,
    1384,
    1388,
    1385,
    1386,
    1386,
    1383,
    1385,
    1383,
    1387,
    1386,
    1387,
    1385,
    1383,
    1383,
    1165,
    1383,
    747,
    748,
    1182,
    1388,
    747,
    748,
    1166,
    1167,
    731,
    732,
    1383,
    1384,
    1387,
    1385,
    1388,
    1384,
    1383,
    1165,
    1383,
    1385,
    1388,
    1387,
    1384,
    1386,
    1383,
    1386,
    1384,
    1385,
    1383,
    1383,
    1130,
    1086,
    1087,
    1191,
    1193,
    1083,
    1086,
    1087,
    1191,
    1192,
    719,
    703,
    1304,
    719,
    719,
    703,
    383,
    703,
    1304,
    703,
    703,
    1304,
    1304,
    1194,
    1143,
    1143,
    1190,
    1161,
    1086,
    1087,
    1126,
    1384,
    1387,
    1386,
    1384,
    1128,
    1383,
    1386,
    1163,
    1388,
    1386,
    1385,
    1385,
    1387,
    1385,
    1386,
    1384,
    1385,
    1388,
    1385,
    1384,
    1385,
    1388,
    1383,
    1383,
    1386,
    1384,
    1388,
    1387,
    1384,
    1385,
    1388,
    1388,
    1130,
    1126,
    1163,
    1388,
    1383,
    1384,
    1383,
    1388,
    1387,
    1386,
    1386,
    1386,
    1388,
    1384,
    1385,
    1385,
    1383,
    1387,
    1384,
    1386,
    1386,
    1384,
    1385,
    1384,
    1386,
    1386,
    1383,
    1384,
    1386,
    1384,
    1385,
    1387,
    1384,
    1385,
    1387,
    1385,
    1147,
    731,
    732,
    1385,
    1182,
    1147,
    1182,
    747,
    748,
    1182,
    1386,
    1386,
    1384,
    1386,
    1386,
    1164,
    1383,
    1384,
    1388,
    1383,
    1383,
    1388,
    1386,
    1388,
    1388,
    1385,
    1387,
    1384,
    1164,
    1098,
    1083,
    1117,
    1083,
    1095,
    1096,
    1097,
    1083,
    1086,
    1087,
    1190,
    719,
    703,
    703,
    719,
    367,
    703,
    719,
    703,
    719,
    719,
    1320,
    1194,
    1086,
    1087,
    1086,
    1087,
    1191,
    1162,
    1144,
    1083,
    1127,
    1128,
    1128,
    1129,
    1079,
    1126,
    1388,
    1385,
    1384,
    1384,
    1386,
    1383,
    1388,
    1387,
    1385,
    1385,
    1387,
    1383,
    1383,
    1385,
    1386,
    1383,
    1387,
    1387,
    1388,
    1385,
    1385,
    1386,
    1386,
    1387,
    1128,
    1129,
    1086,
    1087,
    1127,
    1128,
    1386,
    1384,
    1383,
    1384,
    1387,
    1385,
    1388,
    1383,
    1386,
    1385,
    1388,
    1385,
    1387,
    1388,
    1385,
    1383,
    1387,
    1388,
    1383,
    1388,
    1385,
    1163,
    1384,
    1385,
    1387,
    1387,
    1388,
    1387,
    1182,
    1385,
    1182,
    731,
    732,
    747,
    748,
    1386,
    1386,
    1388,
    1182,
    1386,
    1383,
    11,
    1385,
    1384,
    1383,
    1384,
    1387,
    1388,
    1385,
    1385,
    1387,
    1386,
    1387,
    1384,
    1386,
    1385,
    1387,
    1386,
    1383,
    1388,
    1383,
    1182,
    1097,
    1083,
    1094,
    1164,
    11,
    1113,
    1114,
    1083,
    1117,
    1083,
    1191,
    719,
    719,
    719,
    703,
    719,
    719,
    719,
    1192,
    1192,
    1193,
    1086,
    1087,
    1095,
    1097,
    1086,
    1087,
    1190,
    1160,
    1162,
    1144,
    1144,
    1144,
    1086,
    1087,
    1087,
    1127,
    1386,
    1385,
    1385,
    1384,
    1386,
    1163,
    1386,
    1387,
    1384,
    1385,
    1384,
    1386,
    1387,
    1386,
    1383,
    1384,
    1387,
    1388,
    1385,
    1387,
    1388,
    1164,
    1130,
    1195,
    1087,
    1144,
    1086,
    1087,
    1079,
    1126,
    1384,
    1385,
    1387,
    1385,
    1385,
    1386,
    1384,
    1387,
    1383,
    1388,
    1384,
    1385,
    1386,
    1386,
    1386,
    1386,
    1387,
    1385,
    1383,
    1386,
    1388,
    1383,
    1387,
    1383,
    1182,
    1388,
    733,
    1123,
    1124,
    1386,
    747,
    748,
    1387,
    1387,
    1388,
    731,
    732,
    1387,
    733,
    1386,
    1383,
    1384,
    1385,
    1384,
    1385,
    1388,
    1387,
    1385,
    1386,
    1387,
    1385,
    1387,
    1163,
    1384,
    1383,
    1383,
    1385,
    1388,
    1383,
    1386,
    1384,
    1384,
    1096,
    1165,
    1387,
    1147,
    1113,
    1114,
    1086,
    1087,
    1086,
    1087,
    1190,
    1319,
    703,
    719,
    400,
    719,
    1194,
    1086,
    1087,
    1083,
    1095,
    1096,
    1164,
    1182,
    1096,
    1097,
    1083,
    1143,
    1191,
    1160,
    1160,
    1160,
    1161,
    1083,
    1117,
    1110,
    1111,
    1386,
    1164,
    1383,
    1387,
    1128,
    1128,
    1387,
    1383,
    1383,
    1386,
    1385,
    1386,
    1388,
    1388,
    1385,
    1383,
    1383,
    1387,
    1383,
    1383,
    1113,
    1114,
    1083,
    1159,
    1160,
    1161,
    1083,
    1086,
    1087,
    1127,
    1165,
    1386,
    1386,
    1386,
    1387,
    1383,
    1385,
    1388,
    1387,
    1385,
    1383,
    1385,
    1384,
    1388,
    1164,
    1388,
    1387,
    1384,
    1383,
    1384,
    1383,
    1387,
    1385,
    1165,
    1383,
    1125,
    15,
    16,
    1384,
    1388,
    1388,
    733,
    1385,
    1386,
    747,
    748,
    1387,
    1384,
    1383,
    1386,
    1383,
    1384,
    1384,
    1388,
    1383,
    1388,
    1387,
    1386,
    1385,
    1385,
    1386,
    1385,
    1383,
    1383,
    1386,
    1386,
    1386,
    1383,
    1384,
    1386,
    1384,
    1383,
    1385,
    1182,
    1150,
    1151,
    1098,
    1083,
    1117,
    1083,
    1117,
    1174,
    1303,
    703,
    703,
    1304,
    1193,
    1083,
    1086,
    1087,
    1095,
    1383,
    1384,
    1182,
    731,
    732,
    1147,
    1096,
    1097,
    1083,
    1143,
    1143,
    1190,
    1176,
    1162,
    1144,
    1144,
    1127,
    1128,
    1182,
    1386,
    1129,
    1086,
    1087,
    1127,
    1128,
    1182,
    1384,
    1383,
    1384,
    1386,
    1387,
    1384,
    1385,
    1383,
    1384,
    1386,
    1128,
    1129,
    1144,
    1158,
    367,
    368,
    992,
    1162,
    1144,
    1180,
    1083,
    1127,
    1385,
    1387,
    1383,
    1387,
    1383,
    1385,
    1384,
    1385,
    1383,
    1383,
    1388,
    1383,
    1385,
    1385,
    1384,
    1388,
    1384,
    1385,
    1385,
    1384,
    1388,
    1387,
    1384,
    1124,
    6,
    31,
    32,
    1387,
    1385,
    1165,
    1387,
    1388,
    1182,
    1387,
    1385,
    1387,
    1384,
    1386,
    1385,
    1383,
    1386,
    1388,
    1386,
    1388,
    1383,
    1385,
    1385,
    1384,
    1388,
    1386,
    1384,
    1386,
    1387,
    1388,
    1387,
    1383,
    1388,
    1387,
    1383,
    1385,
    1384,
    1388,
    1384,
    1166,
    1167,
    1147,
    1097,
    1083,
    1086,
    1087,
    1174,
    1319,
    719,
    719,
    1194,
    1083,
    1086,
    1087,
    1110,
    1111,
    731,
    732,
    1386,
    747,
    748,
    1383,
    1182,
    1387,
    1096,
    1096,
    1097,
    1083,
    1191,
    1192,
    1160,
    1160,
    1161,
    1083,
    1127,
    1129,
    1083,
    1159,
    1160,
    1160,
    1162,
    1127,
    1163,
    1385,
    1383,
    1383,
    1386,
    1385,
    1388,
    1165,
    1384,
    1129,
    1079,
    1159,
    1160,
    1304,
    383,
    384,
    1008,
    1304,
    1160,
    1160,
    1161,
    1083,
    1126,
    1387,
    1384,
    1383,
    1385,
    1387,
    1383,
    1384,
    1387,
    1386,
    1385,
    1386,
    1384,
    1388,
    1386,
    1388,
    1385,
    1387,
    1385,
    1388,
    1386,
    733,
    1125,
    4,
    5,
    1,
    5,
    1388,
    1383,
    1387,
    1388,
    1387,
    1385,
    1386,
    1383,
    1384,
    1165,
    1385,
    1386,
    1383,
    1385,
    1388,
    1384,
    1388,
    1385,
    1388,
    1383,
    1385,
    1384,
    1388,
    1387,
    1385,
    1386,
    1387,
    1386,
    1385,
    1385,
    1385,
    1385,
    1387,
    1384,
    1385,
    1384,
    1383,
    1383,
    1385,
    1113,
    1114,
    1086,
    1087,
    1083,
    1191,
    1192,
    1193,
    1086,
    1087,
    1083,
    1117,
    1094,
    733,
    747,
    748,
    1386,
    1387,
    1385,
    1386,
    1385,
    1387,
    1387,
    1165,
    1388,
    1096,
    1097,
    1143,
    1143,
    1190,
    1304,
    1162,
    1086,
    1087,
    1158,
    1304,
    1194,
    1190,
    1304,
    1161,
    1127,
    1128,
    1384,
    1383,
    1383,
    733,
    1182,
    1387,
    1113,
    1114,
    1174,
    1175,
    1319,
    1320,
    399,
    400,
    1319,
    1320,
    367,
    368,
    1177,
    1178,
    1094,
    1386,
    1383,
    1385,
    1387,
    1386,
    1387,
    1385,
    1385,
    1384,
    1383,
    1383,
    1385,
    1387,
    1385,
    1384,
    1386,
    1383,
    1384,
    1385,
    1182,
    1108,
    1109,
    3,
    2,
    1,
    1,
    1388,
    1387,
    1385,
    1384,
    1385,
    1386,
    1385,
    1383,
    1387,
    1387,
    1386,
    1383,
    1387,
    1388,
    1383,
    1388,
    1385,
    1386,
    1387,
    1163,
    1385,
    1388,
    1383,
    1386,
    1384,
    1384,
    1385,
    1388,
    1386,
    1385,
    1386,
    1386,
    1383,
    1387,
    1383,
    1385,
    1388,
    1385,
    1384,
    1165,
    1098,
    1083,
    1086,
    1087,
    1086,
    1087,
    1086,
    1087,
    1095,
    1096,
    1096,
    1182,
    1163,
    1384,
    1388,
    1387,
    1383,
    1386,
    1385,
    1384,
    1386,
    1386,
    1383,
    1386,
    1386,
    1163,
    1096,
    1096,
    1097,
    1190,
    1304,
    1162,
    1158,
    1304,
    1194,
    1095,
    1097,
    1190,
    1304,
    1162,
    1083,
    1127,
    1164,
    1387,
    1150,
    1151,
    733,
    1129,
    1144,
    1158,
    367,
    368,
    703,
    367,
    368,
    703,
    703,
    383,
    384,
    1177,
    1178,
    1111,
    1164,
    1386,
    10,
    1384,
    1385,
    1385,
    1386,
    1385,
    1384,
    1385,
    1383,
    1386,
    1386,
    1386,
    1383,
    1385,
    1385,
    1384,
    731,
    732,
    1108,
    1109,
    3,
    13,
    2,
    2,
    1385,
    1386,
    1384,
    1383,
    1386,
    1388,
    1387,
    1386,
    1385,
    1388,
    1386,
    1384,
    1383,
    1387,
    1387,
    1383,
    1386,
    1386,
    1388,
    1383,
    1385,
    1385,
    1385,
    1383,
    1387,
    1388,
    1386,
    1387,
    1388,
    1164,
    1385,
    1163,
    1385,
    1385,
    1383,
    1383,
    1385,
    1386,
    1386,
    1383,
    1384,
    1097,
    1083,
    1117,
    1083,
    1117,
    1094,
    1096,
    1164,
    1388,
    1384,
    1384,
    1383,
    1383,
    1388,
    1386,
    1165,
    1383,
    1385,
    1385,
    1383,
    1387,
    1387,
    1387,
    1384,
    1386,
    1387,
    1388,
    1386,
    1097,
    1191,
    1319,
    1304,
    1193,
    1094,
    1163,
    1182,
    1097,
    1191,
    1304,
    1161,
    1110,
    1385,
    1165,
    1166,
    1167,
    1130,
    1159,
    1160,
    1304,
    383,
    384,
    719,
    383,
    384,
    719,
    367,
    368,
    400,
    1304,
    1162,
    1127,
    1128,
    1386,
    1384,
    1388,
    1387,
    1383,
    1386,
    731,
    732,
    1385,
    1384,
    1383,
    1385,
    1383,
    1384,
    1182,
    1388,
    1387,
    747,
    748,
    1124,
    1,
    6,
    2,
    6,
    5,
    1388,
    1385,
    1386,
    1388,
    1387,
    1388,
    1385,
    1384,
    1387,
    1388,
    1384,
    1385,
    1387,
    1387,
    1387,
    1386,
    1386,
    1387,
    1383,
    1387,
    1387,
    1385,
    1383,
    1385,
    1387,
    1386,
    1383,
    1386,
    1384,
    1387,
    1388,
    1384,
    1388,
    1388,
    1386,
    1384,
    1387,
    1385,
    1387,
    1383,
    1387,
    1384,
    1098,
    1080,
    1080,
    1094,
    1388,
    1387,
    1383,
    1387,
    1387,
    1388,
    1388,
    1388,
    1388,
    1383,
    1386,
    1386,
    1385,
    1388,
    1386,
    1387,
    1383,
    1385,
    1384,
    1386,
    1385,
    1386,
    1150,
    1151,
    1098,
    1143,
    1143,
    1094,
    1385,
    11,
    1388,
    1384,
    1097,
    1190,
    1304,
    1161,
    1127,
    1128,
    1128,
    1129,
    1159,
    367,
    368,
    703,
    399,
    400,
    1304,
    399,
    703,
    703,
    383,
    384,
    1303,
    1304,
    1304,
    1160,
    1162,
    1126,
    1163,
    733,
    1386,
    1384,
    733,
    747,
    748,
    1386,
    1387,
    1388,
    731,
    732,
    1165,
    1384,
    731,
    732,
    733,
    1108,
    1109,
    3,
    2,
    15,
    16,
    3,
    1387,
    1386,
    1385,
    1386,
    1384,
    1384,
    1386,
    1385,
    1165,
    1387,
    1388,
    1383,
    1384,
    1385,
    1386,
    1387,
    1387,
    1388,
    1388,
    1386,
    1385,
    1385,
    1388,
    1386,
    1387,
    1387,
    1384,
    1388,
    1383,
    1388,
    1387,
    1384,
    1385,
    1383,
    1388,
    1385,
    1383,
    1383,
    1385,
    1386,
    1383,
    1384,
    1163,
    1096,
    1096,
    1386,
    1163,
    1387,
    1387,
    1388,
    1386,
    1385,
    1385,
    1383,
    1383,
    1385,
    1384,
    1384,
    1385,
    1387,
    1388,
    1386,
    1386,
    1388,
    1383,
    1383,
    1384,
    1388,
    1166,
    1167,
    1383,
    1096,
    1096,
    1385,
    1383,
    1388,
    1383,
    1388,
    1113,
    1114,
    1190,
    1304,
    1162,
    1086,
    1087,
    1158,
    703,
    383,
    384,
    719,
    703,
    703,
    1319,
    1320,
    719,
    719,
    1320,
    1320,
    703,
    367,
    368,
    367,
    368,
    1161,
    1127,
    1128,
    1128,
    1384,
    927,
    1385,
    11,
    927,
    1150,
    1151,
    747,
    748,
    1388,
    733,
    747,
    748,
    1388,
    1124,
    1,
    1,
    1,
    31,
    32,
    6,
    1388,
    1384,
    1385,
    1165,
    1385,
    1383,
    1387,
    1385,
    1384,
    1388,
    1383,
    1383,
    1383,
    1387,
    1386,
    1388,
    1383,
    1383,
    1385,
    1387,
    1385,
    1385,
    1383,
    1387,
    1385,
    1386,
    1386,
    1386,
    1388,
    1387,
    1384,
    1388,
    1385,
    1387,
    1387,
    1388,
    1386,
    1384,
    1385,
    1388,
    1388,
    1388,
    1387,
    1384,
    1385,
    1387,
    1384,
    1388,
    1385,
    1383,
    1383,
    1385,
    1385,
    1385,
    1386,
    1387,
    1386,
    1388,
    1383,
    1385,
    1388,
    1383,
    1388,
    1384,
    1383,
    1386,
    1384,
    1385,
    1385,
    1385,
    1387,
    1383,
    1383,
    1385,
    1383,
    1383,
    1163,
    1384,
    1384,
    1097,
    1083,
    1191,
    1304,
    1160,
    1160,
    1304,
    719,
    399,
    400,
    703,
    719,
    719,
    1319,
    1320,
    399,
    400,
    703,
    383,
    719,
    383,
    384,
    383,
    384,
    1177,
    1178,
    1086,
    1087,
    1126,
    1383,
    733,
    731,
    732,
    1166,
    1167,
    10,
    1388,
    731,
    732,
    1150,
    1151,
    1108,
    1109,
    1,
    6,
    4,
    3,
    6,
    4,
    1384,
    1386,
    1386,
    1384,
    1388,
    1383,
    1388,
    1387,
    1387,
    1387,
    1384,
    1388,
    1385,
    1383,
    1388,
    1387,
    1388,
    1387,
    1383,
    1384,
    1386,
    1388,
    1387,
    1384,
    1385,
    1385,
    1387,
    1388,
    1385,
    1384,
    1388,
    1385,
    1385,
    1385,
    1387,
    1386,
    1386,
    1388,
    1386,
    1388,
    1386,
    1384,
    1384,
    1385,
    1388,
    1387,
    1386,
    1388,
    1383,
    1383,
    1384,
    1387,
    1383,
    1388,
    1383,
    1385,
    1385,
    1386,
    1387,
    1387,
    1388,
    1383,
    1388,
    1386,
    1388,
    1383,
    1385,
    1386,
    1386,
    1387,
    1388,
    1388,
    1385,
    1387,
    1386,
    1384,
    1386,
    1387,
    1386,
    1385,
    1096,
    1097,
    1143,
    1143,
    1143,
    1191,
    1304,
    703,
    703,
    719,
    1304,
    703,
    1320,
    1319,
    1319,
    703,
    719,
    367,
    703,
    703,
    703,
    703,
    400,
    703,
    1162,
    1083,
    1195,
    1087,
    1127,
    1164,
    747,
    748,
    1147,
    731,
    732,
    1384,
    747,
    748,
    1166,
    1167,
    1124,
    928,
    1,
    2,
    3,
    5,
    6,
    1,
    1385,
    1387,
    1388,
    1383,
    1386,
    1383,
    1387,
    1386,
    1387,
    1386,
    1385,
    1383,
    1386,
    1385,
    1386,
    1388,
    1387,
    1385,
    1385,
    1385,
    1388,
    1383,
    1383,
    1387,
    1388,
    1383,
    1388,
    1385,
    1386,
    1385,
    1384,
    1388,
    1385,
    1386,
    1386,
    1383,
    1386,
    1384,
    1387,
    1386,
    1384,
    1383,
    1384,
    1388,
    1384,
    1388,
    1383,
    1386,
    1388,
    1385,
    1387,
    1385,
    1383,
    1388,
    1384,
    1385,
    1385,
    1388,
    1385,
    1387,
    1386,
    1383,
    1388,
    1384,
    1385,
    1386,
    1383,
    1384,
    1165,
    1387,
    1383,
    1384,
    1388,
    1385,
    1385,
    1386,
    1383,
    1383,
    1383,
    1387,
    1383,
    1164,
    1096,
    1096,
    1097,
    1083,
    1190,
    719,
    719,
    367,
    368,
    719,
    703,
    1320,
    703,
    719,
    703,
    703,
    719,
    719,
    703,
    719,
    703,
    719,
    703,
    1161,
    1083,
    1117,
    1083,
    1126,
    1384,
    1147,
    1182,
    747,
    748,
    1147,
    1182,
    1150,
    1151,
    1108,
    1109,
    6,
    6,
    1,
    4,
    3,
    2,
    2,
    1386,
    1386,
    731,
    732,
    1182,
    1386,
    1383,
    1385,
    1385,
    1384,
    1385,
    1383,
    1383,
    1387,
    1385,
    1386,
    1385,
    1388,
    1383,
    1387,
    1384,
    1384,
    1388,
    1386,
    1384,
    1385,
    1383,
    1388,
    1383,
    1388,
    1383,
    1388,
    1388,
    1385,
    1383,
    1388,
    1383,
    1386,
    1388,
    1388,
    1386,
    1385,
    1383,
    1387,
    1384,
    1387,
    1386,
    1386,
    1384,
    1165,
    1383,
    1385,
    1385,
    1383,
    1385,
    1388,
    1384,
    1386,
    1384,
    1386,
    1383,
    1164,
    1387,
    1386,
    1388,
    1384,
    1387,
    1388,
    1387,
    1385,
    1386,
    1386,
    1387,
    1385,
    1385,
    1385,
    1383,
    1386,
    1383,
    1384,
    1383,
    1386,
    733,
    1182,
    1384,
    1097,
    1080,
    1190,
    1304,
    383,
    384,
    703,
    719,
    1319,
    703,
    703,
    703,
    719,
    400,
    1319,
    719,
    384,
    719,
    383,
    719,
    1177,
    1178,
    1083,
    1086,
    1196,
    1126,
    1384,
    731,
    732,
    11,
    1182,
    1147,
    1166,
    1167,
    1108,
    1109,
    2,
    3,
    6,
    2,
    3,
    3,
    5,
    1384,
    733,
    747,
    748,
    1387,
    1386,
    1385,
    1383,
    1386,
    1386,
    1386,
    1384,
    1386,
    1383,
    1383,
    1388,
    1385,
    1384,
    1387,
    1383,
    1384,
    1388,
    1383,
    1385,
    1386,
    1384,
    1388,
    1383,
    1388,
    1384,
    1387,
    1388,
    1386,
    1384,
    1388,
    1383,
    1383,
    1386,
    1383,
    1387,
    1386,
    1388,
    1384,
    1385,
    1388,
    1387,
    1383,
    1383,
    1387,
    1383,
    1386,
    1383,
    1384,
    1384,
    1385,
    1384,
    1388,
    1384,
    1385,
    1383,
    1388,
    1384,
    1384,
    1385,
    1384,
    1388,
    1384,
    1387,
    1387,
    1388,
    1388,
    1386,
    1388,
    1383,
    1385,
    1387,
    1388,
    1384,
    1383,
    1383,
    1387,
    1385,
    1387,
    1388,
    733,
    1386,
    1096,
    1097,
    1191,
    399,
    400,
    719,
    399,
    1319,
    703,
    719,
    719,
    719,
    703,
    703,
    703,
    400,
    703,
    703,
    703,
    1177,
    1178,
    1083,
    1083,
    1180,
    1094,
    1182,
    747,
    748,
    1182,
    731,
    732,
    1383,
    1123,
    1124,
    6,
    3,
    2,
    4,
    6,
    1,
    2,
    5,
    1383,
    1147,
    1164,
    1388,
    1388,
    1182,
    1386,
    1387,
    1165,
    1385,
    1384,
    1387,
    1388,
    1386,
    1383,
    1385,
    1387,
    1386,
    1383,
    1383,
    1388,
    1384,
    1384,
    1387,
    1388,
    1387,
    1383,
    1387,
    1385,
    1386,
    1387,
    1387,
    1383,
    1388,
    1384,
    1383,
    1383,
    1384,
    1384,
    1383,
    1386,
    1384,
    1386,
    1383,
    1385,
    1386,
    1384,
    1385,
    1384,
    1384,
    1385,
    1383,
    1388,
    1383,
    1388,
    1387,
    1384,
    1383,
    1385,
    1383,
    1383,
    1383,
    1383,
    1386,
    1383,
    1383,
    1383,
    1384,
    1388,
    1388,
    1386,
    1384,
    1385,
    1386,
    1383,
    1388,
    1386,
    1163,
    1386,
    1385,
    1384,
    1384,
    1387,
    1387,
    1383,
    1163,
    1388,
    927,
    1097,
    1190,
    1304,
    367,
    368,
    1304,
    719,
    1319,
    703,
    1320,
    703,
    719,
    719,
    367,
    719,
    703,
    719,
    1193,
    1083,
    1086,
    1087,
    1095,
    1182,
    1383,
    733,
    1182,
    1147,
    747,
    748,
    1124,
    47,
    3,
    3,
    5,
    3,
    4,
    1,
    6,
    2,
    2,
    1384,
    1163,
    1182,
    1388,
    1147,
    1384,
    1384,
    1388,
    1383,
    1387,
    1384,
    1386,
    1385,
    1383,
    1385,
    1383,
    1387,
    1385,
    1383,
    1383,
    1384,
    1387,
    1384,
    1383,
    1387,
    1385,
    1386,
    1384,
    1386,
    1386,
    1383,
    1385,
    1384,
    1388,
    1385,
    1385,
    1387,
    1387,
    1386,
    1387,
    1385,
    1385,
    1387,
    1385,
    1385,
    1387,
    1387,
    1385,
    1386,
    1386,
    1383,
    1386,
    1386,
    1388,
    1387,
    1387,
    1383,
    1388,
    1388,
    1385,
    1386,
    1384,
    1387,
    1385,
    1388,
    1384,
    1385,
    1383,
    1384,
    1164,
    1386,
    1386,
    1386,
    1387,
    1385,
    1165,
    1386,
    1383,
    1384,
    1386,
    1388,
    1388,
    1164,
    1388,
    1130,
    1126,
    1129,
    1127,
    1129,
    1174,
    1175,
    383,
    384,
    703,
    367,
    368,
    719,
    383,
    719,
    719,
    703,
    383,
    384,
    719,
    1194,
    1086,
    1087,
    1086,
    1087,
    1111,
    1387,
    1388,
    731,
    732,
    1182,
    1123,
    1124,
    717,
    5,
    2,
    5,
    4,
    1,
    4,
    3,
    5,
    3,
    2,
    1384,
    1383,
    1387,
    1150,
    1151,
    1182,
    1387,
    1386,
    1388,
    1384,
    1387,
    1384,
    1383,
    1387,
    1388,
    1387,
    1384,
    1387,
    1383,
    1388,
    1386,
    1386,
    1384,
    1384,
    1386,
    1388,
    1386,
    1383,
    1388,
    1386,
    1387,
    1385,
    1384,
    1386,
    1385,
    1387,
    1383,
    1383,
    1386,
    1386,
    1387,
    1384,
    1384,
    1387,
    1388,
    1386,
    1388,
    1383,
    1387,
    1386,
    1388,
    1387,
    1387,
    1385,
    1383,
    1388,
    1385,
    1385,
    1385,
    1383,
    1386,
    1386,
    1388,
    1387,
    1386,
    1385,
    1385,
    1386,
    1387,
    1388,
    1387,
    1383,
    1387,
    1386,
    1384,
    1383,
    1383,
    1385,
    1386,
    1385,
    1387,
    1386,
    1386,
    1130,
    12,
    1087,
    1180,
    1086,
    1087,
    1083,
    1191,
    399,
    400,
    719,
    383,
    384,
    719,
    399,
    400,
    1319,
    719,
    399,
    400,
    1193,
    1083,
    1086,
    1087,
    1083,
    1117,
    1126,
    1163,
    1386,
    747,
    748,
    1124,
    928,
    3,
    15,
    16,
    6,
    4,
    2,
    3,
    3,
    6,
    4,
    5,
    1,
    1386,
    1385,
    1182,
    1166,
    1167,
    1386,
    1387,
    1384,
    1387,
    1385,
    1385,
    1383,
    1384,
    1387,
    1384,
    1388,
    1384,
    1385,
    1388,
    1385,
    1383,
    1387,
    1386,
    1383,
    1387,
    1383,
    1385,
    1383,
    1386,
    1383,
    1387,
    1386,
    1383,
    1385,
    1383,
    1385,
    1386,
    1386,
    1388,
    1388,
    1385,
    1386,
    1387,
    1387,
    1387,
    1385,
    1388,
    1383,
    1384,
    1385,
    1387,
    1384,
    1385,
    1386,
    1387,
    1386,
    1387,
    1384,
    1383,
    1383,
    1388,
    1383,
    1383,
    1383,
    1385,
    1386,
    1388,
    1385,
    1388,
    1385,
    1387,
    1383,
    1384,
    1388,
    1386,
    1388,
    1383,
    1387,
    1383,
    1383,
    1387,
    1384,
    1182,
    1098,
    1117,
    1086,
    1087,
    1083,
    1117,
    1095,
    1097,
    1190,
    1319,
    1319,
    399,
    400,
    1194,
    1143,
    1143,
    1190,
    1319,
    1320,
    1194,
    1083,
    1086,
    1083,
    1117,
    1086,
    1087,
    1087,
    1127,
    1164,
    1386,
    1108,
    2,
    1,
    1,
    31,
    32,
    6,
    2,
    4,
    1,
    2,
    2,
    4,
    2,
    3,
    1387,
    1386,
    1385,
    1384,
    1387,
    1182,
    1384,
    1388,
    1384,
    1384,
    1383,
    1383,
    1387,
    1384,
    1384,
    1383,
    1384,
    1383,
    1384,
    1384,
    1385,
    1384,
    1385,
    1386,
    1383,
    1388,
    1384,
    1383,
    1387,
    1384,
    1386,
    1384,
    1384,
    1387,
    1388,
    1386,
    1385,
    1386,
    1383,
    1165,
    1388,
    1385,
    1383,
    1383,
    1385,
    1384,
    1384,
    1387,
    1388,
    1386,
    1386,
    1387,
    1383,
    1388,
    1385,
    1383,
    1387,
    1385,
    1384,
    1384,
    1385,
    1385,
    1384,
    1387,
    1387,
    1388,
    1383,
    1386,
    1388,
    1384,
    1387,
    1385,
    1385,
    1383,
    1163,
    1386,
    1388,
    1386,
    1383,
    1385,
    1388,
    1388,
    1383,
    1165,
    1097,
    1080,
    1086,
    1087,
    1094,
    1384,
    1113,
    1114,
    1191,
    1192,
    1192,
    1193,
    1083,
    1080,
    1086,
    1087,
    1191,
    1193,
    1086,
    1180,
    1083,
    1117,
    1080,
    1086,
    1087,
    1117,
    1195,
    1126,
    1182,
    1385,
    1093,
    4,
    3,
    4,
    4,
    5,
    1,
    3,
    3,
    3,
    3,
    2,
    1,
    3,
    1384,
    1386,
    1388,
    1384,
    1383,
    1384,
    1384,
    1385,
    1388,
    1383,
    1383,
    1384,
    1387,
    1388,
    1384,
    1385,
    1384,
    1386,
    1387,
    1384,
    1384,
    1388,
    1384,
    1386,
    1387,
    1383,
    1386,
    1384,
    1387,
    1383,
    1384,
    1387,
    1385,
    1386,
    1385,
    1384,
    1384,
    1387,
    1384,
    1388,
    1385,
    1387,
    1384,
    1386,
    1384,
    1387,
    1384,
    1384,
    1387,
    1383,
    1383,
    1388,
    1387,
    1388,
    1385,
    1383,
    1384,
    1388,
    1387,
    1383,
    1386,
    1384,
    1386,
    1386,
    1387,
    1385,
    1385,
    1385,
    1383,
    1386,
    1384,
    1388,
    1387,
    1384,
    1383,
    1388,
    1386,
    1388,
    1387,
    1383,
    1384,
    1387,
    1384,
    1182,
    1385,
    1096,
    1096,
    1096,
    1384,
    1383,
    1388,
    1097,
    1086,
    1087,
    1086,
    1087,
    1095,
    1096,
    1097,
    1080,
    1086,
    1087,
    1083,
    1117,
    1083,
    1095,
    1096,
    1098,
    1117,
    1086,
    1087,
    1095,
    1384,
    731,
    732,
    1092,
    3,
    4,
    1,
    1,
    4,
    5,
    4,
    3,
    6,
    5,
    4,
    3,
    1386,
    1384,
    1163,
    1385,
    1387,
    1388,
    1386,
    1383,
    1387,
    1384,
    1386,
    1384,
    1383,
    1385,
    1383,
    1384,
    1387,
    1387,
    1386,
    1383,
    1385,
    1386,
    1388,
    1386,
    1386,
    1385,
    1384,
    1387,
    1384,
    1383,
    1387,
    1383,
    1385,
    1388,
    1386,
    1387,
    1387,
    1383,
    1383,
    1384,
    1387,
    1384,
    1383,
    1386,
    1387,
    1385,
    1383,
    1388,
    1384,
    1387,
    1385,
    1385,
    1387,
    1384,
    1386,
    1384,
    1388,
    1387,
    1383,
    1388,
    1388,
    1386,
    1383,
    1385,
    1386,
    1384,
    1388,
    1387,
    1387,
    1386,
    1386,
    1386,
    1385,
    1388,
    1386,
    1383,
    1385,
    1387,
    1383,
    1388,
    1386,
    1386,
    1383,
    1385,
    1386,
    1387,
    1388,
    1385,
    1388,
    1386,
    1165,
    1387,
    1098,
    1080,
    1080,
    1094,
    1383,
    11,
    1388,
    1096,
    1097,
    1117,
    1086,
    1087,
    1095,
    731,
    732,
    1384,
    1097,
    1117,
    1117,
    1126,
    11,
    747,
    748,
    1385,
    1092,
    6,
    1,
    1,
    5,
    5,
    5,
    2,
    6,
    6,
    4,
    3,
    1386,
    1385,
    1383,
    1385,
    1388,
    1383,
    1384,
    1384,
    1388,
    1388,
    1386,
    1387,
    1385,
    1383,
    1388,
    1388,
    1387,
    1388,
    1385,
    1388,
    1385,
    1384,
    1388,
    1388,
    1387,
    1388,
    1388,
    1386,
    1384,
    1388,
    1383,
    1384,
    1388,
    1388,
    1387,
    1386,
    1386,
    1386,
    1387,
    1384,
    1384,
    1388,
    1386,
    1388,
    1386,
    1383,
    1387,
    1384,
    1387,
    1163,
    1383,
    1386,
    1386,
    1385,
    1385,
    1385,
    1387,
    1387,
    1384,
    1387,
    1384,
    1387,
    1386,
    1385,
    1383,
    1384,
    1383,
    1388,
    1385,
    1387,
    1387,
    1386,
    1383,
    1384,
    1384,
    1383,
    1388,
    1388,
    1388,
    1386,
    1388,
    1387,
    1383,
    1387,
    1386,
    1385,
    1383,
    1385,
    1385,
    1384,
    1387,
    1386,
    1386,
    1096,
    1096,
    1387,
    1384,
    1182,
    1388,
    1165,
    1383,
    1098,
    1080,
    1094,
    1182,
    747,
    748,
    1182,
    1163,
    1097,
    1195,
    1095,
    731,
    732,
    1388,
    1182,
    1108,
    1109,
    3,
    3,
    5,
    4,
    5,
    5,
    4,
    5,
    2,
    3,
    1383,
    1385,
    1385,
    1385,
    1383,
    1385,
    1384,
    1386,
    1388,
    1386,
    1387,
    1387,
    1388,
    1164,
    1384,
    1383,
    1384,
    1385,
    1384,
    1384,
    1387,
    1387,
    1386,
    1384,
    1386,
    1386,
    1388,
    1388,
    1385,
    1384,
    1385,
    1387,
    1383,
    1386,
    1385,
    1388,
    1388,
    1388,
    1385,
    1384,
    1384,
    1387,
    1388,
    1388,
    1388,
    1386,
    1385,
    1386,
    1386,
    1383,
    1385,
    1383,
    1384,
    1385,
    1384,
    1164,
    1383,
    1386,
    1384,
    1387,
    1386,
    1388,
    1388,
    1388,
    1384,
    1383,
    1387,
    1384,
    1387,
    1383,
    1387,
    1386,
    1387,
    1387,
    1388,
    1385,
    1385,
    1387,
    1385,
    1383,
    1387,
    1386,
    1165,
    1384,
    1384,
    1387,
    1163,
    1385,
    1387,
    1386,
    1384,
    1383,
    1388,
    1383,
    1387,
    1182,
    733,
    1385,
    731,
    732,
    1386,
    1385,
    1096,
    731,
    732,
    1383,
    1182,
    731,
    732,
    11,
    1096,
    1182,
    747,
    748,
    1386,
    1386,
    1108,
    1109,
    2,
    1,
    2,
    4,
    3,
    1,
    2,
    5,
    1,
    5,
    1386,
    1383,
    1384,
    1388,
    1383,
    1387,
    1385,
    1383,
    1383,
    1388,
    1384,
    1383,
    1388,
    1383,
    1387,
    1388,
    1384,
    1388,
    1385,
    1386,
    1387,
    1388,
    1383,
    1386,
    1383,
    1388,
    1386,
    1388,
    1388,
    1384,
    1383,
    1385,
    1384,
    1386,
    1384,
    1387,
    1388,
    1385,
    1384,
    1385,
    1388,
    1384,
    1384,
    1387,
    1384,
    1383,
    1383,
    1385,
    1384,
    1388,
    1387,
    1386,
    1387,
    1385,
    1386,
    1383,
    1387,
    1385,
    1388,
    1386,
    1386,
    1383,
    1383,
    1384,
    1384,
    1384,
    1385,
    1385,
    1387,
    1387,
    1388,
    1384,
    1387,
    1385,
    1388,
    1385,
    1384,
    1388,
    1383,
    1386,
    1385,
    1387,
    1388,
    1384,
    1387,
    1388,
    1383,
    1386,
    1386,
    1387,
    1182,
    733,
    1385,
    1386,
    731,
    732,
    1182,
    733,
    747,
    748,
    1387,
    1388,
    1182,
    747,
    748,
    1164,
    1165,
    747,
    748,
    1182,
    1182,
    1388,
    1386,
    1182,
    1385,
    1388,
    1108,
    3,
    5,
    13,
    3,
    5,
    6,
    1,
    15,
    16,
    3,
    3,
    1383,
    1385,
    1383,
    1386,
    1383,
    1165,
    1163,
    1386,
    1386,
    1383,
    1387,
    1384,
    1384,
    1385,
    1387,
    1388,
    1388,
    1386,
    1386,
    1388,
    1385,
    1383,
    1388,
    1385,
    1386,
    1384,
    1386,
    1387,
    1388,
    1385,
    1385,
    1386,
    1388,
    1386,
    1387,
    1387,
    1383,
    1388,
    1383,
    1388,
    1387,
    1384,
    1386,
    1383,
    1383,
    1383,
    1388,
    1386,
    1385,
    1385,
    1383,
    1385,
    1385,
    1386,
    1388,
    1383,
    1383,
    1385,
    1387,
    1387,
    1387,
    1387,
    1384,
    1387,
    1385,
    1384,
    1385,
    1384,
    1386,
    1387,
    1387,
    1383,
    1388,
    1387,
    1385,
    1387,
    1386,
    1383,
    1388,
    1383,
    1384,
    1384,
    1387,
    1386,
    1383,
    1386,
    1386,
    1383,
    1388,
    1385,
    1385,
    731,
    732,
    1385,
    747,
    748,
    731,
    732,
    1164,
    1182,
    1150,
    1151,
    1388,
    1387,
    1387,
    1387,
    1386,
    1182,
    1385,
    1384,
    1388,
    1384,
    1388,
    1385,
    1384,
    1383,
    1124,
    2,
    6,
    5,
    1,
    6,
    1,
    3,
    31,
    32,
    5,
    2,
    1385,
    1383,
    1385,
    1387,
    1384,
    1386,
    1164,
    1385,
    1387,
    1387,
    1386,
    1384,
    1387,
    1386,
    1387,
    1386,
    1384,
    1383,
    1386,
    1387,
    1386,
    1387,
    1385,
    1388,
    1388,
    1385,
    1387,
    1387,
    1388,
    1383,
    1388,
    1388,
    1388,
    1388,
    1386,
    1387,
    1388,
    1385,
    1387,
    1387,
    1387,
    1384,
    1386,
    1388,
    1385,
    1388,
    1386,
    1385,
    1384,
    1387,
    1383,
    1387,
    1387,
    1387,
    1383,
    1386,
    1385,
    1384,
    1383,
    1388,
    1385,
    1383,
    1385,
    1385,
    1386,
    1388,
    1386,
    1387,
    1387,
    1384,
    1383,
    1385,
    1385,
    1383,
    1383,
    1387,
    1385,
    1387,
    1388,
    1383,
    1385,
    1387,
    1384,
    1384,
    1386,
    1387,
    1383,
    1383,
    1182,
    1383,
    1383,
    747,
    748,
    1388,
    1384,
    1387,
    747,
    748,
    1387,
    1182,
    1166,
    1167,
    1388,
    1164,
    1386,
    1388,
    1383,
    1384,
    1388,
    1384,
    1385,
    1386,
    1388,
    1386,
    1123,
    1124,
    4,
    5,
    4,
    5,
    5,
    5,
    4,
    4,
    1,
    1,
    6,
    6,
    1383,
    1385,
    1384,
    1387,
    1388,
    1388,
    1388,
    1385,
    1383,
    1383,
    1386,
    1386,
    1384,
    1388,
    1384,
    1385,
    1388,
    1386,
    1385,
    1387,
    1387,
    1385,
    1388,
    1388,
    1384,
    1384,
    1386,
    1388,
    1387,
    1386,
    1383,
    1385,
    1387,
    1385,
    1387,
    1384,
    1383,
    1388,
    1388,
    1384,
    1386,
    1387,
    1388,
    1386,
    1386,
    1384,
    1384,
    1385,
    1384,
    1387,
    1388,
    1387,
    1386,
    1388,
    1385,
    1387,
    1388,
    1387,
    1384,
    1387,
    1163,
    1386,
    1386,
    1388,
    1388,
    1385,
    1387,
    1383,
    1388,
    1386,
    1386,
    1386,
    1385,
    1387,
    1386,
    1388,
    1387,
    1386,
    1384,
    1387,
    1386,
    1386,
    1385,
    1386,
    1383,
    1388,
    1387,
    1385,
    1383,
    1384,
    733,
    1182,
    731,
    732,
    1163,
    1383,
    1388,
    731,
    732,
    733,
    1387,
    1385,
    1387,
    1384,
    1384,
    1383,
    1387,
    1386,
    1385,
    1386,
    1383,
    1384,
    1387,
    1124,
    1,
    1152,
    6,
    2,
    6,
    3,
    3,
    3,
    2,
    1,
    3,
    5,
    3,
    2,
    1388,
    1385,
    1383,
    1385,
    1386,
    1385,
    1384,
    1388,
    1388,
    1388,
    1386,
    1383,
    1388,
    1383,
    1383,
    1386,
    1384,
    1384,
    1388,
    1383,
    1388,
    1384,
    1383,
    1387,
    1384,
    1384,
    1386,
    1384,
    1388,
    1386,
    1386,
    1385,
    1388,
    1386,
    1383,
    1388,
    1388,
    1385,
    1385,
    1386,
    1386,
    1386,
    1383,
    1384,
    1388,
    1383,
    1387,
    1385,
    1386,
    1385,
    1165,
    1385,
    1383,
    1386,
    1386,
    1383,
    1388,
    1385,
    1386,
    1384,
    1385,
    1387,
    1387,
    1386,
    1388,
    1387,
    1384,
    1385,
    1385,
    1386,
    1163,
    1384,
    1388,
    1388,
    1387,
    1386,
    1383,
    1385,
    1383,
    1387,
    1384,
    1387,
    1383,
    1384,
    1386,
    1388,
    1385,
    1386,
    1385,
    1383,
    1165,
    733,
    747,
    748,
    731,
    732,
    1383,
    747,
    748,
    1182,
    1388,
    1386,
    1385,
    1387,
    1385,
    1384,
    1386,
    1384,
    1384,
    1385,
    1386,
    1165,
    1124,
    2,
    3,
    5,
    6,
    5,
    3,
    3,
    3,
    1,
    1,
    4,
    4,
    4,
    3,
    4,
    1386,
    1387,
    1384,
    1384,
    1383,
    1383,
    1384,
    1384,
    1384,
    1388,
    1383,
    1383,
    1163,
    1384,
    1388,
    1385,
    1387,
    1384,
    1384,
    1386,
    1387,
    1387,
    1383,
    1383,
    1384,
    1383,
    1386,
    1387,
    1386,
    1384,
    1386,
    1385,
    1388,
    1386,
    1386,
    1384,
    1385,
    1384,
    1388,
    1385,
    1387,
    1388,
    1388,
    1387,
    1388,
    1383,
    1383,
    1383,
    1387,
    1384,
    1386,
    1386,
    1387,
    1387,
    1385,
    1383,
    1388,
    1388,
    1384,
    1388,
    1384,
    1384,
    1385,
    1385,
    1388,
    1383,
    1386,
    1387,
    1386,
    1388,
    1386,
    1383,
    1385,
    1385,
    1387,
    1386,
    1386,
    1384,
    1383,
    1385,
    1383,
    1388,
    1386,
    1386,
    1384,
    1385,
    1384,
    1388,
    1383,
    1384,
    1182,
    1386,
    1147,
    1182,
    747,
    748,
    1165,
    1388,
    1182,
    1385,
    1383,
    1384,
    1383,
    1386,
    1388,
    1385,
    1384,
    1383,
    1386,
    1386,
    1388,
    1108,
    1109,
    3,
    2,
    4,
    3,
    5,
    4,
    5,
    2,
    15,
    16,
    2,
    5,
    6,
    5,
    1,
    1384,
    1383,
    1383,
    1385,
    1165,
    1383,
    1384,
    1387,
    1386,
    1388,
    1383,
    1385,
    1386,
    1386,
    1388,
    1388,
    1387,
    1384,
    1386,
    1383,
    1388,
    1383,
    1386,
    1384,
    1385,
    1387,
    1387,
    1385,
    1388,
    1384,
    1388,
    1387,
    1383,
    1387,
    1383,
    1387,
    1385,
    1387,
    1384,
    1386,
    1384,
    1384,
    1384,
    1386,
    1384,
    1388,
    1383,
    1384,
    1385,
    1388,
    1384,
    1388,
    1388,
    1387,
    1386,
    1388,
    1385,
    1387,
    1385,
    1384,
    1388,
    1385,
    1387,
    1385,
    1387,
    1384,
    1388,
    1387,
    1387,
    1386,
    1384,
    1386,
    1386,
    1386,
    1385,
    1388,
    1383,
    1388,
    1386,
    1384,
    1385,
    1386,
    1385,
    1387,
    1383,
    1388,
    1384,
    1385,
    1387,
    1384,
    1386,
    1386,
    1388,
    1387,
    733,
    1182,
    1383,
    1385,
    1388,
    1384,
    1385,
    1384,
    1386,
    1388,
    1388,
    1386,
    1385,
    1384,
    1388,
    1388,
    1387,
    1108,
    1109,
    5,
    6,
    1,
    4,
    5,
    1,
    6,
    3,
    31,
    32,
    6,
    1,
    1,
    1,
    3,
    1384,
    1388,
    1384,
    1387,
    1386,
    1385,
    1383,
    1385,
    1386,
    1388,
    1387,
    1387,
    1383,
    1383,
    1383,
    1388,
    1388,
    1384,
    1388,
    1384,
    1384,
    1383,
    1387,
    1385,
    1383,
    1383,
    1386,
    1384,
    1384,
    1386,
    1385,
    1388,
    1386,
    1385,
    1388,
    1383,
    1384,
    1385,
    1385,
    1384,
    1384,
    1387,
    1384,
    1386,
    1383,
    1387,
    1386,
    1386,
    1385,
    1387,
    1383,
    1385,
    1384,
    1386,
    1387,
    1385,
    1383,
    1384,
    1388,
    1383,
    1384,
    1387,
    1384,
    1386,
    1383,
    1385,
    1387,
    1383,
    1384,
    1386,
    1388,
    1388,
    1388,
    1387,
    1387,
    1385,
    1386,
    1164,
    1388,
    1386,
    1384,
    1387,
    1385,
    1384,
    1383,
    1388,
    1384,
    1384,
    1383,
    1387,
    1388,
    1385,
    1385,
    1388,
    1384,
    1387,
    1386,
    1383,
    1387,
    1386,
    1388,
    1386,
    1384,
    1383,
    1387,
    1384,
    1386,
    1388,
    1385,
    1388,
    1383,
    1124,
    5,
    4,
    3,
    1,
    5,
    1,
    6,
    4,
    2,
    4,
    2,
    1,
    4,
    4,
    2,
    1,
    1388,
    1387,
    1388,
    1387,
    1388,
    1386,
    1386,
    1387,
    1386,
    1386,
    1388,
    1384,
    1386,
    1386,
    1383,
    1386,
    1388,
    1388,
    1384,
    1383,
    1387,
    1386,
    1388,
    1385,
    1385,
    1386,
    1383,
    1384,
    1386,
    1385,
    1383,
    1387,
    1385,
    1385,
    1388,
    1388,
    1385,
    1385,
    1384,
    1385,
    1388,
    1383,
    1383,
    1388,
    1387,
    1387,
    1385,
    1385,
    1387,
    1385,
    1384,
    1386,
    1388,
    1388,
    1386,
    1384,
    1384,
    1388,
    1384,
    1388,
    1387,
    1163,
    1388,
    1388,
    1384,
    1383,
    1386,
    1385,
    1387,
    1385,
    1387,
    1383,
    1387,
    1386,
    1388,
    1387,
    1387,
    1384,
    1384,
    1387,
    1387,
    1383,
    1388,
    1387,
    1385,
    1386,
    1386,
    1384,
    1386,
    1387,
    1385,
    1387,
    1386,
    1386,
    1387,
    1385,
    1385,
    1387,
    1384,
    1387,
    1383,
    1383,
    1386,
    1387,
    1387,
    1383,
    1384,
    1387,
    1387,
    1384,
    1108,
    1,
    5,
    6,
    3,
    5,
    6,
    4,
    1,
    6,
    6,
    1,
    2,
    3,
    4,
    6,
    1,
    6,
    1384,
    1387,
    1385,
    1388,
    1387,
    1383,
    1383,
    1383,
    1386,
    1383,
    1387,
    1387,
    1384,
    1386,
    1388,
    1383,
    1384,
    1384,
    1383,
    1387,
    1388,
    1386,
    1387,
    1387,
    1385,
    1386,
    1383,
    1384,
    1384,
    1383,
    1387,
    1383,
    1384,
    1388,
    1165,
    1386,
    1387,
    1387,
    1388,
    1386,
    1387,
    1383,
    1384,
    1386,
    1384,
    1384,
    1388,
    1383,
    1384,
    1387,
    1383,
    1388,
    1385,
    1384,
    1386,
    1164,
    1387,
    1387,
    1388,
    1387,
    1383,
    1387,
    1386,
    1387,
    1388,
    1383,
    1387,
    1386,
    1387,
    1384,
    1388,
    1385,
    1387,
    1385,
    1385,
    1385,
    1386,
    1385,
    1385,
    1387,
    1383,
    1383,
    1383,
    1385,
    1386,
    1387,
    1385,
    1388,
    1383,
    1388,
    1384,
    1383,
    1383,
    1387,
    1384,
    1383,
    1386,
    1385,
    1385,
    1387,
    1388,
    1385,
    1384,
    1387,
    1388,
    1388,
    1388,
    1383,
    1387,
    1383,
    1164,
    1093,
    1152,
    1,
    6,
    2,
    2,
    5,
    4,
    1,
    1,
    6,
    2,
    2,
    6,
    6,
    2,
    2,
    1387,
    1383,
    1386,
    1386,
    1387,
    1383,
    1386,
    1383,
    1386,
    1387,
    1385,
    1387,
    1388,
    1387,
    1384,
    1384,
    1388,
    1385,
    1388,
    1386,
    1384,
    1385,
    1387,
    1387,
    1386,
    1385,
    1387,
    1388,
    1386,
    1385,
    1388,
    1387,
    1383,
    1384,
    1387,
    1384,
    1386,
    1385,
    1383,
    1385,
    1384,
    1386,
    1388,
    1165,
    1385,
    1387,
    1385,
    1386,
    1386,
    1383,
    1385,
    1385,
    1387,
    1386,
    1384,
    1383,
    1383,
    1388,
    1386,
    1383,
    1385,
    1384,
    1387,
    1384,
    1383,
    1385,
    1387,
    1385,
    1384,
    1386,
    1384,
    1385,
    1387,
    1383,
    1384,
    1385,
    1387,
    1387,
    1387,
    1388,
    1387,
    1383,
    1386,
    1386,
    1385,
    1384,
    1384,
    1384,
    1386,
    1386,
    1385,
    1386,
    1387,
    1386,
    1388,
    1388,
    1385,
    1388,
    1387,
    1386,
    1387,
    1385,
    1386,
    1385,
    1386,
    1387,
    1385,
    1387,
    1388,
    1387,
    1385,
    1388,
    1092,
    6,
    3,
    13,
    4,
    3,
    4,
    6,
    2,
    3,
    2,
    6,
    4,
    6,
    13,
    5,
    1388,
    1386,
    1383,
    1388,
    1388,
    1383,
    1383,
    1384,
    1388,
    1385,
    1384,
    1384,
    1385,
    1385,
    1385,
    1387,
    1388,
    1386,
    1386,
    1388,
    1386,
    1385,
    1384,
    1384,
    1386,
    1388,
    1383,
    1385,
    1384,
    1387,
    1383,
    1388,
    1385,
    1384,
    1386,
    1384,
    1385,
    1383,
    1387,
    1385,
    1384,
    1383,
    1386,
    1384,
    1388,
    1388,
    1383,
    1388,
    1383,
    1384,
    1388,
    1386,
    1165,
    1388,
    1384,
    1384,
    1385,
    1384,
    1387,
    1385,
    1386,
    1387,
    1388,
    1387,
    1385,
    1387,
    1387,
    1387,
    1387,
    1385,
    1385,
    1384,
    1388,
    1388,
    1388,
    1386,
    1385,
    1385,
    1388,
    1383,
    1385,
    1385,
    1388,
    1384,
    1387,
    1385,
    1383,
    1387,
    1385,
    1388,
    1388,
    1384,
    1384,
    1388,
    1385,
    1387,
    1388,
    1386,
    1386,
    1387,
    1383,
    1384,
    1383,
    1388,
    1383,
    1384,
    1388,
    1386,
    1385,
    1383,
    1383,
    1386,
    1386,
    1092,
    6,
    5,
    4,
    6,
    5,
    1,
    4,
    5,
    3,
    4,
    1,
    4,
    15,
    16,
    1384,
    1386,
    1383,
    1384,
    1386,
    1383,
    1384,
    1385,
    1388,
    1386,
    1385,
    1383,
    1388,
    1384,
    1388,
    1384,
    1384,
    1384,
    1385,
    1384,
    1387,
    1383,
    1384,
    1385,
    1387,
    1384,
    1385,
    1385,
    1384,
    1384,
    1386,
    1386,
    1388,
    1386,
    1383,
    1387,
    1388,
    1383,
    1388,
    1386,
    1388,
    1385,
    1388,
    1385,
    1383,
    1384,
    1387,
    1384,
    1384,
    1383,
    1387,
    1384,
    1388,
    1383,
    1385,
    1386,
    1387,
    1385,
    1383,
    1384,
    1384,
    1386,
    1385,
    1388,
    1386,
    1384,
    1388,
    1388,
    1386,
    1383,
    1383,
    1387,
    1386,
    1165,
    1384,
    1383,
    1386,
    1388,
    1163,
    1384,
    1387,
    1386,
    1384,
    1384,
    1384,
    1387,
    1384,
    1387,
    1383,
    1385,
    1384,
    1384,
    1388,
    1387,
    1386,
    1383,
    1383,
    1384,
    1384,
    1164,
    1387,
    1385,
    1383,
    1387,
    1385,
    1388,
    1388,
    1388,
    1386,
    1387,
    1387,
    1388,
    1384,
    1108,
    5,
    3,
    3,
    3,
    1,
    5,
    6,
    1,
    5,
    1,
    1,
    1,
    31,
    32,
    1388,
    1384,
    1385,
    1386,
    1385,
    1386,
    1384,
    1385,
    1386,
    1384,
    1383,
    1384,
    1385,
    1388,
    1383,
    1383,
    1385,
    1385,
    1384,
    1388,
    1388,
    1383,
    1388,
    1384,
    1387,
    1387,
    1385,
    1383,
    1386,
    1383,
    1383,
    1383,
    1386,
    1388,
    1386,
    1386,
    1386,
    1387,
    1383,
    1387,
    1163,
    1385,
    1385,
    1383,
    1384,
    1383,
    1386,
    1385,
    1388,
    1385,
    1387,
    1383,
    1385,
    1385,
    1385,
    1387,
    1386,
    1388,
    1385,
    1386,
    1385,
    1165,
    1386,
    1385,
    1388,
    1383,
    1388,
    1383,
    1385,
    1384,
    1384,
    1384,
    1387,
    1383,
    1386,
    1383,
    1388,
    1384,
    1385,
    1383,
    1383,
    1386,
    1385,
    1388,
    1385,
    1388,
    1386,
    1388,
    1163,
    1388,
    1384,
    1384,
    1388,
    1388,
    1385,
    1386,
    1388,
    1388,
    1386,
    1383,
    1384,
    1387,
    1383,
    1385,
    1386,
    1387,
    1386,
    1386,
    1387,
    1384,
    1386,
    1388,
    1123,
    1124,
    2,
    3,
    2,
    1,
    3,
    4,
    4,
    5,
    15,
    16,
    3,
    4,
    1090,
    1091,
    1387,
    1385,
    1388,
    1164,
    1386,
    1388,
    1383,
    1387,
    1384,
    1384,
    1384,
    1388,
    1164,
    1385,
    1384,
    1386,
    1386,
    1387,
    1386,
    1385,
    1384,
    1385,
    1387,
    1388,
    1387,
    1386,
    1386,
    1383,
    1383,
    1386,
    1385,
    1385,
    1386,
    1384,
    1385,
    1386,
    1387,
    1388,
    1388,
    1387,
    1383,
    1386,
    1384,
    1385,
    1388,
    1384,
    1387,
    1385,
    1387,
    1385,
    1383,
    1383,
    1384,
    1384,
    1385,
    1384,
    1388,
    1385,
    1383,
    1385,
    1164,
    1386,
    1386,
    1388,
    1388,
    1384,
    1385,
    1383,
    1388,
    1387,
    1386,
    1383,
    1386,
    1386,
    1387,
    1388,
    1387,
    1383,
    1383,
    1388,
    1383,
    1385,
    1386,
    1388,
    1383,
    1387,
    1387,
    1385,
    1383,
    1384,
    1388,
    1384,
    1384,
    1386,
    1383,
    1383,
    1385,
    1385,
    1386,
    1385,
    1383,
    1388,
    1385,
    1383,
    1387,
    1383,
    1386,
    1387,
    1383,
    1163,
    1123,
    1124,
    1,
    2,
    1,
    2,
    2,
    4,
    3,
    1,
    5,
    3,
    31,
    32,
    1090,
    1091,
    1385,
    1164,
    1387,
    1383,
    1384,
    1388,
    1388,
    1385,
    1384,
    1385,
    1383,
    1387,
    1383,
    1387,
    1387,
    1387,
    1385,
    1388,
    1387,
    1386,
    1388,
    1386,
    1385,
    1388,
    1383,
    1385,
    1386,
    1385,
    1384,
    1385,
    1387,
    1386,
    1387,
    1388,
    1384,
    1387,
    1385,
    1383,
    1385,
    1383,
    1387,
    1388,
    1387,
    1387,
    1386,
    1383,
    1388,
    1164,
    1384,
    1387,
    1387,
    1386,
    1388,
    1387,
    1383,
    1387,
    1387,
    1384,
    1384,
    1383,
    1385,
    1388,
    1386,
    1386,
    1388,
    1386,
    1387,
    1384,
    1387,
    1383,
    1388,
    1384,
    1388,
    1384,
    1384,
    1386,
    1387,
    1385,
    1386,
    1384,
    1387,
    1387,
    1387,
    1388,
    1384,
    1385,
    1387,
    1387,
    1384,
    1383,
    1384,
    1386,
    1383,
    1386,
    1386,
    1386,
    1383,
    1383,
    1388,
    1383,
    1388,
    1387,
    1384,
    1388,
    1386,
    1385,
    1387,
    1387,
    1388,
    1386,
    1384,
    1125,
    15,
    16,
    2,
    1,
    2,
    5,
    6,
    2,
    1,
    5,
    5,
    2,
    6,
    1090,
    1386,
    1383,
    1386,
    1384,
    1387,
    1388,
    1383,
    1384,
    1384,
    1383,
    1387,
    1385,
    1384,
    1387,
    1383,
    1388,
    1385,
    1388,
    1383,
    1387,
    1385,
    1387,
    1386,
    1386,
    1386,
    1385,
    1388,
    1385,
    1388,
    1383,
    1385,
    1388,
    1386,
    1388,
    1388,
    1385,
    1388,
    1388,
    1384,
    1385,
    1387,
    1386,
    1387,
    1387,
    1388,
    1383,
    1383,
    1388,
    1383,
    1384,
    1386,
    1385,
    1387,
    1384,
    1388,
    1388,
    1384,
    1385,
    1386,
    1385,
    1388,
    1385,
    1387,
    1388,
    1386,
    1384,
    1388,
    1384,
    1386,
    1388,
    1385,
    1385,
    1384,
    1388,
    1388,
    1384,
    1388,
    1384,
    1385,
    1383,
    1383,
    1383,
    1388,
    1386,
    1386,
    1383,
    1387,
    1385,
    1384,
    1383,
    1165,
    1388,
    1383,
    1383,
    1385,
    1383,
    1387,
    1384,
    1384,
    1387,
    1383,
    1385,
    1386,
    1383,
    1385,
    1385,
    1384,
    1384,
    1387,
    1383,
    1386,
    1387,
    1383,
    1092,
    31,
    32,
    4,
    1,
    2,
    2,
    1,
    5,
    3,
    6,
    6,
    2,
    1090,
    1384,
    1385,
    1388,
    1386,
    1383,
    1384,
    1385,
    1383,
    1388,
    1388,
    1388,
    1386,
    1386,
    1383,
    1385,
    1385,
    1385,
    1383,
    1388,
    1386,
    1388,
    1385,
    1385,
    1385,
    1163,
    1383,
    1384,
    1388,
    1386,
    1383,
    1383,
    1388,
    1385,
    1387,
    1383,
    1385,
    1384,
    1387,
    1385,
    1383,
    1388,
    1383,
    1388,
    1384,
    1388,
    1383,
    1384,
    1385,
    1386,
    1387,
    1387,
    1388,
    1383,
    1387,
    1388,
    1386,
    1387,
    1388,
    1385,
    1385,
    1387,
    1387,
    1385,
    1387,
    1385,
    1386,
    1384,
    1385,
    1383,
    1383,
    1383,
    1383,
    1384,
    1384,
    1388,
    1386,
    1383,
    1384,
    1388,
    1388,
    1385,
    1164,
    1388,
    1383,
    1383,
    1383,
    1385,
    1385,
    1383,
    1384,
    1386,
    1387,
    1385,
    1386,
    1383,
    1385,
    1387,
    1386,
    1384,
    1386,
    1386,
    1163,
    1387,
    1383,
    1384,
    1387,
    1387,
    1384,
    1383,
    1386,
    1386,
    1383,
    1383,
    1386,
    1388,
    1092,
    2,
    13,
    1,
    3,
    2,
    1,
    4,
    4,
    1,
    13,
    1105,
    1106,
    1387,
    1386,
    1383,
    1387,
    1386,
    1383,
    1385,
    1387,
    1384,
    1383,
    1388,
    1388,
    1387,
    1384,
    1384,
    1388,
    1386,
    1385,
    1385,
    1386,
    1384,
    1388,
    1386,
    1385,
    1386,
    1385,
    1384,
    1388,
    1384,
    1388,
    1385,
    1384,
    1384,
    1388,
    1383,
    1387,
    1386,
    1387,
    1384,
    1383,
    1388,
    1383,
    1386,
    1388,
    1384,
    1387,
    1387,
    1388,
    1387,
    1383,
    1388,
    1384,
    1385,
    1388,
    1384,
    1385,
    1384,
    1388,
    1388,
    1387,
    1388,
    1386,
    1388,
    1385,
    1387,
    1385,
    1388,
    1384,
    1385,
    1387,
    1385,
    1384,
    1387,
    1386,
    1388,
    1383,
    1385,
    1385,
    1388,
    1386,
    1385,
    1383,
    1387,
    1384,
    1387,
    1385,
    1387,
    1384,
    1384,
    1383,
    1388,
    1384,
    1386,
    1385,
    1387,
    1385,
    1388,
    1388,
    1388,
    1387,
    1384,
    1387,
    1384,
    1387,
    1386,
    1387,
    1383,
    1385,
    1387,
    1385,
    1386,
    1387,
    1387,
    1388,
    1386,
    1108,
    4,
    1,
    1,
    5,
    6,
    6,
    2,
    15,
    16,
    14,
    1090,
    1385,
    1384,
    1387,
    1388,
    1383,
    1386,
    1384,
    1385,
    1386,
    1387,
    1388,
    1385,
    1384,
    1388,
    1384,
    1386,
    1387,
    1383,
    1383,
    1386,
    1388,
    1387,
    1384,
    1388,
    1384,
    1385,
    1388,
    1388,
    1387,
    1383,
    1386,
    1388,
    1386,
    1387,
    1385,
    1385,
    1387,
    1383,
    1388,
    1385,
    1384,
    1385,
    1384,
    1387,
    1385,
    1385,
    1384,
    1386,
    1383,
    1384,
    1386,
    1383,
    1386,
    1383,
    1385,
    1385,
    1387,
    1386,
    1384,
    1383,
    1383,
    1383,
    1383,
    1387,
    1387,
    1384,
    1384,
    1386,
    1384,
    1385,
    1383,
    1388,
    1386,
    1383,
    1384,
    1386,
    1384,
    1387,
    1383,
    1383,
    1385,
    1384,
    1386,
    1383,
    1388,
    1388,
    1387,
    1384,
    1386,
    1387,
    1383,
    1386,
    1384,
    1384,
    1385,
    1388,
    1385,
    1386,
    1387,
    1384,
    1386,
    1383,
    1386,
    1383,
    1388,
    1387,
    1386,
    1383,
    1163,
    1123,
    1123,
    1383,
    1384,
    1383,
    1387,
    1386,
    1124,
    5,
    5,
    2,
    2,
    4,
    4,
    5,
    31,
    32,
    1105,
    1106,
    1163,
    1386,
    1383,
    1384,
    1388,
    1386,
    1388,
    1384,
    1383,
    1386,
    1384,
    1385,
    1385,
    1385,
    1384,
    1163,
    1386,
    1386,
    1385,
    1383,
    1387,
    1385,
    1387,
    1388,
    1165,
    1384,
    1385,
    1387,
    1386,
    1387,
    1388,
    1386,
    1383,
    1387,
    1164,
    1384,
    1386,
    1384,
    1383,
    1383,
    1388,
    1384,
    1387,
    1388,
    1386,
    1383,
    1388,
    1386,
    1388,
    1383,
    1383,
    1387,
    1388,
    1387,
    1383,
    1383,
    1388,
    1388,
    1386,
    1385,
    1384,
    1386,
    1385,
    1384,
    1386,
    1384,
    1383,
    1383,
    1386,
    1383,
    1383,
    1388,
    1385,
    1385,
    1387,
    1387,
    1388,
    1383,
    1383,
    1384,
    1387,
    1387,
    1388,
    1383,
    1384,
    1387,
    1385,
    1388,
    1386,
    1383,
    1383,
    1385,
    1386,
    1387,
    1383,
    1385,
    1388,
    1387,
    1388,
    1386,
    1383,
    1387,
    1383,
    1384,
    1384,
    1164,
    1386,
    1385,
    1125,
    1074,
    1074,
    1122,
    1123,
    1383,
    1165,
    1108,
    1152,
    5,
    6,
    1,
    2,
    3,
    3,
    2,
    6,
    4,
    6,
    1122,
    1383,
    1387,
    1383,
    1384,
    1385,
    1385,
    1388,
    1383,
    1386,
    1387,
    1385,
    1385,
    1163,
    1387,
    1387,
    1386,
    1385,
    1383,
    1385,
    1388,
    1383,
    1386,
    1385,
    1388,
    1387,
    1383,
    1384,
    1384,
    1385,
    1388,
    1388,
    1387,
    1387,
    1388,
    1388,
    1388,
    1387,
    1385,
    1384,
    1385,
    1384,
    1384,
    1385,
    1387,
    1388,
    1386,
    1385,
    1387,
    1383,
    1383,
    1385,
    1385,
    1387,
    1385,
    1385,
    1386,
    1383,
    1386,
    1384,
    1387,
    1385,
    1383,
    1384,
    1385,
    1387,
    1383,
    1384,
    1387,
    1384,
    1165,
    1164,
    1388,
    1383,
    1384,
    1386,
    1383,
    1383,
    1387,
    1388,
    1386,
    1387,
    1383,
    1385,
    1383,
    1383,
    1383,
    1383,
    1386,
    1385,
    1384,
    1388,
    1385,
    1388,
    1387,
    1384,
    1383,
    1388,
    1386,
    1383,
    1385,
    1385,
    1388,
    1388,
    1386,
    1387,
    1385,
    1388,
    1108,
    3,
    4,
    3,
    3,
    1,
    1122,
    1123,
    1124,
    6,
    3,
    4,
    3,
    4,
    6,
    2,
    3,
    2,
    2,
    15,
    16,
    1121,
    1384,
    1384,
    1387,
    1387,
    1384,
    1386,
    1387,
    1388,
    1384,
    1387,
    1387,
    1385,
    1385,
    1386,
    1384,
    1384,
    1385,
    1165,
    1386,
    1386,
    1385,
    1387,
    1388,
    1383,
    1386,
    1386,
    1388,
    1385,
    1384,
    1386,
    1387,
    1386,
    1384,
    1387,
    1387,
    1386,
    1383,
    1383,
    1386,
    1386,
    1388,
    1383,
    1387,
    1384,
    1383,
    1385,
    1383,
    1387,
    1385,
    1384,
    1384,
    1384,
    1387,
    1383,
    1387,
    1386,
    1387,
    1386,
    1388,
    1384,
    1387,
    1384,
    1386,
    1387,
    1384,
    1384,
    1386,
    1383,
    1388,
    1387,
    1385,
    1383,
    1385,
    1384,
    1386,
    1388,
    1383,
    1388,
    1388,
    1383,
    1385,
    1387,
    1385,
    1386,
    1386,
    1385,
    1386,
    1388,
    1385,
    1165,
    1388,
    1384,
    1384,
    1388,
    1386,
    1384,
    1384,
    1384,
    1384,
    1384,
    1388,
    1123,
    1123,
    1386,
    1388,
    1164,
    1124,
    3,
    3,
    3,
    5,
    6,
    2,
    1,
    1090,
    1092,
    2,
    2,
    2,
    2,
    6,
    4,
    6,
    3,
    1,
    31,
    32,
    1089,
    1384,
    1387,
    1387,
    1387,
    1388,
    1388,
    1383,
    1385,
    1387,
    1387,
    1385,
    1383,
    1385,
    1383,
    1383,
    1387,
    1386,
    1386,
    1387,
    1386,
    1387,
    1388,
    1387,
    1383,
    1383,
    1386,
    1388,
    1385,
    1384,
    1385,
    1385,
    1383,
    1383,
    1384,
    1385,
    1388,
    1383,
    1384,
    1386,
    1387,
    1383,
    1386,
    1384,
    1384,
    1388,
    1386,
    1387,
    1387,
    1388,
    1383,
    1383,
    1385,
    1387,
    1384,
    1383,
    1383,
    1387,
    1386,
    1387,
    1387,
    1388,
    1383,
    1383,
    1386,
    1385,
    1383,
    1387,
    1384,
    1386,
    1387,
    1388,
    1383,
    1387,
    1384,
    1384,
    1384,
    1383,
    1387,
    1388,
    1386,
    1387,
    1387,
    1388,
    1386,
    1388,
    1383,
    1384,
    1385,
    1386,
    1383,
    1385,
    1388,
    1387,
    1383,
    1383,
    1386,
    1383,
    1386,
    1385,
    1165,
    1125,
    1074,
    1074,
    1122,
    1123,
    1124,
    6,
    4,
    1,
    1,
    3,
    5,
    5,
    1090,
    1163,
    1387,
    1092,
    3,
    1,
    6,
    2,
    4,
    3,
    13,
    4,
    5,
    1090,
    1383,
    1387,
    1388,
    1385,
    1388,
    1384,
    1388,
    1387,
    1388,
    1387,
    1383,
    1388,
    1387,
    1388,
    1383,
    1388,
    1384,
    1387,
    1388,
    1387,
    1383,
    1388,
    1386,
    1388,
    1388,
    1386,
    1387,
    1383,
    1386,
    1388,
    1385,
    1387,
    1163,
    1384,
    1388,
    1383,
    1386,
    1386,
    1388,
    1385,
    1388,
    1387,
    1385,
    1383,
    1387,
    1383,
    1385,
    1388,
    1388,
    1383,
    1386,
    1385,
    1383,
    1385,
    1386,
    1386,
    1388,
    1384,
    1387,
    1386,
    1385,
    1385,
    1387,
    1386,
    1388,
    1387,
    1384,
    1387,
    1388,
    1385,
    1384,
    1384,
    1386,
    1386,
    1385,
    1388,
    1383,
    1385,
    1383,
    1385,
    1384,
    1383,
    1385,
    1386,
    1387,
    1388,
    1388,
    1384,
    1383,
    1385,
    1385,
    1388,
    1386,
    1385,
    1387,
    1386,
    1387,
    1387,
    1386,
    1388,
    1124,
    3,
    3,
    3,
    4,
    1074,
    1152,
    6,
    3,
    2,
    15,
    16,
    1,
    1105,
    1106,
    1383,
    1386,
    1165,
    1091,
    1091,
    1092,
    1,
    6,
    1,
    6,
    4,
    1090,
    1165,
    1385,
    1384,
    1385,
    1384,
    1388,
    1386,
    1384,
    1383,
    1384,
    1383,
    1386,
    1388,
    1384,
    1383,
    1386,
    1383,
    1386,
    1388,
    1386,
    1384,
    1385,
    1384,
    1385,
    1385,
    1385,
    1385,
    1384,
    1385,
    1383,
    1384,
    1385,
    1386,
    1386,
    1383,
    1387,
    1384,
    1386,
    1385,
    1386,
    1388,
    1386,
    1383,
    1385,
    1388,
    1385,
    1387,
    1386,
    1386,
    1386,
    1384,
    1387,
    1388,
    1388,
    1387,
    1385,
    1388,
    1384,
    1386,
    1384,
    1388,
    1386,
    1384,
    1384,
    1386,
    1386,
    1388,
    1385,
    1383,
    1385,
    1383,
    1385,
    1388,
    1384,
    1388,
    1384,
    1387,
    1383,
    1384,
    1384,
    1384,
    1384,
    1385,
    1388,
    1383,
    1386,
    1388,
    1387,
    1387,
    1385,
    1388,
    1385,
    1387,
    1388,
    1386,
    1387,
    1383,
    1386,
    1383,
    1163,
    1108,
    2,
    2,
    2,
    4,
    6,
    6,
    4,
    4,
    5,
    3,
    31,
    32,
    3,
    1105,
    1106,
    1386,
    1384,
    1386,
    1387,
    1383,
    1108,
    1109,
    3,
    1,
    1152,
    1105,
    1106,
    1383,
    1388,
    1385,
    1383,
    1386,
    1388,
    1387,
    1388,
    1388,
    1384,
    1383,
    1388,
    1387,
    1386,
    1383,
    1386,
    1387,
    1385,
    1387,
    1387,
    1384,
    1385,
    1385,
    1384,
    1386,
    1385,
    1387,
    1387,
    1385,
    1385,
    1384,
    1385,
    1387,
    1386,
    1384,
    1388,
    1387,
    1383,
    1388,
    1383,
    1388,
    1386,
    1383,
    1387,
    1386,
    1387,
    1163,
    1386,
    1386,
    1385,
    1384,
    1383,
    1384,
    1385,
    1385,
    1388,
    1388,
    1384,
    1384,
    1385,
    1386,
    1386,
    1383,
    1387,
    1387,
    1383,
    1384,
    1386,
    1387,
    1386,
    1387,
    1386,
    1388,
    1386,
    1383,
    1385,
    1386,
    1384,
    1383,
    1384,
    1388,
    1384,
    1385,
    1386,
    1387,
    1383,
    1387,
    1385,
    1387,
    1387,
    1383,
    1388,
    1387,
    1384,
    1384,
    1385,
    1388,
    1386,
    1384,
    1385,
    1124,
    2,
    3,
    4,
    4,
    2,
    5,
    6,
    6,
    13,
    4,
    1,
    3,
    2,
    5,
    1122,
    1123,
    1123,
    1124,
    1121,
    1384,
    1384,
    1092,
    1075,
    5,
    3,
    1090,
    1387,
    1383,
    1388,
    1388,
    1386,
    1383,
    1383,
    1388,
    1383,
    1386,
    1388,
    1388,
    1384,
    1386,
    1388,
    1384,
    1387,
    1386,
    1383,
    1384,
    1388,
    1385,
    1387,
    1384,
    1383,
    1388,
    1388,
    1164,
    1388,
    1384,
    1384,
    1386,
    1383,
    1387,
    1388,
    1385,
    1388,
    1385,
    1385,
    1388,
    1384,
    1386,
    1388,
    1387,
    1388,
    1384,
    1387,
    1386,
    1386,
    1383,
    1383,
    1385,
    1386,
    1386,
    1383,
    1385,
    1385,
    1383,
    1386,
    1385,
    1386,
    1383,
    1383,
    1388,
    1384,
    1388,
    1386,
    1385,
    1386,
    1384,
    1386,
    1386,
    1388,
    1384,
    1387,
    1387,
    1388,
    1385,
    1388,
    1386,
    1386,
    1383,
    1387,
    1383,
    1383,
    1383,
    1384,
    1387,
    1383,
    1385,
    1385,
    1383,
    1385,
    1385,
    1384,
    1386,
    1386,
    1386,
    1387,
    1385,
    1108,
    3,
    3,
    3,
    3,
    1,
    6,
    1,
    1,
    6,
    6,
    5,
    3,
    5,
    4,
    6,
    3,
    1,
    4,
    1152,
    1089,
    1384,
    1383,
    1165,
    1091,
    1092,
    1090,
    1387,
    1388,
    1383,
    1385,
    1384,
    1387,
    1388,
    1384,
    1385,
    1386,
    1384,
    1383,
    1384,
    1384,
    1385,
    1385,
    1388,
    1385,
    1386,
    1386,
    1384,
    1386,
    1387,
    1387,
    1388,
    1387,
    1383,
    1386,
    1388,
    1384,
    1387,
    1388,
    1388,
    1386,
    1383,
    1386,
    1385,
    1388,
    1384,
    1384,
    1385,
    1383,
    1386,
    1387,
    1386,
    1388,
    1387,
    1383,
    1388,
    1385,
    1386,
    1383,
    1386,
    1384,
    1384,
    1383,
    1388,
    1385,
    1385,
    1385,
    1383,
    1384,
    1384,
    1387,
    1383,
    1384,
    1384,
    1385,
    1384,
    1383,
    1383,
    1387,
    1388,
    1384,
    1387,
    1385,
    1384,
    1386,
    1387,
    1383,
    1383,
    1385,
    1387,
    1386,
    1387,
    1384,
    1384,
    1383,
    1384,
    1383,
    1386,
    1384,
    1383,
    1385,
    1388,
    1384,
    1386,
    1386,
    1385,
    1385,
    1165,
    1124,
    3,
    3,
    2,
    3,
    4,
    4,
    4,
    1,
    1,
    4,
    5,
    3,
    3,
    1,
    4,
    2,
    5,
    1,
    1090,
    1163,
    1386,
    1387,
    1388,
    1383,
    1164,
    1388,
    1387,
    1388,
    1384,
    1383,
    1385,
    1383,
    1383,
    1384,
    1384,
    1384,
    1164,
    1385,
    1385,
    1385,
    1385,
    1385,
    1385,
    1388,
    1387,
    1386,
    1386,
    1384,
    1387,
    1383,
    1384,
    1385,
    1385,
    1383,
    1387,
    1387,
    1388,
    1383,
    1384,
    1383,
    1384,
    1383,
    1383,
    1383,
    1385,
    1383,
    1385,
    1385,
    1387,
    1385,
    1384,
    1383,
    1388,
    1385,
    1386,
    1385,
    1388,
    1386,
    1387,
    1387,
    1385,
    1387,
    1387,
    1384,
    1385,
    1385,
    1384,
    1388,
    1388,
    1385,
    1386,
    1388,
    1386,
    1384,
    1388,
    1384,
    1388,
    1388,
    1383,
    1386,
    1384,
    1385,
    1383,
    1386,
    1387,
    1384,
    1386,
    1388,
    1388,
    1387,
    1384,
    1384,
    1383,
    1385,
    1387,
    1386,
    1165,
    1384,
    1384,
    1384,
    1386,
    1383,
    1384,
    1388,
    1383,
    1388,
    1108,
    3,
    1,
    3,
    6,
    1,
    3,
    5,
    2,
    3,
    6,
    1,
    5,
    6,
    2,
    1,
    4,
    15,
    16,
    1105,
    1106,
    1385,
    1386,
    1387,
    1387,
    1383,
    1383,
    1384,
    1387,
    1387,
    1384,
    1385,
    1384,
    1384,
    1387,
    1385,
    1385,
    1384,
    1387,
    1383,
    1387,
    1388,
    1388,
    1388,
    1388,
    1163,
    1386,
    1388,
    1383,
    1386,
    1388,
    1386,
    1388,
    1388,
    1383,
    1388,
    1386,
    1386,
    1385,
    1383,
    1385,
    1388,
    1384,
    1383,
    1383,
    1387,
    1163,
    1386,
    1387,
    1386,
    1387,
    1388,
    1388,
    1384,
    1384,
    1386,
    1386,
    1386,
    1386,
    1386,
    1386,
    1387,
    1385,
    1163,
    1384,
    1386,
    1385,
    1386,
    1388,
    1384,
    1384,
    1386,
    1387,
    1387,
    1383,
    1388,
    1387,
    1387,
    1384,
    1383,
    1384,
    1388,
    1385,
    1387,
    1387,
    1384,
    1383,
    1388,
    1386,
    1388,
    1388,
    1383,
    1387,
    1384,
    1388,
    1386,
    1385,
    1387,
    1387,
    1385,
    1388,
    1383,
    1385,
    1388,
    1386,
    1383,
    1163,
    1123,
    1124,
    4,
    15,
    16,
    2,
    4,
    5,
    3,
    1,
    4,
    3,
    4,
    4,
    4,
    3,
    2,
    2,
    31,
    32,
    1105,
    1106,
    1388,
    1383,
    1384,
    1383,
    1387,
    1385,
    1384,
    1387,
    1385,
    1386,
    1385,
    1383,
    1387,
    1386,
    1385,
    1387,
    1388,
    1387,
    1388,
    1385,
    1386,
    1383,
    1388,
    1383,
    1386,
    1385,
    1385,
    1383,
    1387,
    1386,
    1386,
    1386,
    1383,
    1386,
    1385,
    1388,
    1388,
    1387,
    1388,
    1388,
    1387,
    1388,
    1386,
    1385,
    1383,
    1383,
    1387,
    1387,
    1384,
    1388,
    1384,
    1387,
    1385,
    1383,
    1384,
    1388,
    1383,
    1383,
    1385,
    1387,
    1384,
    1383,
    1385,
    1383,
    1384,
    1384,
    1385,
    1385,
    1384,
    1383,
    1383,
    1387,
    1388,
    1388,
    1384,
    1388,
    1385,
    1387,
    1386,
    1388,
    1384,
    1388,
    1384,
    1387,
    1386,
    1385,
    1385,
    1386,
    1384,
    1387,
    1383,
    1386,
    1387,
    1385,
    1388,
    1383,
    1385,
    1385,
    1385,
    1388,
    1384,
    1387,
    1383,
    1387,
    1164,
    1124,
    4,
    5,
    1,
    31,
    32,
    4,
    5,
    1,
    5,
    2,
    5,
    3,
    6,
    5,
    1,
    3,
    5,
    4,
    1,
    4,
    3,
    1122,
    1388,
    1383,
    1383,
    1387,
    1384,
    1383,
    1383,
    1385,
    1383,
    1387,
    1387,
    1387,
    1388,
    1388,
    1387,
    1384,
    1388,
    1388,
    1387,
    1385,
    1388,
    1384,
    1384,
    1386,
    1384,
    1383,
    1385,
    1388,
    1388,
    1387,
    1383,
    1383,
    1385,
    1387,
    1386,
    1384,
    1383,
    1386,
    1387,
    1385,
    1388,
    1387,
    1385,
    1387,
    1388,
    1384,
    1385,
    1384,
    1385,
    1386,
    1387,
    1383,
    1387,
    1386,
    1384,
    1384,
    1383,
    1383,
    1386,
    1384,
    1384,
    1383,
    1384,
    1384,
    1383,
    1385,
    1384,
    1383,
    1388,
    1383,
    1387,
    1387,
    1385,
    1384,
    1387,
    1387,
    1385,
    1386,
    1386,
    1383,
    1388,
    1386,
    1388,
    1385,
    1388,
    1386,
    1385,
    1385,
    1387,
    1383,
    1387,
    1387,
    1385,
    1388,
    1384,
    1387,
    1388,
    1388,
    1387,
    1388,
    1384,
    1386,
    1383,
    1388,
    1108,
    1,
    4,
    1,
    6,
    1,
    2,
    13,
    6,
    1,
    1,
    1,
    2,
    1,
    3,
    6,
    3,
    2,
    4,
    2,
    5,
    6,
    6,
    2,
    1121,
    1165,
    1384,
    1387,
    1383,
    1386,
    1386,
    1388,
    1385,
    1387,
    1386,
    1384,
    1383,
    1385,
    1385,
    1388,
    1384,
    1385,
    1387,
    1388,
    1388,
    1383,
    1386,
    1385,
    1383,
    1388,
    1164,
    1387,
    1383,
    1386,
    1383,
    1388,
    1385,
    1386,
    1387,
    1384,
    1386,
    1386,
    1384,
    1386,
    1386,
    1387,
    1387,
    1383,
    1388,
    1388,
    1387,
    1384,
    1383,
    1383,
    1388,
    1383,
    1387,
    1384,
    1385,
    1383,
    1388,
    1386,
    1385,
    1387,
    1387,
    1385,
    1386,
    1387,
    1385,
    1385,
    1383,
    1385,
    1388,
    1388,
    1387,
    1386,
    1386,
    1387,
    1387,
    1388,
    1385,
    1384,
    1385,
    1384,
    1385,
    1387,
    1387,
    1383,
    1383,
    1384,
    1386,
    1385,
    1383,
    1384,
    1385,
    1388,
    1385,
    1387,
    1384,
    1388,
    1386,
    1388,
    1385,
    1387,
    1388,
    1165,
    1123,
    1123,
    1124,
    1,
    5,
    2,
    6,
    3,
    5,
    4,
    5,
    4,
    4,
    2,
    4,
    1,
    3,
    2,
    4,
    1,
    1,
    3,
    2,
    13,
    5,
    5,
    1089,
    1383,
    1384,
    1386,
    1383,
    1388,
    1384,
    1387,
    1388,
    1388,
    1386,
    1383,
    1383,
    1383,
    1388,
    1385,
    1385,
    1385,
    1388,
    1383,
    1386,
    1386,
    1388,
    1386,
    1384,
    1384,
    1386,
    1387,
    1384,
    1386,
    1386,
    1383,
    1386,
    1388,
    1383,
    1384,
    1386,
    1385,
    1384,
    1384,
    1386,
    1388,
    1388,
    1386,
    1388,
    1388,
    1385,
    1385,
    1383,
    1383,
    1387,
    1386,
    1385,
    1385,
    1386,
    1386,
    1383,
    1387,
    1383,
    1383,
    1388,
    1383,
    1386,
    1388,
    1383,
    1386,
    1388,
    1385,
    1386,
    1384,
    1386,
    1385,
    1387,
    1388,
    1387,
    1387,
    1385,
    1385,
    1388,
    1385,
    1383,
    1383,
    1388,
    1386,
    1384,
    1386,
    1388,
    1383,
    1387,
    1387,
    1383,
    1383,
    1388,
    1388,
    1384,
    1383,
    1387,
    1387,
    1385,
    1386,
    1383,
    1124,
    15,
    16,
    6,
    4,
    2,
    4,
    4,
    6,
    2,
    5,
    2,
    1,
    6,
    4,
    6,
    4,
    1,
    1,
    2,
    1,
    4,
    1,
    4,
    3,
    2,
    1090,
    1383,
    1387,
    1387,
    1385,
    1383,
    1386,
    1386,
    1384,
    1388,
    1388,
    1383,
    1386,
    1387,
    1383,
    1386,
    1383,
    1384,
    1387,
    1387,
    1388,
    1385,
    1383,
    1384,
    1387,
    1387,
    1384,
    1387,
    1385,
    1386,
    1386,
    1385,
    1387,
    1388,
    1383,
    1386,
    1384,
    1386,
    1387,
    1388,
    1387,
    1384,
    1384,
    1384,
    1383,
    1383,
    1385,
    1386,
    1388,
    1383,
    1384,
    1386,
    1388,
    1388,
    1384,
    1387,
    1383,
    1385,
    1385,
    1383,
    1385,
    1386,
    1383,
    1388,
    1384,
    1385,
    1387,
    1383,
    1384,
    1385,
    1385,
    1387,
    1385,
    1384,
    1383,
    1383,
    1383,
    1385,
    1387,
    1383,
    1387,
    1383,
    1384,
    1385,
    1388,
    1384,
    1387,
    1386,
    1385,
    1387,
    1388,
    1385,
    1383,
    1384,
    1388,
    1385,
    1387,
    1388,
    1387,
    1383,
    1387,
    1108,
    1109,
    31,
    32,
    1,
    5,
    1,
    6,
    3,
    4,
    4,
    3,
    6,
    6,
    2,
    6,
    1,
    1090,
    1092,
    1,
    1,
    6,
    5,
    4,
    3,
    5,
    1105,
    1106,
    1386,
    1383,
    1386,
    1386,
    1384,
    1383,
    1384,
    1385,
    1387,
    1385,
    1383,
    1387,
    1384,
    1387,
    1383,
    1385,
    1385,
    1384,
    1387,
    1388,
    1388,
    1385,
    1384,
    1163,
    1385,
    1386,
    1387,
    1384,
    1386,
    1383,
    1386,
    1386,
    1388,
    1388,
    1387,
    1387,
    1388,
    1384,
    1385,
    1384,
    1386,
    1388,
    1388,
    1386,
    1383,
    1386,
    1387,
    1387,
    1384,
    1384,
    1386,
    1388,
    1385,
    1386,
    1387,
    1385,
    1386,
    1386,
    1385,
    1388,
    1388,
    1386,
    1165,
    1385,
    1386,
    1388,
    1388,
    1386,
    1388,
    1383,
    1164,
    1384,
    1385,
    1388,
    1386,
    1388,
    1386,
    1388,
    1163,
    1386,
    1385,
    1383,
    1384,
    1385,
    1388,
    1384,
    1384,
    1388,
    1387,
    1387,
    1385,
    1385,
    1383,
    1385,
    1388,
    1385,
    1388,
    1383,
    1386,
    1383,
    1384,
    1092,
    4,
    13,
    4,
    5,
    4,
    3,
    4,
    2,
    3,
    4,
    4,
    2,
    1,
    928,
    1090,
    1182,
    1383,
    1091,
    1091,
    1092,
    1,
    1090,
    1092,
    1152,
    3,
    1121,
    1386,
    1387,
    1385,
    1385,
    1388,
    1385,
    1383,
    1387,
    1383,
    1387,
    1387,
    1386,
    1387,
    1384,
    1385,
    1387,
    1384,
    1386,
    1388,
    1384,
    1387,
    1385,
    1388,
    1387,
    1385,
    1383,
    1387,
    1384,
    1383,
    1387,
    1388,
    1388,
    1387,
    1388,
    1384,
    1386,
    1385,
    1385,
    1383,
    1388,
    1383,
    1386,
    1387,
    1384,
    1385,
    1384,
    1385,
    1383,
    1385,
    1383,
    1388,
    1383,
    1383,
    1383,
    1387,
    1386,
    1383,
    1384,
    1386,
    1388,
    1386,
    1387,
    1385,
    1388,
    1386,
    1388,
    1387,
    1384,
    1388,
    1388,
    1383,
    1388,
    1384,
    1385,
    1386,
    1147,
    1388,
    1388,
    1383,
    1385,
    1385,
    1387,
    1385,
    1384,
    1386,
    1387,
    1388,
    1388,
    1383,
    1383,
    1386,
    1383,
    1387,
    1383,
    1383,
    1384,
    1387,
    1383,
    1388,
    1386,
    1384,
    1124,
    2,
    5,
    1,
    6,
    3,
    5,
    2,
    3,
    2,
    1090,
    1091,
    1092,
    1152,
    1105,
    1106,
    731,
    732,
    1384,
    1383,
    1384,
    1091,
    1384,
    1385,
    1093,
    1075,
    1089,
    1164,
    1387,
    1384,
    1383,
    1387,
    1384,
    1388,
    1386,
    1387,
    1386,
    1383,
    1387,
    1384,
    1164,
    1385,
    1385,
    1388,
    1385,
    1386,
    1387,
    1387,
    1387,
    1386,
    1388,
    1386,
    1384,
    1383,
    1384,
    1384,
    1163,
    1386,
    1385,
    1383,
    1385,
    1388,
    1384,
    1383,
    1383,
    1387,
    1385,
    1386,
    1387,
    1388,
    1388,
    1383,
    1385,
    1386,
    1387,
    1388,
    1388,
    1163,
    1386,
    1383,
    1386,
    1387,
    1383,
    1386,
    1383,
    1387,
    1386,
    1388,
    1385,
    1387,
    1383,
    1385,
    1385,
    1385,
    1388,
    1384,
    1386,
    1384,
    1384,
    1385,
    1384,
    1388,
    1384,
    1387,
    1383,
    1182,
    1150,
    1151,
    1164,
    1384,
    1385,
    1384,
    1385,
    1383,
    1385,
    1387,
    1383,
    1385,
    1388,
    1385,
    1386,
    1388,
    1388,
    1386,
    1388,
    1384,
    1386,
    1108,
    1109,
    1,
    4,
    4,
    3,
    2,
    4,
    4,
    4,
    1105,
    1106,
    1147,
    1383,
    1093,
    1089,
    1165,
    747,
    748,
    1383,
    1384,
    1385,
    1388,
    1383,
    927,
    1165,
    1091,
    1385,
    1385,
    927,
    1385,
    1387,
    1386,
    1387,
    1383,
    1387,
    1384,
    1383,
    1387,
    1386,
    1387,
    1383,
    1387,
    1384,
    1388,
    1384,
    1383,
    1383,
    1388,
    1386,
    1388,
    1387,
    1388,
    1383,
    1385,
    1385,
    1388,
    1383,
    1383,
    1387,
    1386,
    1383,
    1388,
    1387,
    1386,
    1386,
    1388,
    1385,
    1388,
    1383,
    1385,
    1384,
    1383,
    1384,
    1384,
    1388,
    1387,
    1385,
    1164,
    1388,
    1386,
    1386,
    1387,
    1388,
    1383,
    1388,
    1384,
    1388,
    1385,
    1385,
    1383,
    1386,
    1385,
    1385,
    1386,
    1385,
    1388,
    1388,
    1388,
    1386,
    1388,
    1385,
    1388,
    1384,
    731,
    732,
    1147,
    1166,
    1167,
    731,
    732,
    1386,
    1385,
    1385,
    1182,
    1388,
    1387,
    1383,
    1386,
    1384,
    1383,
    1388,
    1385,
    1388,
    1384,
    1387,
    1383,
    1164,
    1124,
    3,
    2,
    5,
    3,
    3,
    5,
    6,
    4,
    4,
    2,
    1122,
    1387,
    1150,
    1151,
    11,
    1182,
    1147,
    1182,
    1383,
    1388,
    1383,
    927,
    731,
    732,
    1384,
    731,
    732,
    1387,
    1383,
    1383,
    1383,
    1387,
    1383,
    1387,
    1384,
    1387,
    1383,
    1387,
    1384,
    1383,
    1387,
    1383,
    1387,
    1384,
    1383,
    1383,
    1386,
    1388,
    1385,
    1385,
    1385,
    1384,
    1383,
    1388,
    1386,
    1385,
    1383,
    1384,
    1388,
    1386,
    1388,
    1384,
    1385,
    1387,
    1387,
    1383,
    1383,
    1387,
    1386,
    1386,
    1385,
    1386,
    1386,
    1387,
    1388,
    1384,
    1388,
    1386,
    1386,
    1383,
    1385,
    1385,
    1388,
    1385,
    1384,
    1385,
    1383,
    1388,
    1383,
    1388,
    1384,
    1384,
    1387,
    1386,
    1386,
    1383,
    1387,
    1386,
    1383,
    1387,
    1147,
    731,
    732,
    747,
    748,
    1123,
    1123,
    1182,
    747,
    748,
    1385,
    1383,
    1383,
    1388,
    1386,
    1384,
    1388,
    1383,
    1163,
    1383,
    1388,
    1383,
    1386,
    1385,
    1386,
    1384,
    1108,
    1109,
    1,
    3,
    5,
    2,
    15,
    16,
    1,
    4,
    4,
    2,
    928,
    1122,
    1166,
    1167,
    1147,
    731,
    732,
    1383,
    1387,
    1387,
    1150,
    1151,
    747,
    748,
    1182,
    747,
    748,
    1384,
    927,
    1383,
    1387,
    1384,
    1387,
    1386,
    1387,
    1384,
    1387,
    1386,
    1387,
    1387,
    1383,
    1387,
    1384,
    1385,
    1387,
    1383,
    1385,
    1384,
    1386,
    1385,
    1383,
    1383,
    1383,
    1385,
    1385,
    1384,
    1386,
    1388,
    1386,
    1384,
    1387,
    1387,
    1383,
    1387,
    1386,
    1383,
    1386,
    1385,
    1383,
    1386,
    1384,
    1388,
    1384,
    1386,
    1385,
    1383,
    1385,
    1384,
    1384,
    1388,
    1386,
    1383,
    1386,
    1386,
    1383,
    1387,
    1387,
    1386,
    1386,
    1386,
    1386,
    1387,
    1387,
    1386,
    1386,
    1386,
    1385,
    1384,
    1388,
    1125,
    1121,
    747,
    748,
    1387,
    1124,
    47,
    1074,
    1122,
    1165,
    1182,
    1383,
    1182,
    1385,
    1387,
    1385,
    1386,
    1384,
    1386,
    1384,
    1388,
    1383,
    1386,
    1387,
    1383,
    1386,
    1385,
    1384,
    1092,
    1152,
    6,
    5,
    3,
    31,
    32,
    4,
    2,
    6,
    2,
    5,
    1105,
    1106,
    731,
    732,
    747,
    748,
    1387,
    1388,
    1147,
    1166,
    1167,
    1147,
    731,
    732,
    1147,
    1182,
    731,
    732,
    1387,
    1386,
    1387,
    1388,
    1383,
    1386,
    1387,
    1384,
    1387,
    1383,
    1383,
    1387,
    1384,
    1387,
    1387,
    1383,
    1388,
    1383,
    1387,
    1387,
    1386,
    1384,
    1387,
    1384,
    1388,
    1388,
    1387,
    1385,
    1384,
    1384,
    1385,
    1384,
    1387,
    1384,
    1386,
    1386,
    1385,
    1384,
    1385,
    1388,
    1387,
    1387,
    1388,
    1386,
    1386,
    1383,
    1385,
    1385,
    1385,
    1386,
    1386,
    1388,
    1383,
    1385,
    1383,
    1386,
    1388,
    1388,
    1387,
    1385,
    1386,
    1383,
    1383,
    1388,
    1387,
    1384,
    1384,
    1384,
    1386,
    1384,
    1093,
    1,
    1122,
    1123,
    1124,
    2,
    6,
    3,
    4,
    1122,
    1123,
    1147,
    1182,
    1386,
    1384,
    1182,
    1387,
    1384,
    1388,
    1385,
    1388,
    1383,
    1387,
    1388,
    1388,
    1387,
    1387,
    1388,
    1386,
    1093,
    14,
    1,
    3,
    2,
    4,
    6,
    4,
    1,
    1,
    4,
    1090,
    1182,
    747,
    748,
    1123,
    1123,
    1383,
    1383,
    731,
    732,
    1182,
    11,
    747,
    748,
    731,
    732,
    747,
    748,
    1388,
    1383,
    1386,
    1383,
    1385,
    1387,
    1386,
    1387,
    1386,
    1387,
    1387,
    1386,
    1387,
    1386,
    1387,
    1388,
    1388,
    1163,
    1386,
    1386,
    1388,
    1386,
    1385,
    1385,
    1383,
    1388,
    1385,
    1387,
    1384,
    1387,
    1384,
    1386,
    1384,
    1384,
    1384,
    1385,
    1383,
    1387,
    1388,
    1387,
    1383,
    1384,
    1388,
    1383,
    1385,
    1387,
    1383,
    1388,
    1384,
    1384,
    1384,
    1385,
    1386,
    1383,
    1386,
    1386,
    1165,
    1383,
    1387,
    1385,
    1383,
    1384,
    1387,
    1386,
    1385,
    1383,
    1385,
    1387,
    1384,
    1165,
    1384,
    1092,
    5,
    1,
    4,
    6,
    1,
    4,
    5,
    4,
    4,
    1122,
    1383,
    731,
    732,
    1384,
    1125,
    1121,
    1384,
    1386,
    1384,
    1385,
    1388,
    1386,
    1388,
    1384,
    1383,
    1383,
    1386,
    1388,
    1092,
    13,
    5,
    4,
    2,
    2,
    6,
    3,
    1,
    1,
    1122,
    1123,
    1123,
    1124,
    2,
    1152,
    1121,
    1164,
    747,
    748,
    1150,
    1151,
    1147,
    1182,
    747,
    748,
    1150,
    1151,
    1383,
    1385,
    733,
    1123,
    1383,
    1385,
    1387,
    1386,
    1383,
    1388,
    1164,
    1383,
    1386,
    1387,
    1386,
    1384,
    1384,
    1385,
    1386,
    1384,
    1385,
    1387,
    1385,
    1383,
    1383,
    1384,
    1386,
    1384,
    1388,
    1385,
    1386,
    1384,
    1383,
    1383,
    1388,
    1383,
    1388,
    1386,
    1383,
    1386,
    1386,
    1384,
    1384,
    1386,
    1385,
    1385,
    1387,
    1388,
    1387,
    1383,
    1388,
    1388,
    1385,
    1385,
    1388,
    1385,
    1163,
    1387,
    1383,
    1386,
    1384,
    1385,
    1386,
    1386,
    1383,
    1386,
    1384,
    1385,
    1383,
    1387,
    1182,
    1124,
    47,
    3,
    1,
    5,
    2,
    6,
    1,
    6,
    6,
    6,
    1122,
    747,
    748,
    1108,
    1109,
    3,
    1122,
    1123,
    1123,
    1387,
    1388,
    1388,
    1386,
    1385,
    1386,
    1385,
    1163,
    1388,
    1108,
    1,
    6,
    3,
    6,
    4,
    6,
    3,
    3,
    2,
    3,
    1,
    717,
    3,
    3,
    6,
    1,
    1122,
    1383,
    1383,
    1166,
    1167,
    731,
    732,
    1147,
    1182,
    1166,
    1167,
    1385,
    1165,
    1124,
    3,
    1121,
    1163,
    1385,
    1387,
    1385,
    1383,
    1383,
    1385,
    1165,
    1124,
    1387,
    1386,
    1387,
    1383,
    1388,
    1383,
    1385,
    1386,
    1385,
    1385,
    1386,
    1388,
    1386,
    1386,
    1383,
    1383,
    1384,
    1384,
    1383,
    1383,
    1386,
    1383,
    1387,
    1383,
    1387,
    1383,
    1383,
    1386,
    1385,
    1388,
    1384,
    1385,
    1386,
    1387,
    1386,
    1383,
    1383,
    1383,
    1385,
    1384,
    1386,
    1387,
    1388,
    1384,
    1386,
    1388,
    1387,
    1385,
    1388,
    1385,
    1388,
    1386,
    1384,
    1387,
    1386,
    1385,
    1124,
    1,
    1,
    6,
    5,
    1,
    15,
    16,
    13,
    5,
    4,
    3,
    1105,
    1106,
    1164,
    1124,
    6,
    4,
    1,
    1152,
    6,
    1122,
    1123,
    1165,
    1386,
    1388,
    1388,
    1385,
    1385,
    1165,
    1124,
    3,
    5,
    2,
    2,
    6,
    4,
    2,
    3,
    1,
    1,
    1,
    3,
    1,
    5,
    4,
    3,
    6,
    1121,
    1182,
    1385,
    1147,
    747,
    748,
    1182,
    731,
    732,
    1385,
    1385,
    1124,
    4,
    3,
    5,
    1122,
    1123,
    1123,
    1124,
    1122,
    1123,
    1123,
    1124,
    3,
    1385,
    1383,
    1385,
    1386,
    1384,
    1386,
    1385,
    1384,
    1388,
    1385,
    1387,
    1385,
    1383,
    1388,
    1386,
    1387,
    1387,
    1386,
    1386,
    1383,
    1384,
    1388,
    1385,
    1386,
    1385,
    1386,
    1386,
    1386,
    1383,
    1383,
    1388,
    1388,
    1386,
    1385,
    1385,
    1384,
    1383,
    1385,
    1383,
    1386,
    1385,
    1384,
    1386,
    1383,
    1386,
    1387,
    1388,
    1384,
    1385,
    1386,
    1388,
    1388,
    1385,
    1387,
    1387,
    1125,
    1152,
    1,
    3,
    3,
    5,
    1,
    31,
    32,
    6,
    2,
    5,
    3,
    5,
    1122,
    1124,
    3,
    4,
    4,
    4,
    6,
    5,
    6,
    4,
    1122,
    1123,
    1164,
    1386,
    1385,
    1387,
    1125,
    4,
    6,
    5,
    4,
    4,
    2,
    3,
    4,
    5,
    3,
    4,
    1,
    5,
    6,
    3,
    5,
    6,
    1,
    1105,
    1106,
    731,
    732,
    1388,
    1163,
    1385,
    747,
    748,
    11,
    1108,
    1109,
    1152,
    3,
    5,
    3,
    6,
    3,
    5,
    5,
    6,
    1,
    4,
    13,
    1383,
    1384,
    1387,
    1387,
    1387,
    1385,
    1383,
    1384,
    1386,
    1383,
    1383,
    1384,
    1388,
    1388,
    1386,
    1388,
    1387,
    1383,
    1384,
    1386,
    1383,
    1383,
    1385,
    1386,
    1384,
    1387,
    1387,
    1384,
    1385,
    1384,
    1388,
    1386,
    1386,
    1388,
    1387,
    1383,
    1386,
    1386,
    1386,
    1383,
    1386,
    1387,
    1388,
    1387,
    1386,
    1386,
    1383,
    1388,
    1164,
    1388,
    1386,
    1384,
    1388,
    1182,
    1388,
    1093,
    4,
    4,
    3,
    6,
    5,
    6,
    5,
    3,
    4,
    3,
    5,
    5,
    3,
    6,
    3,
    6,
    4,
    13,
    1,
    4,
    1,
    5,
    4,
    5,
    5,
    1122,
    1123,
    1123,
    1124,
    4,
    5,
    15,
    16,
    6,
    1,
    3,
    3,
    1,
    3,
    2,
    1,
    2,
    15,
    16,
    2,
    3,
    1,
    3,
    1105,
    1106,
    747,
    748,
    1385,
    1384,
    1182,
    1384,
    1385,
    1388,
    1165,
    1092,
    3,
    3,
    2,
    1,
    6,
    1,
    4,
    5,
    4,
    4,
    15,
    16,
    1387,
    1387,
    1387,
    1165,
    1386,
    1384,
    1385,
    1386,
    1385,
    1388,
    1163,
    1385,
    1385,
    1385,
    1384,
    1386,
    1386,
    1384,
    1388,
    1384,
    1384,
    1385,
    1383,
    1383,
    1388,
    1384,
    1383,
    1388,
    1384,
    1388,
    1163,
    1388,
    1388,
    1386,
    1387,
    1386,
    1386,
    1386,
    1384,
    1386,
    1386,
    1385,
    1386,
    1388,
    1383,
    1386,
    1386,
    1387,
    1386,
    1387,
    1388,
    1384,
    1387,
    1385,
    1386,
    1386,
    1092,
    6,
    1,
    2,
    4,
    3,
    4,
    6,
    2,
    6,
    5,
    15,
    16,
    1,
    4,
    5,
    3,
    5,
    6,
    5,
    15,
    16,
    6,
    5,
    3,
    4,
    5,
    5,
    5,
    4,
    4,
    31,
    32,
    1,
    2,
    2,
    1,
    5,
    5,
    5,
    3,
    3,
    31,
    32,
    5,
    2,
    6,
    4,
    1089,
    1387,
    1386,
    1385,
    1387,
    1388,
    1383,
    1150,
    1151,
    1385,
    1383,
    1108,
    1109,
    3,
    1,
    2,
    2,
    5,
    4,
    1,
    3,
    5,
    31,
    32,
    1384,
    1385,
    1125,
    1121,
    1388,
    1386,
    1387,
    1384,
    1386,
    1383,
    1387,
    1386,
    1384,
    1384,
    1385,
    1383,
    1385,
    1388,
    1385,
    1383,
    1384,
    1383,
    1387,
    1163,
    1384,
    1385,
    1386,
    1387,
    1388,
    1385,
    1385,
    1387,
    1386,
    1384,
    1384,
    1383,
    1387,
    1388,
    1383,
    1385,
    1388,
    1388,
    1387,
    1388,
    1387,
    1384,
    1384,
    1385,
    1383,
    1384,
    1387,
    1384,
    1388,
    1385,
    1383,
    1165,
    1108,
    5,
    1,
    5,
    3,
    6,
    1,
    4,
    6,
    1,
    2,
    31,
    32,
    5,
    4,
    2,
    3,
    6,
    1,
    1,
    31,
    32,
    4,
    4,
    4,
    6,
    1,
    15,
    16,
    3,
    1,
    1,
    4,
    5,
    1,
    1,
    4,
    2,
    6,
    6,
    6,
    4,
    13,
    3,
    6,
    1,
    2,
    1090,
    1164,
    11,
    1385,
    1385,
    1182,
    1387,
    1383,
    1166,
    1167,
    1388,
    1385,
    1108,
    1109,
    1,
    1,
    6,
    6,
    5,
    4,
    5,
    6,
    5,
    1,
    5,
    1165,
    1124,
    15,
    16,
    1122,
    1123,
    1164,
    1383,
    1385,
    1388,
    1386,
    1383,
    1388,
    1387,
    1385,
    1386,
    1383,
    1386,
    1387,
    1387,
    1388,
    1388,
    1387,
    1383,
    1384,
    1388,
    1388,
    1383,
    1383,
    1388,
    1383,
    1386,
    1387,
    1383,
    1385,
    1384,
    1387,
    1386,
    1384,
    1388,
    1387,
    1388,
    1388,
    1383,
    1383,
    1385,
    1165,
    1385,
    1384,
    1385,
    1383,
    1388,
    1383,
    1385,
    1383,
    1163,
    1108,
    5,
    4,
    2,
    5,
    2,
    5,
    3,
    3,
    4,
    2,
    4,
    4,
    3,
    2,
    6,
    6,
    5,
    4,
    2,
    5,
    5,
    2,
    5,
    5,
    6,
    6,
    31,
    32,
    4,
    5,
    1,
    6,
    1,
    2,
    3,
    1,
    6,
    3,
    2,
    2,
    2,
    5,
    4,
    1090,
    1091,
    1091,
    1388,
    1385,
    1384,
    1388,
    1388,
    1387,
    1384,
    1386,
    1385,
    1385,
    1384,
    1384,
    1124,
    2,
    5,
    6,
    2,
    3,
    1,
    3,
    6,
    1,
    6,
    3,
    5,
    1108,
    1152,
    31,
    32,
    6,
    2,
    1122,
    1123,
    1123,
    1163,
    1387,
    1383,
    1386,
    1386,
    1385,
    1384,
    1383,
    1387,
    1388,
    1385,
    1388,
    1383,
    1388,
    1386,
    1384,
    1387,
    1384,
    1386,
    1386,
    1383,
    1384,
    1386,
    1387,
    1383,
    1388,
    1385,
    1386,
    1388,
    1385,
    1384,
    1387,
    1386,
    1386,
    1386,
    1387,
    1386,
    1386,
    1388,
    1384,
    1384,
    1385,
    1386,
    1383,
    1164,
    1387,
    1385,
    1124,
    3,
    5,
    3,
    6,
    3,
    1139,
    1,
    1152,
    2,
    6,
    1154,
    1156,
    6,
    1,
    4,
    6,
    2,
    6,
    2,
    2,
    3,
    1,
    6,
    6,
    4,
    13,
    4,
    6,
    6,
    1,
    5,
    5,
    4,
    4,
    6,
    2,
    5,
    6,
    3,
    1,
    3,
    1152,
    1090,
    1165,
    1385,
    733,
    1385,
    1182,
    1383,
    1150,
    1151,
    1387,
    733,
    1387,
    1388,
    1386,
    1164,
    1124,
    1,
    4,
    13,
    6,
    3,
    3,
    6,
    3,
    5,
    5,
    4,
    4,
    1,
    1124,
    2,
    1,
    1,
    4,
    3,
    3,
    4,
    6,
    1122,
    1386,
    1388,
    1383,
    1385,
    1387,
    1383,
    1384,
    1383,
    1385,
    1383,
    1385,
    1383,
    1385,
    1388,
    1383,
    1383,
    1385,
    1386,
    1384,
    1388,
    1384,
    1388,
    1383,
    1385,
    1383,
    1386,
    1385,
    1388,
    1388,
    1163,
    1385,
    1388,
    1388,
    1387,
    1387,
    1387,
    1386,
    1385,
    1385,
    1385,
    1388,
    1387,
    1387,
    1123,
    1123,
    1124,
    1,
    6,
    4,
    3,
    6,
    1154,
    1155,
    1156,
    1139,
    1139,
    1153,
    1319,
    703,
    1157,
    1139,
    1139,
    2,
    2,
    3,
    5,
    5,
    6,
    5,
    1,
    2,
    5,
    2,
    6,
    2,
    1,
    6,
    6,
    5,
    5,
    5,
    3,
    2,
    3,
    4,
    4,
    6,
    1,
    1090,
    1386,
    1386,
    1384,
    1150,
    1151,
    1387,
    1147,
    1166,
    1167,
    1387,
    731,
    732,
    1386,
    1386,
    1125,
    3,
    4,
    5,
    1,
    3,
    6,
    2,
    6,
    5,
    1,
    4,
    3,
    2,
    1,
    4,
    4,
    4,
    4,
    2,
    4,
    3,
    2,
    5,
    1105,
    1106,
    1383,
    1385,
    1387,
    1164,
    1386,
    1383,
    1387,
    1383,
    1384,
    1385,
    1388,
    1386,
    1386,
    1388,
    1383,
    1384,
    1385,
    1386,
    1383,
    1385,
    1164,
    1387,
    1385,
    1386,
    1387,
    1384,
    1383,
    1386,
    1385,
    1385,
    1383,
    1387,
    1383,
    1387,
    1388,
    1387,
    1388,
    1388,
    1386,
    1384,
    1123,
    1124,
    4,
    1152,
    6,
    2,
    6,
    6,
    1139,
    1153,
    703,
    703,
    703,
    1155,
    1155,
    1304,
    703,
    719,
    368,
    1155,
    1155,
    1156,
    4,
    6,
    1152,
    5,
    2,
    1139,
    6,
    4,
    3,
    6,
    5,
    3,
    3,
    3,
    4,
    4,
    4,
    5,
    2,
    5,
    5,
    6,
    4,
    4,
    1105,
    1106,
    1163,
    1383,
    1385,
    1166,
    1167,
    731,
    732,
    1182,
    1163,
    733,
    747,
    748,
    733,
    1384,
    1093,
    1152,
    2,
    2,
    15,
    16,
    2,
    1,
    6,
    2,
    5,
    2,
    1152,
    1,
    6,
    5,
    1,
    6,
    13,
    5,
    4,
    2,
    4,
    4,
    1105,
    1106,
    1383,
    1386,
    1387,
    1383,
    1125,
    1121,
    1385,
    1386,
    1385,
    1386,
    1386,
    1385,
    1387,
    1387,
    1384,
    1384,
    1383,
    1383,
    1386,
    1383,
    1384,
    1383,
    1383,
    1384,
    1388,
    1388,
    1383,
    1383,
    1385,
    1383,
    1387,
    1384,
    1386,
    1386,
    1385,
    1386,
    1387,
    1387,
    1383,
    1124,
    4,
    6,
    4,
    13,
    16,
    5,
    1139,
    1154,
    1155,
    703,
    719,
    719,
    719,
    703,
    367,
    368,
    719,
    367,
    368,
    703,
    368,
    703,
    1157,
    5,
    1,
    3,
    1154,
    1155,
    1156,
    2,
    5,
    2,
    5,
    5,
    2,
    1,
    5,
    3,
    6,
    4,
    2,
    2,
    3,
    3,
    13,
    2,
    1089,
    1387,
    1385,
    1182,
    1385,
    1386,
    733,
    747,
    748,
    731,
    732,
    1150,
    1151,
    10,
    1182,
    1147,
    1387,
    1092,
    4,
    6,
    31,
    32,
    3,
    1,
    4,
    2,
    4,
    4,
    5,
    2,
    2,
    6,
    6,
    5,
    6,
    1,
    6,
    3,
    2,
    3,
    3,
    1122,
    1165,
    1384,
    1384,
    1124,
    6,
    3,
    1122,
    1163,
    1386,
    1388,
    1388,
    1387,
    1388,
    1387,
    1385,
    1385,
    1387,
    1386,
    1386,
    1384,
    1385,
    1384,
    1385,
    1384,
    1384,
    1386,
    1388,
    1384,
    1387,
    1386,
    1384,
    1386,
    1387,
    1386,
    1385,
    1385,
    1383,
    1165,
    1125,
    15,
    16,
    4,
    1,
    31,
    32,
    1154,
    1155,
    703,
    368,
    719,
    719,
    703,
    367,
    719,
    703,
    384,
    719,
    383,
    703,
    719,
    703,
    719,
    1179,
    1157,
    3,
    1153,
    703,
    367,
    703,
    1157,
    3,
    5,
    3,
    2,
    2,
    1,
    5,
    3,
    3,
    6,
    13,
    3,
    3,
    2,
    2,
    1090,
    1387,
    1383,
    1147,
    1387,
    1147,
    731,
    732,
    1182,
    1384,
    747,
    748,
    1166,
    1167,
    1387,
    731,
    732,
    1386,
    1108,
    1109,
    1,
    4,
    4,
    4,
    3,
    5,
    4,
    2,
    1,
    3,
    2,
    3,
    6,
    4,
    2,
    2,
    1,
    2,
    15,
    16,
    3,
    4,
    1152,
    1122,
    1123,
    1124,
    15,
    16,
    6,
    2,
    1121,
    1383,
    1385,
    1386,
    1383,
    1385,
    1387,
    1387,
    1387,
    1386,
    1385,
    1388,
    1387,
    1383,
    1384,
    1384,
    1383,
    1387,
    1387,
    1384,
    1388,
    1387,
    1384,
    1385,
    1385,
    1387,
    1387,
    1386,
    1384,
    1384,
    1124,
    6,
    31,
    32,
    5,
    6,
    6,
    1153,
    703,
    368,
    719,
    368,
    703,
    719,
    703,
    383,
    384,
    719,
    703,
    703,
    703,
    719,
    399,
    719,
    719,
    1319,
    703,
    1155,
    703,
    719,
    383,
    719,
    368,
    1156,
    6,
    6,
    6,
    4,
    1139,
    1139,
    5,
    2,
    2,
    2,
    4,
    5,
    6,
    4,
    1122,
    1165,
    1385,
    1384,
    1387,
    1387,
    747,
    748,
    1386,
    1182,
    11,
    731,
    732,
    1182,
    1147,
    747,
    748,
    1384,
    1124,
    4,
    6,
    2,
    4,
    1,
    3,
    1,
    2,
    4,
    3,
    2,
    15,
    16,
    5,
    3,
    2,
    5,
    1,
    4,
    31,
    32,
    5,
    4,
    6,
    2,
    2,
    3,
    31,
    32,
    6,
    1,
    1089,
    1385,
    1386,
    1383,
    1385,
    1385,
    1386,
    1388,
    1387,
    1383,
    1384,
    1388,
    1388,
    1387,
    1383,
    1383,
    1384,
    1387,
    1387,
    1387,
    1387,
    1388,
    1387,
    1385,
    1383,
    1387,
    1387,
    1385,
    1387,
    1125,
    1152,
    5,
    5,
    6,
    4,
    1,
    1154,
    703,
    719,
    384,
    383,
    703,
    719,
    703,
    719,
    399,
    367,
    368,
    719,
    719,
    719,
    1320,
    703,
    367,
    719,
    367,
    719,
    703,
    719,
    719,
    399,
    703,
    703,
    703,
    1173,
    1152,
    5,
    1154,
    1155,
    1155,
    1156,
    3,
    5,
    4,
    4,
    4,
    1,
    6,
    1,
    1122,
    1123,
    1123,
    1383,
    733,
    1182,
    731,
    732,
    1150,
    1151,
    747,
    748,
    731,
    732,
    1385,
    1163,
    1124,
    6,
    2,
    6,
    1,
    3,
    1,
    3,
    1,
    2,
    1,
    2,
    6,
    31,
    32,
    2,
    3,
    1,
    3,
    1,
    6,
    6,
    1,
    3,
    3,
    5,
    4,
    1,
    4,
    2,
    5,
    3,
    1090,
    1384,
    1387,
    1387,
    1386,
    1384,
    1385,
    1387,
    1386,
    1386,
    1388,
    1388,
    1383,
    1386,
    1384,
    1383,
    1385,
    1383,
    1386,
    1165,
    1385,
    1387,
    1383,
    1388,
    1388,
    1383,
    1387,
    1164,
    1386,
    1108,
    1109,
    3,
    1,
    4,
    5,
    5,
    1169,
    1170,
    719,
    703,
    703,
    703,
    719,
    368,
    719,
    367,
    368,
    383,
    384,
    703,
    368,
    703,
    368,
    719,
    703,
    368,
    703,
    384,
    703,
    703,
    703,
    703,
    719,
    719,
    719,
    1157,
    1139,
    1153,
    703,
    703,
    367,
    703,
    1157,
    2,
    2,
    5,
    3,
    3,
    6,
    3,
    4,
    2,
    1152,
    1122,
    1384,
    1383,
    747,
    748,
    1166,
    1167,
    733,
    1147,
    747,
    748,
    1386,
    1125,
    1,
    2,
    4,
    6,
    5,
    4,
    4,
    4,
    13,
    1,
    3,
    2,
    1,
    1,
    1,
    3,
    3,
    15,
    16,
    3,
    6,
    6,
    6,
    5,
    1,
    6,
    4,
    13,
    3,
    1,
    4,
    1105,
    1106,
    1388,
    1388,
    1386,
    1384,
    1387,
    1386,
    1387,
    1386,
    1384,
    1385,
    1388,
    1388,
    1387,
    1384,
    1388,
    1384,
    1387,
    1388,
    1385,
    1385,
    1383,
    1386,
    1387,
    1384,
    1386,
    1385,
    1388,
    1387,
    1124,
    15,
    16,
    13,
    3,
    6,
    3,
    1169,
    1170,
    703,
    719,
    719,
    719,
    383,
    384,
    992,
    383,
    384,
    703,
    400,
    719,
    384,
    719,
    384,
    719,
    719,
    384,
    719,
    400,
    719,
    719,
    719,
    703,
    719,
    367,
    719,
    703,
    1155,
    703,
    719,
    719,
    383,
    719,
    703,
    1156,
    1,
    4,
    6,
    1,
    5,
    3,
    4,
    2,
    2,
    6,
    1106,
    1385,
    1147,
    733,
    1384,
    731,
    732,
    1386,
    1182,
    1384,
    1108,
    5,
    1,
    1152,
    3,
    1,
    1,
    4,
    6,
    4,
    4,
    4,
    3,
    2,
    5,
    3,
    4,
    4,
    3,
    31,
    32,
    5,
    2,
    1,
    3,
    4,
    4,
    5,
    4,
    3,
    2,
    5,
    3,
    6,
    1122,
    1383,
    1387,
    1165,
    1386,
    1386,
    1384,
    1387,
    1385,
    1387,
    1387,
    1383,
    1383,
    1386,
    1388,
    1387,
    1384,
    1386,
    1388,
    1386,
    1383,
    1387,
    1384,
    1388,
    1384,
    1383,
    1388,
    1387,
    1125,
    4,
    31,
    32,
    3,
    1,
    5,
    4,
    6,
    1186,
    719,
    1320,
    399,
    400,
    399,
    400,
    1008,
    399,
    400,
    719,
    368,
    399,
    400,
    399,
    400,
    1320,
    719,
    400,
    1179,
    1319,
    1320,
    1320,
    383,
    719,
    384,
    383,
    384,
    719,
    1304,
    719,
    719,
    400,
    703,
    703,
    719,
    1320,
    1157,
    1,
    3,
    1,
    3,
    3,
    4,
    2,
    4,
    1090,
    1384,
    1387,
    1386,
    1388,
    1182,
    747,
    748,
    1384,
    1387,
    1165,
    1108,
    2,
    4,
    2,
    6,
    4,
    1,
    3,
    1,
    6,
    4,
    3,
    5,
    2,
    6,
    4,
    3
   ]
  },
  {
   "id": 2,
   "name": "spawns",
   "type": "objectgroup",
   "x": 0,
   "y": 0,
   "width": 0,
   "height": 0,
   "opacity": 1,
   "visible": true,
   "draworder": "topdown",
   "objects": [
    {
     "height": 0,
     "id": 1,
     "name": "edge-1",
     "point": true,
     "rotation": 0,
     "type": "",
     "visible": true,
     "width": 0,
     "x": 1860,
     "y": 60
    },
    {
     "height": 0,
     "id": 2,
     "name": "edge-2",
     "point": true,
     "rotation": 0,
     "type": "",
     "visible": true,
     "width": 0,
     "x": 60,
     "y": 780
    }
   ]
  },
  {
   "id": 3,
   "name": "collision",
   "type": "tilelayer",
   "x": 0,
   "y": 0,
   "width": 128,
   "height": 128,
   "opacity": 1,
   "visible": false,
   "data": [
    1552,
    1552,
    1552,
    1552,
    1552,
    1552,
    1552,
    1552,
    1552,
    1552,
    1552,
    1552,
    1552,
    1552,
    1552,
    1552,
    1552,
    1552,
    1552,
    1552,
    1552,
    1552,
    1552,
    0,
    0,
    0,
    0,
    0,
    0,
    0,
    0,
    0,
    0,
    0,
    0,
    0,
    0,
    0,
    0,
    0,
    0,
    0,
    0,
    0,
    0,
    0,
    1552,
    0,
    0,
    0,
    0,
    0,
    0,
    0,
    0,
    0,
    0,
    0,
    0,
    0,
    0,
    0,
    0,
    1552,
    1552,
    1552,
    1552,
    1552,
    1552,
    1552,
    1552,
    1552,
    0,
    0,
    0,
    0,
    0,
    0,
    0,
    0,
    0,
    0,
    0,
    0,
    0,
    0,
    0,
    0,
    0,
    0,
    0,
    0,
    0,
    0,
    0,
    0,
    0,
    0,
    0,
    0,
    0,
    0,
    0,
    0,
    0,
    0,
    0,
    0,
    0,
    0,
    0,
    0,
    0,
    0,
    0,
    0,
    0,
    0,
    0,
    0,
    0,
    0,
    0,
    0,
    0,
    0,
    0,
    0,
    1552,
    1552,
    1552,
    1552,
    1552,
    1552,
    1552,
    1552,
    1552,
    1552,
    1552,
    1552,
    1552,
    1552,
    1552,
    1552,
    1552,
    1552,
    1552,
    1552,
    1552,
    1552,
    0,
    0,
    0,
    0,
    0,
    0,
    0,
    1552,
    1552,
    1552,
    0,
    0,
    0,
    0,
    0,
    0,
    0,
    0,
    0,
    0,
    0,
    0,
    0,
    0,
    0,
    0,
    0,
    0,
    0,
    0,
    0,
    0,
    0,
    0,
    0,
    0,
    0,
    0,
    0,
    0,
    0,
    1552,
    1552,
    1552,
    1552,
    1552,
    1552,
    1552,
    0,
    0,
    0,
    0,
    0,
    0,
    0,
    0,
    0,
    0,
    0,
    0,
    0,
    0,
    0,
    0,
    0,
    0,
    0,
    0,
    0,
    0,
    0,
    0,
    0,
    0,
    0,
    0,
    0,
    0,
    0,
    0,
    0,
    0,
    0,
    0,
    0,
    0,
    0,
    0,
    0,
    0,
    0,
    0,
    0,
    0,
    0,
    0,
    0,
    0,
    0,
    0,
    0,
    0,
    0,
    0,
    0,
    0,
    1552,
    1552,
    1552,
    1552,
    1552,
    1552,
    1552,
    1552,
    1552,
    1552,
    1552,
    1552,
    1552,
    1552,
    1552,
    1552,
    1552,
    1552,
    1552,
    1552,
    1552,
    0,
    0,
    0,
    0,
    0,
    0,
    0,
    0,
    0,
    1552,
    1552,
    0,
    1552,
    0,
    1552,
    0,
    1552,
    0,
    0,
    0,
    0,
    0,
    0,
    0,
    0,
    0,
    0,
    0,
    0,
    0,
    0,
    0,
    0,
    0,
    0,
    0,
    0,
    0,
    0,
    0,
    0,
    0,
    0,
    1552,
    1552,
    0,
    1552,
    1552,
    1552,
    0,
    0,
    0,
    0,
    0,
    0,
    0,
    0,
    0,
    0,
    0,
    0,
    0,
    0,
    0,
    0,
    0,
    0,
    0,
    0,
    0,
    0,
    0,
    0,
    0,
    0,
    0,
    0,
    0,
    0,
    0,
    0,
    0,
    0,
    0,
    0,
    0,
    0,
    0,
    0,
    0,
    0,
    0,
    0,
    0,
    0,
    0,
    0,
    0,
    0,
    0,
    0,
    0,
    0,
    0,
    0,
    0,
    0,
    1552,
    1552,
    1552,
    1552,
    1552,
    1552,
    1552,
    1552,
    1552,
    1552,
    1552,
    1552,
    1552,
    1552,
    1552,
    1552,
    1552,
    1552,
    1552,
    1552,
    0,
    0,
    0,
    0,
    0,
    0,
    0,
    0,
    1552,
    1552,
    1552,
    0,
    1552,
    0,
    0,
    0,
    0,
    0,
    0,
    0,
    0,
    0,
    0,
    0,
    0,
    0,
    0,
    0,
    0,
    0,
    0,
    0,
    0,
    0,
    0,
    0,
    0,
    0,
    0,
    0,
    0,
    0,
    0,
    0,
    1552,
    1552,
    1552,
    1552,
    1552,
    0,
    1552,
    0,
    0,
    0,
    0,
    0,
    0,
    0,
    0,
    0,
    0,
    0,
    0,
    0,
    0,
    0,
    0,
    0,
    0,
    0,
    0,
    0,
    0,
    0,
    0,
    0,
    0,
    0,
    0,
    0,
    0,
    0,
    0,
    0,
    0,
    0,
    0,
    0,
    0,
    0,
    0,
    0,
    0,
    0,
    0,
    0,
    0,
    0,
    0,
    0,
    0,
    0,
    0,
    0,
    0,
    0,
    0,
    0,
    1552,
    1552,
    1552,
    1552,
    1552,
    1552,
    1552,
    1552,
    1552,
    1552,
    1552,
    1552,
    1552,
    1552,
    1552,
    1552,
    1552,
    1552,
    1552,
    0,
    0,
    0,
    0,
    0,
    0,
    0,
    0,
    0,
    1552,
    1552,
    0,
    1552,
    1552,
    1552,
    1552,
    0,
    0,
    0,
    0,
    0,
    0,
    0,
    0,
    0,
    0,
    0,
    0,
    0,
    0,
    0,
    0,
    0,
    0,
    0,
    0,
    0,
    0,
    0,
    0,
    0,
    0,
    0,
    0,
    0,
    0,
    1552,
    1552,
    1552,
    0,
    0,
    0,
    0,
    0,
    0,
    0,
    0,
    0,
    0,
    0,
    0,
    0,
    0,
    0,
    0,
    0,
    0,
    0,
    0,
    0,
    0,
    0,
    0,
    0,
    0,
    0,
    0,
    0,
    0,
    0,
    0,
    0,
    0,
    0,
    0,
    0,
    0,
    0,
    0,
    0,
    0,
    0,
    0,
    0,
    0,
    0,
    0,
    0,
    0,
    0,
    0,
    0,
    0,
    0,
    0,
    0,
    0,
    0,
    0,
    1552,
    1552,
    1552,
    1552,
    1552,
    1552,
    1552,
    1552,
    1552,
    1552,
    1552,
    1552,
    1552,
    1552,
    1552,
    1552,
    1552,
    0,
    0,
    0,
    0,
    0,
    0,
    0,
    0,
    0,
    0,
    0,
    0,
    0,
    1552,
    1552,
    1552,
    1552,
    1552,
    1552,
    1552,
    0,
    0,
    0,
    0,
    0,
    0,
    0,
    0,
    0,
    0,
    0,
    0,
    0,
    0,
    0,
    0,
    0,
    0,
    0,
    0,
    0,
    0,
    0,
    0,
    0,
    0,
    1552,
    1552,
    1552,
    1552,
    1552,
    1552,
    1552,
    0,
    0,
    0,
    0,
    0,
    0,
    0,
    0,
    0,
    0,
    0,
    0,
    0,
    0,
    0,
    0,
    0,
    0,
    0,
    0,
    0,
    0,
    0,
    0,
    0,
    0,
    0,
    0,
    0,
    0,
    0,
    0,
    0,
    0,
    0,
    0,
    0,
    0,
    0,
    0,
    0,
    0,
    0,
    0,
    0,
    0,
    0,
    0,
    0,
    0,
    0,
    0,
    0,
    0,
    0,
    0,
    0,
    0,
    1552,
    1552,
    1552,
    1552,
    1552,
    1552,
    1552,
    1552,
    1552,
    1552,
    1552,
    1552,
    1552,
    1552,
    1552,
    1552,
    0,
    0,
    0,
    0,
    0,
    0,
    0,
    0,
    0,
    0,
    0,
    1552,
    0,
    1552,
    1552,
    1552,
    1552,
    1552,
    1552,
    1552,
    1552,
    0,
    0,
    0,
    0,
    0,
    0,
    0,
    0,
    0,
    0,
    0,
    0,
    0,
    0,
    0,
    0,
    0,
    0,
    0,
    0,
    0,
    0,
    0,
    0,
    0,
    0,
    1552,
    1552,
    1552,
    1552,
    1552,
    1552,
    1552,
    1552,
    0,
    0,
    0,
    0,
    0,
    0,
    0,
    0,
    0,
    0,
    0,
    0,
    0,
    0,
    0,
    0,
    0,
    0,
    0,
    0,
    0,
    0,
    0,
    0,
    0,
    0,
    0,
    0,
    0,
    0,
    0,
    0,
    0,
    0,
    0,
    0,
    0,
    0,
    0,
    0,
    0,
    0,
    0,
    0,
    0,
    0,
    0,
    0,
    0,
    0,
    0,
    0,
    0,
    0,
    0,
    0,
    0,
    1552,
    1552,
    1552,
    1552,
    1552,
    1552,
    1552,
    1552,
    1552,
    1552,
    1552,
    1552,
    1552,
    1552,
    1552,
    0,
    0,
    0,
    0,
    0,
    0,
    0,
    0,
    0,
    0,
    0,
    0,
    0,
    1552,
    1552,
    1552,
    1552,
    1552,
    1552,
    0,
    1552,
    1552,
    1552,
    0,
    0,
    0,
    0,
    0,
    0,
    0,
    0,
    0,
    0,
    0,
    0,
    0,
    0,
    0,
    0,
    0,
    0,
    0,
    0,
    0,
    0,
    0,
    0,
    1552,
    1552,
    1552,
    1552,
    1552,
    1552,
    1552,
    0,
    0,
    0,
    0,
    0,
    0,
    0,
    0,
    0,
    0,
    0,
    0,
    0,
    0,
    0,
    0,
    0,
    0,
    0,
    0,
    0,
    0,
    0,
    0,
    0,
    0,
    0,
    0,
    0,
    0,
    0,
    0,
    0,
    0,
    0,
    0,
    0,
    0,
    0,
    0,
    0,
    0,
    0,
    0,
    0,
    0,
    0,
    0,
    0,
    0,
    0,
    0,
    0,
    0,
    0,
    0,
    0,
    0,
    0,
    1552,
    1552,
    1552,
    1552,
    1552,
    1552,
    1552,
    1552,
    1552,
    1552,
    1552,
    1552,
    1552,
    1552,
    0,
    0,
    0,
    0,
    0,
    0,
    0,
    0,
    0,
    0,
    0,
    0,
    0,
    0,
    1552,
    1552,
    1552,
    1552,
    1552,
    1552,
    1552,
    1552,
    1552,
    1552,
    0,
    0,
    0,
    0,
    0,
    0,
    0,
    0,
    0,
    0,
    0,
    0,
    0,
    0,
    0,
    0,
    0,
    0,
    0,
    0,
    0,
    0,
    0,
    0,
    1552,
    1552,
    1552,
    1552,
    1552,
    0,
    0,
    0,
    0,
    0,
    0,
    0,
    0,
    0,
    0,
    0,
    0,
    0,
    0,
    0,
    0,
    0,
    0,
    0,
    0,
    0,
    0,
    0,
    0,
    0,
    0,
    0,
    0,
    0,
    0,
    0,
    0,
    0,
    0,
    0,
    0,
    0,
    0,
    0,
    0,
    0,
    0,
    0,
    0,
    0,
    0,
    0,
    0,
    0,
    0,
    0,
    0,
    0,
    0,
    0,
    0,
    0,
    0,
    0,
    0,
    0,
    1552,
    1552,
    1552,
    1552,
    1552,
    0,
    0,
    0,
    0,
    0,
    0,
    1552,
    1552,
    0,
    0,
    0,
    0,
    0,
    0,
    0,
    0,
    0,
    0,
    0,
    0,
    0,
    0,
    1552,
    0,
    0,
    1552,
    1552,
    0,
    1552,
    1552,
    1552,
    1552,
    0,
    0,
    0,
    0,
    0,
    0,
    0,
    1552,
    1552,
    0,
    0,
    0,
    0,
    0,
    0,
    0,
    0,
    0,
    0,
    0,
    0,
    0,
    0,
    0,
    0,
    0,
    0,
    1552,
    0,
    1552,
    0,
    0,
    0,
    0,
    0,
    0,
    0,
    0,
    0,
    0,
    0,
    0,
    0,
    0,
    0,
    0,
    0,
    0,
    0,
    0,
    0,
    0,
    0,
    0,
    0,
    0,
    0,
    0,
    0,
    0,
    0,
    0,
    0,
    0,
    0,
    0,
    0,
    0,
    0,
    0,
    0,
    0,
    0,
    0,
    0,
    0,
    0,
    0,
    0,
    0,
    0,
    0,
    0,
    0,
    0,
    0,
    0,
    0,
    0,
    0,
    0,
    1552,
    1552,
    1552,
    0,
    0,
    0,
    0,
    0,
    0,
    0,
    0,
    0,
    0,
    0,
    0,
    0,
    0,
    0,
    0,
    0,
    0,
    0,
    0,
    0,
    0,
    0,
    0,
    0,
    0,
    0,
    0,
    0,
    0,
    0,
    1552,
    1552,
    1552,
    0,
    0,
    0,
    0,
    0,
    0,
    1552,
    1552,
    1552,
    1552,
    0,
    1552,
    0,
    0,
    1552,
    1552,
    0,
    0,
    0,
    0,
    0,
    0,
    0,
    0,
    0,
    0,
    0,
    0,
    1552,
    1552,
    0,
    0,
    0,
    0,
    0,
    0,
    0,
    0,
    0,
    0,
    0,
    0,
    0,
    0,
    0,
    0,
    0,
    0,
    0,
    0,
    0,
    0,
    0,
    0,
    0,
    0,
    0,
    0,
    0,
    0,
    0,
    0,
    0,
    0,
    0,
    0,
    0,
    0,
    0,
    0,
    0,
    0,
    0,
    0,
    0,
    0,
    0,
    0,
    0,
    0,
    0,
    0,
    0,
    0,
    0,
    0,
    0,
    0,
    0,
    0,
    0,
    1552,
    1552,
    0,
    0,
    0,
    0,
    0,
    0,
    0,
    0,
    0,
    0,
    0,
    1552,
    1552,
    1552,
    0,
    0,
    1552,
    0,
    0,
    0,
    0,
    0,
    0,
    0,
    0,
    0,
    0,
    1552,
    0,
    0,
    1552,
    0,
    0,
    0,
    0,
    1552,
    0,
    0,
    0,
    0,
    1552,
    1552,
    1552,
    1552,
    1552,
    1552,
    1552,
    0,
    1552,
    1552,
    1552,
    0,
    1552,
    0,
    1552,
    1552,
    0,
    0,
    0,
    0,
    0,
    0,
    0,
    1552,
    0,
    0,
    0,
    0,
    0,
    0,
    0,
    0,
    0,
    0,
    0,
    0,
    0,
    0,
    0,
    0,
    0,
    0,
    0,
    0,
    0,
    0,
    0,
    0,
    0,
    0,
    0,
    0,
    0,
    0,
    0,
    0,
    0,
    0,
    0,
    0,
    0,
    0,
    0,
    0,
    0,
    0,
    0,
    0,
    0,
    0,
    0,
    0,
    0,
    0,
    0,
    0,
    0,
    0,
    0,
    0,
    0,
    0,
    0,
    0,
    0,
    0,
    1552,
    0,
    0,
    0,
    0,
    0,
    0,
    0,
    0,
    0,
    0,
    1552,
    1552,
    1552,
    1552,
    0,
    1552,
    1552,
    1552,
    1552,
    0,
    0,
    0,
    0,
    0,
    0,
    0,
    0,
    0,
    0,
    0,
    0,
    0,
    0,
    0,
    0,
    0,
    0,
    0,
    0,
    0,
    0,
    1552,
    1552,
    1552,
    1552,
    1552,
    1552,
    1552,
    1552,
    1552,
    1552,
    1552,
    1552,
    1552,
    1552,
    1552,
    1552,
    1552,
    0,
    0,
    0,
    0,
    0,
    0,
    0,
    0,
    0,
    0,
    0,
    0,
    0,
    0,
    0,
    0,
    0,
    0,
    0,
    0,
    0,
    0,
    0,
    0,
    0,
    0,
    0,
    0,
    0,
    0,
    0,
    0,
    0,
    0,
    0,
    0,
    0,
    0,
    0,
    0,
    0,
    0,
    0,
    0,
    0,
    0,
    0,
    0,
    0,
    0,
    0,
    0,
    0,
    0,
    0,
    0,
    0,
    0,
    0,
    0,
    0,
    0,
    0,
    0,
    0,
    0,
    0,
    0,
    0,
    0,
    0,
    0,
    0,
    0,
    0,
    0,
    0,
    0,
    0,
    1552,
    1552,
    1552,
    1552,
    1552,
    1552,
    1552,
    1552,
    1552,
    1552,
    0,
    0,
    0,
    0,
    0,
    0,
    0,
    0,
    0,
    0,
    0,
    0,
    0,
    0,
    0,
    0,
    0,
    0,
    0,
    0,
    0,
    1552,
    0,
    1552,
    1552,
    1552,
    1552,
    1552,
    1552,
    1552,
    1552,
    1552,
    1552,
    1552,
    1552,
    1552,
    1552,
    1552,
    1552,
    1552,
    0,
    0,
    0,
    0,
    0,
    0,
    0,
    0,
    0,
    0,
    0,
    0,
    0,
    0,
    0,
    0,
    0,
    0,
    0,
    0,
    0,
    0,
    0,
    0,
    0,
    0,
    0,
    0,
    0,
    0,
    0,
    0,
    0,
    0,
    0,
    0,
    0,
    0,
    0,
    0,
    0,
    0,
    0,
    0,
    0,
    0,
    0,
    0,
    0,
    0,
    0,
    0,
    0,
    0,
    0,
    0,
    0,
    0,
    0,
    0,
    0,
    0,
    0,
    0,
    0,
    0,
    0,
    0,
    0,
    0,
    0,
    0,
    0,
    0,
    0,
    0,
    0,
    0,
    1552,
    1552,
    1552,
    1552,
    1552,
    1552,
    0,
    1552,
    1552,
    0,
    0,
    0,
    0,
    0,
    0,
    0,
    0,
    0,
    0,
    0,
    0,
    0,
    0,
    0,
    0,
    0,
    0,
    0,
    0,
    0,
    0,
    0,
    0,
    0,
    0,
    0,
    1552,
    1552,
    1552,
    0,
    1552,
    1552,
    1552,
    1552,
    1552,
    1552,
    1552,
    1552,
    1552,
    1552,
    0,
    0,
    0,
    0,
    0,
    0,
    0,
    0,
    0,
    0,
    0,
    0,
    0,
    0,
    0,
    0,
    0,
    0,
    0,
    0,
    0,
    0,
    0,
    0,
    0,
    0,
    0,
    0,
    0,
    0,
    0,
    0,
    0,
    0,
    0,
    0,
    0,
    0,
    0,
    0,
    0,
    0,
    0,
    0,
    0,
    0,
    0,
    0,
    0,
    0,
    0,
    0,
    0,
    0,
    0,
    0,
    0,
    0,
    0,
    0,
    0,
    0,
    0,
    0,
    0,
    0,
    0,
    0,
    0,
    0,
    0,
    0,
    0,
    0,
    0,
    0,
    0,
    0,
    0,
    0,
    1552,
    0,
    0,
    0,
    1552,
    1552,
    0,
    0,
    0,
    0,
    0,
    0,
    0,
    0,
    0,
    0,
    0,
    0,
    0,
    0,
    0,
    0,
    0,
    0,
    0,
    0,
    0,
    0,
    0,
    0,
    0,
    0,
    0,
    0,
    0,
    0,
    0,
    1552,
    0,
    1552,
    1552,
    1552,
    1552,
    1552,
    1552,
    1552,
    1552,
    0,
    1552,
    0,
    0,
    0,
    0,
    0,
    0,
    0,
    0,
    0,
    0,
    0,
    0,
    0,
    0,
    0,
    0,
    0,
    0,
    0,
    0,
    0,
    0,
    0,
    0,
    0,
    0,
    0,
    0,
    0,
    0,
    0,
    0,
    0,
    0,
    0,
    0,
    0,
    0,
    0,
    0,
    0,
    0,
    0,
    0,
    0,
    0,
    0,
    0,
    0,
    0,
    0,
    0,
    0,
    0,
    0,
    0,
    0,
    0,
    0,
    0,
    0,
    0,
    0,
    0,
    0,
    0,
    0,
    0,
    0,
    0,
    0,
    0,
    0,
    0,
    0,
    0,
    0,
    0,
    0,
    0,
    1552,
    1552,
    1552,
    1552,
    1552,
    0,
    0,
    0,
    0,
    0,
    0,
    0,
    0,
    0,
    0,
    0,
    0,
    0,
    0,
    0,
    0,
    0,
    0,
    0,
    0,
    0,
    0,
    0,
    0,
    0,
    0,
    0,
    0,
    0,
    0,
    0,
    0,
    0,
    0,
    0,
    1552,
    1552,
    0,
    0,
    1552,
    1552,
    1552,
    0,
    0,
    0,
    0,
    0,
    0,
    0,
    0,
    0,
    0,
    0,
    0,
    0,
    0,
    0,
    0,
    0,
    0,
    0,
    0,
    0,
    0,
    0,
    0,
    0,
    0,
    0,
    0,
    0,
    0,
    0,
    0,
    0,
    0,
    0,
    0,
    0,
    0,
    0,
    0,
    0,
    0,
    0,
    0,
    0,
    0,
    0,
    0,
    0,
    0,
    0,
    0,
    0,
    0,
    0,
    0,
    0,
    0,
    0,
    0,
    0,
    0,
    0,
    0,
    0,
    0,
    0,
    0,
    0,
    0,
    0,
    0,
    0,
    0,
    0,
    0,
    0,
    0,
    0,
    0,
    0,
    1552,
    1552,
    1552,
    1552,
    0,
    1552,
    0,
    0,
    0,
    0,
    0,
    0,
    0,
    0,
    0,
    0,
    0,
    0,
    0,
    0,
    0,
    0,
    0,
    0,
    0,
    0,
    0,
    0,
    0,
    0,
    0,
    0,
    0,
    0,
    0,
    0,
    0,
    0,
    0,
    0,
    0,
    0,
    0,
    0,
    0,
    0,
    0,
    0,
    1552,
    0,
    0,
    0,
    0,
    0,
    0,
    0,
    0,
    0,
    0,
    0,
    0,
    0,
    0,
    0,
    0,
    0,
    0,
    0,
    0,
    0,
    0,
    0,
    0,
    0,
    0,
    0,
    0,
    0,
    0,
    0,
    0,
    0,
    0,
    0,
    0,
    0,
    0,
    0,
    0,
    0,
    0,
    0,
    0,
    0,
    0,
    0,
    0,
    0,
    0,
    0,
    0,
    0,
    0,
    0,
    0,
    0,
    0,
    0,
    0,
    0,
    0,
    0,
    0,
    0,
    0,
    0,
    0,
    0,
    0,
    0,
    0,
    0,
    0,
    0,
    0,
    0,
    0,
    0,
    0,
    1552,
    1552,
    1552,
    0,
    0,
    0,
    0,
    0,
    0,
    0,
    0,
    0,
    0,
    0,
    0,
    0,
    0,
    0,
    0,
    0,
    0,
    0,
    0,
    0,
    0,
    0,
    0,
    0,
    0,
    0,
    0,
    0,
    0,
    0,
    0,
    0,
    0,
    0,
    0,
    0,
    0,
    0,
    0,
    0,
    0,
    0,
    1552,
    0,
    0,
    0,
    0,
    0,
    0,
    0,
    0,
    0,
    0,
    0,
    0,
    0,
    0,
    0,
    0,
    0,
    0,
    0,
    0,
    0,
    0,
    0,
    0,
    0,
    0,
    0,
    0,
    0,
    0,
    0,
    0,
    0,
    0,
    0,
    0,
    0,
    0,
    0,
    0,
    0,
    0,
    0,
    0,
    0,
    0,
    0,
    0,
    0,
    0,
    0,
    0,
    0,
    0,
    0,
    0,
    0,
    0,
    0,
    0,
    0,
    0,
    0,
    0,
    0,
    0,
    0,
    1552,
    0,
    0,
    0,
    0,
    0,
    0,
    0,
    0,
    0,
    0,
    0,
    0,
    0,
    0,
    0,
    0,
    0,
    0,
    0,
    0,
    0,
    0,
    0,
    0,
    0,
    0,
    0,
    0,
    0,
    0,
    0,
    0,
    0,
    0,
    0,
    0,
    0,
    0,
    0,
    0,
    0,
    0,
    0,
    1552,
    1552,
    1552,
    0,
    0,
    0,
    0,
    0,
    0,
    0,
    0,
    0,
    0,
    0,
    0,
    0,
    0,
    0,
    0,
    0,
    0,
    0,
    0,
    0,
    0,
    0,
    0,
    0,
    0,
    0,
    0,
    0,
    0,
    0,
    0,
    0,
    0,
    0,
    0,
    0,
    0,
    0,
    0,
    0,
    0,
    0,
    0,
    0,
    0,
    0,
    0,
    0,
    0,
    0,
    0,
    0,
    0,
    0,
    0,
    0,
    0,
    0,
    0,
    0,
    0,
    0,
    0,
    0,
    0,
    0,
    0,
    0,
    0,
    0,
    0,
    0,
    0,
    0,
    0,
    0,
    0,
    0,
    0,
    0,
    0,
    0,
    0,
    0,
    0,
    0,
    0,
    0,
    0,
    0,
    0,
    0,
    0,
    0,
    0,
    0,
    0,
    0,
    0,
    0,
    0,
    0,
    0,
    0,
    0,
    0,
    0,
    0,
    0,
    0,
    0,
    0,
    0,
    0,
    0,
    0,
    0,
    0,
    0,
    0,
    0,
    0,
    0,
    1552,
    1552,
    1552,
    0,
    1552,
    0,
    0,
    0,
    0,
    0,
    0,
    0,
    0,
    0,
    0,
    0,
    0,
    0,
    0,
    0,
    0,
    0,
    0,
    0,
    0,
    0,
    0,
    0,
    0,
    0,
    0,
    0,
    0,
    0,
    0,
    0,
    0,
    0,
    0,
    0,
    0,
    0,
    0,
    0,
    0,
    0,
    0,
    0,
    0,
    0,
    0,
    0,
    0,
    0,
    0,
    0,
    0,
    0,
    0,
    0,
    0,
    0,
    0,
    0,
    0,
    0,
    0,
    0,
    0,
    0,
    0,
    0,
    0,
    0,
    0,
    0,
    0,
    0,
    0,
    0,
    0,
    0,
    0,
    0,
    0,
    0,
    0,
    0,
    0,
    0,
    0,
    0,
    0,
    0,
    0,
    0,
    0,
    0,
    0,
    0,
    0,
    0,
    0,
    0,
    0,
    0,
    0,
    0,
    0,
    0,
    0,
    0,
    0,
    0,
    0,
    0,
    0,
    0,
    0,
    0,
    0,
    0,
    0,
    0,
    0,
    0,
    0,
    0,
    1552,
    1552,
    1552,
    1552,
    0,
    0,
    0,
    0,
    0,
    0,
    0,
    0,
    0,
    0,
    0,
    0,
    0,
    0,
    0,
    0,
    0,
    0,
    0,
    0,
    0,
    0,
    0,
    0,
    0,
    0,
    0,
    0,
    0,
    0,
    0,
    0,
    0,
    0,
    0,
    0,
    0,
    0,
    0,
    0,
    0,
    0,
    0,
    0,
    0,
    0,
    0,
    0,
    0,
    0,
    0,
    0,
    0,
    0,
    0,
    0,
    0,
    0,
    0,
    0,
    0,
    0,
    0,
    0,
    0,
    0,
    0,
    0,
    0,
    0,
    0,
    0,
    0,
    0,
    0,
    0,
    0,
    0,
    0,
    0,
    0,
    0,
    0,
    0,
    0,
    0,
    0,
    0,
    0,
    0,
    0,
    0,
    0,
    0,
    0,
    0,
    0,
    0,
    0,
    0,
    0,
    0,
    0,
    0,
    0,
    0,
    0,
    0,
    0,
    0,
    0,
    0,
    0,
    0,
    0,
    0,
    0,
    0,
    0,
    0,
    0,
    0,
    0,
    1552,
    1552,
    1552,
    1552,
    1552,
    1552,
    1552,
    0,
    0,
    0,
    0,
    0,
    0,
    0,
    0,
    0,
    0,
    0,
    0,
    0,
    0,
    0,
    0,
    0,
    0,
    0,
    0,
    0,
    0,
    0,
    0,
    0,
    0,
    0,
    0,
    0,
    0,
    0,
    0,
    0,
    0,
    0,
    0,
    0,
    0,
    0,
    0,
    0,
    0,
    0,
    0,
    0,
    0,
    0,
    0,
    0,
    0,
    0,
    0,
    0,
    0,
    0,
    0,
    0,
    0,
    0,
    0,
    0,
    0,
    0,
    0,
    0,
    0,
    0,
    0,
    0,
    0,
    0,
    0,
    0,
    0,
    0,
    0,
    0,
    0,
    0,
    0,
    0,
    0,
    0,
    0,
    0,
    0,
    0,
    0,
    0,
    0,
    0,
    0,
    0,
    0,
    0,
    0,
    0,
    0,
    0,
    0,
    0,
    0,
    0,
    0,
    0,
    0,
    0,
    0,
    0,
    0,
    0,
    0,
    0,
    0,
    0,
    0,
    0,
    0,
    0,
    0,
    0,
    0,
    1552,
    0,
    0,
    0,
    1552,
    1552,
    0,
    0,
    0,
    0,
    0,
    0,
    0,
    0,
    0,
    0,
    0,
    0,
    0,
    0,
    0,
    0,
    0,
    0,
    0,
    0,
    0,
    0,
    0,
    0,
    0,
    0,
    0,
    0,
    0,
    0,
    0,
    0,
    0,
    0,
    0,
    0,
    0,
    0,
    0,
    0,
    0,
    0,
    0,
    0,
    0,
    0,
    0,
    0,
    0,
    0,
    0,
    0,
    0,
    0,
    0,
    0,
    0,
    0,
    0,
    0,
    0,
    0,
    0,
    0,
    0,
    0,
    0,
    0,
    0,
    0,
    0,
    0,
    0,
    0,
    0,
    0,
    0,
    0,
    0,
    0,
    0,
    0,
    0,
    0,
    0,
    0,
    0,
    0,
    0,
    0,
    0,
    0,
    1552,
    0,
    0,
    1552,
    0,
    1552,
    0,
    0,
    0,
    0,
    0,
    0,
    0,
    0,
    0,
    0,
    0,
    0,
    0,
    0,
    0,
    0,
    0,
    0,
    0,
    0,
    0,
    0,
    0,
    0,
    0,
    0,
    0,
    0,
    0,
    1552,
    1552,
    1552,
    0,
    0,
    0,
    0,
    0,
    0,
    0,
    0,
    0,
    0,
    0,
    0,
    0,
    0,
    0,
    0,
    0,
    0,
    0,
    0,
    0,
    0,
    0,
    0,
    0,
    0,
    0,
    0,
    0,
    0,
    0,
    0,
    0,
    0,
    0,
    0,
    0,
    0,
    0,
    0,
    0,
    0,
    0,
    0,
    0,
    0,
    0,
    0,
    0,
    0,
    0,
    0,
    0,
    0,
    0,
    0,
    0,
    0,
    0,
    0,
    0,
    0,
    0,
    0,
    0,
    0,
    0,
    0,
    0,
    0,
    0,
    0,
    0,
    0,
    0,
    0,
    0,
    0,
    0,
    0,
    0,
    0,
    0,
    0,
    0,
    0,
    0,
    0,
    0,
    1552,
    1552,
    1552,
    1552,
    1552,
    1552,
    1552,
    0,
    0,
    0,
    0,
    0,
    0,
    0,
    0,
    0,
    0,
    0,
    0,
    0,
    0,
    0,
    0,
    0,
    0,
    0,
    0,
    0,
    1552,
    0,
    0,
    0,
    0,
    0,
    0,
    0,
    0,
    1552,
    1552,
    0,
    0,
    0,
    0,
    0,
    0,
    0,
    0,
    0,
    0,
    0,
    0,
    0,
    0,
    0,
    0,
    0,
    0,
    0,
    0,
    0,
    0,
    0,
    0,
    0,
    0,
    0,
    0,
    0,
    0,
    0,
    0,
    0,
    0,
    0,
    0,
    0,
    0,
    0,
    0,
    0,
    0,
    0,
    0,
    0,
    0,
    0,
    0,
    0,
    0,
    0,
    0,
    0,
    0,
    0,
    0,
    0,
    0,
    0,
    0,
    0,
    0,
    0,
    0,
    0,
    0,
    0,
    0,
    0,
    0,
    0,
    0,
    0,
    0,
    0,
    0,
    0,
    0,
    0,
    0,
    0,
    0,
    0,
    1552,
    0,
    0,
    0,
    0,
    1552,
    1552,
    1552,
    1552,
    1552,
    1552,
    1552,
    1552,
    0,
    0,
    0,
    0,
    0,
    0,
    0,
    0,
    0,
    0,
    0,
    0,
    0,
    0,
    0,
    0,
    0,
    0,
    0,
    0,
    0,
    0,
    0,
    0,
    0,
    0,
    0,
    0,
    0,
    0,
    0,
    0,
    1552,
    0,
    0,
    0,
    0,
    0,
    0,
    0,
    0,
    0,
    0,
    0,
    0,
    0,
    0,
    0,
    0,
    0,
    0,
    0,
    0,
    0,
    0,
    0,
    0,
    0,
    0,
    0,
    0,
    0,
    0,
    0,
    0,
    0,
    0,
    0,
    0,
    0,
    0,
    0,
    0,
    0,
    0,
    0,
    0,
    0,
    0,
    0,
    0,
    0,
    0,
    0,
    0,
    0,
    0,
    0,
    0,
    0,
    0,
    0,
    0,
    0,
    0,
    0,
    0,
    0,
    0,
    0,
    0,
    0,
    0,
    0,
    0,
    0,
    0,
    0,
    0,
    0,
    0,
    0,
    1552,
    0,
    1552,
    1552,
    0,
    0,
    0,
    0,
    0,
    1552,
    1552,
    0,
    1552,
    1552,
    1552,
    1552,
    0,
    0,
    0,
    0,
    0,
    0,
    0,
    0,
    0,
    0,
    0,
    0,
    0,
    0,
    0,
    0,
    0,
    0,
    0,
    0,
    0,
    0,
    0,
    1552,
    1552,
    1552,
    1552,
    1552,
    1552,
    1552,
    0,
    0,
    0,
    1552,
    0,
    0,
    0,
    0,
    0,
    0,
    0,
    0,
    0,
    0,
    0,
    0,
    0,
    0,
    0,
    0,
    0,
    0,
    0,
    0,
    0,
    0,
    0,
    0,
    0,
    0,
    0,
    0,
    0,
    0,
    0,
    0,
    0,
    0,
    0,
    0,
    0,
    0,
    0,
    0,
    0,
    0,
    0,
    0,
    0,
    0,
    0,
    0,
    0,
    0,
    0,
    0,
    0,
    0,
    0,
    0,
    0,
    0,
    0,
    0,
    0,
    0,
    0,
    0,
    0,
    0,
    0,
    0,
    0,
    0,
    0,
    0,
    0,
    0,
    0,
    0,
    0,
    0,
    1552,
    1552,
    1552,
    1552,
    0,
    1552,
    0,
    0,
    0,
    0,
    0,
    1552,
    1552,
    1552,
    0,
    0,
    0,
    0,
    0,
    0,
    0,
    0,
    0,
    0,
    0,
    0,
    0,
    0,
    0,
    0,
    0,
    0,
    0,
    0,
    0,
    0,
    0,
    0,
    1552,
    1552,
    1552,
    1552,
    1552,
    1552,
    1552,
    1552,
    1552,
    0,
    0,
    0,
    0,
    0,
    0,
    0,
    0,
    0,
    0,
    0,
    0,
    0,
    0,
    0,
    0,
    0,
    0,
    0,
    0,
    0,
    0,
    0,
    0,
    0,
    0,
    0,
    0,
    0,
    0,
    0,
    0,
    0,
    0,
    0,
    0,
    0,
    0,
    0,
    0,
    0,
    0,
    0,
    0,
    0,
    0,
    0,
    0,
    0,
    0,
    0,
    0,
    0,
    0,
    0,
    0,
    0,
    0,
    0,
    0,
    0,
    0,
    0,
    0,
    0,
    0,
    0,
    0,
    0,
    0,
    0,
    0,
    0,
    0,
    0,
    0,
    0,
    0,
    0,
    1552,
    1552,
    1552,
    1552,
    1552,
    1552,
    1552,
    1552,
    0,
    0,
    0,
    0,
    0,
    0,
    0,
    0,
    0,
    0,
    0,
    0,
    0,
    0,
    0,
    0,
    0,
    0,
    0,
    0,
    0,
    0,
    0,
    0,
    0,
    0,
    0,
    0,
    0,
    0,
    0,
    1552,
    1552,
    1552,
    1552,
    1552,
    1552,
    1552,
    1552,
    1552,
    1552,
    1552,
    0,
    0,
    0,
    0,
    0,
    0,
    0,
    0,
    0,
    0,
    0,
    0,
    0,
    0,
    0,
    0,
    0,
    0,
    0,
    0,
    0,
    0,
    0,
    0,
    0,
    0,
    0,
    0,
    0,
    0,
    0,
    0,
    0,
    0,
    0,
    0,
    0,
    0,
    0,
    0,
    0,
    0,
    0,
    0,
    0,
    0,
    0,
    0,
    0,
    0,
    0,
    0,
    0,
    0,
    0,
    0,
    0,
    0,
    0,
    0,
    0,
    0,
    0,
    0,
    0,
    0,
    0,
    0,
    0,
    0,
    0,
    0,
    0,
    0,
    0,
    0,
    0,
    1552,
    1552,
    1552,
    0,
    0,
    1552,
    1552,
    1552,
    1552,
    0,
    0,
    0,
    0,
    0,
    0,
    0,
    0,
    0,
    0,
    0,
    0,
    0,
    0,
    0,
    0,
    0,
    0,
    0,
    0,
    0,
    0,
    0,
    0,
    0,
    0,
    0,
    0,
    0,
    0,
    1552,
    1552,
    1552,
    1552,
    1552,
    1552,
    1552,
    1552,
    1552,
    1552,
    1552,
    1552,
    0,
    0,
    0,
    0,
    0,
    0,
    0,
    0,
    0,
    0,
    0,
    0,
    0,
    0,
    0,
    0,
    0,
    0,
    0,
    0,
    0,
    0,
    0,
    0,
    0,
    0,
    0,
    0,
    0,
    0,
    0,
    0,
    0,
    0,
    0,
    0,
    0,
    0,
    0,
    0,
    0,
    0,
    0,
    0,
    0,
    0,
    0,
    0,
    0,
    0,
    0,
    0,
    0,
    0,
    0,
    0,
    0,
    0,
    0,
    0,
    0,
    0,
    0,
    0,
    0,
    0,
    0,
    0,
    0,
    0,
    0,
    0,
    0,
    0,
    0,
    0,
    0,
    1552,
    1552,
    1552,
    1552,
    1552,
    1552,
    1552,
    1552,
    0,
    0,
    0,
    0,
    0,
    0,
    0,
    0,
    0,
    0,
    0,
    0,
    0,
    0,
    0,
    0,
    0,
    0,
    0,
    0,
    0,
    0,
    0,
    0,
    0,
    0,
    0,
    0,
    0,
    0,
    1552,
    1552,
    1552,
    1552,
    1552,
    1552,
    1552,
    1552,
    1552,
    1552,
    1552,
    1552,
    1552,
    1552,
    0,
    0,
    0,
    1552,
    0,
    0,
    0,
    0,
    0,
    0,
    0,
    0,
    0,
    0,
    0,
    0,
    0,
    0,
    0,
    0,
    0,
    0,
    0,
    0,
    0,
    0,
    0,
    0,
    0,
    0,
    0,
    0,
    0,
    0,
    0,
    0,
    0,
    0,
    0,
    0,
    0,
    0,
    0,
    0,
    0,
    0,
    0,
    0,
    0,
    0,
    0,
    0,
    0,
    0,
    0,
    0,
    0,
    0,
    0,
    0,
    0,
    0,
    0,
    0,
    0,
    0,
    0,
    0,
    0,
    0,
    0,
    0,
    0,
    0,
    0,
    0,
    1552,
    1552,
    1552,
    1552,
    0,
    1552,
    1552,
    1552,
    0,
    0,
    0,
    0,
    0,
    0,
    0,
    0,
    0,
    0,
    0,
    0,
    0,
    0,
    0,
    0,
    0,
    0,
    0,
    0,
    0,
    0,
    0,
    0,
    0,
    0,
    0,
    1552,
    1552,
    1552,
    1552,
    1552,
    1552,
    1552,
    1552,
    1552,
    1552,
    1552,
    1552,
    1552,
    1552,
    1552,
    1552,
    1552,
    1552,
    0,
    0,
    0,
    0,
    0,
    0,
    0,
    0,
    0,
    0,
    0,
    0,
    0,
    0,
    0,
    0,
    0,
    0,
    0,
    0,
    0,
    0,
    0,
    0,
    0,
    0,
    0,
    0,
    0,
    0,
    0,
    0,
    0,
    0,
    0,
    0,
    0,
    0,
    0,
    0,
    0,
    0,
    0,
    0,
    0,
    0,
    0,
    0,
    0,
    0,
    0,
    0,
    0,
    0,
    0,
    0,
    0,
    0,
    0,
    0,
    0,
    0,
    0,
    0,
    0,
    0,
    0,
    0,
    0,
    0,
    0,
    0,
    0,
    0,
    0,
    0,
    0,
    0,
    0,
    0,
    0,
    0,
    0,
    0,
    0,
    0,
    0,
    0,
    0,
    0,
    0,
    0,
    0,
    0,
    0,
    0,
    0,
    0,
    0,
    0,
    0,
    0,
    0,
    0,
    0,
    0,
    0,
    0,
    0,
    1552,
    1552,
    1552,
    1552,
    1552,
    1552,
    1552,
    1552,
    1552,
    1552,
    1552,
    1552,
    1552,
    1552,
    1552,
    1552,
    1552,
    1552,
    1552,
    1552,
    0,
    0,
    0,
    0,
    0,
    0,
    0,
    0,
    0,
    0,
    0,
    0,
    0,
    0,
    0,
    0,
    0,
    0,
    0,
    0,
    0,
    0,
    0,
    0,
    0,
    0,
    0,
    0,
    0,
    0,
    0,
    0,
    0,
    0,
    0,
    0,
    0,
    0,
    0,
    0,
    0,
    0,
    0,
    0,
    0,
    0,
    0,
    0,
    0,
    0,
    0,
    0,
    0,
    0,
    0,
    0,
    0,
    0,
    0,
    0,
    0,
    0,
    0,
    0,
    0,
    0,
    0,
    0,
    0,
    0,
    0,
    0,
    0,
    0,
    0,
    0,
    1552,
    1552,
    0,
    0,
    0,
    0,
    0,
    0,
    0,
    0,
    0,
    0,
    0,
    0,
    0,
    0,
    0,
    0,
    0,
    0,
    0,
    0,
    0,
    0,
    0,
    0,
    0,
    0,
    0,
    0,
    0,
    1552,
    1552,
    1552,
    1552,
    1552,
    1552,
    1552,
    1552,
    1552,
    1552,
    1552,
    1552,
    1552,
    1552,
    1552,
    1552,
    1552,
    1552,
    1552,
    1552,
    1552,
    1552,
    0,
    0,
    0,
    0,
    0,
    0,
    0,
    0,
    0,
    0,
    0,
    0,
    0,
    0,
    0,
    0,
    0,
    0,
    0,
    0,
    0,
    0,
    0,
    0,
    0,
    0,
    0,
    0,
    0,
    0,
    0,
    0,
    0,
    0,
    0,
    0,
    0,
    0,
    0,
    0,
    0,
    0,
    0,
    0,
    0,
    0,
    0,
    0,
    0,
    0,
    0,
    0,
    0,
    0,
    0,
    0,
    0,
    0,
    0,
    0,
    0,
    0,
    0,
    0,
    0,
    0,
    0,
    0,
    0,
    0,
    0,
    0,
    0,
    1552,
    1552,
    1552,
    1552,
    0,
    1552,
    1552,
    1552,
    1552,
    0,
    0,
    0,
    0,
    0,
    0,
    0,
    0,
    0,
    0,
    0,
    0,
    0,
    0,
    0,
    0,
    0,
    0,
    0,
    0,
    0,
    0,
    0,
    1552,
    1552,
    1552,
    1552,
    1552,
    1552,
    1552,
    1552,
    1552,
    1552,
    1552,
    1552,
    1552,
    1552,
    1552,
    1552,
    1552,
    1552,
    1552,
    1552,
    1552,
    1552,
    1552,
    0,
    0,
    0,
    0,
    0,
    0,
    0,
    0,
    0,
    0,
    0,
    0,
    0,
    0,
    0,
    0,
    0,
    0,
    0,
    0,
    0,
    0,
    0,
    0,
    0,
    0,
    0,
    0,
    0,
    0,
    0,
    0,
    0,
    0,
    0,
    0,
    0,
    0,
    0,
    0,
    0,
    0,
    0,
    0,
    0,
    0,
    0,
    0,
    0,
    0,
    0,
    0,
    0,
    0,
    0,
    0,
    0,
    0,
    0,
    0,
    0,
    0,
    0,
    0,
    0,
    0,
    0,
    0,
    0,
    0,
    0,
    0,
    0,
    1552,
    1552,
    0,
    1552,
    1552,
    1552,
    1552,
    0,
    0,
    0,
    0,
    0,
    0,
    0,
    0,
    0,
    0,
    0,
    0,
    0,
    0,
    0,
    0,
    0,
    0,
    0,
    0,
    0,
    0,
    0,
    0,
    0,
    1552,
    1552,
    1552,
    1552,
    1552,
    1552,
    1552,
    1552,
    1552,
    1552,
    1552,
    1552,
    1552,
    1552,
    1552,
    1552,
    1552,
    1552,
    1552,
    1552,
    1552,
    1552,
    0,
    0,
    0,
    0,
    0,
    0,
    0,
    0,
    0,
    0,
    0,
    0,
    0,
    0,
    0,
    0,
    0,
    0,
    0,
    0,
    0,
    0,
    0,
    0,
    0,
    0,
    0,
    0,
    0,
    0,
    0,
    0,
    0,
    0,
    0,
    0,
    0,
    0,
    0,
    0,
    0,
    0,
    0,
    0,
    0,
    0,
    0,
    0,
    0,
    0,
    0,
    0,
    0,
    0,
    0,
    0,
    0,
    0,
    0,
    0,
    0,
    0,
    0,
    0,
    0,
    0,
    0,
    0,
    0,
    0,
    0,
    0,
    0,
    0,
    1552,
    1552,
    1552,
    1552,
    1552,
    1552,
    0,
    1552,
    1552,
    1552,
    1552,
    0,
    0,
    0,
    0,
    0,
    0,
    0,
    0,
    0,
    0,
    0,
    0,
    0,
    0,
    0,
    0,
    0,
    0,
    1552,
    0,
    0,
    0,
    1552,
    1552,
    1552,
    1552,
    1552,
    1552,
    1552,
    1552,
    1552,
    1552,
    1552,
    1552,
    1552,
    1552,
    1552,
    1552,
    1552,
    1552,
    1552,
    1552,
    1552,
    0,
    0,
    1552,
    0,
    0,
    0,
    0,
    0,
    0,
    0,
    0,
    0,
    0,
    0,
    0,
    0,
    0,
    0,
    0,
    0,
    0,
    0,
    0,
    0,
    0,
    0,
    0,
    0,
    0,
    0,
    0,
    0,
    0,
    0,
    0,
    0,
    0,
    0,
    0,
    0,
    0,
    0,
    0,
    0,
    0,
    0,
    0,
    0,
    0,
    0,
    0,
    0,
    0,
    0,
    0,
    0,
    0,
    0,
    0,
    0,
    0,
    0,
    0,
    0,
    0,
    0,
    0,
    0,
    0,
    0,
    0,
    0,
    0,
    0,
    1552,
    1552,
    1552,
    1552,
    1552,
    1552,
    0,
    1552,
    1552,
    0,
    1552,
    0,
    0,
    0,
    0,
    0,
    0,
    0,
    0,
    0,
    0,
    0,
    0,
    0,
    0,
    0,
    0,
    0,
    0,
    0,
    0,
    0,
    0,
    0,
    1552,
    1552,
    1552,
    1552,
    1552,
    1552,
    1552,
    1552,
    1552,
    1552,
    1552,
    1552,
    1552,
    1552,
    1552,
    1552,
    1552,
    1552,
    1552,
    1552,
    0,
    0,
    0,
    0,
    0,
    0,
    0,
    0,
    0,
    0,
    0,
    0,
    0,
    0,
    0,
    0,
    0,
    0,
    0,
    0,
    0,
    0,
    0,
    0,
    0,
    0,
    0,
    0,
    0,
    0,
    0,
    0,
    0,
    0,
    0,
    0,
    0,
    0,
    0,
    0,
    0,
    0,
    0,
    0,
    0,
    0,
    0,
    0,
    0,
    0,
    0,
    0,
    0,
    0,
    0,
    0,
    0,
    0,
    0,
    0,
    0,
    0,
    0,
    0,
    0,
    0,
    0,
    0,
    0,
    0,
    0,
    0,
    0,
    0,
    1552,
    1552,
    1552,
    0,
    1552,
    1552,
    1552,
    1552,
    1552,
    1552,
    0,
    0,
    0,
    0,
    0,
    0,
    0,
    0,
    0,
    0,
    0,
    0,
    0,
    0,
    0,
    0,
    0,
    0,
    0,
    0,
    0,
    0,
    0,
    0,
    0,
    1552,
    1552,
    1552,
    1552,
    1552,
    1552,
    1552,
    1552,
    1552,
    1552,
    1552,
    1552,
    1552,
    1552,
    1552,
    1552,
    1552,
    1552,
    1552,
    0,
    0,
    0,
    0,
    0,
    0,
    0,
    0,
    0,
    0,
    0,
    0,
    0,
    0,
    0,
    0,
    0,
    0,
    0,
    0,
    0,
    0,
    0,
    0,
    0,
    0,
    0,
    0,
    0,
    0,
    0,
    0,
    0,
    0,
    0,
    0,
    0,
    0,
    0,
    0,
    0,
    0,
    0,
    0,
    0,
    0,
    0,
    0,
    0,
    0,
    0,
    0,
    0,
    0,
    0,
    0,
    0,
    0,
    0,
    0,
    0,
    0,
    0,
    0,
    0,
    0,
    0,
    0,
    0,
    0,
    0,
    0,
    0,
    0,
    1552,
    1552,
    1552,
    1552,
    1552,
    1552,
    1552,
    1552,
    1552,
    0,
    1552,
    0,
    0,
    0,
    0,
    0,
    0,
    0,
    0,
    0,
    0,
    0,
    0,
    0,
    0,
    0,
    0,
    0,
    0,
    0,
    0,
    0,
    0,
    0,
    0,
    1552,
    1552,
    1552,
    1552,
    1552,
    1552,
    1552,
    1552,
    1552,
    1552,
    1552,
    1552,
    1552,
    1552,
    1552,
    1552,
    1552,
    1552,
    1552,
    1552,
    0,
    0,
    0,
    0,
    0,
    0,
    0,
    0,
    0,
    0,
    0,
    0,
    0,
    0,
    0,
    0,
    0,
    0,
    0,
    0,
    0,
    0,
    0,
    0,
    0,
    0,
    0,
    0,
    0,
    0,
    0,
    0,
    0,
    0,
    0,
    0,
    0,
    0,
    0,
    0,
    0,
    0,
    0,
    0,
    0,
    0,
    0,
    0,
    0,
    0,
    0,
    0,
    0,
    0,
    0,
    0,
    0,
    0,
    0,
    0,
    0,
    0,
    0,
    0,
    0,
    0,
    0,
    0,
    0,
    0,
    0,
    0,
    0,
    1552,
    1552,
    1552,
    0,
    1552,
    1552,
    1552,
    1552,
    1552,
    1552,
    0,
    0,
    0,
    0,
    0,
    0,
    0,
    0,
    0,
    0,
    0,
    0,
    0,
    0,
    0,
    0,
    0,
    0,
    0,
    0,
    1552,
    0,
    0,
    0,
    1552,
    1552,
    1552,
    0,
    1552,
    1552,
    1552,
    1552,
    1552,
    1552,
    1552,
    1552,
    1552,
    1552,
    1552,
    1552,
    1552,
    1552,
    1552,
    1552,
    1552,
    1552,
    1552,
    1552,
    0,
    0,
    0,
    0,
    0,
    0,
    0,
    0,
    0,
    0,
    0,
    0,
    0,
    0,
    0,
    0,
    0,
    0,
    0,
    0,
    0,
    0,
    0,
    0,
    0,
    0,
    0,
    0,
    0,
    0,
    0,
    0,
    0,
    0,
    0,
    0,
    0,
    0,
    0,
    0,
    0,
    0,
    0,
    0,
    0,
    0,
    0,
    0,
    0,
    0,
    0,
    0,
    0,
    0,
    0,
    0,
    0,
    0,
    0,
    0,
    0,
    0,
    0,
    0,
    0,
    0,
    0,
    0,
    0,
    0,
    0,
    1552,
    1552,
    1552,
    0,
    1552,
    1552,
    1552,
    1552,
    1552,
    1552,
    0,
    0,
    0,
    0,
    0,
    0,
    0,
    0,
    0,
    0,
    0,
    0,
    0,
    0,
    0,
    0,
    0,
    0,
    0,
    0,
    0,
    0,
    0,
    1552,
    1552,
    0,
    0,
    0,
    1552,
    1552,
    1552,
    1552,
    1552,
    1552,
    1552,
    1552,
    1552,
    1552,
    1552,
    1552,
    1552,
    1552,
    1552,
    1552,
    0,
    0,
    1552,
    1552,
    0,
    0,
    0,
    0,
    0,
    0,
    0,
    0,
    0,
    0,
    0,
    0,
    0,
    0,
    0,
    0,
    0,
    0,
    0,
    0,
    0,
    0,
    0,
    0,
    0,
    0,
    0,
    0,
    0,
    0,
    0,
    0,
    0,
    0,
    0,
    0,
    0,
    0,
    0,
    0,
    0,
    0,
    0,
    0,
    0,
    0,
    0,
    0,
    0,
    0,
    0,
    0,
    0,
    0,
    0,
    0,
    0,
    0,
    0,
    0,
    0,
    0,
    0,
    0,
    0,
    0,
    0,
    0,
    0,
    0,
    0,
    1552,
    1552,
    1552,
    0,
    1552,
    1552,
    1552,
    1552,
    1552,
    1552,
    0,
    0,
    0,
    0,
    0,
    0,
    0,
    0,
    0,
    0,
    0,
    0,
    0,
    0,
    0,
    0,
    0,
    0,
    0,
    0,
    0,
    0,
    0,
    0,
    0,
    0,
    0,
    0,
    0,
    1552,
    1552,
    1552,
    1552,
    1552,
    1552,
    1552,
    1552,
    1552,
    1552,
    1552,
    1552,
    1552,
    0,
    0,
    0,
    0,
    1552,
    1552,
    0,
    0,
    0,
    0,
    0,
    0,
    0,
    0,
    0,
    0,
    0,
    0,
    0,
    0,
    0,
    0,
    0,
    0,
    0,
    0,
    0,
    0,
    0,
    0,
    0,
    0,
    0,
    0,
    0,
    0,
    0,
    0,
    0,
    0,
    0,
    0,
    0,
    0,
    0,
    0,
    0,
    0,
    0,
    0,
    0,
    0,
    0,
    0,
    0,
    0,
    0,
    0,
    0,
    0,
    0,
    0,
    0,
    0,
    0,
    0,
    0,
    0,
    0,
    0,
    0,
    0,
    1552,
    0,
    1552,
    1552,
    1552,
    1552,
    1552,
    0,
    0,
    0,
    1552,
    0,
    0,
    1552,
    0,
    0,
    0,
    0,
    0,
    0,
    0,
    0,
    0,
    0,
    0,
    0,
    0,
    0,
    0,
    0,
    0,
    0,
    0,
    1552,
    0,
    0,
    0,
    0,
    1552,
    0,
    0,
    0,
    0,
    0,
    1552,
    1552,
    1552,
    1552,
    1552,
    1552,
    1552,
    1552,
    1552,
    1552,
    1552,
    0,
    0,
    0,
    0,
    0,
    0,
    1552,
    1552,
    1552,
    0,
    0,
    0,
    0,
    0,
    0,
    0,
    0,
    0,
    0,
    0,
    0,
    0,
    0,
    0,
    0,
    0,
    0,
    0,
    0,
    0,
    0,
    0,
    0,
    0,
    0,
    0,
    0,
    0,
    0,
    0,
    0,
    0,
    0,
    0,
    0,
    0,
    0,
    0,
    0,
    0,
    0,
    0,
    0,
    0,
    0,
    0,
    0,
    0,
    0,
    0,
    0,
    0,
    0,
    0,
    0,
    0,
    0,
    0,
    0,
    0,
    1552,
    0,
    1552,
    0,
    0,
    0,
    1552,
    1552,
    0,
    0,
    0,
    1552,
    1552,
    0,
    1552,
    0,
    0,
    0,
    0,
    0,
    0,
    0,
    0,
    0,
    0,
    0,
    0,
    0,
    0,
    0,
    0,
    0,
    0,
    0,
    0,
    0,
    0,
    0,
    0,
    0,
    0,
    1552,
    0,
    0,
    0,
    0,
    0,
    0,
    1552,
    1552,
    1552,
    1552,
    1552,
    1552,
    1552,
    0,
    0,
    0,
    0,
    0,
    0,
    1552,
    0,
    0,
    0,
    0,
    1552,
    1552,
    1552,
    1552,
    1552,
    0,
    0,
    0,
    0,
    0,
    0,
    0,
    0,
    0,
    0,
    0,
    0,
    0,
    0,
    0,
    0,
    0,
    0,
    0,
    0,
    0,
    0,
    0,
    0,
    0,
    0,
    0,
    1552,
    1552,
    1552,
    0,
    0,
    0,
    0,
    0,
    0,
    0,
    0,
    0,
    0,
    0,
    0,
    0,
    0,
    0,
    0,
    0,
    0,
    0,
    0,
    0,
    0,
    0,
    0,
    0,
    0,
    0,
    0,
    0,
    0,
    0,
    0,
    0,
    0,
    0,
    1552,
    0,
    0,
    1552,
    1552,
    0,
    0,
    0,
    0,
    0,
    0,
    0,
    0,
    0,
    0,
    0,
    0,
    0,
    0,
    0,
    0,
    0,
    0,
    0,
    0,
    0,
    0,
    0,
    0,
    0,
    0,
    0,
    1552,
    1552,
    1552,
    0,
    0,
    0,
    0,
    0,
    1552,
    1552,
    1552,
    1552,
    1552,
    1552,
    0,
    0,
    0,
    0,
    0,
    0,
    1552,
    1552,
    1552,
    1552,
    0,
    0,
    0,
    0,
    0,
    1552,
    1552,
    1552,
    0,
    0,
    0,
    0,
    1552,
    0,
    0,
    0,
    0,
    0,
    0,
    1552,
    0,
    0,
    0,
    0,
    0,
    0,
    0,
    0,
    0,
    0,
    0,
    0,
    0,
    1552,
    1552,
    1552,
    1552,
    1552,
    0,
    0,
    0,
    0,
    0,
    0,
    0,
    0,
    0,
    0,
    0,
    0,
    0,
    0,
    0,
    0,
    0,
    0,
    0,
    0,
    0,
    0,
    0,
    0,
    0,
    0,
    0,
    0,
    0,
    0,
    0,
    0,
    0,
    0,
    0,
    0,
    1552,
    0,
    0,
    0,
    0,
    0,
    0,
    0,
    0,
    0,
    0,
    0,
    0,
    0,
    0,
    0,
    0,
    0,
    0,
    0,
    0,
    0,
    0,
    0,
    0,
    0,
    0,
    0,
    0,
    0,
    0,
    1552,
    1552,
    1552,
    0,
    0,
    0,
    0,
    1552,
    1552,
    1552,
    1552,
    1552,
    0,
    0,
    0,
    0,
    0,
    1552,
    1552,
    0,
    1552,
    1552,
    0,
    1552,
    0,
    0,
    0,
    0,
    0,
    1552,
    1552,
    1552,
    1552,
    1552,
    0,
    0,
    0,
    0,
    1552,
    1552,
    1552,
    1552,
    0,
    0,
    0,
    0,
    0,
    0,
    0,
    0,
    0,
    0,
    0,
    0,
    1552,
    1552,
    1552,
    1552,
    1552,
    1552,
    1552,
    1552,
    1552,
    1552,
    0,
    0,
    0,
    0,
    0,
    0,
    0,
    0,
    0,
    0,
    0,
    0,
    0,
    0,
    0,
    0,
    0,
    0,
    0,
    0,
    0,
    0,
    1552,
    0,
    0,
    0,
    0,
    0,
    0,
    0,
    0,
    0,
    0,
    0,
    0,
    0,
    0,
    0,
    0,
    0,
    0,
    0,
    0,
    0,
    0,
    0,
    0,
    0,
    0,
    0,
    0,
    0,
    0,
    0,
    0,
    0,
    0,
    0,
    0,
    0,
    0,
    0,
    0,
    0,
    0,
    0,
    0,
    0,
    0,
    0,
    0,
    0,
    1552,
    1552,
    1552,
    0,
    0,
    0,
    0,
    0,
    1552,
    1552,
    1552,
    0,
    0,
    0,
    0,
    0,
    0,
    0,
    0,
    0,
    0,
    0,
    0,
    0,
    1552,
    1552,
    1552,
    0,
    0,
    1552,
    1552,
    1552,
    1552,
    1552,
    1552,
    0,
    0,
    0,
    0,
    0,
    1552,
    1552,
    0,
    0,
    0,
    1552,
    1552,
    1552,
    1552,
    1552,
    1552,
    1552,
    1552,
    1552,
    1552,
    1552,
    1552,
    0,
    0,
    0,
    0,
    0,
    0,
    0,
    0,
    0,
    0,
    0,
    0,
    0,
    0,
    0,
    0,
    0,
    0,
    0,
    0,
    1552,
    0,
    0,
    0,
    0,
    0,
    0,
    0,
    0,
    0,
    0,
    0,
    0,
    0,
    0,
    0,
    0,
    0,
    0,
    0,
    0,
    0,
    0,
    0,
    0,
    0,
    0,
    0,
    0,
    0,
    0,
    0,
    0,
    0,
    0,
    0,
    0,
    0,
    0,
    0,
    0,
    0,
    0,
    0,
    0,
    0,
    0,
    0,
    0,
    0,
    0,
    0,
    0,
    0,
    0,
    0,
    0,
    0,
    1552,
    0,
    0,
    0,
    0,
    0,
    0,
    0,
    0,
    0,
    0,
    0,
    0,
    0,
    0,
    0,
    0,
    0,
    1552,
    1552,
    1552,
    1552,
    1552,
    1552,
    0,
    0,
    1552,
    1552,
    1552,
    0,
    0,
    0,
    0,
    1552,
    1552,
    1552,
    0,
    0,
    1552,
    1552,
    1552,
    1552,
    1552,
    1552,
    1552,
    1552,
    1552,
    1552,
    1552,
    1552,
    0,
    0,
    0,
    1552,
    0,
    0,
    0,
    0,
    0,
    0,
    0,
    0,
    0,
    0,
    0,
    0,
    0,
    0,
    0,
    1552,
    1552,
    0,
    0,
    0,
    0,
    0,
    0,
    0,
    0,
    0,
    0,
    0,
    0,
    0,
    0,
    0,
    0,
    0,
    0,
    0,
    0,
    0,
    0,
    0,
    0,
    0,
    0,
    0,
    0,
    0,
    0,
    0,
    0,
    0,
    0,
    0,
    0,
    0,
    0,
    0,
    0,
    0,
    0,
    0,
    0,
    0,
    0,
    0,
    0,
    0,
    0,
    0,
    0,
    0,
    0,
    0,
    0,
    0,
    0,
    0,
    0,
    0,
    0,
    0,
    0,
    0,
    0,
    0,
    0,
    0,
    0,
    0,
    0,
    0,
    0,
    0,
    0,
    1552,
    1552,
    1552,
    1552,
    0,
    0,
    1552,
    0,
    1552,
    1552,
    1552,
    0,
    0,
    0,
    1552,
    1552,
    0,
    1552,
    1552,
    1552,
    1552,
    1552,
    1552,
    1552,
    1552,
    1552,
    1552,
    1552,
    1552,
    1552,
    1552,
    0,
    0,
    0,
    0,
    0,
    0,
    0,
    0,
    1552,
    1552,
    0,
    0,
    0,
    0,
    0,
    0,
    1552,
    0,
    0,
    1552,
    1552,
    0,
    0,
    0,
    0,
    0,
    0,
    0,
    0,
    0,
    0,
    0,
    0,
    0,
    0,
    0,
    0,
    0,
    0,
    0,
    0,
    0,
    0,
    0,
    0,
    0,
    0,
    0,
    0,
    0,
    0,
    0,
    0,
    0,
    0,
    0,
    0,
    0,
    0,
    0,
    0,
    0,
    0,
    0,
    0,
    0,
    0,
    0,
    0,
    0,
    0,
    0,
    0,
    0,
    0,
    0,
    0,
    0,
    0,
    0,
    0,
    0,
    0,
    0,
    0,
    0,
    0,
    0,
    0,
    0,
    0,
    0,
    0,
    0,
    0,
    1552,
    1552,
    0,
    0,
    0,
    0,
    0,
    1552,
    0,
    0,
    0,
    1552,
    1552,
    1552,
    0,
    0,
    0,
    0,
    1552,
    1552,
    1552,
    1552,
    1552,
    1552,
    1552,
    1552,
    1552,
    1552,
    1552,
    1552,
    1552,
    1552,
    1552,
    1552,
    1552,
    0,
    0,
    1552,
    0,
    0,
    1552,
    1552,
    1552,
    0,
    0,
    0,
    1552,
    1552,
    0,
    0,
    1552,
    1552,
    1552,
    0,
    0,
    0,
    0,
    0,
    0,
    0,
    0,
    0,
    0,
    0,
    0,
    0,
    0,
    0,
    0,
    0,
    0,
    0,
    0,
    0,
    0,
    0,
    0,
    0,
    0,
    0,
    0,
    0,
    0,
    0,
    0,
    0,
    0,
    0,
    0,
    0,
    0,
    0,
    0,
    0,
    0,
    0,
    0,
    0,
    0,
    0,
    0,
    0,
    0,
    0,
    0,
    0,
    0,
    0,
    0,
    0,
    0,
    0,
    0,
    0,
    0,
    0,
    0,
    0,
    0,
    0,
    0,
    0,
    0,
    0,
    0,
    0,
    0,
    0,
    1552,
    1552,
    0,
    0,
    0,
    0,
    0,
    0,
    0,
    0,
    0,
    0,
    1552,
    1552,
    1552,
    0,
    0,
    1552,
    1552,
    1552,
    1552,
    1552,
    1552,
    1552,
    1552,
    1552,
    1552,
    1552,
    1552,
    1552,
    1552,
    1552,
    1552,
    1552,
    1552,
    1552,
    0,
    0,
    0,
    0,
    1552,
    0,
    1552,
    1552,
    1552,
    1552,
    1552,
    1552,
    0,
    1552,
    1552,
    1552,
    0,
    0,
    0,
    0,
    0,
    0,
    0,
    0,
    0,
    0,
    0,
    0,
    0,
    0,
    0,
    0,
    0,
    0,
    0,
    0,
    0,
    0,
    0,
    0,
    0,
    0,
    0,
    0,
    0,
    0,
    0,
    0,
    0,
    0,
    0,
    0,
    0,
    0,
    0,
    0,
    0,
    0,
    0,
    0,
    0,
    0,
    0,
    0,
    0,
    0,
    0,
    0,
    0,
    0,
    0,
    0,
    0,
    0,
    0,
    0,
    0,
    0,
    0,
    0,
    0,
    0,
    0,
    0,
    0,
    0,
    0,
    0,
    0,
    0,
    0,
    0,
    0,
    0,
    0,
    0,
    0,
    0,
    0,
    0,
    0,
    0,
    0,
    0,
    0,
    1552,
    1552,
    1552,
    1552,
    1552,
    1552,
    1552,
    1552,
    1552,
    1552,
    1552,
    1552,
    1552,
    1552,
    1552,
    1552,
    1552,
    1552,
    1552,
    1552,
    1552,
    1552,
    1552,
    1552,
    0,
    0,
    0,
    0,
    1552,
    1552,
    1552,
    1552,
    1552,
    1552,
    0,
    1552,
    1552,
    1552,
    1552,
    0,
    0,
    0,
    0,
    0,
    0,
    0,
    0,
    0,
    0,
    0,
    0,
    0,
    0,
    0,
    0,
    0,
    0,
    0,
    0,
    0,
    0,
    0,
    0,
    0,
    0,
    0,
    0,
    0,
    0,
    0,
    0,
    0,
    0,
    0,
    0,
    0,
    0,
    0,
    0,
    0,
    0,
    0,
    0,
    0,
    0,
    0,
    0,
    0,
    0,
    0,
    0,
    0,
    0,
    0,
    0,
    0,
    0,
    0,
    0,
    0,
    0,
    0,
    0,
    0,
    0,
    0,
    0,
    0,
    0,
    0,
    0,
    0,
    0,
    0,
    0,
    0,
    0,
    0,
    0,
    0,
    0,
    0,
    0,
    0,
    0,
    0,
    0,
    0,
    0,
    0,
    0,
    0,
    1552,
    1552,
    1552,
    1552,
    1552,
    1552,
    1552,
    1552,
    1552,
    1552,
    1552,
    1552,
    1552,
    1552,
    1552,
    1552,
    1552,
    1552,
    1552,
    1552,
    0,
    0,
    0,
    0,
    0,
    1552,
    1552,
    1552,
    1552,
    1552,
    0,
    1552,
    1552,
    1552,
    1552,
    0,
    1552,
    0,
    0,
    0,
    0,
    0,
    0,
    0,
    0,
    0,
    0,
    0,
    0,
    0,
    0,
    0,
    0,
    0,
    0,
    0,
    0,
    0,
    0,
    0,
    0,
    0,
    0,
    0,
    0,
    0,
    0,
    0,
    0,
    0,
    0,
    0,
    0,
    0,
    0,
    0,
    0,
    0,
    0,
    0,
    0,
    0,
    0,
    0,
    0,
    0,
    0,
    0,
    0,
    0,
    0,
    0,
    0,
    0,
    0,
    0,
    0,
    0,
    0,
    0,
    0,
    0,
    0,
    0,
    0,
    0,
    0,
    0,
    0,
    0,
    0,
    0,
    0,
    0,
    0,
    0,
    0,
    0,
    0,
    0,
    0,
    0,
    0,
    0,
    0,
    0,
    0,
    0,
    0,
    1552,
    1552,
    1552,
    1552,
    1552,
    1552,
    1552,
    1552,
    1552,
    1552,
    1552,
    1552,
    1552,
    1552,
    1552,
    1552,
    1552,
    1552,
    1552,
    1552,
    0,
    0,
    0,
    0,
    0,
    1552,
    1552,
    1552,
    1552,
    1552,
    1552,
    1552,
    1552,
    0,
    0,
    0,
    0,
    0,
    0,
    0,
    0,
    0,
    0,
    0,
    1552,
    1552,
    1552,
    0,
    0,
    0,
    0,
    0,
    0,
    0,
    0,
    0,
    0,
    0,
    0,
    0,
    0,
    0,
    0,
    0,
    0,
    0,
    0,
    0,
    0,
    0,
    0,
    0,
    0,
    0,
    0,
    0,
    0,
    0,
    0,
    0,
    0,
    0,
    0,
    0,
    0,
    0,
    0,
    0,
    0,
    0,
    0,
    0,
    0,
    0,
    0,
    0,
    0,
    0,
    0,
    0,
    0,
    0,
    0,
    0,
    0,
    0,
    0,
    0,
    0,
    0,
    0,
    0,
    0,
    0,
    0,
    0,
    0,
    0,
    0,
    0,
    0,
    0,
    0,
    0,
    1552,
    1552,
    0,
    0,
    0,
    1552,
    1552,
    1552,
    1552,
    1552,
    1552,
    1552,
    1552,
    1552,
    1552,
    1552,
    1552,
    1552,
    1552,
    1552,
    1552,
    1552,
    1552,
    1552,
    1552,
    0,
    0,
    1552,
    0,
    0,
    1552,
    1552,
    1552,
    1552,
    1552,
    1552,
    1552,
    0,
    0,
    0,
    0,
    0,
    0,
    0,
    0,
    0,
    0,
    1552,
    1552,
    1552,
    0,
    0,
    0,
    0,
    0,
    0,
    0,
    0,
    0,
    0,
    0,
    0,
    0,
    0,
    0,
    0,
    0,
    0,
    0,
    0,
    0,
    0,
    0,
    0,
    0,
    0,
    0,
    0,
    0,
    0,
    0,
    0,
    0,
    0,
    0,
    0,
    0,
    0,
    0,
    0,
    0,
    0,
    0,
    0,
    0,
    0,
    0,
    0,
    0,
    0,
    0,
    0,
    0,
    0,
    0,
    0,
    0,
    0,
    0,
    0,
    0,
    0,
    0,
    0,
    0,
    0,
    0,
    0,
    0,
    0,
    0,
    0,
    0,
    0,
    0,
    0,
    0,
    0,
    0,
    0,
    1552,
    0,
    0,
    0,
    1552,
    1552,
    1552,
    1552,
    1552,
    1552,
    1552,
    1552,
    1552,
    1552,
    1552,
    1552,
    1552,
    1552,
    1552,
    1552,
    1552,
    1552,
    1552,
    0,
    0,
    0,
    0,
    1552,
    1552,
    1552,
    1552,
    1552,
    1552,
    0,
    0,
    0,
    0,
    0,
    0,
    0,
    0,
    0,
    0,
    0,
    0,
    1552,
    0,
    0,
    0,
    1552,
    0,
    0,
    0,
    0,
    0,
    0,
    0,
    0,
    0,
    0,
    0,
    0,
    0,
    0,
    0,
    0,
    0,
    0,
    0,
    0,
    0,
    0,
    0,
    0,
    0,
    0,
    0,
    0,
    0,
    0,
    0,
    0,
    0,
    0,
    0,
    0,
    0,
    0,
    0,
    0,
    0,
    0,
    0,
    0,
    0,
    0,
    0,
    0,
    0,
    0,
    0,
    0,
    0,
    0,
    0,
    0,
    0,
    0,
    0,
    0,
    0,
    0,
    0,
    0,
    0,
    0,
    0,
    0,
    0,
    0,
    0,
    0,
    0,
    0,
    0,
    0,
    0,
    0,
    0,
    0,
    0,
    1552,
    0,
    1552,
    1552,
    1552,
    1552,
    1552,
    1552,
    1552,
    1552,
    1552,
    1552,
    1552,
    1552,
    1552,
    1552,
    1552,
    1552,
    1552,
    0,
    0,
    0,
    0,
    1552,
    0,
    1552,
    1552,
    1552,
    1552,
    1552,
    0,
    1552,
    0,
    0,
    0,
    0,
    0,
    0,
    0,
    0,
    0,
    0,
    0,
    1552,
    0,
    1552,
    0,
    0,
    0,
    0,
    0,
    0,
    0,
    0,
    0,
    0,
    0,
    0,
    0,
    0,
    0,
    0,
    0,
    0,
    0,
    0,
    0,
    0,
    0,
    0,
    0,
    0,
    0,
    0,
    0,
    0,
    0,
    0,
    0,
    0,
    0,
    0,
    0,
    0,
    0,
    0,
    0,
    0,
    0,
    0,
    0,
    0,
    0,
    0,
    0,
    0,
    0,
    0,
    0,
    0,
    0,
    0,
    0,
    0,
    0,
    0,
    0,
    0,
    0,
    0,
    0,
    0,
    0,
    0,
    0,
    0,
    0,
    0,
    0,
    0,
    0,
    0,
    0,
    0,
    0,
    0,
    0,
    0,
    0,
    0,
    1552,
    1552,
    1552,
    1552,
    1552,
    1552,
    1552,
    1552,
    1552,
    1552,
    1552,
    1552,
    1552,
    1552,
    1552,
    1552,
    0,
    0,
    0,
    0,
    0,
    0,
    0,
    1552,
    1552,
    1552,
    0,
    0,
    1552,
    0,
    0,
    0,
    0,
    0,
    0,
    0,
    0,
    0,
    0,
    0,
    0,
    0,
    1552,
    1552,
    1552,
    0,
    0,
    0,
    0,
    0,
    0,
    0,
    0,
    0,
    0,
    0,
    0,
    0,
    0,
    0,
    0,
    0,
    0,
    0,
    0,
    0,
    0,
    0,
    0,
    0,
    0,
    0,
    0,
    0,
    0,
    0,
    0,
    0,
    0,
    0,
    0,
    0,
    0,
    0,
    0,
    0,
    0,
    0,
    0,
    0,
    0,
    0,
    0,
    0,
    0,
    0,
    0,
    0,
    0,
    0,
    0,
    0,
    0,
    0,
    0,
    0,
    0,
    0,
    0,
    0,
    0,
    0,
    0,
    0,
    0,
    0,
    0,
    0,
    0,
    0,
    0,
    0,
    0,
    1552,
    0,
    0,
    0,
    0,
    0,
    1552,
    1552,
    1552,
    1552,
    1552,
    1552,
    1552,
    1552,
    1552,
    1552,
    1552,
    1552,
    1552,
    1552,
    0,
    0,
    0,
    0,
    0,
    0,
    0,
    0,
    1552,
    1552,
    0,
    1552,
    0,
    0,
    0,
    0,
    0,
    0,
    0,
    0,
    0,
    0,
    0,
    0,
    0,
    0,
    1552,
    1552,
    1552,
    0,
    0,
    0,
    0,
    0,
    0,
    0,
    0,
    0,
    0,
    0,
    0,
    0,
    0,
    0,
    0,
    0,
    0,
    0,
    0,
    0,
    0,
    0,
    0,
    0,
    0,
    0,
    0,
    0,
    0,
    0,
    0,
    0,
    0,
    0,
    0,
    0,
    0,
    0,
    0,
    0,
    0,
    0,
    0,
    0,
    0,
    0,
    0,
    0,
    0,
    0,
    0,
    0,
    0,
    0,
    0,
    0,
    0,
    0,
    0,
    0,
    0,
    0,
    0,
    0,
    0,
    0,
    0,
    0,
    0,
    0,
    0,
    0,
    0,
    0,
    0,
    0,
    1552,
    0,
    0,
    0,
    0,
    0,
    0,
    0,
    0,
    1552,
    1552,
    1552,
    1552,
    1552,
    1552,
    0,
    0,
    1552,
    1552,
    1552,
    1552,
    0,
    0,
    0,
    0,
    0,
    0,
    0,
    0,
    0,
    0,
    0,
    0,
    0,
    0,
    0,
    0,
    0,
    0,
    0,
    0,
    0,
    0,
    0,
    0,
    0,
    0,
    0,
    0,
    0,
    0,
    1552,
    0,
    0,
    0,
    0,
    0,
    0,
    0,
    0,
    0,
    0,
    0,
    0,
    0,
    0,
    0,
    0,
    0,
    0,
    0,
    0,
    0,
    0,
    0,
    0,
    0,
    0,
    0,
    0,
    0,
    0,
    0,
    0,
    0,
    0,
    0,
    0,
    0,
    0,
    0,
    0,
    0,
    0,
    0,
    0,
    0,
    0,
    0,
    0,
    0,
    0,
    0,
    0,
    0,
    0,
    0,
    0,
    0,
    0,
    0,
    0,
    0,
    0,
    0,
    0,
    0,
    0,
    0,
    0,
    0,
    0,
    0,
    0,
    0,
    0,
    0,
    0,
    0,
    0,
    0,
    0,
    0,
    0,
    0,
    0,
    0,
    0,
    1552,
    1552,
    1552,
    1552,
    0,
    0,
    0,
    0,
    1552,
    1552,
    0,
    0,
    0,
    0,
    0,
    0,
    0,
    0,
    0,
    0,
    1552,
    0,
    0,
    0,
    0,
    0,
    0,
    0,
    0,
    0,
    0,
    0,
    0,
    0,
    0,
    0,
    0,
    0,
    0,
    0,
    0,
    0,
    0,
    0,
    0,
    0,
    0,
    0,
    0,
    0,
    0,
    0,
    0,
    0,
    0,
    0,
    0,
    0,
    0,
    0,
    0,
    0,
    0,
    0,
    0,
    0,
    0,
    0,
    0,
    0,
    0,
    0,
    0,
    0,
    0,
    0,
    0,
    0,
    0,
    0,
    0,
    0,
    0,
    0,
    0,
    0,
    0,
    0,
    0,
    0,
    0,
    0,
    0,
    0,
    0,
    0,
    0,
    0,
    0,
    0,
    0,
    0,
    0,
    0,
    0,
    0,
    0,
    0,
    0,
    0,
    0,
    0,
    0,
    0,
    0,
    0,
    0,
    0,
    0,
    1552,
    0,
    0,
    0,
    0,
    0,
    0,
    0,
    0,
    0,
    0,
    0,
    0,
    0,
    0,
    0,
    0,
    0,
    0,
    0,
    0,
    0,
    0,
    0,
    0,
    0,
    0,
    0,
    0,
    0,
    1552,
    1552,
    0,
    0,
    0,
    0,
    0,
    0,
    0,
    0,
    0,
    0,
    0,
    0,
    0,
    0,
    0,
    0,
    0,
    0,
    0,
    0,
    0,
    0,
    0,
    0,
    0,
    0,
    0,
    0,
    0,
    0,
    0,
    0,
    0,
    0,
    0,
    0,
    0,
    0,
    0,
    0,
    0,
    0,
    0,
    0,
    0,
    0,
    0,
    0,
    0,
    0,
    0,
    0,
    0,
    0,
    0,
    0,
    0,
    0,
    0,
    0,
    0,
    0,
    0,
    0,
    0,
    0,
    0,
    0,
    0,
    0,
    0,
    0,
    0,
    0,
    0,
    0,
    0,
    0,
    0,
    0,
    0,
    0,
    0,
    0,
    0,
    0,
    0,
    0,
    0,
    0,
    0,
    0,
    0,
    0,
    0,
    0,
    0,
    0,
    0,
    0,
    0,
    0,
    0,
    0,
    0,
    0,
    0,
    0,
    0,
    0,
    1552,
    0,
    0,
    0,
    0,
    0,
    0,
    0,
    1552,
    1552,
    0,
    0,
    0,
    0,
    0,
    1552,
    1552,
    1552,
    0,
    0,
    0,
    0,
    0,
    0,
    0,
    0,
    0,
    0,
    0,
    0,
    0,
    0,
    0,
    0,
    0,
    0,
    0,
    0,
    0,
    0,
    0,
    0,
    0,
    0,
    0,
    0,
    0,
    0,
    0,
    0,
    0,
    0,
    0,
    0,
    0,
    0,
    0,
    0,
    0,
    0,
    0,
    0,
    0,
    0,
    0,
    0,
    0,
    0,
    0,
    0,
    0,
    0,
    0,
    0,
    0,
    0,
    0,
    0,
    0,
    0,
    0,
    0,
    0,
    0,
    0,
    0,
    0,
    0,
    0,
    0,
    0,
    0,
    0,
    0,
    0,
    0,
    0,
    0,
    0,
    0,
    0,
    0,
    0,
    0,
    0,
    0,
    0,
    0,
    0,
    0,
    0,
    0,
    0,
    0,
    0,
    0,
    0,
    0,
    0,
    0,
    0,
    0,
    0,
    0,
    0,
    0,
    0,
    0,
    1552,
    0,
    0,
    0,
    0,
    0,
    0,
    1552,
    1552,
    1552,
    1552,
    0,
    0,
    0,
    0,
    1552,
    1552,
    0,
    1552,
    0,
    0,
    0,
    0,
    0,
    0,
    0,
    0,
    0,
    0,
    0,
    0,
    0,
    0,
    0,
    0,
    0,
    0,
    0,
    0,
    0,
    0,
    0,
    0,
    0,
    0,
    0,
    0,
    0,
    0,
    0,
    0,
    0,
    0,
    0,
    0,
    0,
    0,
    0,
    0,
    0,
    0,
    0,
    0,
    0,
    0,
    0,
    0,
    0,
    0,
    0,
    0,
    0,
    0,
    0,
    0,
    0,
    0,
    0,
    0,
    0,
    0,
    0,
    0,
    0,
    0,
    0,
    0,
    0,
    0,
    0,
    0,
    0,
    0,
    0,
    0,
    0,
    0,
    0,
    0,
    0,
    0,
    0,
    0,
    0,
    0,
    0,
    0,
    0,
    0,
    0,
    0,
    0,
    0,
    0,
    0,
    0,
    0,
    0,
    0,
    0,
    0,
    0,
    0,
    0,
    0,
    0,
    1552,
    1552,
    0,
    1552,
    1552,
    0,
    0,
    0,
    1552,
    1552,
    0,
    1552,
    1552,
    1552,
    1552,
    0,
    1552,
    1552,
    1552,
    0,
    0,
    0,
    0,
    0,
    0,
    0,
    0,
    0,
    0,
    0,
    0,
    0,
    0,
    0,
    0,
    0,
    0,
    0,
    0,
    0,
    0,
    0,
    0,
    0,
    0,
    0,
    0,
    0,
    0,
    0,
    0,
    0,
    0,
    0,
    0,
    0,
    0,
    0,
    0,
    0,
    0,
    0,
    0,
    0,
    0,
    0,
    0,
    0,
    0,
    0,
    0,
    0,
    0,
    0,
    0,
    0,
    0,
    0,
    0,
    0,
    0,
    0,
    0,
    0,
    0,
    0,
    0,
    0,
    0,
    0,
    0,
    0,
    0,
    0,
    0,
    0,
    0,
    0,
    0,
    0,
    0,
    0,
    0,
    0,
    0,
    0,
    0,
    0,
    0,
    0,
    0,
    0,
    0,
    0,
    0,
    0,
    0,
    0,
    0,
    0,
    0,
    0,
    0,
    1552,
    1552,
    0,
    0,
    1552,
    1552,
    1552,
    1552,
    1552,
    1552,
    0,
    0,
    1552,
    1552,
    1552,
    0,
    0,
    1552,
    1552,
    1552,
    1552,
    0,
    0,
    1552,
    0,
    0,
    0,
    0,
    0,
    0,
    0,
    0,
    0,
    0,
    0,
    0,
    0,
    0,
    0,
    0,
    0,
    0,
    0,
    0,
    0,
    0,
    0,
    0,
    0,
    0,
    0,
    0,
    0,
    0,
    0,
    0,
    0,
    0,
    0,
    0,
    0,
    0,
    0,
    0,
    0,
    0,
    0,
    0,
    0,
    0,
    0,
    0,
    0,
    0,
    0,
    0,
    0,
    0,
    0,
    0,
    0,
    0,
    0,
    0,
    0,
    0,
    0,
    0,
    0,
    0,
    0,
    0,
    0,
    0,
    0,
    0,
    0,
    0,
    0,
    0,
    0,
    0,
    0,
    0,
    0,
    0,
    0,
    0,
    0,
    0,
    0,
    0,
    0,
    0,
    0,
    0,
    0,
    0,
    0,
    0,
    0,
    0,
    0,
    0,
    0,
    0,
    0,
    0,
    0,
    1552,
    1552,
    0,
    1552,
    1552,
    1552,
    1552,
    0,
    1552,
    1552,
    1552,
    0,
    0,
    0,
    0,
    0,
    1552,
    0,
    0,
    0,
    0,
    0,
    0,
    0,
    0,
    0,
    0,
    0,
    0,
    0,
    0,
    0,
    0,
    0,
    0,
    0,
    0,
    0,
    0,
    0,
    0,
    0,
    0,
    0,
    0,
    0,
    0,
    0,
    0,
    0,
    0,
    0,
    0,
    0,
    0,
    0,
    0,
    0,
    0,
    0,
    0,
    0,
    0,
    0,
    0,
    0,
    0,
    0,
    0,
    0,
    0,
    0,
    0,
    0,
    0,
    0,
    0,
    0,
    0,
    0,
    0,
    0,
    0,
    0,
    0,
    0,
    0,
    0,
    0,
    0,
    0,
    0,
    0,
    0,
    0,
    0,
    0,
    0,
    0,
    0,
    0,
    0,
    0,
    0,
    0,
    0,
    0,
    0,
    0,
    0,
    0,
    0,
    0,
    0,
    0,
    0,
    0,
    0,
    0,
    0,
    0,
    0,
    0,
    0,
    0,
    1552,
    0,
    0,
    1552,
    1552,
    0,
    0,
    0,
    1552,
    1552,
    0,
    1552,
    1552,
    1552,
    0,
    0,
    0,
    0,
    0,
    0,
    0,
    0,
    0,
    0,
    0,
    0,
    0,
    0,
    0,
    0,
    0,
    0,
    0,
    0,
    0,
    0,
    0,
    0,
    0,
    0,
    0,
    0,
    0,
    0,
    0,
    0,
    0,
    0,
    0,
    0,
    0,
    0,
    0,
    0,
    0,
    0,
    0,
    0,
    0,
    0,
    0,
    0,
    0,
    0,
    0,
    0,
    0,
    0,
    0,
    0,
    0,
    0,
    0,
    0,
    0,
    0,
    0,
    0,
    0,
    0,
    0,
    0,
    0,
    0,
    0,
    0,
    0,
    0,
    0,
    0,
    0,
    0,
    0,
    0,
    0,
    0,
    0,
    0,
    0,
    0,
    0,
    0,
    0,
    0,
    0,
    0,
    0,
    0,
    0,
    0,
    0,
    0,
    0,
    0,
    0,
    0,
    0,
    0,
    0,
    0,
    0,
    0,
    0,
    0,
    0,
    0,
    0,
    0,
    0,
    0,
    1552,
    1552,
    1552,
    1552,
    0,
    0,
    0,
    1552,
    1552,
    1552,
    0,
    0,
    0,
    0,
    0,
    0,
    0,
    0,
    0,
    0,
    0,
    0,
    0,
    0,
    0,
    0,
    0,
    0,
    0,
    0,
    0,
    0,
    0,
    0,
    0,
    0,
    0,
    0,
    0,
    0,
    0,
    0,
    0,
    0,
    0,
    0,
    0,
    0,
    0,
    0,
    0,
    0,
    0,
    0,
    0,
    0,
    0,
    0,
    0,
    0,
    0,
    0,
    0,
    0,
    0,
    0,
    0,
    0,
    0,
    0,
    0,
    0,
    0,
    0,
    0,
    0,
    0,
    0,
    0,
    0,
    0,
    0,
    0,
    0,
    0,
    0,
    0,
    0,
    0,
    0,
    0,
    0,
    0,
    0,
    0,
    0,
    0,
    0,
    0,
    0,
    0,
    0,
    0,
    0,
    0,
    0,
    0,
    0,
    0,
    0,
    0,
    0,
    0,
    0,
    0,
    0,
    0,
    0,
    0,
    0,
    0,
    0,
    0,
    0,
    0,
    0,
    0,
    0,
    0,
    1552,
    1552,
    1552,
    1552,
    1552,
    0,
    1552,
    1552,
    1552,
    0,
    0,
    0,
    0,
    0,
    0,
    0,
    0,
    0,
    0,
    0,
    0,
    0,
    0,
    0,
    0,
    0,
    0,
    0,
    0,
    0,
    0,
    0,
    0,
    0,
    0,
    0,
    0,
    0,
    0,
    0,
    0,
    0,
    0,
    0,
    0,
    0,
    0,
    0,
    0,
    0,
    0,
    0,
    0,
    0,
    0,
    0,
    0,
    0,
    0,
    0,
    0,
    0,
    0,
    0,
    0,
    0,
    0,
    0,
    0,
    0,
    0,
    0,
    0,
    0,
    0,
    0,
    0,
    0,
    0,
    0,
    0,
    0,
    0,
    0,
    0,
    0,
    0,
    0,
    0,
    0,
    0,
    0,
    0,
    0,
    0,
    0,
    0,
    0,
    0,
    0,
    0,
    0,
    0,
    0,
    0,
    0,
    0,
    0,
    0,
    0,
    0,
    0,
    0,
    0,
    0,
    0,
    0,
    0,
    0,
    0,
    0,
    0,
    0,
    0,
    0,
    0,
    0,
    1552,
    0,
    1552,
    1552,
    1552,
    1552,
    0,
    0,
    1552,
    0,
    0,
    0,
    0,
    0,
    0,
    0,
    0,
    0,
    0,
    0,
    0,
    0,
    0,
    0,
    0,
    0,
    0,
    0,
    0,
    0,
    0,
    0,
    0,
    0,
    0,
    0,
    0,
    0,
    0,
    0,
    0,
    0,
    0,
    0,
    0,
    0,
    0,
    0,
    0,
    0,
    0,
    0,
    0,
    0,
    0,
    0,
    0,
    0,
    0,
    0,
    0,
    0,
    0,
    0,
    0,
    0,
    0,
    0,
    0,
    0,
    0,
    0,
    0,
    0,
    0,
    0,
    0,
    0,
    0,
    0,
    0,
    0,
    0,
    0,
    0,
    0,
    0,
    0,
    0,
    0,
    0,
    0,
    0,
    0,
    0,
    0,
    0,
    0,
    0,
    0,
    0,
    0,
    0,
    0,
    0,
    0,
    0,
    0,
    0,
    0,
    0,
    0,
    0,
    0,
    0,
    0,
    0,
    0,
    0,
    0,
    0,
    0,
    0,
    0,
    0,
    0,
    0,
    0,
    0,
    0,
    0,
    0,
    1552,
    1552,
    0,
    0,
    0,
    0,
    0,
    0,
    0,
    0,
    0,
    0,
    0,
    0,
    0,
    0,
    0,
    0,
    0,
    0,
    0,
    0,
    0,
    0,
    0,
    0,
    0,
    0,
    0,
    0,
    0,
    0,
    0,
    0,
    0,
    0,
    0,
    0,
    0,
    0,
    0,
    0,
    0,
    0,
    0,
    0,
    0,
    0,
    0,
    0,
    0,
    0,
    0,
    0,
    0,
    0,
    0,
    0,
    0,
    0,
    0,
    0,
    0,
    0,
    0,
    0,
    0,
    0,
    0,
    0,
    0,
    0,
    0,
    0,
    0,
    0,
    0,
    0,
    0,
    0,
    0,
    0,
    0,
    0,
    0,
    0,
    0,
    0,
    0,
    0,
    0,
    0,
    0,
    0,
    0,
    0,
    0,
    0,
    0,
    0,
    0,
    0,
    0,
    0,
    0,
    0,
    0,
    0,
    0,
    0,
    0,
    0,
    0,
    0,
    0,
    0,
    0,
    0,
    0,
    0,
    0,
    0,
    0,
    0,
    0,
    0,
    0,
    0,
    0,
    0,
    0,
    0,
    0,
    0,
    0,
    0,
    0,
    0,
    0,
    0,
    0,
    0,
    0,
    0,
    0,
    0,
    0,
    0,
    0,
    0,
    0,
    0,
    0,
    0,
    0,
    0,
    0,
    0,
    0,
    0,
    0,
    0,
    0,
    0,
    0,
    0,
    0,
    0,
    0,
    0,
    0,
    0,
    0,
    0,
    0,
    0,
    0,
    0,
    0,
    0,
    0,
    0,
    0,
    0,
    0,
    0,
    0,
    0,
    0,
    0,
    0,
    0,
    0,
    0,
    0,
    0,
    0,
    0,
    0,
    0,
    0,
    0,
    0,
    0,
    0,
    0,
    0,
    0,
    0,
    0,
    0,
    0,
    0,
    0,
    0,
    0,
    0,
    0,
    0,
    0,
    0,
    0,
    0,
    0,
    0,
    0,
    0,
    0,
    0,
    0,
    0,
    0,
    0,
    0,
    0,
    0,
    0,
    0,
    0,
    0,
    0,
    0,
    0,
    0,
    0,
    0,
    0,
    0,
    0,
    0,
    0,
    0,
    0,
    0,
    0,
    0,
    0,
    0,
    0,
    0,
    0,
    0,
    0,
    0,
    0,
    0,
    0,
    0,
    0,
    0,
    0,
    0,
    0,
    0,
    0,
    0,
    0,
    0,
    0,
    0,
    0,
    0,
    0,
    0,
    0,
    0,
    0,
    0,
    0,
    0,
    0,
    0,
    0,
    0,
    0,
    0,
    0,
    0,
    0,
    0,
    0,
    0,
    0,
    0,
    0,
    0,
    0,
    0,
    0,
    0,
    0,
    0,
    0,
    0,
    0,
    0,
    0,
    0,
    0,
    0,
    0,
    0,
    0,
    0,
    0,
    0,
    0,
    0,
    0,
    0,
    0,
    0,
    0,
    0,
    0,
    0,
    0,
    0,
    0,
    0,
    0,
    0,
    0,
    0,
    0,
    0,
    0,
    0,
    0,
    0,
    0,
    0,
    0,
    0,
    0,
    0,
    0,
    0,
    0,
    0,
    0,
    0,
    0,
    0,
    0,
    0,
    0,
    0,
    0,
    0,
    0,
    0,
    0,
    0,
    0,
    0,
    0,
    0,
    0,
    0,
    0,
    0,
    0,
    0,
    0,
    0,
    0,
    0,
    0,
    0,
    0,
    0,
    0,
    0,
    0,
    0,
    0,
    0,
    0,
    0,
    0,
    0,
    0,
    0,
    0,
    0,
    0,
    0,
    0,
    0,
    0,
    0,
    0,
    0,
    0,
    0,
    0,
    0,
    0,
    0,
    0,
    0,
    0,
    0,
    0,
    0,
    0,
    0,
    0,
    0,
    0,
    0,
    0,
    0,
    0,
    0,
    0,
    0,
    0,
    0,
    0,
    0,
    0,
    0,
    0,
    0,
    0,
    0,
    0,
    0,
    0,
    0,
    0,
    0,
    0,
    0,
    0,
    0,
    0,
    0,
    0,
    0,
    0,
    0,
    0,
    0,
    0,
    0,
    0,
    0,
    0,
    0,
    0,
    0,
    0,
    0,
    0,
    0,
    0,
    0,
    0,
    0,
    0,
    0,
    0,
    0,
    0,
    0,
    0,
    0,
    0,
    0,
    0,
    0,
    0,
    0,
    0,
    0,
    0,
    0,
    0,
    0,
    0,
    0,
    0,
    0,
    0,
    0,
    0,
    0,
    0,
    0,
    0,
    0,
    0,
    0,
    0,
    0,
    0,
    0,
    0,
    0,
    0,
    0,
    0,
    0,
    0,
    0,
    0,
    0,
    0,
    0,
    0,
    0,
    0,
    0,
    0,
    0,
    0,
    0,
    0,
    0,
    0,
    0,
    0,
    0,
    0,
    0,
    0,
    0,
    0,
    0,
    0,
    0,
    0,
    0,
    0,
    0,
    0,
    0,
    0,
    0,
    0,
    0,
    0,
    0,
    0,
    0,
    0,
    0,
    0,
    0,
    0,
    0,
    0,
    0,
    0,
    0,
    0,
    0,
    0,
    0,
    0,
    0,
    0,
    0,
    0,
    0,
    0,
    0,
    0,
    0,
    0,
    0,
    0,
    0,
    0,
    0,
    0,
    0,
    0,
    0,
    0,
    0,
    0,
    0,
    0,
    0,
    0,
    0,
    0,
    0,
    0,
    0,
    0,
    0,
    0,
    0,
    0,
    0,
    0,
    0,
    0,
    0,
    0,
    0,
    0,
    0,
    0,
    0,
    0,
    0,
    0,
    0,
    0,
    0,
    0,
    0,
    0,
    0,
    0,
    0,
    0,
    0,
    0,
    0,
    0,
    0,
    0,
    0,
    0,
    0,
    0,
    0,
    0,
    0,
    0,
    0,
    0,
    0,
    0,
    0,
    0,
    0,
    0,
    0,
    0,
    0,
    0,
    0,
    0,
    0,
    0,
    0,
    0,
    0,
    0,
    0,
    0,
    0,
    0,
    0,
    0,
    0,
    0,
    0,
    0,
    0,
    0,
    0,
    0,
    0,
    0,
    0,
    0,
    0,
    0,
    0,
    0,
    0,
    0,
    0,
    0,
    0,
    0,
    0,
    0,
    0,
    0,
    0,
    0,
    0,
    0,
    0,
    0,
    0,
    0,
    0,
    0,
    0,
    0,
    0,
    0,
    0,
    0,
    0,
    0,
    0,
    0,
    0,
    0,
    0,
    0,
    0,
    0,
    0,
    0,
    0,
    0,
    0,
    0,
    0,
    0,
    0,
    0,
    0,
    0,
    0,
    0,
    0,
    0,
    0,
    0,
    0,
    0,
    0,
    0,
    0,
    0,
    0,
    0,
    0,
    0,
    0,
    0,
    0,
    0,
    0,
    0,
    0,
    0,
    0,
    0,
    0,
    0,
    0,
    0,
    0,
    0,
    0,
    0,
    0,
    0,
    0,
    0,
    0,
    0,
    0,
    0,
    0,
    0,
    0,
    0,
    0,
    0,
    0,
    0,
    0,
    0,
    0,
    0,
    0,
    0,
    0,
    0,
    0,
    0,
    0,
    0,
    0,
    0,
    0,
    0,
    0,
    0,
    0,
    0,
    0,
    0,
    0,
    0,
    0,
    0,
    0,
    0,
    0,
    0,
    0,
    0,
    0,
    0,
    0,
    0,
    0,
    0,
    0,
    0,
    0,
    0,
    0,
    0,
    0,
    0,
    0,
    0,
    0,
    0,
    0,
    0,
    0,
    0,
    0,
    0,
    0,
    0,
    0,
    0,
    0,
    0,
    0,
    0,
    0,
    0,
    0,
    0,
    0,
    0,
    0,
    0,
    0,
    0,
    0,
    0,
    0,
    0,
    0,
    0,
    0,
    0,
    0,
    0,
    0,
    0,
    0,
    0,
    0,
    0,
    0,
    0,
    0,
    0,
    0,
    0,
    0,
    0,
    0,
    0,
    0,
    0,
    0,
    0,
    0,
    0,
    0,
    0,
    0,
    0,
    0,
    0,
    0,
    0,
    0,
    0,
    0,
    0,
    0,
    0,
    0,
    0,
    0,
    0,
    0,
    0,
    0,
    0,
    0,
    0,
    0,
    0,
    0,
    0,
    0,
    0,
    0,
    0,
    0,
    0,
    0,
    0,
    0,
    0,
    0,
    0,
    0,
    0,
    0,
    0,
    0,
    0,
    0,
    0,
    0,
    0,
    0,
    0,
    0,
    0,
    0,
    0,
    0,
    0,
    0,
    0,
    0,
    0,
    0,
    0,
    0,
    0,
    0,
    0,
    0,
    0,
    0,
    0,
    0,
    0,
    0,
    0,
    0,
    0,
    0,
    0,
    0,
    0,
    0,
    0,
    0,
    0,
    0,
    0,
    0,
    0,
    0,
    0,
    0,
    0,
    0,
    0,
    0,
    0,
    0,
    0,
    0,
    0,
    0,
    0,
    0,
    0,
    0,
    0,
    0,
    0,
    0,
    0,
    0,
    0,
    0,
    0,
    0,
    0,
    0,
    0,
    0,
    0,
    0,
    0,
    0,
    0,
    0,
    0,
    0,
    0,
    0,
    0,
    0,
    0,
    0,
    0,
    0,
    0,
    0,
    0,
    0,
    0,
    0,
    0,
    0,
    0,
    0,
    0,
    0,
    0,
    0,
    0,
    0,
    0,
    0,
    0,
    0,
    0,
    0,
    0,
    0,
    0,
    0,
    0,
    0,
    0,
    0,
    0,
    0,
    0,
    0,
    0,
    0,
    0,
    0,
    0,
    0,
    0,
    0,
    0,
    0,
    0,
    0,
    0,
    0,
    0,
    0,
    0,
    0,
    0,
    0,
    0,
    0,
    0,
    0,
    0,
    0,
    0,
    0,
    0,
    0,
    0,
    0,
    0,
    0,
    0,
    0,
    0,
    0,
    0,
    0,
    0,
    0,
    0,
    0,
    0,
    0,
    0,
    0,
    0,
    0,
    0,
    0,
    0,
    0,
    0,
    0,
    0,
    0,
    0,
    0,
    0,
    0,
    0,
    0,
    0,
    0,
    0,
    0,
    0,
    0,
    0,
    0,
    0,
    0,
    0,
    0,
    0,
    0,
    0,
    0,
    0,
    0,
    0,
    0,
    0,
    0,
    0,
    0,
    0,
    0,
    0,
    0,
    0,
    0,
    0,
    0,
    0,
    0,
    0,
    0,
    0,
    0,
    0,
    0,
    0,
    0,
    0,
    0,
    0,
    0,
    0,
    0,
    0,
    0,
    0,
    0,
    0,
    0,
    0,
    0,
    0,
    0,
    0,
    0,
    0,
    0,
    0,
    0,
    0,
    0,
    0,
    0,
    0,
    0,
    0,
    0,
    0,
    0,
    0,
    0,
    0,
    0,
    0,
    0,
    0,
    0,
    0,
    0,
    0,
    0,
    0,
    0,
    0,
    0,
    0,
    0,
    0,
    0,
    0,
    0,
    0,
    0,
    0,
    0,
    0,
    0,
    0,
    0,
    0,
    0,
    0,
    0,
    0,
    0,
    0,
    0,
    0,
    0,
    0,
    0,
    0,
    0,
    0,
    0,
    0,
    0,
    0,
    0,
    0,
    0,
    0,
    0,
    0,
    0,
    0,
    0,
    0,
    0,
    0,
    0,
    0,
    0,
    0,
    0,
    0,
    0,
    0,
    0,
    0,
    0,
    0,
    0,
    0,
    0,
    0,
    0,
    0,
    0,
    0,
    0,
    0,
    0,
    0,
    0,
    0,
    0,
    0,
    0,
    0,
    0,
    0,
    0,
    0,
    0,
    0,
    0,
    0,
    0,
    0,
    0,
    0,
    0,
    0,
    0,
    0,
    0,
    0,
    0,
    0,
    0,
    0,
    0,
    0,
    0,
    0,
    0,
    0,
    0,
    0,
    0,
    0,
    0,
    0,
    0,
    0,
    0,
    0,
    0,
    0,
    0,
    0,
    0,
    0,
    0,
    0,
    0,
    0,
    0,
    0,
    0,
    0,
    0,
    0,
    0,
    0,
    0,
    0,
    0,
    0,
    0,
    0,
    0,
    0,
    0,
    0,
    0,
    0,
    0,
    0,
    0,
    0,
    0,
    0,
    0,
    0,
    0,
    0,
    0,
    0,
    0,
    0,
    0,
    0,
    0,
    0,
    0,
    0,
    0,
    0,
    0,
    0,
    0,
    0,
    0,
    0,
    0,
    0,
    0,
    0,
    0,
    0,
    0,
    0,
    0,
    0,
    0,
    0,
    0,
    0,
    0,
    0,
    0,
    0,
    0,
    0,
    0,
    0,
    0,
    0,
    0,
    0,
    0,
    0,
    0,
    0,
    0,
    0,
    0,
    0,
    0,
    0,
    0,
    0,
    0,
    0,
    0,
    0,
    0,
    0,
    0,
    0,
    0,
    0,
    0,
    0,
    0,
    0,
    0,
    0,
    0,
    0,
    0,
    0,
    0,
    0,
    0,
    0,
    0,
    0,
    0,
    0,
    0,
    0,
    0,
    0,
    0,
    0,
    0,
    0,
    0,
    0,
    0,
    0,
    0,
    0,
    0,
    0,
    0,
    0,
    0,
    0,
    0,
    0,
    0,
    0,
    0,
    0,
    0,
    0,
    0,
    0,
    0,
    0,
    0,
    0,
    0,
    0,
    0,
    0,
    0,
    0,
    0,
    0,
    0,
    0,
    0,
    0,
    0,
    0,
    0,
    0,
    0,
    0,
    0,
    0,
    0,
    0,
    0,
    0,
    0,
    0,
    0,
    0,
    0,
    0,
    0,
    0,
    0,
    0,
    0,
    0,
    0,
    0,
    0,
    0,
    0,
    0,
    0,
    0,
    0,
    0,
    0,
    0,
    0,
    0,
    0,
    0,
    0,
    0,
    0,
    0,
    0,
    0,
    0,
    0,
    0,
    0,
    0,
    0,
    0,
    0,
    0,
    0,
    0,
    0,
    0,
    0,
    0,
    0,
    0,
    0,
    0,
    0,
    0,
    0,
    0,
    0,
    0,
    0,
    0,
    0,
    0,
    0,
    0,
    0,
    0,
    0,
    0,
    0,
    0,
    0,
    0,
    0,
    0,
    0,
    0,
    0,
    0,
    0,
    0,
    0,
    0,
    0,
    0,
    0,
    0,
    0,
    0,
    0,
    0,
    0,
    0,
    0,
    0,
    0,
    0,
    0,
    0,
    0,
    0,
    0,
    0,
    0,
    0,
    0,
    0,
    0,
    0,
    0,
    0,
    0,
    0,
    0,
    0,
    0,
    0,
    0,
    0,
    0,
    0,
    0,
    0,
    0,
    0,
    0,
    0,
    0,
    0,
    0,
    0,
    0,
    0,
    0,
    0,
    0,
    0,
    0,
    0,
    0,
    0,
    0,
    0,
    0,
    0,
    0,
    0,
    0,
    0,
    0,
    0,
    0,
    0,
    0,
    0,
    0,
    0,
    0,
    0,
    0,
    0,
    0,
    0,
    0,
    0,
    0,
    0,
    0,
    0,
    0,
    0,
    0,
    0,
    0,
    0,
    0,
    0,
    0,
    0,
    0,
    0,
    0,
    0,
    0,
    0,
    0,
    0,
    0,
    0,
    0,
    0,
    0,
    0,
    0,
    0,
    0,
    0,
    0,
    0,
    0,
    0,
    0,
    0,
    0,
    0,
    0,
    0,
    0,
    0,
    0,
    0,
    0,
    0,
    0,
    0,
    0,
    0,
    0,
    0,
    0,
    0,
    0,
    0,
    0,
    0,
    0,
    0,
    0,
    0,
    0,
    0,
    0,
    0,
    0,
    0,
    0,
    0,
    0,
    0,
    0,
    0,
    0,
    0,
    0,
    0,
    0,
    0,
    0,
    0,
    0,
    0,
    0,
    0,
    0,
    0,
    0,
    0,
    0,
    0,
    0,
    0,
    0,
    0,
    0,
    0,
    0,
    0,
    0,
    0,
    0,
    0,
    0,
    0,
    0,
    0,
    0,
    0,
    0,
    0,
    0,
    0,
    0,
    0,
    0,
    0,
    0,
    0,
    0,
    0,
    0,
    0,
    0,
    0,
    0,
    0,
    0,
    0,
    0,
    0,
    0,
    0,
    0,
    0,
    0,
    0,
    0,
    0,
    0,
    0,
    0,
    0,
    0,
    0,
    0,
    0,
    0,
    0,
    0,
    0,
    0,
    0,
    0,
    0,
    0,
    0,
    0,
    0,
    0,
    0,
    0,
    0,
    0,
    0,
    0,
    0,
    0,
    0,
    0,
    0,
    0,
    0,
    0,
    0,
    0,
    0,
    0,
    0,
    0,
    0,
    0,
    0,
    0,
    0,
    0,
    0,
    0,
    0,
    0,
    0,
    0,
    0,
    0,
    0,
    0,
    0,
    0,
    0,
    0,
    0,
    0,
    0,
    0,
    0,
    0,
    0,
    0,
    0,
    0,
    0,
    0,
    0,
    0,
    0,
    0,
    0,
    0,
    0,
    0,
    0,
    0,
    0,
    0,
    0,
    0,
    0,
    0,
    0,
    0,
    0,
    0,
    0,
    0,
    0,
    0,
    0,
    0,
    0,
    0,
    0,
    0,
    0,
    0,
    0,
    0,
    0,
    0,
    0,
    0,
    0,
    0,
    0,
    0,
    0,
    0,
    0,
    0,
    0,
    0,
    0,
    0,
    0,
    0,
    0,
    0,
    0,
    0,
    0,
    0,
    0,
    0,
    0,
    0,
    0,
    0,
    0,
    0,
    0,
    0,
    0,
    0,
    0,
    0,
    0,
    0,
    0,
    0,
    0,
    0,
    0,
    0,
    0,
    0,
    0,
    0,
    0,
    0,
    0,
    0,
    0,
    0,
    0,
    0,
    0,
    0,
    0,
    0,
    0,
    0,
    0,
    0,
    0,
    0,
    0,
    0,
    0,
    0,
    0,
    0,
    0,
    0,
    0,
    0,
    0,
    0,
    0,
    0,
    0,
    0,
    0,
    0,
    0,
    0,
    0,
    0,
    0,
    0,
    0,
    0,
    0,
    0,
    0,
    0,
    0,
    0,
    0,
    0,
    0,
    0,
    0,
    0,
    0,
    0,
    0,
    0,
    0,
    0,
    0,
    0,
    0,
    0,
    0,
    0,
    0,
    0,
    0,
    0,
    0,
    0,
    0,
    0,
    0,
    0,
    0,
    0,
    0,
    0,
    0,
    0,
    0,
    0,
    0,
    0,
    0,
    0,
    0,
    0,
    0,
    0,
    0,
    0,
    0,
    0,
    0,
    0,
    0,
    0,
    0,
    0,
    0,
    0,
    0,
    0,
    0,
    0,
    0,
    0,
    0,
    0,
    0,
    0,
    0,
    0,
    0,
    0,
    0,
    0,
    0,
    0,
    0,
    0,
    0,
    0,
    0,
    0,
    0,
    0,
    0,
    0,
    0,
    0,
    0,
    0,
    0,
    0,
    0,
    0,
    0,
    0,
    0,
    0,
    0,
    0,
    0,
    0,
    0,
    0,
    0,
    0,
    0,
    0,
    0,
    0,
    0,
    0,
    0,
    0,
    0,
    0,
    0,
    0,
    0,
    0,
    0,
    0,
    0,
    0,
    0,
    0,
    0,
    0,
    0,
    0,
    0,
    0,
    0,
    0,
    0,
    0,
    0,
    0,
    0,
    0,
    0,
    0,
    0,
    0,
    0,
    0,
    0,
    0,
    0,
    0,
    0,
    0,
    0,
    0,
    0,
    0,
    0,
    0,
    0,
    0,
    0,
    0,
    0,
    0,
    0,
    0,
    0,
    0,
    0,
    0,
    0,
    0,
    0,
    0,
    0,
    0,
    0,
    0,
    0,
    0,
    0,
    0,
    0,
    0,
    0,
    0,
    0,
    0,
    0,
    0,
    0,
    0,
    0,
    0,
    0,
    0,
    0,
    0,
    0,
    0,
    0,
    0,
    0,
    0,
    0,
    0,
    0,
    0,
    0,
    0,
    0,
    0,
    0,
    0,
    0,
    0,
    0,
    0,
    0,
    0,
    0,
    0,
    0,
    0,
    0,
    0,
    0,
    0,
    0,
    0,
    0,
    0,
    0,
    0,
    0,
    0,
    0,
    0,
    0,
    0,
    0,
    0,
    0,
    0,
    0,
    0,
    0,
    0,
    0,
    0,
    0,
    0,
    0,
    0,
    0,
    0,
    0,
    0,
    0,
    0,
    0,
    0,
    0,
    0,
    0,
    0,
    0,
    0,
    0,
    0,
    0,
    0,
    0,
    0,
    0,
    0,
    0,
    0,
    0,
    0,
    0,
    0,
    0,
    0,
    0,
    0,
    0,
    0,
    0,
    0,
    0,
    0,
    0,
    0,
    0,
    0,
    0,
    0,
    0,
    0,
    0,
    0,
    0,
    0,
    0,
    0,
    0,
    0,
    0,
    0,
    0,
    0,
    0,
    0,
    0,
    0,
    0,
    0,
    0,
    0,
    0,
    0,
    0,
    0,
    0,
    0,
    0,
    0,
    0,
    0,
    0,
    0,
    0,
    0,
    0,
    0,
    0,
    0,
    0,
    0,
    0,
    0,
    0,
    0,
    0,
    0,
    0,
    0,
    0,
    0,
    0,
    0,
    0,
    0,
    0,
    0,
    0,
    0,
    0,
    0,
    0,
    0,
    0,
    0,
    0,
    0,
    0,
    0,
    0,
    0,
    0,
    0,
    0,
    0,
    0,
    0,
    0,
    0,
    0,
    0,
    0,
    0,
    0,
    0,
    0,
    0,
    0,
    0,
    0,
    0,
    0,
    0,
    0,
    0,
    0,
    0,
    0,
    0,
    0,
    0,
    0,
    0,
    0,
    0,
    0,
    0,
    0,
    0,
    0,
    0,
    0,
    0,
    0,
    0,
    0,
    0,
    0,
    0,
    0,
    0,
    0,
    0,
    0,
    0,
    0,
    0,
    0,
    0,
    0,
    0,
    0,
    0,
    0,
    0,
    0,
    0,
    0,
    0,
    0,
    0,
    0,
    0,
    0,
    0,
    0,
    0,
    0,
    0,
    0,
    0,
    0,
    0,
    0,
    0,
    0,
    0,
    0,
    0,
    0,
    0,
    0,
    0,
    0,
    0,
    0,
    0,
    0,
    0,
    0,
    0,
    0,
    0,
    0,
    0,
    0,
    0,
    0,
    0,
    0,
    0,
    0,
    0,
    0,
    0,
    0,
    0,
    0,
    0,
    0,
    0,
    0,
    0,
    0,
    0,
    0,
    0,
    0,
    0,
    0,
    0,
    0,
    0,
    0,
    0,
    0,
    0,
    0,
    0,
    0,
    0,
    0,
    0,
    0,
    0,
    0,
    0,
    0,
    0,
    0,
    0,
    0,
    0,
    0,
    0,
    0,
    0,
    0,
    0,
    0,
    0,
    0,
    0,
    0,
    0,
    0,
    0,
    0,
    0,
    0,
    0,
    0,
    0,
    0,
    0,
    0,
    0,
    0,
    0,
    0,
    0,
    0,
    0,
    0,
    0,
    0,
    0,
    0,
    0,
    0,
    0,
    0,
    0,
    0,
    0,
    0,
    0,
    0,
    0,
    0,
    0,
    0,
    0,
    0,
    0,
    0,
    0,
    0,
    0,
    0,
    0,
    0,
    0,
    0,
    0,
    0,
    0,
    0,
    0,
    0,
    0,
    0,
    0,
    0,
    0,
    0,
    0,
    0,
    0,
    0,
    0,
    0,
    0,
    0,
    0,
    0,
    0,
    0,
    0,
    0,
    0,
    0,
    0,
    0,
    0,
    0,
    0,
    0,
    0,
    0,
    0,
    0,
    0,
    0,
    0,
    0,
    0,
    0,
    0,
    0,
    0,
    0,
    0,
    0,
    0,
    0,
    0,
    0,
    0,
    0,
    0,
    0,
    0,
    0,
    0,
    0,
    0,
    0,
    0,
    0,
    0,
    0,
    0,
    0,
    0,
    0,
    0,
    0,
    0,
    0,
    0,
    0,
    0,
    0,
    0,
    0,
    0,
    0,
    0,
    0,
    0,
    0,
    0,
    0,
    0,
    0,
    0,
    0,
    0,
    0,
    0,
    0,
    0,
    0,
    0,
    0,
    0,
    0,
    0,
    0,
    0,
    0,
    0,
    0,
    0,
    0,
    0,
    0,
    0,
    0,
    0,
    0,
    0,
    0,
    0,
    0,
    0,
    0,
    0,
    0,
    0,
    0,
    0,
    0,
    0,
    0,
    0,
    0,
    0,
    0,
    0,
    0,
    0,
    0,
    0,
    0,
    0,
    0,
    0,
    0,
    0,
    0,
    0,
    0,
    0,
    0,
    0,
    0,
    0,
    0,
    0,
    0,
    0,
    0,
    0,
    0,
    0,
    0,
    0,
    0,
    0,
    0,
    0,
    0,
    0,
    0,
    0,
    0,
    0,
    0,
    0,
    0,
    0,
    0,
    0,
    0,
    0,
    0,
    0,
    0,
    0,
    0,
    0,
    0,
    0,
    0,
    0,
    0,
    0,
    0,
    0,
    0,
    0,
    0,
    0,
    0,
    0,
    0,
    0,
    0,
    0,
    0,
    0,
    0,
    0,
    0,
    0,
    0,
    0,
    0,
    0,
    0,
    0,
    0,
    0,
    0,
    0,
    0,
    0,
    0,
    0,
    0,
    0,
    0,
    0,
    0,
    0,
    0,
    0,
    0,
    0,
    0,
    0,
    0,
    0,
    0,
    0,
    0,
    0,
    0,
    0,
    0,
    0,
    0,
    0,
    0,
    0,
    0,
    0,
    0,
    0,
    0,
    0,
    0,
    0,
    0,
    0,
    0,
    0,
    0,
    0,
    0,
    0,
    0,
    0,
    0,
    0,
    0,
    0,
    0,
    0,
    0,
    0,
    0,
    0,
    0,
    0,
    0,
    0,
    0,
    0,
    0,
    0,
    0,
    0,
    0,
    0,
    0,
    0,
    0,
    0,
    0,
    0,
    0,
    0,
    0,
    0,
    0,
    0,
    0,
    0,
    0,
    0,
    0,
    0,
    0,
    0,
    0,
    0,
    0,
    0,
    0,
    0,
    0,
    0,
    0,
    0,
    0,
    0,
    0,
    0,
    0,
    0,
    0,
    0,
    0,
    0,
    0,
    0,
    0,
    0,
    0,
    0,
    0,
    0,
    0,
    0,
    0,
    0,
    0,
    0,
    0,
    0,
    0,
    0,
    0,
    0,
    0,
    0,
    0,
    0,
    0,
    0,
    0,
    0,
    0,
    0,
    0,
    0,
    0,
    0,
    0,
    0,
    0,
    0,
    0,
    0,
    0,
    0,
    0,
    0,
    0,
    0,
    0,
    0,
    0,
    0,
    0,
    0,
    0,
    0,
    0,
    0,
    0,
    0,
    0,
    0,
    0,
    0,
    0,
    0,
    0,
    0,
    0,
    0,
    0,
    0,
    0,
    0,
    0,
    0,
    0,
    0,
    0,
    0,
    0,
    0,
    0,
    0,
    0,
    0,
    0,
    0,
    0,
    0,
    0,
    0,
    0,
    0,
    0,
    0,
    0,
    0,
    0,
    0,
    0,
    0,
    0,
    0,
    0,
    0,
    0,
    0,
    0,
    0,
    0,
    0,
    0,
    0,
    0,
    0,
    0,
    0,
    0,
    0,
    0,
    0,
    0,
    0,
    0,
    0,
    0,
    0,
    0,
    0,
    0,
    0,
    0,
    0,
    0,
    0,
    0,
    0,
    0,
    0,
    0,
    0,
    0,
    0,
    0,
    0,
    0,
    0,
    0,
    0,
    0,
    0,
    0,
    0,
    0,
    0,
    0,
    0,
    0,
    0,
    0,
    0,
    0,
    0,
    0,
    0,
    0,
    0,
    0,
    0,
    0,
    0,
    0,
    0,
    0,
    0,
    0,
    0,
    0,
    0,
    0,
    0,
    0,
    0,
    0,
    0,
    0,
    0,
    0,
    0,
    0,
    0,
    0,
    0,
    0,
    0,
    0,
    0,
    0,
    0,
    0,
    0,
    0,
    0,
    0,
    0,
    0,
    0,
    0,
    0,
    0,
    0,
    0,
    0,
    0,
    0,
    0,
    0,
    0,
    0,
    0,
    0,
    0,
    0,
    0,
    0,
    0,
    0,
    0,
    0,
    0,
    0,
    0,
    0,
    0,
    0,
    0,
    0,
    0,
    0,
    0,
    0,
    0,
    0,
    0,
    0,
    0,
    0,
    0,
    0,
    0,
    0,
    0,
    0,
    0,
    0,
    0,
    0,
    0,
    0,
    0,
    0,
    0,
    0,
    0,
    0,
    0,
    0,
    0,
    0,
    0,
    0,
    0,
    0,
    0,
    0,
    0,
    0,
    0,
    0,
    0,
    0,
    0,
    0,
    0,
    0,
    0,
    0,
    0,
    0,
    0,
    0,
    0,
    0,
    0,
    0,
    0,
    0,
    0,
    0,
    0,
    0,
    0,
    0,
    0,
    0,
    0,
    0,
    0,
    0,
    0,
    0,
    0,
    0,
    0,
    0,
    0,
    0,
    0,
    0,
    0,
    0,
    0,
    0,
    0,
    0,
    0,
    0,
    0,
    0,
    0,
    0,
    0,
    0,
    0,
    0,
    0,
    0,
    0,
    0,
    0,
    0,
    0,
    0,
    0,
    0,
    0,
    0,
    0,
    0,
    0,
    0,
    0,
    0,
    0,
    0,
    0,
    0,
    0,
    0,
    0,
    0,
    0,
    0,
    0,
    0,
    0,
    0,
    0,
    0,
    0,
    0,
    0,
    0,
    0,
    0,
    0,
    0,
    0,
    0,
    0,
    0,
    0,
    0,
    0,
    0,
    0,
    0,
    0,
    0,
    0,
    0,
    0,
    0,
    0,
    0,
    0,
    0,
    0,
    0,
    0,
    0,
    0,
    0,
    0,
    0,
    0,
    0,
    0,
    0,
    0,
    0,
    0,
    0,
    0,
    0,
    0,
    0,
    0,
    0,
    0,
    0,
    0,
    0,
    0,
    0,
    0,
    0,
    0,
    0,
    0,
    0,
    0,
    0,
    0,
    0,
    0,
    0,
    0,
    0,
    0,
    0,
    0,
    0,
    0,
    0,
    0,
    0,
    0,
    0,
    0,
    0,
    0,
    0,
    0,
    0,
    0,
    0,
    0,
    0,
    0,
    0,
    0,
    0,
    0,
    0,
    0,
    0,
    0,
    0,
    0,
    0,
    0,
    0,
    0,
    0,
    0,
    0,
    0,
    0,
    0,
    0,
    0,
    0,
    0,
    0,
    0,
    0,
    0,
    0,
    0,
    0,
    0,
    0,
    0,
    0,
    0,
    0,
    0,
    0,
    0,
    0,
    0,
    0,
    0,
    0,
    0,
    0,
    0,
    0,
    0,
    0,
    0,
    0,
    0,
    0,
    0,
    0,
    0,
    0,
    0,
    0,
    0,
    0,
    0,
    0,
    0,
    0,
    0,
    0,
    0,
    0,
    0,
    0,
    0,
    0,
    0,
    0,
    0,
    0,
    0,
    0,
    0,
    0,
    0,
    0,
    0,
    0,
    0,
    0,
    0,
    0,
    0,
    0,
    0,
    0,
    0,
    0,
    0,
    0,
    0,
    0,
    0,
    0,
    0,
    0,
    0,
    0,
    0,
    0,
    0,
    0,
    0,
    0,
    0,
    0,
    0,
    0,
    0,
    0,
    0,
    0,
    0,
    0,
    0,
    0,
    0,
    0,
    0,
    0,
    0,
    0,
    0,
    0,
    0,
    0,
    0,
    0,
    0,
    0,
    0,
    0,
    0,
    0,
    0,
    0,
    0,
    0,
    0,
    0,
    0,
    0,
    0,
    0,
    0,
    0,
    0,
    0,
    0,
    0,
    0,
    0,
    0,
    0,
    0,
    0,
    0,
    0,
    0,
    0,
    0,
    0,
    0,
    0,
    0,
    0,
    0,
    0,
    0,
    0,
    0,
    0,
    0,
    0,
    0,
    0,
    0,
    0,
    0,
    0,
    0,
    0,
    0,
    0,
    0,
    0,
    0,
    0,
    0,
    0,
    0,
    0,
    0,
    0,
    0,
    0,
    0,
    0,
    0,
    0,
    0,
    0,
    0,
    0,
    0,
    0,
    0,
    0,
    0,
    0,
    0,
    0,
    0,
    0,
    0,
    0,
    0,
    0,
    0,
    0,
    0,
    0,
    0,
    0,
    0,
    0,
    0,
    0,
    0,
    0,
    0,
    0,
    0,
    0,
    0,
    0,
    0,
    0,
    0,
    0,
    0,
    0,
    0,
    0,
    0,
    0,
    0,
    0,
    0,
    0,
    0,
    0,
    0,
    0,
    0,
    0,
    0,
    0,
    0,
    0,
    0,
    0,
    0,
    0,
    0,
    0,
    0,
    0,
    0,
    0,
    0,
    0,
    0,
    0,
    0,
    0,
    0,
    0,
    0,
    0,
    0,
    0,
    0,
    0,
    0,
    0,
    0,
    0,
    0,
    0,
    0,
    0,
    0,
    0,
    0,
    0,
    0,
    0,
    0,
    0,
    0,
    0,
    0,
    0,
    0,
    0,
    0,
    0,
    0,
    0,
    0,
    0,
    0,
    0,
    0,
    0,
    0,
    0,
    0,
    0,
    0,
    0,
    0,
    0,
    0,
    0,
    0,
    0,
    0,
    0,
    0,
    0,
    0,
    0,
    0,
    0,
    0,
    0,
    0,
    0,
    0,
    0,
    0,
    0,
    0,
    0,
    0,
    0,
    0,
    0,
    0,
    0,
    0,
    0,
    0,
    0,
    0,
    0,
    0,
    0,
    0,
    0,
    0,
    0,
    0,
    0,
    0,
    0,
    0,
    0,
    0,
    0,
    0,
    0,
    0,
    0,
    0,
    0,
    0,
    0,
    0,
    0,
    0,
    0,
    0,
    0,
    0,
    0,
    0,
    0,
    0,
    0,
    0,
    0,
    0,
    0,
    0,
    0,
    0,
    0,
    0,
    0,
    0,
    0,
    0,
    0,
    0,
    0,
    0,
    0,
    0,
    0,
    0,
    0,
    0,
    0,
    0,
    0,
    0,
    0,
    0,
    0,
    0,
    0,
    0,
    0,
    1552,
    0,
    1552,
    0,
    0,
    0,
    0,
    0,
    0,
    0,
    0,
    0,
    0,
    0,
    0,
    0,
    0,
    0,
    0,
    0,
    0,
    0,
    0,
    0,
    0,
    0,
    0,
    0,
    0,
    0,
    0,
    0,
    0,
    0,
    0,
    0,
    0,
    0,
    0,
    0,
    0,
    0,
    0,
    0,
    0,
    0,
    0,
    0,
    0,
    0,
    0,
    0,
    0,
    0,
    0,
    0,
    0,
    0,
    0,
    0,
    0,
    0,
    0,
    0,
    0,
    0,
    0,
    0,
    0,
    0,
    0,
    0,
    0,
    0,
    0,
    0,
    0,
    0,
    0,
    0,
    0,
    0,
    0,
    0,
    0,
    0,
    0,
    0,
    1552,
    0,
    0,
    0,
    0,
    0,
    0,
    0,
    0,
    0,
    0,
    0,
    0,
    0,
    0,
    0,
    0,
    0,
    0,
    0,
    0,
    0,
    0,
    0,
    0,
    0,
    0,
    0,
    0,
    0,
    0,
    0,
    0,
    0,
    0,
    0,
    0,
    0,
    0,
    0,
    0,
    0,
    1552,
    1552,
    0,
    0,
    0,
    0,
    0,
    0,
    0,
    0,
    0,
    0,
    0,
    0,
    0,
    0,
    0,
    0,
    0,
    0,
    0,
    0,
    0,
    0,
    0,
    0,
    0,
    0,
    0,
    0,
    0,
    0,
    0,
    0,
    0,
    0,
    0,
    0,
    0,
    0,
    0,
    0,
    0,
    0,
    0,
    0,
    0,
    0,
    0,
    0,
    0,
    0,
    0,
    0,
    0,
    0,
    0,
    0,
    0,
    0,
    0,
    0,
    0,
    0,
    0,
    0,
    0,
    0,
    0,
    0,
    0,
    0,
    0,
    0,
    0,
    0,
    0,
    0,
    0,
    0,
    0,
    0,
    0,
    0,
    0,
    0,
    0,
    0,
    0,
    1552,
    1552,
    1552,
    0,
    0,
    0,
    0,
    0,
    0,
    0,
    0,
    0,
    0,
    0,
    0,
    0,
    0,
    0,
    0,
    0,
    0,
    0,
    0,
    0,
    0,
    0,
    0,
    0,
    0,
    0,
    0,
    0,
    0,
    0,
    1552,
    0,
    0,
    0,
    0,
    1552,
    1552,
    0,
    0,
    0,
    0,
    0,
    1552,
    0,
    0,
    0,
    0,
    1552,
    0,
    0,
    0,
    0,
    0,
    0,
    0,
    0,
    0,
    0,
    0,
    0,
    0,
    0,
    0,
    0,
    0,
    0,
    0,
    0,
    0,
    0,
    0,
    0,
    0,
    0,
    0,
    0,
    0,
    0,
    0,
    0,
    0,
    0,
    0,
    0,
    0,
    0,
    0,
    0,
    0,
    0,
    0,
    0,
    0,
    0,
    0,
    0,
    0,
    0,
    0,
    0,
    0,
    0,
    0,
    0,
    0,
    0,
    0,
    0,
    0,
    0,
    0,
    0,
    0,
    0,
    0,
    0,
    0,
    0,
    0,
    0,
    0,
    0,
    1552,
    1552,
    1552,
    1552,
    1552,
    1552,
    1552,
    0,
    0,
    0,
    1552,
    0,
    0,
    0,
    0,
    0,
    0,
    0,
    0,
    0,
    0,
    0,
    0,
    0,
    0,
    0,
    0,
    0,
    0,
    0,
    0,
    0,
    0,
    0,
    0,
    0,
    0,
    1552,
    1552,
    1552,
    1552,
    1552,
    1552,
    0,
    0,
    0,
    1552,
    1552,
    1552,
    0,
    1552,
    1552,
    0,
    0,
    0,
    0,
    0,
    0,
    0,
    0,
    0,
    0,
    0,
    0,
    0,
    0,
    0,
    0,
    0,
    0,
    0,
    0,
    0,
    0,
    0,
    0,
    0,
    0,
    0,
    0,
    0,
    0,
    0,
    0,
    0,
    0,
    0,
    0,
    0,
    0,
    0,
    0,
    0,
    0,
    0,
    0,
    0,
    0,
    0,
    0,
    0,
    0,
    0,
    0,
    0,
    0,
    0,
    0,
    0,
    0,
    0,
    0,
    0,
    0,
    0,
    0,
    0,
    0,
    0,
    0,
    0,
    0,
    0,
    0,
    0,
    1552,
    1552,
    1552,
    1552,
    1552,
    0,
    0,
    1552,
    1552,
    1552,
    0,
    0,
    0,
    0,
    0,
    0,
    0,
    0,
    0,
    0,
    0,
    0,
    0,
    0,
    0,
    0,
    0,
    0,
    0,
    0,
    0,
    0,
    0,
    0,
    0,
    0,
    0,
    0,
    1552,
    0,
    1552,
    1552,
    1552,
    1552,
    1552,
    0,
    0,
    0,
    1552,
    1552,
    1552,
    1552,
    1552,
    1552,
    1552,
    0,
    1552,
    0,
    0,
    0,
    0,
    0,
    0,
    0,
    0,
    0,
    0,
    0,
    0,
    0,
    0,
    0,
    0,
    0,
    0,
    0,
    0,
    0,
    0,
    0,
    0,
    0,
    0,
    0,
    0,
    0,
    0,
    0,
    0,
    0,
    0,
    0,
    0,
    0,
    0,
    0,
    0,
    0,
    0,
    0,
    0,
    0,
    0,
    0,
    0,
    0,
    0,
    0,
    0,
    0,
    0,
    0,
    0,
    0,
    0,
    0,
    0,
    0,
    0,
    0,
    0,
    0,
    0,
    0,
    0,
    0,
    0,
    0,
    0,
    1552,
    1552,
    0,
    0,
    1552,
    0,
    0,
    0,
    1552,
    0,
    1552,
    0,
    0,
    0,
    0,
    0,
    0,
    0,
    0,
    0,
    0,
    0,
    0,
    0,
    0,
    0,
    0,
    0,
    0,
    0,
    0,
    0,
    0,
    0,
    0,
    0,
    0,
    0,
    0,
    0,
    1552,
    1552,
    1552,
    1552,
    0,
    0,
    1552,
    1552,
    1552,
    1552,
    1552,
    1552,
    1552,
    1552,
    1552,
    1552,
    0,
    0,
    0,
    0,
    0,
    0,
    0,
    0,
    0,
    0,
    0,
    0,
    0,
    0,
    0,
    0,
    0,
    0,
    0,
    0,
    0,
    0,
    0,
    0,
    0,
    0,
    0,
    0,
    0,
    0,
    0,
    0,
    0,
    0,
    0,
    0,
    0,
    0,
    0,
    0,
    0,
    0,
    0,
    0,
    0,
    0,
    0,
    0,
    0,
    0,
    0,
    0,
    0,
    0,
    0,
    0,
    0,
    0,
    0,
    0,
    0,
    0,
    0,
    0,
    0,
    0,
    0,
    0,
    0,
    0,
    0,
    0,
    0,
    0,
    0,
    0,
    0,
    0,
    0,
    0,
    0,
    1552,
    1552,
    0,
    0,
    1552,
    0,
    0,
    0,
    0,
    0,
    0,
    0,
    0,
    0,
    0,
    0,
    0,
    0,
    0,
    0,
    0,
    0,
    0,
    0,
    0,
    0,
    0,
    0,
    0,
    0,
    1552,
    1552,
    1552,
    0,
    0,
    0,
    0,
    1552,
    1552,
    1552,
    1552,
    1552,
    1552,
    1552,
    1552,
    1552,
    1552,
    0,
    0,
    0,
    0,
    0,
    0,
    0,
    0,
    0,
    0,
    0,
    0,
    0,
    0,
    0,
    0,
    0,
    0,
    0,
    0,
    0,
    0,
    0,
    0,
    0,
    0,
    0,
    0,
    0,
    0,
    0,
    0,
    0,
    0,
    0,
    0,
    0,
    0,
    0,
    0,
    0,
    0,
    0,
    0,
    0,
    0,
    0,
    0,
    0,
    0,
    0,
    0,
    0,
    0,
    0,
    0,
    0,
    0,
    0,
    0,
    0,
    0,
    0,
    0,
    0,
    0,
    0,
    0,
    0,
    0,
    0,
    0,
    0,
    0,
    0,
    0,
    0,
    0,
    0,
    0,
    0,
    0,
    0,
    1552,
    1552,
    0,
    0,
    0,
    0,
    0,
    0,
    0,
    0,
    0,
    0,
    0,
    0,
    0,
    0,
    0,
    0,
    0,
    0,
    0,
    0,
    0,
    0,
    0,
    0,
    0,
    0,
    0,
    0,
    0,
    0,
    0,
    0,
    0,
    1552,
    1552,
    1552,
    1552,
    1552,
    1552,
    1552,
    1552,
    1552,
    1552,
    0,
    0,
    1552,
    0,
    0,
    0,
    0,
    0,
    0,
    0,
    0,
    0,
    0,
    0,
    0,
    0,
    0,
    0,
    0,
    0,
    0,
    0,
    0,
    0,
    0,
    0,
    0,
    0,
    0,
    0,
    0,
    0,
    0,
    0,
    0,
    0,
    0,
    0,
    0,
    0,
    0,
    0,
    0,
    0,
    0,
    0,
    0,
    0,
    0,
    0,
    0,
    0,
    0,
    0,
    0,
    0,
    0,
    0,
    0,
    0,
    0,
    0,
    0,
    0,
    0,
    0,
    0,
    0,
    0,
    0,
    1552,
    0,
    1552,
    0,
    0,
    0,
    0,
    0,
    0,
    0,
    0,
    0,
    0,
    1552,
    1552,
    0,
    0,
    0,
    0,
    0,
    0,
    0,
    0,
    0,
    0,
    0,
    0,
    0,
    0,
    0,
    0,
    0,
    0,
    0,
    0,
    0,
    0,
    0,
    0,
    0,
    0,
    0,
    1552,
    0,
    0,
    0,
    0,
    0,
    0,
    0,
    1552,
    1552,
    1552,
    1552,
    1552,
    1552,
    1552,
    1552,
    0,
    0,
    0,
    0,
    0,
    0,
    0,
    0,
    0,
    0,
    0,
    0,
    0,
    0,
    0,
    0,
    0,
    0,
    0,
    0,
    0,
    0,
    0,
    0,
    0,
    0,
    0,
    0,
    0,
    0,
    0,
    0,
    0,
    0,
    0,
    0,
    0,
    0,
    0,
    0,
    0,
    0,
    0,
    0,
    0,
    0,
    0,
    0,
    0,
    0,
    0,
    0,
    0,
    0,
    0,
    0,
    0,
    0,
    0,
    0,
    0,
    0,
    0,
    0,
    0,
    0,
    0,
    0,
    0,
    0,
    0,
    0,
    0,
    0,
    0,
    0,
    0,
    0,
    0,
    0,
    0,
    0,
    0,
    0,
    0,
    0,
    0,
    0,
    0,
    0,
    0,
    0,
    0,
    0,
    0,
    0,
    0,
    0,
    0,
    0,
    0,
    0,
    0,
    0,
    0,
    0,
    0,
    0,
    0,
    0,
    0,
    0,
    0,
    0,
    0,
    0,
    0,
    0,
    0,
    1552,
    0,
    1552,
    1552,
    1552,
    1552,
    1552,
    1552,
    0,
    0,
    0,
    0,
    0,
    0,
    0,
    0,
    0,
    0,
    0,
    0,
    0,
    0,
    0,
    0,
    0,
    0,
    0,
    0,
    0,
    0,
    0,
    0,
    0,
    0,
    0,
    0,
    0,
    0,
    0,
    0,
    0,
    0,
    0,
    0,
    0,
    0,
    0,
    0,
    0,
    0,
    0,
    0,
    0,
    0,
    0,
    0,
    0,
    0,
    0,
    0,
    0,
    0,
    0,
    0,
    0,
    0,
    0,
    0,
    0,
    0,
    0,
    0,
    0,
    0,
    0,
    0,
    0,
    0,
    0,
    0,
    0,
    0,
    0,
    0,
    0,
    0,
    0,
    0,
    0,
    0,
    0,
    0,
    0,
    0,
    0,
    0,
    0,
    0,
    0,
    0,
    0,
    0,
    0,
    0,
    0,
    0,
    0,
    0,
    0,
    0,
    0,
    0,
    0,
    0,
    0,
    0,
    0,
    0,
    0,
    0,
    0,
    0,
    0,
    0,
    0,
    0,
    0,
    0,
    0,
    1552,
    1552,
    0,
    0,
    0,
    1552,
    1552,
    1552,
    0,
    0,
    0,
    0,
    0,
    0,
    0,
    0,
    0,
    0,
    0,
    0,
    0,
    0,
    0,
    0,
    0,
    0,
    0,
    0,
    0,
    0,
    0,
    0,
    0,
    0,
    0,
    0,
    0,
    0,
    0,
    0,
    0,
    0,
    0,
    0,
    0,
    0,
    0,
    0,
    0,
    0,
    0,
    0,
    0,
    0,
    0,
    0,
    0,
    0,
    0,
    0,
    0,
    0,
    0,
    0,
    0,
    0,
    0,
    0,
    0,
    0,
    0,
    0,
    0,
    0,
    0,
    1552,
    0,
    0,
    0,
    0,
    0,
    0,
    0,
    0,
    0,
    0,
    0,
    0,
    0,
    0,
    0,
    0,
    0,
    0,
    0,
    0,
    0,
    0,
    0,
    0,
    0,
    0,
    0,
    0,
    0,
    0,
    0,
    0,
    0,
    0,
    0,
    0,
    0,
    0,
    0,
    0,
    0,
    0,
    0,
    0,
    0,
    0,
    0,
    0,
    0,
    0,
    0,
    0,
    1552,
    1552,
    0,
    0,
    1552,
    0,
    0,
    0,
    0,
    0,
    0,
    0,
    0,
    0,
    0,
    0,
    0,
    0,
    0,
    0,
    0,
    0,
    0,
    0,
    0,
    0,
    0,
    0,
    0,
    0,
    0,
    0,
    0,
    0,
    0,
    0,
    0,
    0,
    0,
    0,
    0,
    0,
    0,
    0,
    0,
    0,
    0,
    0,
    0,
    0,
    0,
    0,
    0,
    0,
    0,
    0,
    0,
    0,
    0,
    0,
    0,
    0,
    0,
    0,
    0,
    0,
    0,
    0,
    0,
    0,
    0,
    0,
    0,
    0,
    0,
    0,
    0,
    0,
    0,
    0,
    0,
    0,
    0,
    0,
    0,
    0,
    0,
    0,
    0,
    0,
    0,
    0,
    0,
    0,
    0,
    0,
    0,
    0,
    0,
    0,
    0,
    0,
    0,
    0,
    0,
    0,
    0,
    0,
    0,
    0,
    0,
    0,
    0,
    0,
    0,
    0,
    0,
    0,
    0,
    0,
    0,
    0,
    0,
    0,
    0,
    0,
    0,
    0,
    0,
    0,
    0,
    0,
    0,
    1552,
    1552,
    0,
    0,
    0,
    0,
    0,
    0,
    0,
    0,
    0,
    0,
    0,
    0,
    0,
    0,
    0,
    0,
    0,
    0,
    0,
    0,
    0,
    0,
    0,
    0,
    0,
    0,
    0,
    0,
    0,
    0,
    0,
    0,
    0,
    0,
    0,
    0,
    0,
    0,
    0,
    0,
    0,
    0,
    0,
    0,
    0,
    0,
    0,
    0,
    0,
    0,
    0,
    0,
    0,
    0,
    0,
    0,
    0,
    0,
    0,
    0,
    0,
    0,
    0,
    0,
    0,
    0,
    0,
    0,
    0,
    0,
    0,
    0,
    0,
    0,
    0,
    0,
    0,
    0,
    0,
    0,
    0,
    0,
    0,
    0,
    0,
    0,
    0,
    0,
    0,
    0,
    0,
    0,
    0,
    0,
    0,
    0,
    0,
    0,
    0,
    0,
    0,
    0,
    0,
    0,
    0,
    0,
    0,
    0,
    0,
    0,
    0,
    0,
    0,
    0,
    0,
    0,
    0,
    0,
    0,
    0,
    1552,
    0,
    0,
    1552,
    0,
    0,
    1552,
    1552,
    0,
    0,
    0,
    0,
    0,
    0,
    0,
    0,
    0,
    0,
    0,
    0,
    0,
    0,
    0,
    0,
    0,
    0,
    0,
    0,
    0,
    0,
    0,
    0,
    0,
    0,
    0,
    0,
    0,
    0,
    0,
    0,
    0,
    0,
    0,
    0,
    0,
    0,
    0,
    0,
    0,
    0,
    0,
    0,
    0,
    0,
    0,
    0,
    0,
    0,
    0,
    0,
    0,
    0,
    0,
    0,
    0,
    0,
    0,
    0,
    0,
    0,
    0,
    0,
    0,
    0,
    0,
    0,
    0,
    0,
    0,
    0,
    0,
    0,
    0,
    0,
    0,
    0,
    0,
    0,
    0,
    0,
    0,
    0,
    0,
    0,
    0,
    0,
    0,
    0,
    0,
    0,
    0,
    0,
    0,
    0,
    0,
    0,
    0,
    0,
    0,
    0,
    0,
    0,
    0,
    0,
    0,
    0,
    0,
    0,
    0,
    0,
    0,
    0,
    0,
    0,
    0,
    0,
    0,
    0,
    0,
    0,
    0,
    0,
    0,
    0,
    0,
    0,
    0,
    0,
    0,
    0,
    0,
    0,
    0,
    0,
    0,
    0,
    0,
    0,
    0,
    0,
    0,
    0,
    0,
    0,
    0,
    0,
    0,
    0,
    0,
    0,
    0,
    0,
    0,
    0,
    0,
    0,
    0,
    0,
    0,
    0,
    0,
    0,
    0,
    0,
    0,
    0,
    0,
    0,
    0,
    0,
    0,
    0,
    0,
    0,
    0,
    0,
    0,
    0,
    0,
    0,
    0,
    0,
    0,
    0,
    0,
    0,
    0,
    0,
    0,
    0,
    0,
    0,
    0,
    0,
    0,
    0,
    0,
    0,
    0,
    0,
    0,
    0,
    0,
    0,
    0,
    0,
    0,
    0,
    1552,
    1552,
    0,
    0,
    0,
    0,
    0,
    0,
    0,
    0,
    0,
    0,
    0,
    0,
    0,
    0,
    0,
    0,
    0,
    0,
    0,
    0,
    0,
    0,
    0,
    0,
    0,
    0,
    0,
    0,
    0,
    0,
    0,
    0,
    0,
    1552,
    0,
    1552,
    0,
    1552,
    1552,
    0,
    1552,
    0,
    0,
    0,
    0,
    0,
    0,
    0,
    0,
    0,
    0,
    0,
    0,
    0,
    0,
    0,
    0,
    0,
    0,
    0,
    0,
    0,
    0,
    0,
    0,
    0,
    0,
    0,
    0,
    0,
    0,
    0,
    0,
    0,
    0,
    0,
    0,
    0,
    0,
    0,
    0,
    0,
    0,
    0,
    0,
    0,
    0,
    0,
    0,
    0,
    0,
    0,
    0,
    0,
    0,
    0,
    0,
    0,
    0,
    0,
    0,
    0,
    0,
    0,
    0,
    0,
    0,
    0,
    0,
    0,
    0,
    0,
    0,
    0,
    0,
    0,
    0,
    0,
    0,
    0,
    1552,
    1552,
    1552,
    0,
    0,
    1552,
    1552,
    1552,
    1552,
    0,
    0,
    0,
    0,
    0,
    0,
    0,
    0,
    0,
    0,
    0,
    0,
    0,
    0,
    0,
    0,
    0,
    0,
    0,
    0,
    0,
    0,
    0,
    0,
    0,
    0,
    0,
    0,
    0,
    0,
    0,
    0,
    1552,
    1552,
    0,
    1552,
    1552,
    1552,
    0,
    1552,
    1552,
    0,
    0,
    0,
    0,
    0,
    0,
    0,
    0,
    0,
    0,
    0,
    0,
    0,
    0,
    0,
    0,
    0,
    0,
    0,
    0,
    0,
    0,
    0,
    0,
    0,
    0,
    0,
    0,
    0,
    0,
    0,
    0,
    0,
    0,
    0,
    0,
    0,
    0,
    0,
    0,
    0,
    0,
    0,
    0,
    0,
    0,
    0,
    0,
    0,
    0,
    0,
    0,
    0,
    0,
    0,
    0,
    0,
    0,
    0,
    0,
    0,
    0,
    0,
    0,
    0,
    0,
    0,
    0,
    0,
    0,
    0,
    0,
    0,
    0,
    0,
    0,
    0,
    1552,
    1552,
    1552,
    1552,
    1552,
    1552,
    1552,
    1552,
    1552,
    1552,
    1552,
    1552,
    1552,
    0,
    0,
    0,
    0,
    0,
    0,
    0,
    0,
    0,
    0,
    0,
    0,
    0,
    0,
    0,
    0,
    0,
    0,
    0,
    0,
    0,
    0,
    0,
    0,
    0,
    0,
    0,
    0,
    0,
    1552,
    1552,
    1552,
    1552,
    1552,
    0,
    1552,
    1552,
    1552,
    1552,
    0,
    0,
    0,
    0,
    0,
    0,
    0,
    0,
    0,
    0,
    0,
    0,
    0,
    0,
    0,
    0,
    0,
    0,
    0,
    0,
    0,
    0,
    0,
    0,
    0,
    0,
    0,
    0,
    0,
    0,
    0,
    0,
    0,
    0,
    0,
    0,
    0,
    0,
    0,
    0,
    0,
    0,
    0,
    0,
    0,
    0,
    0,
    0,
    0,
    0,
    0,
    0,
    0,
    0,
    0,
    0,
    0,
    0,
    0,
    0,
    0,
    0,
    0,
    0,
    0,
    0,
    0,
    0,
    0,
    0,
    0,
    0,
    0,
    0,
    1552,
    1552,
    1552,
    1552,
    1552,
    1552,
    1552,
    1552,
    1552,
    1552,
    1552,
    1552,
    1552,
    1552,
    1552,
    1552,
    0,
    0,
    0,
    1552,
    1552,
    1552,
    0,
    0,
    0,
    0,
    0,
    0,
    0,
    0,
    0,
    0,
    0,
    0,
    0,
    0,
    0,
    0,
    0,
    0,
    0,
    0,
    1552,
    0,
    0,
    1552,
    1552,
    1552,
    1552,
    1552,
    1552,
    1552,
    1552,
    1552,
    1552,
    0,
    0,
    0,
    0,
    0,
    0,
    0,
    0,
    0,
    0,
    0,
    0,
    0,
    0,
    0,
    0,
    0,
    0,
    0,
    0,
    0,
    0,
    0,
    0,
    0,
    0,
    0,
    0,
    0,
    0,
    0,
    0,
    0,
    0,
    0,
    0,
    0,
    0,
    0,
    0,
    0,
    0,
    0,
    0,
    0,
    0,
    0,
    0,
    0,
    0,
    0,
    0,
    0,
    0,
    0,
    0,
    0,
    0,
    0,
    0,
    0,
    0,
    0,
    0,
    0,
    0,
    0,
    0,
    0,
    0,
    0,
    1552,
    1552,
    1552,
    1552,
    1552,
    1552,
    1552,
    1552,
    1552,
    1552,
    1552,
    1552,
    1552,
    1552,
    1552,
    1552,
    1552,
    1552,
    1552,
    0,
    1552,
    1552,
    1552,
    1552,
    1552,
    0,
    0,
    0,
    0,
    0,
    0,
    0,
    0,
    0,
    0,
    0,
    0,
    0,
    0,
    0,
    0,
    0,
    0,
    1552,
    0,
    1552,
    1552,
    1552,
    1552,
    0,
    1552,
    1552,
    1552,
    1552,
    0,
    1552,
    1552,
    0,
    0,
    0,
    0,
    0,
    0,
    0,
    0,
    0,
    0,
    0,
    0,
    0,
    0,
    0,
    0,
    0,
    0,
    0,
    0,
    0,
    0,
    0,
    0,
    0,
    0,
    0,
    0,
    0,
    0,
    0,
    0,
    0,
    0,
    0,
    0,
    0,
    0,
    0,
    0,
    0,
    0,
    0,
    0,
    0,
    0,
    0,
    0,
    0,
    0,
    0,
    0,
    0,
    0,
    0,
    0,
    0,
    0,
    0,
    0,
    0,
    0,
    0,
    0,
    0,
    0,
    0,
    0,
    0,
    0,
    1552,
    1552,
    1552,
    1552,
    1552,
    1552,
    1552,
    1552,
    1552,
    1552,
    1552,
    1552,
    1552,
    1552,
    1552,
    1552,
    1552,
    1552,
    1552,
    1552,
    1552,
    1552,
    1552,
    1552,
    1552,
    1552,
    1552,
    0,
    0,
    0,
    0,
    0,
    0,
    0,
    0,
    0,
    0,
    0,
    0,
    0,
    0,
    0,
    0,
    0,
    0,
    0,
    0,
    1552,
    1552,
    0,
    1552,
    1552,
    1552,
    1552,
    1552,
    1552,
    1552,
    1552,
    0,
    0,
    0,
    0,
    0,
    0,
    0,
    0,
    0,
    0,
    0,
    0,
    0,
    0,
    0,
    0,
    0,
    0,
    0,
    0,
    0,
    0,
    0,
    0,
    0,
    0,
    0,
    0,
    0,
    0,
    0,
    0,
    0,
    0,
    0,
    0,
    0,
    0,
    0,
    0,
    0,
    0,
    0,
    0,
    0,
    0,
    0,
    0,
    0,
    0,
    0,
    0,
    0,
    0,
    0,
    0,
    0,
    0,
    0,
    0,
    0,
    0,
    0,
    0,
    0,
    0,
    0,
    0,
    0,
    1552,
    1552,
    1552,
    1552,
    1552,
    1552,
    1552,
    1552,
    1552,
    1552,
    1552,
    1552,
    1552,
    1552,
    1552,
    1552,
    1552,
    1552,
    1552,
    1552,
    1552,
    1552,
    1552,
    1552,
    1552,
    1552,
    1552,
    1552,
    0,
    0,
    0,
    1552,
    1552,
    1552,
    1552,
    0,
    0,
    0,
    0,
    0,
    0,
    0,
    0,
    0,
    0,
    0,
    0,
    1552,
    1552,
    1552,
    1552,
    1552,
    1552,
    1552,
    1552,
    1552,
    1552,
    0,
    0,
    0,
    0,
    0,
    0,
    0,
    0,
    0,
    0,
    0,
    0,
    0,
    0,
    0,
    0,
    0,
    0,
    0,
    0,
    0,
    0,
    0,
    0,
    0,
    0,
    0,
    0,
    0,
    0,
    0,
    0,
    0,
    0,
    0,
    0,
    0,
    0,
    0,
    0,
    0,
    0,
    0,
    0,
    0,
    0,
    0,
    0,
    0,
    0,
    0,
    0,
    0,
    0,
    0,
    0,
    0,
    0,
    0,
    0,
    0,
    0,
    0,
    0,
    0,
    0,
    0,
    0,
    0,
    0,
    0,
    1552,
    1552,
    1552,
    1552,
    1552,
    1552,
    1552,
    1552,
    1552,
    1552,
    1552,
    1552,
    1552,
    1552,
    1552,
    1552,
    1552,
    1552,
    1552,
    1552,
    1552,
    1552,
    1552,
    1552,
    1552,
    1552,
    1552,
    1552,
    1552,
    0,
    1552,
    1552,
    1552,
    1552,
    1552,
    1552,
    0,
    0,
    0,
    0,
    0,
    0,
    0,
    0,
    0,
    0,
    0,
    0,
    0,
    1552,
    1552,
    1552,
    1552,
    1552,
    1552,
    1552,
    1552,
    0,
    0,
    0,
    0,
    0,
    0,
    0,
    0,
    0,
    0,
    0,
    0,
    0,
    0,
    0,
    0,
    0,
    0,
    0,
    0,
    0,
    0,
    0,
    0,
    0,
    0,
    0,
    0,
    0,
    0,
    0,
    0,
    0,
    0,
    0,
    0,
    0,
    0,
    0,
    0,
    0,
    0,
    0,
    0,
    0,
    0,
    0,
    0,
    0,
    0,
    0,
    0,
    0,
    0,
    0,
    0,
    0,
    0,
    0,
    0,
    0,
    0,
    0,
    0,
    0,
    0,
    0,
    0,
    0,
    0,
    0,
    1552,
    1552,
    1552,
    1552,
    1552,
    1552,
    1552,
    1552,
    1552,
    1552,
    1552,
    1552,
    1552,
    1552,
    1552,
    1552,
    1552,
    1552,
    1552,
    1552,
    1552,
    1552,
    1552,
    1552,
    1552,
    1552,
    1552,
    1552,
    1552,
    1552,
    1552,
    1552,
    1552,
    1552,
    1552,
    1552,
    1552,
    0,
    0,
    0,
    0,
    0,
    0,
    0,
    0,
    0,
    0,
    0,
    0,
    1552,
    1552,
    0,
    1552,
    1552,
    0,
    1552,
    0,
    0,
    0,
    0,
    0,
    0,
    0,
    0,
    0,
    0,
    0,
    0,
    0,
    0,
    0,
    0,
    0,
    0,
    0,
    0,
    0,
    0,
    0,
    0,
    0,
    0,
    0,
    0,
    0,
    0,
    0,
    0,
    0,
    0,
    0,
    0,
    0,
    0,
    0,
    0,
    0,
    0,
    0,
    0,
    0,
    0,
    0,
    0,
    0,
    0,
    0,
    0,
    0,
    0,
    0,
    0,
    0,
    0,
    0,
    0,
    0,
    0,
    0,
    0,
    0,
    0,
    0,
    0,
    0,
    0,
    0,
    0,
    1552,
    1552,
    1552,
    1552,
    1552,
    1552,
    1552,
    1552,
    1552,
    1552,
    1552,
    1552,
    1552,
    1552,
    1552,
    1552,
    1552,
    1552,
    1552,
    1552,
    1552,
    1552,
    1552,
    1552,
    1552,
    1552,
    1552,
    1552,
    1552,
    1552,
    1552,
    1552,
    1552,
    1552,
    1552,
    1552,
    1552,
    1552,
    0,
    0,
    0,
    0,
    0,
    0,
    0,
    0,
    0,
    0,
    0,
    0,
    0,
    1552,
    1552,
    1552,
    0,
    0,
    0,
    0,
    0,
    0,
    0,
    0,
    0,
    0,
    0,
    0,
    0,
    0,
    0,
    0,
    0,
    0,
    0,
    0
   ]
  },
  {
   "id": 4,
   "name": "constructions",
   "type": "objectgroup",
   "x": 0,
   "y": 0,
   "width": 0,
   "height": 0,
   "opacity": 1,
   "visible": true,
   "draworder": "topdown",
   "objects": [
    {
     "height": 0,
     "id": 3,
     "name": "bridge-1",
     "point": true,
     "properties": [
      {
       "name": "footprint:stone",
       "type": "string",
       "value": "62,44,2,3"
      },
      {
       "name": "footprint:wood",
       "type": "string",
       "value": "62,44,1,3"
      },
      {
       "name": "levels",
       "type": "string",
       "value": "wood,stone"
      },
      {
       "name": "orientation",
       "type": "string",
       "value": "vertical"
      }
     ],
     "rotation": 0,
     "type": "bridge",
     "visible": true,
     "width": 0,
     "x": 2500,
     "y": 1820
    },
    {
     "height": 0,
     "id": 4,
     "name": "bridge-2",
     "point": true,
     "properties": [
      {
       "name": "footprint:wood",
       "type": "string",
       "value": "67,46,1,3"
      },
      {
       "name": "levels",
       "type": "string",
       "value": "wood"
      },
      {
       "name": "orientation",
       "type": "string",
       "value": "vertical"
      }
     ],
     "rotation": 0,
     "type": "bridge",
     "visible": true,
     "width": 0,
     "x": 2700,
     "y": 1900
    },
    {
     "height": 0,
     "id": 5,
     "name": "bridge-3",
     "point": true,
     "properties": [
      {
       "name": "footprint:stone",
       "type": "string",
       "value": "83,52,2,3"
      },
      {
       "name": "footprint:wood",
       "type": "string",
       "value": "83,52,1,3"
      },
      {
       "name": "levels",
       "type": "string",
       "value": "wood,stone"
      },
      {
       "name": "orientation",
       "type": "string",
       "value": "vertical"
      }
     ],
     "rotation": 0,
     "type": "bridge",
     "visible": true,
     "width": 0,
     "x": 3340,
     "y": 2140
    },
    {
     "height": 0,
     "id": 6,
     "name": "bridge-4",
     "point": true,
     "properties": [
      {
       "name": "footprint:stone",
       "type": "string",
       "value": "55,40,2,3"
      },
      {
       "name": "footprint:wood",
       "type": "string",
       "value": "55,40,1,3"
      },
      {
       "name": "levels",
       "type": "string",
       "value": "wood,stone"
      },
      {
       "name": "orientation",
       "type": "string",
       "value": "vertical"
      }
     ],
     "rotation": 0,
     "type": "bridge",
     "visible": true,
     "width": 0,
     "x": 2220,
     "y": 1660
    },
    {
     "height": 0,
     "id": 7,
     "name": "tower-1",
     "point": true,
     "properties": [
      {
       "name": "footprint:grass",
       "type": "string",
       "value": "23,2,2,3"
      },
      {
       "name": "levels",
       "type": "string",
       "value": "grass"
      }
     ],
     "rotation": 0,
     "type": "tower",
     "visible": true,
     "width": 0,
     "x": 960,
     "y": 140
    },
    {
     "height": 0,
     "id": 8,
     "name": "tower-2",
     "point": true,
     "properties": [
      {
       "name": "footprint:grass",
       "type": "string",
       "value": "28,2,2,3"
      },
      {
       "name": "levels",
       "type": "string",
       "value": "grass"
      }
     ],
     "rotation": 0,
     "type": "tower",
     "visible": true,
     "width": 0,
     "x": 1160,
     "y": 140
    },
    {
     "height": 0,
     "id": 9,
     "name": "tower-3",
     "point": true,
     "properties": [
      {
       "name": "footprint:grass",
       "type": "string",
       "value": "34,9,2,3"
      },
      {
       "name": "levels",
       "type": "string",
       "value": "grass"
      }
     ],
     "rotation": 0,
     "type": "tower",
     "visible": true,
     "width": 0,
     "x": 1400,
     "y": 420
    },
    {
     "height": 0,
     "id": 10,
     "name": "tower-4",
     "point": true,
     "properties": [
      {
       "name": "footprint:grass",
       "type": "string",
       "value": "40,13,2,3"
      },
      {
       "name": "levels",
       "type": "string",
       "value": "grass"
      }
     ],
     "rotation": 0,
     "type": "tower",
     "visible": true,
     "width": 0,
     "x": 1640,
     "y": 580
    },
    {
     "height": 0,
     "id": 11,
     "name": "tower-5",
     "point": true,
     "properties": [
      {
       "name": "footprint:grass",
       "type": "string",
       "value": "60,14,2,3"
      },
      {
       "name": "levels",
       "type": "string",
       "value": "grass"
      }
     ],
     "rotation": 0,
     "type": "tower",
     "visible": true,
     "width": 0,
     "x": 2440,
     "y": 620
    },
    {
     "height": 0,
     "id": 12,
     "name": "tower-6",
     "point": true,
     "properties": [
      {
       "name": "footprint:grass",
       "type": "string",
       "value": "64,9,2,3"
      },
      {
       "name": "levels",
       "type": "string",
       "value": "grass"
      }
     ],
     "rotation": 0,
     "type": "tower",
     "visible": true,
     "width": 0,
     "x": 2600,
     "y": 420
    },
    {
     "height": 0,
     "id": 13,
     "name": "tower-7",
     "point": true,
     "properties": [
      {
       "name": "footprint:grass",
       "type": "string",
       "value": "7,29,2,3"
      },
      {
       "name": "levels",
       "type": "string",
       "value": "grass"
      }
     ],
     "rotation": 0,
     "type": "tower",
     "visible": true,
     "width": 0,
     "x": 320,
     "y": 1220
    },
    {
     "height": 0,
     "id": 14,
     "name": "tower-8",
     "point": true,
     "properties": [
      {
       "name": "footprint:grass",
       "type": "string",
       "value": "12,25,2,3"
      },
      {
       "name": "levels",
       "type": "string",
       "value": "grass"
      }
     ],
     "rotation": 0,
     "type": "tower",
     "visible": true,
     "width": 0,
     "x": 520,
     "y": 1060
    },
    {
     "height": 0,
     "id": 15,
     "name": "tower-9",
     "point": true,
     "properties": [
      {
       "name": "footprint:grass",
       "type": "string",
       "value": "17,17,2,3"
      },
      {
       "name": "levels",
       "type": "string",
       "value": "grass"
      }
     ],
     "rotation": 0,
     "type": "tower",
     "visible": true,
     "width": 0,
     "x": 720,
     "y": 740
    },
    {
     "height": 0,
     "id": 16,
     "name": "tower-10",
     "point": true,
     "properties": [
      {
       "name": "footprint:grass",
       "type": "string",
       "value": "17,9,2,3"
      },
      {
       "name": "levels",
       "type": "string",
       "value": "grass"
      }
     ],
     "rotation": 0,
     "type": "tower",
     "visible": true,
     "width": 0,
     "x": 720,
     "y": 420
    },
    {
     "height": 0,
     "id": 17,
     "name": "tower-11",
     "point": true,
     "properties": [
      {
       "name": "footprint:grass",
       "type": "string",
       "value": "56,36,2,3"
      },
      {
       "name": "levels",
       "type": "string",
       "value": "grass"
      }
     ],
     "rotation": 0,
     "type": "tower",
     "visible": true,
     "width": 0,
     "x": 2280,
     "y": 1500
    },
    {
     "height": 0,
     "id": 18,
     "name": "tower-12",
     "point": true,
     "properties": [
      {
       "name": "footprint:grass",
       "type": "string",
       "value": "53,46,2,3"
      },
      {
       "name": "levels",
       "type": "string",
       "value": "grass"
      }
     ],
     "rotation": 0,
     "type": "tower",
     "visible": true,
     "width": 0,
     "x": 2160,
     "y": 1900
    },
    {
     "height": 0,
     "id": 19,
     "name": "tower-13",
     "point": true,
     "properties": [
      {
       "name": "footprint:grass",
       "type": "string",
       "value": "63,49,2,3"
      },
      {
       "name": "levels",
       "type": "string",
       "value": "grass"
      }
     ],
     "rotation": 0,
     "type": "tower",
     "visible": true,
     "width": 0,
     "x": 2560,
     "y": 2020
    },
    {
     "height": 0,
     "id": 20,
     "name": "tower-14",
     "point": true,
     "properties": [
      {
       "name": "footprint:grass",
       "type": "string",
       "value": "62,40,2,3"
      },
      {
       "name": "levels",
       "type": "string",
       "value": "grass"
      }
     ],
     "rotation": 0,
     "type": "tower",
     "visible": true,
     "width": 0,
     "x": 2520,
     "y": 1660
    },
    {
     "height": 0,
     "id": 21,
     "name": "tower-15",
     "point": true,
     "properties": [
      {
       "name": "footprint:grass",
       "type": "string",
       "value": "71,44,2,3"
      },
      {
       "name": "levels",
       "type": "string",
       "value": "grass"
      }
     ],
     "rotation": 0,
     "type": "tower",
     "visible": true,
     "width": 0,
     "x": 2880,
     "y": 1820
    },
    {
     "height": 0,
     "id": 22,
     "name": "tower-16",
     "point": true,
     "properties": [
      {
       "name": "footprint:grass",
       "type": "string",
       "value": "83,56,2,3"
      },
      {
       "name": "levels",
       "type": "string",
       "value": "grass"
      }
     ],
     "rotation": 0,
     "type": "tower",
     "visible": true,
     "width": 0,
     "x": 3360,
     "y": 2300
    },
    {
     "height": 0,
     "id": 23,
     "name": "tower-17",
     "point": true,
     "properties": [
      {
       "name": "footprint:grass",
       "type": "string",
       "value": "82,47,2,3"
      },
      {
       "name": "levels",
       "type": "string",
       "value": "grass"
      }
     ],
     "rotation": 0,
     "type": "tower",
     "visible": true,
     "width": 0,
     "x": 3320,
     "y": 1940
    },
    {
     "height": 0,
     "id": 24,
     "name": "tower-18",
     "point": true,
     "properties": [
      {
       "name": "footprint:grass",
       "type": "string",
       "value": "39,76,2,3"
      },
      {
       "name": "levels",
       "type": "string",
       "value": "grass"
      }
     ],
     "rotation": 0,
     "type": "tower",
     "visible": true,
     "width": 0,
     "x": 1600,
     "y": 3100
    },
    {
     "height": 0,
     "id": 25,
     "name": "tower-19",
     "point": true,
     "properties": [
      {
       "name": "footprint:rock-1",
       "type": "string",
       "value": "121,72,2,3"
      },
      {
       "name": "levels",
       "type": "string",
       "value": "rock-1"
      }
     ],
     "rotation": 0,
     "type": "tower",
     "visible": true,
     "width": 0,
     "x": 4880,
     "y": 2940
    },
    {
     "height": 0,
     "id": 26,
     "name": "tower-20",
     "point": true,
     "properties": [
      {
       "name": "footprint:rock-1",
       "type": "string",
       "value": "122,117,2,3"
      },
      {
       "name": "levels",
       "type": "string",
       "value": "rock-1"
      }
     ],
     "rotation": 0,
     "type": "tower",
     "visible": true,
     "width": 0,
     "x": 4920,
     "y": 4740
    },
    {
     "height": 0,
     "id": 27,
     "name": "tower-21",
     "point": true,
     "properties": [
      {
       "name": "footprint:rock-1",
       "type": "string",
       "value": "62,111,2,3"
      },
      {
       "name": "levels",
       "type": "string",
       "value": "rock-1"
      }
     ],
     "rotation": 0,
     "type": "tower",
     "visible": true,
     "width": 0,
     "x": 2520,
     "y": 4500
    },
    {
     "height": 0,
     "id": 28,
     "name": "tower-22",
     "point": true,
     "properties": [
      {
       "name": "footprint:rock-1",
       "type": "string",
       "value": "88,102,2,3"
      },
      {
       "name": "levels",
       "type": "string",
       "value": "rock-1"
      }
     ],
     "rotation": 0,
     "type": "tower",
     "visible": true,
     "width": 0,
     "x": 3560,
     "y": 4140
    },
    {
     "height": 0,
     "id": 29,
     "name": "tower-23",
     "point": true,
     "properties": [
      {
       "name": "footprint:rock-2",
       "type": "string",
       "value": "41,47,2,3"
      },
      {
       "name": "levels",
       "type": "string",
       "value": "rock-2"
      }
     ],
     "rotation": 0,
     "type": "tower",
     "visible": true,
     "width": 0,
     "x": 1680,
     "y": 1940
    },
    {
     "height": 0,
     "id": 30,
     "name": "castle-1",
     "point": true,
     "properties": [
      {
       "name": "footprint:1",
       "type": "string",
       "value": "46,70,11,11"
      },
      {
       "name": "footprint:2",
       "type": "string",
       "value": "44,68,15,15"
      },
      {
       "name": "footprint:3",
       "type": "string",
       "value": "43,66,18,19"
      },
      {
       "name": "footprint:4",
       "type": "string",
       "value": "42,65,21,21"
      },
      {
       "name": "footprint:5-moated",
       "type": "string",
       "value": "37,62,30,29"
      },
      {
       "name": "footprint:5-unmoated",
       "type": "string",
       "value": "37,63,31,27"
      },
      {
       "name": "footprint:6-moated",
       "type": "string",
       "value": "33,60,39,34"
      },
      {
       "name": "footprint:6-unmoated",
       "type": "string",
       "value": "32,56,41,40"
      },
      {
       "name": "footprint:7-moated",
       "type": "string",
       "value": "28,53,49,48"
      },
      {
       "name": "levels",
       "type": "string",
       "value": "1,2,3,4,5-unmoated,6-unmoated,5-moated,6-moated,7-moated"
      }
     ],
     "rotation": 0,
     "type": "castle",
     "visible": true,
     "width": 0,
     "x": 2060,
     "y": 3020
    },
    {
     "height": 0,
     "id": 31,
     "name": "castle-2",
     "point": true,
     "properties": [
      {
       "name": "footprint:1",
       "type": "string",
       "value": "98,15,11,11"
      },
      {
       "name": "footprint:2",
       "type": "string",
       "value": "96,13,15,15"
      },
      {
       "name": "footprint:3",
       "type": "string",
       "value": "95,11,18,19"
      },
      {
       "name": "footprint:4",
       "type": "string",
       "value": "94,10,21,21"
      },
      {
       "name": "footprint:5-moated",
       "type": "string",
       "value": "89,7,30,29"
      },
      {
       "name": "footprint:5-unmoated",
       "type": "string",
       "value": "89,8,31,27"
      },
      {
       "name": "footprint:6-moated",
       "type": "string",
       "value": "85,5,39,34"
      },
      {
       "name": "levels",
       "type": "string",
       "value": "1,2,3,4,5-unmoated,5-moated,6-moated"
      }
     ],
     "rotation": 0,
     "type": "castle",
     "visible": true,
     "width": 0,
     "x": 4140,
     "y": 820
    },
    {
     "height": 0,
     "id": 32,
     "name": "castle-3",
     "point": true,
     "properties": [
      {
       "name": "footprint:1",
       "type": "string",
       "value": "25,111,11,11"
      },
      {
       "name": "footprint:2",
       "type": "string",
       "value": "23,109,15,15"
      },
      {
       "name": "footprint:3",
       "type": "string",
       "value": "21,107,18,19"
      },
      {
       "name": "levels",
       "type": "string",
       "value": "1,2,3"
      }
     ],
     "rotation": 0,
     "type": "castle",
     "visible": true,
     "width": 0,
     "x": 1220,
     "y": 4660
    },
    {
     "height": 0,
     "id": 33,
     "name": "castle-4",
     "point": true,
     "properties": [
      {
       "name": "footprint:1",
       "type": "string",
       "value": "5,52,11,11"
      },
      {
       "name": "footprint:2",
       "type": "string",
       "value": "3,50,15,15"
      },
      {
       "name": "levels",
       "type": "string",
       "value": "1,2"
      }
     ],
     "rotation": 0,
     "type": "castle",
     "visible": true,
     "width": 0,
     "x": 420,
     "y": 2300
    },
    {
     "height": 0,
     "id": 34,
     "name": "castle-5",
     "point": true,
     "properties": [
      {
       "name": "footprint:1",
       "type": "string",
       "value": "115,97,11,11"
      },
      {
       "name": "levels",
       "type": "string",
       "value": "1"
      }
     ],
     "rotation": 0,
     "type": "castle",
     "visible": true,
     "width": 0,
     "x": 4820,
     "y": 4100
    },
    {
     "height": 0,
     "id": 35,
     "name": "castle-6",
     "point": true,
     "properties": [
      {
       "name": "footprint:1",
       "type": "string",
       "value": "99,70,11,11"
      },
      {
       "name": "levels",
       "type": "string",
       "value": "1"
      }
     ],
     "rotation": 0,
     "type": "castle",
     "visible": true,
     "width": 0,
     "x": 4180,
     "y": 3020
    },
    {
     "height": 0,
     "id": 36,
     "name": "castle-7",
     "point": true,
     "properties": [
      {
       "name": "footprint:1",
       "type": "string",
       "value": "63,15,11,11"
      },
      {
       "name": "levels",
       "type": "string",
       "value": "1"
      }
     ],
     "rotation": 0,
     "type": "castle",
     "visible": true,
     "width": 0,
     "x": 2740,
     "y": 820
    }
   ]
  }
 ]
}
