{
 "type": "map",
 "version": 1.1,
 "tiledversion": "1.11.0",
 "orientation": "orthogonal",
 "renderorder": "right-down",
 "width": 128,
 "height": 128,
 "tilewidth": 40,
 "tileheight": 40,
 "infinite": false,
 "nextlayerid": 4,
 "nextobjectid": 3,
 "compressionlevel": -1,
 "properties": [],
 "tilesets": [
  {
   "firstgid": 1,
   "source": "terrain.tsx"
  }
 ],
 "layers": [
  {
   "id": 1,
   "name": "terrain",
   "type": "tilelayer",
   "x": 0,
   "y": 0,
   "width": 128,
   "height": 128,
   "opacity": 1,
   "visible": true,
   "data": [
    1386,
    1383,
    1386,
    1383,
    1385,
    1385,
    1387,
    1386,
    1388,
    1147,
    1387,
    1182,
    10,
    1147,
    1182,
    1387,
    1150,
    1151,
    1387,
    1385,
    1387,
    1386,
    731,
    732,
    11,
    1150,
    1151,
    1182,
    731,
    732,
    927,
    1147,
    733,
    1182,
    1165,
    731,
    732,
    1147,
    1383,
    1388,
    1388,
    1163,
    1385,
    1384,
    1386,
    1385,
    1386,
    702,
    1387,
    1386,
    1385,
    1164,
    1108,
    1109,
    8,
    929,
    930,
    367,
    368,
    1319,
    1320,
    367,
    368,
    703,
    367,
    368,
    941,
    942,
    6,
    15,
    16,
    5,
    6,
    4,
    15,
    1106,
    1182,
    1165,
    731,
    732,
    1387,
    11,
    1182,
    1124,
    1154,
    703,
    703,
    1303,
    1304,
    703,
    703,
    367,
    703,
    1156,
    1122,
    1165,
    731,
    732,
    1387,
    1164,
    1182,
    1385,
    1386,
    1383,
    1384,
    1388,
    1124,
    6,
    1,
    5,
    1122,
    1163,
    1384,
    733,
    1388,
    1386,
    1384,
    1388,
    1182,
    1150,
    1151,
    733,
    1385,
    1388,
    1165,
    1124,
    1,
    5,
    1385,
    1386,
    1163,
    1387,
    1384,
    1386,
    1388,
    733,
    731,
    732,
    1165,
    1388,
    1150,
    1151,
    731,
    732,
    1166,
    1167,
    1385,
    1387,
    731,
    732,
    747,
    748,
    1182,
    1166,
    1167,
    1386,
    747,
    748,
    733,
    731,
    732,
    10,
    1182,
    747,
    748,
    1386,
    1385,
    1384,
    1383,
    1383,
    1383,
    1386,
    1387,
    1383,
    1387,
    1384,
    1388,
    1384,
    1387,
    1387,
    1108,
    1109,
    4,
    945,
    946,
    383,
    384,
    703,
    703,
    367,
    368,
    719,
    383,
    384,
    957,
    958,
    13,
    31,
    32,
    2,
    4,
    1152,
    1090,
    1107,
    1150,
    1151,
    747,
    748,
    1164,
    1385,
    1124,
    1153,
    703,
    719,
    719,
    1319,
    1320,
    719,
    719,
    383,
    719,
    703,
    1156,
    1122,
    747,
    748,
    1386,
    733,
    1388,
    1384,
    1076,
    1165,
    1123,
    1124,
    4,
    3,
    4,
    2,
    5,
    1122,
    1123,
    1123,
    1386,
    1383,
    1386,
    1387,
    1383,
    1166,
    1167,
    1386,
    1123,
    1123,
    1124,
    1,
    1,
    2,
    1383,
    1386,
    1385,
    1386,
    1386,
    1387,
    1386,
    1182,
    747,
    748,
    1385,
    1182,
    1166,
    1167,
    747,
    748,
    11,
    731,
    732,
    1387,
    747,
    748,
    733,
    1387,
    733,
    1182,
    731,
    732,
    1182,
    733,
    1182,
    747,
    748,
    731,
    732,
    1182,
    1383,
    1385,
    1386,
    1384,
    1384,
    1387,
    1387,
    1388,
    1387,
    1385,
    1387,
    1388,
    1386,
    1388,
    1386,
    1386,
    1165,
    1092,
    2,
    961,
    962,
    399,
    400,
    719,
    719,
    703,
    703,
    703,
    399,
    400,
    973,
    974,
    3,
    4,
    2,
    4,
    2,
    1105,
    1106,
    1386,
    1166,
    1167,
    1385,
    1385,
    1123,
    1124,
    1154,
    703,
    719,
    719,
    703,
    368,
    367,
    368,
    703,
    399,
    719,
    703,
    703,
    1173,
    1106,
    1182,
    1383,
    1386,
    1076,
    1077,
    1387,
    1124,
    1152,
    4,
    1,
    2,
    3,
    4,
    3,
    5,
    6,
    1152,
    1122,
    1123,
    1387,
    1384,
    1164,
    1385,
    1383,
    1124,
    1152,
    1074,
    4,
    5,
    1,
    2,
    1385,
    1388,
    1386,
    1384,
    1388,
    1385,
    1385,
    1388,
    1387,
    1386,
    733,
    731,
    732,
    1147,
    733,
    1182,
    1182,
    747,
    748,
    1387,
    1388,
    1384,
    1383,
    733,
    731,
    732,
    747,
    748,
    1150,
    1151,
    731,
    732,
    1182,
    747,
    748,
    1385,
    1384,
    1387,
    1387,
    1388,
    1388,
    1384,
    1386,
    1385,
    1387,
    1385,
    1383,
    1384,
    1386,
    1163,
    1384,
    1383,
    1386,
    1108,
    1109,
    929,
    930,
    367,
    367,
    368,
    368,
    703,
    719,
    703,
    1319,
    1320,
    941,
    942,
    2,
    4,
    6,
    4,
    4,
    1090,
    1387,
    733,
    1383,
    1384,
    1383,
    1124,
    1152,
    1154,
    703,
    719,
    703,
    703,
    719,
    703,
    383,
    384,
    719,
    367,
    368,
    719,
    719,
    1173,
    1106,
    1383,
    1385,
    1387,
    1123,
    1123,
    1124,
    3,
    6,
    6,
    1,
    1,
    4,
    4,
    6,
    1,
    2,
    1,
    4,
    4,
    1122,
    1384,
    1385,
    1388,
    1108,
    1109,
    4,
    3,
    3,
    4,
    3,
    3,
    1387,
    1384,
    1384,
    1383,
    1386,
    1384,
    1384,
    1386,
    1386,
    733,
    1182,
    747,
    748,
    1182,
    731,
    732,
    1384,
    1150,
    1151,
    1182,
    1386,
    1182,
    1383,
    1386,
    747,
    748,
    733,
    733,
    1166,
    1167,
    747,
    748,
    1383,
    1164,
    1383,
    1386,
    1386,
    1384,
    1383,
    1386,
    1388,
    1385,
    1387,
    1387,
    1385,
    1386,
    1388,
    1385,
    1387,
    1387,
    1384,
    1384,
    1387,
    1108,
    1109,
    945,
    946,
    383,
    703,
    384,
    703,
    703,
    367,
    719,
    367,
    368,
    957,
    958,
    1,
    2,
    5,
    5,
    1090,
    1388,
    1386,
    1388,
    1383,
    1107,
    1108,
    1109,
    1169,
    1170,
    719,
    399,
    719,
    719,
    399,
    719,
    399,
    400,
    719,
    383,
    703,
    719,
    1188,
    1089,
    733,
    1386,
    1163,
    1124,
    717,
    3,
    2,
    2,
    5,
    6,
    5,
    6,
    5,
    6,
    6,
    6,
    4,
    4,
    5,
    2,
    5,
    1122,
    1123,
    1123,
    1124,
    4,
    3,
    5,
    5,
    6,
    1,
    4,
    1388,
    1385,
    1388,
    1383,
    1388,
    1385,
    1388,
    1387,
    1165,
    1386,
    1386,
    1385,
    1150,
    1151,
    747,
    748,
    1386,
    1166,
    1167,
    1384,
    1388,
    1386,
    1387,
    1385,
    1387,
    733,
    1182,
    731,
    732,
    1182,
    1388,
    1385,
    1386,
    1387,
    1384,
    1388,
    1387,
    1388,
    1384,
    1384,
    1387,
    1386,
    1388,
    1387,
    1383,
    1387,
    1383,
    1386,
    1386,
    1388,
    1387,
    1388,
    1384,
    1108,
    1109,
    961,
    962,
    399,
    703,
    400,
    719,
    719,
    367,
    368,
    383,
    384,
    973,
    974,
    2,
    3,
    4,
    1105,
    1106,
    1385,
    1163,
    1385,
    1386,
    1388,
    1108,
    1109,
    1169,
    703,
    719,
    1320,
    367,
    368,
    1304,
    367,
    368,
    1304,
    719,
    399,
    719,
    1189,
    1090,
    1385,
    1383,
    1383,
    1108,
    1109,
    6,
    2,
    1,
    4,
    5,
    5,
    2,
    1,
    6,
    6,
    6,
    15,
    16,
    4,
    3,
    6,
    3,
    4,
    4,
    5,
    4,
    5,
    6,
    2,
    4,
    4,
    2,
    2,
    1387,
    1383,
    1386,
    1386,
    1383,
    1387,
    1384,
    1383,
    1387,
    1385,
    1385,
    1383,
    1166,
    1167,
    1182,
    1388,
    1383,
    1388,
    1386,
    1388,
    1384,
    1387,
    1165,
    1383,
    1387,
    1387,
    1387,
    747,
    748,
    1386,
    1383,
    1385,
    1388,
    1383,
    1385,
    1383,
    1388,
    1388,
    1385,
    1386,
    1386,
    1385,
    1385,
    1385,
    1386,
    1387,
    1383,
    1383,
    1383,
    1385,
    1388,
    1163,
    1123,
    1124,
    3,
    939,
    940,
    367,
    719,
    368,
    367,
    368,
    703,
    368,
    367,
    368,
    1015,
    1016,
    1017,
    4,
    3,
    1105,
    1106,
    1384,
    1388,
    1386,
    1387,
    1107,
    1125,
    8,
    1153,
    719,
    703,
    703,
    703,
    384,
    703,
    383,
    703,
    703,
    367,
    368,
    1189,
    1105,
    1106,
    1383,
    1387,
    1388,
    1108,
    1109,
    1,
    4,
    6,
    4,
    2,
    4,
    5,
    4,
    1,
    1,
    2,
    31,
    32,
    6,
    4,
    3,
    4,
    3,
    1,
    6,
    1,
    4,
    1,
    4,
    4,
    4,
    1,
    3,
    1384,
    1388,
    1384,
    1388,
    1387,
    1387,
    1387,
    1386,
    1385,
    1383,
    1388,
    1388,
    1386,
    1387,
    1385,
    1383,
    1384,
    1383,
    1385,
    1385,
    1387,
    1387,
    1384,
    1385,
    1385,
    1383,
    1383,
    1387,
    1383,
    1388,
    1384,
    1383,
    1384,
    1387,
    1385,
    1388,
    1387,
    1388,
    1385,
    1383,
    1387,
    1384,
    1385,
    1388,
    1384,
    1383,
    1384,
    1386,
    1384,
    1383,
    1387,
    1125,
    1074,
    932,
    933,
    955,
    956,
    383,
    383,
    384,
    383,
    384,
    719,
    368,
    383,
    384,
    1031,
    1032,
    1033,
    1034,
    4,
    3,
    1122,
    1383,
    1387,
    1383,
    1165,
    1124,
    3,
    1153,
    703,
    383,
    719,
    719,
    719,
    703,
    719,
    399,
    703,
    719,
    383,
    384,
    1157,
    2,
    1122,
    1165,
    1386,
    1386,
    1124,
    1152,
    4,
    4,
    1,
    4,
    3,
    6,
    3,
    6,
    5,
    5,
    3,
    4,
    1,
    3,
    3,
    2,
    2,
    3,
    1,
    4,
    3,
    1,
    1,
    4,
    6,
    1,
    13,
    6,
    702,
    1386,
    1386,
    1388,
    1385,
    1388,
    1388,
    1383,
    1388,
    1387,
    1387,
    1385,
    1163,
    1383,
    1385,
    1385,
    1384,
    1387,
    1387,
    1385,
    1384,
    1384,
    1383,
    1383,
    1388,
    1386,
    1385,
    1387,
    1386,
    1165,
    1387,
    1388,
    1386,
    1383,
    1383,
    1386,
    1387,
    1387,
    1385,
    1384,
    1383,
    1387,
    1384,
    1388,
    1386,
    1385,
    1385,
    1387,
    1388,
    1165,
    1124,
    1152,
    947,
    948,
    949,
    971,
    367,
    399,
    399,
    703,
    399,
    400,
    367,
    367,
    368,
    400,
    1047,
    1048,
    1049,
    1050,
    4,
    6,
    1,
    1122,
    1123,
    1123,
    1124,
    2,
    1154,
    1304,
    719,
    399,
    367,
    1319,
    1320,
    703,
    368,
    1304,
    719,
    368,
    703,
    400,
    703,
    1156,
    1105,
    1106,
    1387,
    1108,
    1109,
    5,
    6,
    5,
    5,
    4,
    2,
    1,
    5,
    5,
    2,
    4,
    1,
    5,
    4,
    1,
    2,
    1,
    5,
    3,
    6,
    4,
    4,
    4,
    1,
    5,
    4,
    5,
    3,
    6,
    1384,
    1387,
    1388,
    1383,
    1164,
    1387,
    1388,
    1385,
    1385,
    1384,
    1383,
    1384,
    1385,
    1386,
    1387,
    1388,
    1387,
    1387,
    1387,
    1386,
    1384,
    1384,
    1388,
    1387,
    1387,
    1387,
    1387,
    1387,
    1385,
    1386,
    1388,
    1386,
    1182,
    731,
    732,
    1385,
    1388,
    1385,
    1387,
    1385,
    1163,
    1385,
    1388,
    1384,
    1386,
    1388,
    1387,
    1387,
    1383,
    1108,
    1109,
    8,
    963,
    964,
    965,
    703,
    383,
    367,
    368,
    719,
    703,
    703,
    383,
    383,
    703,
    703,
    367,
    368,
    941,
    942,
    6,
    2,
    5,
    1,
    3,
    6,
    6,
    1169,
    703,
    703,
    368,
    1304,
    703,
    703,
    703,
    719,
    703,
    703,
    703,
    384,
    719,
    367,
    719,
    1172,
    1173,
    1122,
    1076,
    1077,
    1092,
    3,
    5,
    3,
    5,
    5,
    3,
    3,
    4,
    5,
    5,
    1,
    3,
    3,
    2,
    4,
    4,
    4,
    2,
    1,
    6,
    13,
    3,
    4,
    4,
    4,
    1,
    3,
    5,
    6,
    1383,
    1385,
    1386,
    1384,
    1388,
    1386,
    1385,
    1386,
    1383,
    1387,
    1388,
    1383,
    1386,
    1384,
    1386,
    1164,
    1387,
    1387,
    1384,
    1383,
    1386,
    1387,
    1383,
    1384,
    1383,
    1383,
    1388,
    1387,
    1384,
    1386,
    1387,
    731,
    732,
    747,
    748,
    1182,
    1384,
    1385,
    1385,
    1388,
    1384,
    1386,
    1383,
    1387,
    1387,
    1384,
    1386,
    1385,
    1387,
    1388,
    1093,
    3,
    929,
    930,
    1304,
    719,
    399,
    383,
    384,
    703,
    719,
    719,
    399,
    399,
    719,
    719,
    383,
    384,
    957,
    958,
    6,
    3,
    5,
    1,
    6,
    1152,
    3,
    1169,
    719,
    703,
    384,
    1320,
    719,
    703,
    719,
    703,
    719,
    719,
    719,
    400,
    703,
    703,
    384,
    1172,
    1173,
    1105,
    1106,
    1387,
    1388,
    1092,
    1,
    5,
    1,
    4,
    2,
    5,
    6,
    4,
    3,
    5,
    1,
    2,
    5,
    6,
    6,
    5,
    6,
    1,
    6,
    6,
    4,
    3,
    6,
    4,
    1,
    3,
    1,
    6,
    1386,
    1387,
    1388,
    1384,
    1384,
    1386,
    1385,
    1386,
    1384,
    1388,
    1384,
    1388,
    1387,
    1385,
    1383,
    1385,
    1388,
    1384,
    731,
    732,
    1388,
    1388,
    1385,
    1385,
    1384,
    1384,
    1383,
    1384,
    1150,
    1151,
    1182,
    747,
    748,
    1182,
    1182,
    1384,
    1387,
    1383,
    1388,
    1388,
    1386,
    1388,
    1386,
    1386,
    1386,
    1386,
    1388,
    1388,
    1383,
    1386,
    1164,
    1092,
    945,
    946,
    367,
    368,
    703,
    399,
    400,
    719,
    367,
    368,
    1304,
    1319,
    383,
    384,
    399,
    400,
    973,
    974,
    6,
    13,
    3,
    2,
    3,
    1,
    3,
    6,
    1186,
    719,
    400,
    719,
    703,
    719,
    368,
    719,
    1320,
    1187,
    1187,
    1187,
    719,
    719,
    400,
    1188,
    2,
    1089,
    1163,
    1076,
    1165,
    1124,
    1,
    1,
    4,
    2,
    5,
    4,
    5,
    4,
    5,
    5,
    5,
    4,
    1,
    1,
    6,
    4,
    3,
    5,
    3,
    3,
    4,
    6,
    6,
    5,
    3,
    4,
    4,
    2,
    1384,
    1387,
    1385,
    1388,
    1384,
    1383,
    1386,
    1383,
    1387,
    1387,
    1388,
    1388,
    1385,
    1388,
    1388,
    733,
    1150,
    1151,
    747,
    748,
    731,
    732,
    1385,
    731,
    732,
    1385,
    1384,
    1385,
    1166,
    1167,
    731,
    732,
    1150,
    1151,
    731,
    732,
    1388,
    1386,
    1387,
    1383,
    1383,
    1383,
    1384,
    1386,
    1388,
    1387,
    1383,
    1384,
    1387,
    1388,
    1387,
    1108,
    961,
    962,
    383,
    384,
    719,
    1319,
    1320,
    703,
    383,
    384,
    703,
    367,
    399,
    400,
    1320,
    989,
    990,
    991,
    2,
    4,
    3,
    4,
    6,
    1,
    4,
    6,
    2,
    1186,
    1187,
    1187,
    719,
    383,
    703,
    1304,
    1189,
    2,
    1,
    3,
    1185,
    1187,
    1188,
    2,
    1090,
    1384,
    1385,
    1384,
    1124,
    4,
    4,
    1,
    4,
    6,
    6,
    5,
    4,
    3,
    6,
    4,
    2,
    2,
    1,
    4,
    3,
    3,
    1,
    4,
    6,
    5,
    3,
    2,
    4,
    5,
    2,
    5,
    4,
    6,
    1387,
    1387,
    1388,
    1384,
    1386,
    1386,
    1384,
    1386,
    1387,
    1386,
    1384,
    1388,
    1388,
    1387,
    731,
    732,
    1166,
    1167,
    731,
    732,
    747,
    748,
    1386,
    747,
    748,
    1150,
    1151,
    731,
    732,
    1182,
    747,
    748,
    1166,
    1167,
    747,
    748,
    731,
    732,
    1182,
    1388,
    1383,
    1388,
    1386,
    1383,
    1386,
    1386,
    1150,
    1151,
    1385,
    731,
    732,
    1108,
    929,
    930,
    1304,
    367,
    368,
    367,
    368,
    719,
    399,
    400,
    719,
    383,
    384,
    1304,
    944,
    1005,
    1006,
    1007,
    6,
    1,
    2,
    3,
    1,
    5,
    4,
    5,
    3,
    1,
    3,
    3,
    1185,
    399,
    719,
    1188,
    6,
    2,
    1090,
    1091,
    1091,
    1092,
    5,
    1089,
    1387,
    1182,
    1123,
    1124,
    6,
    1,
    4,
    4,
    5,
    4,
    5,
    5,
    1,
    1,
    5,
    2,
    6,
    3,
    4,
    6,
    5,
    4,
    5,
    3,
    1,
    6,
    1,
    5,
    3,
    2,
    2,
    3,
    5,
    3,
    1383,
    1384,
    1384,
    1386,
    1386,
    1385,
    1388,
    1384,
    1386,
    1386,
    1384,
    1388,
    1182,
    1384,
    747,
    748,
    731,
    732,
    747,
    748,
    11,
    733,
    731,
    732,
    1182,
    1166,
    1167,
    747,
    748,
    731,
    732,
    1385,
    731,
    732,
    1384,
    1182,
    747,
    748,
    1385,
    1388,
    1165,
    1163,
    1385,
    1387,
    731,
    732,
    1166,
    1167,
    1182,
    747,
    748,
    1108,
    945,
    946,
    367,
    383,
    384,
    383,
    384,
    703,
    1319,
    1320,
    703,
    399,
    400,
    959,
    960,
    1152,
    6,
    4,
    5,
    2,
    5,
    6,
    6,
    6,
    1,
    4,
    1,
    6,
    4,
    2,
    4,
    1186,
    1188,
    2,
    1152,
    1090,
    1150,
    1151,
    1182,
    733,
    1091,
    1076,
    1077,
    1124,
    1,
    4,
    1,
    4,
    3,
    2,
    1,
    4,
    3,
    3,
    5,
    6,
    1,
    2,
    3,
    5,
    2,
    1,
    5,
    3,
    2,
    6,
    15,
    16,
    3,
    2,
    1,
    5,
    1152,
    5,
    5,
    1,
    1385,
    1387,
    1386,
    1386,
    1385,
    1386,
    1386,
    1383,
    1386,
    1383,
    1387,
    1163,
    731,
    732,
    1182,
    1147,
    747,
    748,
    1387,
    1182,
    731,
    732,
    747,
    748,
    731,
    732,
    1384,
    731,
    732,
    747,
    748,
    1387,
    747,
    748,
    1386,
    731,
    732,
    1384,
    1386,
    1386,
    1385,
    1384,
    1384,
    1383,
    747,
    748,
    11,
    1182,
    731,
    732,
    1182,
    1108,
    961,
    962,
    383,
    399,
    400,
    399,
    400,
    719,
    1319,
    1320,
    719,
    992,
    1320,
    941,
    942,
    4,
    5,
    6,
    5,
    4,
    5,
    4,
    2,
    3,
    6,
    1,
    6,
    5,
    4,
    6,
    2,
    2,
    6,
    1,
    1105,
    1106,
    1166,
    1167,
    1165,
    1123,
    1123,
    1123,
    1124,
    1152,
    5,
    4,
    1,
    6,
    2,
    4,
    1,
    3,
    6,
    5,
    6,
    2,
    3,
    6,
    4,
    4,
    1,
    3,
    5,
    6,
    3,
    6,
    31,
    32,
    6,
    1,
    5,
    2,
    6,
    3,
    1,
    3,
    1383,
    1388,
    1384,
    1384,
    1386,
    1384,
    1385,
    1384,
    1385,
    1388,
    1387,
    1182,
    747,
    748,
    1388,
    731,
    732,
    1147,
    731,
    732,
    747,
    748,
    731,
    732,
    747,
    748,
    1384,
    747,
    748,
    11,
    731,
    732,
    1385,
    731,
    732,
    747,
    748,
    731,
    732,
    1383,
    1387,
    1385,
    1387,
    1383,
    1182,
    731,
    732,
    1147,
    747,
    748,
    1123,
    1124,
    939,
    940,
    399,
    703,
    1304,
    367,
    368,
    367,
    368,
    367,
    368,
    1008,
    368,
    957,
    958,
    5,
    2,
    1,
    5,
    4,
    4,
    3,
    4,
    4,
    4,
    4,
    4,
    1,
    5,
    4,
    5,
    6,
    2,
    4,
    5,
    1122,
    1123,
    1123,
    1124,
    6,
    4,
    6,
    5,
    5,
    2,
    3,
    6,
    6,
    2,
    6,
    6,
    3,
    5,
    5,
    3,
    4,
    6,
    4,
    6,
    3,
    4,
    4,
    4,
    5,
    1,
    4,
    4,
    5,
    1,
    2,
    5,
    2,
    4,
    4,
    3,
    6,
    1386,
    1387,
    1385,
    1383,
    1388,
    1385,
    1385,
    1386,
    1386,
    1388,
    731,
    732,
    1150,
    1151,
    1182,
    747,
    748,
    1387,
    747,
    748,
    1147,
    1386,
    747,
    748,
    1385,
    1388,
    1182,
    1386,
    731,
    732,
    747,
    748,
    1386,
    747,
    748,
    1388,
    1182,
    747,
    748,
    1387,
    1388,
    1383,
    1386,
    731,
    732,
    747,
    748,
    1163,
    1147,
    1124,
    1010,
    1011,
    955,
    956,
    1319,
    719,
    703,
    383,
    384,
    383,
    384,
    383,
    384,
    383,
    384,
    973,
    974,
    2,
    3,
    4,
    4,
    6,
    6,
    3,
    4,
    2,
    6,
    2,
    4,
    1,
    5,
    13,
    1,
    4,
    6,
    4,
    3,
    5,
    6,
    6,
    5,
    4,
    4,
    2,
    3,
    4,
    4,
    6,
    5,
    4,
    5,
    6,
    5,
    3,
    3,
    6,
    3,
    6,
    1,
    2,
    6,
    5,
    1,
    5,
    3,
    1152,
    6,
    2,
    4,
    5,
    1,
    4,
    2,
    4,
    6,
    4,
    1,
    5,
    1385,
    1384,
    1385,
    1385,
    1385,
    1387,
    1387,
    1165,
    1387,
    1388,
    747,
    748,
    1166,
    1167,
    731,
    732,
    1182,
    731,
    732,
    1182,
    1150,
    1151,
    1388,
    1386,
    1388,
    733,
    1384,
    1383,
    747,
    748,
    1385,
    1384,
    1388,
    1387,
    1385,
    1182,
    1388,
    1384,
    1385,
    1386,
    1388,
    1165,
    1385,
    747,
    748,
    1182,
    1383,
    1123,
    1124,
    1025,
    1026,
    1027,
    971,
    367,
    368,
    703,
    719,
    399,
    400,
    399,
    400,
    1319,
    1320,
    399,
    400,
    941,
    942,
    1,
    1,
    1,
    4,
    4,
    1,
    6,
    4,
    5,
    4,
    3,
    2,
    4,
    5,
    13,
    4,
    3,
    6,
    4,
    2,
    4,
    1,
    6,
    4,
    6,
    5,
    4,
    2,
    2,
    3,
    2,
    4,
    3,
    4,
    15,
    16,
    1,
    6,
    5,
    2,
    6,
    5,
    1,
    4,
    3,
    1,
    3,
    13,
    4,
    4,
    5,
    1,
    6,
    4,
    2,
    3,
    6,
    4,
    5,
    6,
    3,
    1386,
    1165,
    1386,
    1383,
    1388,
    1383,
    1383,
    1388,
    1387,
    1388,
    1182,
    731,
    732,
    1182,
    747,
    748,
    1385,
    747,
    748,
    1387,
    1166,
    1167,
    1383,
    1388,
    1387,
    1387,
    1385,
    1387,
    1386,
    1383,
    1383,
    1383,
    1387,
    1383,
    1386,
    1384,
    1387,
    1385,
    1385,
    1385,
    1388,
    1386,
    1182,
    1387,
    927,
    733,
    1124,
    932,
    933,
    1041,
    1042,
    1043,
    703,
    383,
    384,
    719,
    703,
    1319,
    367,
    368,
    703,
    1304,
    1319,
    1320,
    703,
    957,
    958,
    6,
    2,
    6,
    5,
    4,
    4,
    4,
    4,
    1,
    2,
    1,
    2,
    4,
    4,
    5,
    4,
    6,
    2,
    4,
    4,
    4,
    4,
    4,
    4,
    1,
    2,
    4,
    6,
    4,
    4,
    6,
    3,
    6,
    2,
    31,
    32,
    6,
    3,
    3,
    4,
    1,
    1,
    3,
    5,
    5,
    6,
    6,
    4,
    4,
    4,
    4,
    4,
    4,
    4,
    4,
    4,
    5,
    5,
    15,
    16,
    3,
    1383,
    1387,
    1384,
    1384,
    1388,
    1182,
    1385,
    1384,
    1386,
    731,
    732,
    747,
    748,
    731,
    732,
    1182,
    1385,
    1388,
    1385,
    1383,
    1387,
    1384,
    1383,
    1384,
    1384,
    1383,
    1388,
    1388,
    1384,
    1387,
    1383,
    1387,
    1388,
    1384,
    1385,
    1387,
    1147,
    1388,
    1387,
    1388,
    1386,
    1387,
    1385,
    1383,
    1182,
    1125,
    947,
    948,
    949,
    1057,
    1058,
    703,
    719,
    703,
    400,
    703,
    719,
    367,
    383,
    703,
    719,
    367,
    368,
    703,
    719,
    973,
    974,
    6,
    5,
    5,
    6,
    1,
    6,
    1,
    2,
    4,
    4,
    4,
    4,
    4,
    4,
    6,
    3,
    4,
    5,
    1,
    2,
    5,
    2,
    1,
    6,
    4,
    4,
    4,
    1,
    4,
    1,
    4,
    4,
    3,
    4,
    4,
    1,
    5,
    6,
    5,
    4,
    2,
    1,
    4,
    6,
    2,
    3,
    4,
    15,
    16,
    2,
    2,
    1,
    1,
    3,
    6,
    1,
    3,
    5,
    31,
    32,
    3,
    1388,
    1384,
    1384,
    1388,
    1383,
    731,
    732,
    1386,
    1182,
    747,
    748,
    10,
    1147,
    747,
    748,
    1383,
    1384,
    1384,
    1385,
    1386,
    1384,
    1387,
    1384,
    1384,
    1386,
    1387,
    1386,
    1386,
    1386,
    1385,
    1387,
    1384,
    1386,
    1384,
    1388,
    1384,
    1385,
    1386,
    1388,
    1385,
    1383,
    1386,
    1384,
    1387,
    1108,
    1109,
    963,
    964,
    965,
    367,
    368,
    719,
    703,
    719,
    703,
    719,
    703,
    367,
    368,
    719,
    703,
    383,
    384,
    719,
    989,
    990,
    991,
    1,
    4,
    3,
    6,
    4,
    6,
    1,
    6,
    1152,
    5,
    1,
    6,
    5,
    6,
    4,
    1,
    1,
    4,
    2,
    6,
    1,
    5,
    6,
    1,
    4,
    1,
    5,
    6,
    4,
    4,
    4,
    2,
    4,
    3,
    6,
    5,
    4,
    4,
    4,
    4,
    3,
    5,
    2,
    4,
    4,
    4,
    4,
    31,
    32,
    5,
    6,
    4,
    4,
    4,
    4,
    4,
    1,
    4,
    4,
    6,
    5,
    1383,
    1386,
    1386,
    1383,
    1182,
    747,
    748,
    731,
    732,
    11,
    927,
    1182,
    1383,
    1388,
    1383,
    1388,
    1387,
    1388,
    1388,
    1388,
    1387,
    1387,
    1386,
    1387,
    1384,
    1383,
    1383,
    1387,
    1388,
    1387,
    1387,
    1384,
    1384,
    1385,
    1387,
    1386,
    1388,
    1384,
    1387,
    1386,
    1387,
    1388,
    1384,
    1385,
    1108,
    14,
    929,
    930,
    703,
    383,
    384,
    703,
    719,
    384,
    719,
    719,
    719,
    383,
    384,
    719,
    703,
    399,
    400,
    944,
    1005,
    1006,
    1007,
    1,
    3,
    4,
    4,
    2,
    2,
    4,
    1,
    5,
    5,
    4,
    5,
    5,
    4,
    2,
    5,
    4,
    3,
    2,
    4,
    6,
    4,
    3,
    1,
    3,
    1152,
    3,
    5,
    6,
    4,
    5,
    1,
    2,
    4,
    5,
    6,
    4,
    4,
    2,
    4,
    6,
    6,
    13,
    5,
    2,
    4,
    4,
    4,
    4,
    3,
    4,
    4,
    2,
    2,
    3,
    4,
    4,
    4,
    13,
    5,
    4,
    1387,
    1384,
    1386,
    1385,
    927,
    731,
    732,
    747,
    748,
    1386,
    1383,
    1386,
    1383,
    1388,
    1385,
    1384,
    1386,
    1384,
    1386,
    1384,
    1383,
    1385,
    1388,
    1385,
    1383,
    1384,
    1388,
    1387,
    1384,
    1388,
    1383,
    1384,
    1386,
    1387,
    1385,
    1384,
    1386,
    1385,
    1387,
    1385,
    1383,
    1388,
    1386,
    1165,
    1124,
    16,
    945,
    946,
    719,
    703,
    703,
    719,
    703,
    703,
    703,
    703,
    703,
    703,
    367,
    368,
    719,
    1304,
    959,
    960,
    3,
    13,
    4,
    5,
    1,
    6,
    1,
    4,
    2,
    6,
    5,
    4,
    5,
    3,
    1,
    4,
    6,
    4,
    6,
    5,
    4,
    4,
    3,
    3,
    2,
    2,
    6,
    4,
    4,
    3,
    6,
    6,
    5,
    3,
    3,
    4,
    1,
    2,
    4,
    4,
    2,
    6,
    5,
    3,
    3,
    4,
    5,
    5,
    4,
    6,
    3,
    1,
    4,
    4,
    4,
    4,
    4,
    3,
    6,
    6,
    3,
    4,
    1,
    6,
    1385,
    1384,
    1164,
    1387,
    1386,
    747,
    748,
    11,
    1386,
    1383,
    1387,
    1387,
    1385,
    1384,
    1388,
    1385,
    1384,
    1387,
    1388,
    1386,
    1383,
    1384,
    1384,
    1385,
    1386,
    733,
    1384,
    1385,
    1385,
    1383,
    1385,
    1383,
    1387,
    1383,
    1388,
    1384,
    1386,
    1388,
    1383,
    1386,
    1386,
    1388,
    1384,
    1108,
    1109,
    32,
    961,
    962,
    367,
    368,
    719,
    703,
    719,
    719,
    719,
    719,
    719,
    719,
    703,
    703,
    719,
    989,
    990,
    991,
    5,
    2,
    6,
    3,
    5,
    3,
    2,
    4,
    15,
    16,
    5,
    2,
    4,
    6,
    6,
    6,
    15,
    16,
    5,
    6,
    1,
    1,
    4,
    4,
    4,
    5,
    2,
    3,
    4,
    5,
    5,
    1,
    5,
    6,
    4,
    4,
    1,
    3,
    4,
    4,
    4,
    6,
    4,
    15,
    16,
    2,
    3,
    5,
    6,
    1,
    4,
    5,
    4,
    4,
    3,
    5,
    4,
    4,
    4,
    4,
    4,
    4,
    1,
    1,
    1383,
    1383,
    1388,
    1388,
    1388,
    1387,
    1388,
    1384,
    1385,
    1165,
    1384,
    1384,
    1383,
    1388,
    1383,
    1388,
    1387,
    1387,
    1386,
    1387,
    1383,
    1386,
    1386,
    1387,
    1387,
    1182,
    11,
    1387,
    1383,
    1386,
    1383,
    1383,
    1386,
    1384,
    1388,
    1386,
    1383,
    1383,
    1385,
    1386,
    1386,
    1385,
    1385,
    1108,
    1109,
    8,
    929,
    930,
    383,
    384,
    703,
    719,
    703,
    384,
    703,
    368,
    703,
    719,
    719,
    719,
    944,
    1005,
    1006,
    1152,
    4,
    3,
    3,
    6,
    2,
    4,
    1,
    4,
    31,
    32,
    5,
    3,
    4,
    6,
    4,
    3,
    31,
    32,
    6,
    4,
    5,
    6,
    4,
    4,
    3,
    6,
    3,
    4,
    3,
    1,
    4,
    1,
    4,
    1,
    5,
    1,
    1,
    6,
    6,
    6,
    6,
    2,
    6,
    31,
    32,
    1,
    4,
    1,
    4,
    4,
    5,
    5,
    1,
    6,
    6,
    3,
    6,
    4,
    4,
    2,
    5,
    4,
    6,
    1,
    1383,
    1383,
    1385,
    1384,
    1385,
    1383,
    1386,
    1383,
    1386,
    1383,
    1384,
    1386,
    1388,
    1385,
    1387,
    1385,
    1388,
    1386,
    1387,
    1384,
    1387,
    1384,
    1383,
    1386,
    1383,
    1385,
    1383,
    1388,
    1384,
    1388,
    1385,
    1384,
    1383,
    1383,
    1388,
    1384,
    1385,
    1386,
    1383,
    1388,
    1384,
    1387,
    11,
    1108,
    1109,
    4,
    945,
    946,
    399,
    400,
    719,
    1320,
    719,
    400,
    719,
    384,
    719,
    1319,
    1320,
    959,
    960,
    1,
    6,
    4,
    1,
    2,
    6,
    3,
    5,
    1,
    1,
    4,
    4,
    6,
    5,
    2,
    6,
    2,
    5,
    2,
    3,
    3,
    6,
    4,
    2,
    4,
    2,
    2,
    5,
    2,
    4,
    13,
    4,
    3,
    5,
    6,
    1,
    1,
    3,
    1,
    4,
    3,
    5,
    6,
    4,
    4,
    3,
    6,
    1,
    3,
    6,
    2,
    4,
    6,
    5,
    3,
    5,
    1,
    1,
    2,
    2,
    6,
    6,
    2,
    3,
    4,
    2,
    2,
    1388,
    1384,
    1386,
    1386,
    1386,
    1388,
    1385,
    1385,
    1383,
    1385,
    1385,
    1384,
    1388,
    1387,
    1383,
    1388,
    1388,
    1387,
    1388,
    1385,
    1383,
    1383,
    1383,
    1383,
    1384,
    1386,
    1388,
    1387,
    1385,
    1388,
    1387,
    1388,
    1384,
    1387,
    1388,
    1384,
    1383,
    1384,
    1385,
    1385,
    1388,
    1386,
    1164,
    1387,
    1092,
    2,
    961,
    962,
    367,
    368,
    703,
    367,
    368,
    703,
    719,
    703,
    703,
    367,
    703,
    941,
    942,
    6,
    1,
    4,
    5,
    5,
    1,
    1,
    6,
    4,
    3,
    5,
    1,
    13,
    5,
    4,
    6,
    1,
    3,
    5,
    5,
    1,
    4,
    5,
    3,
    4,
    3,
    3,
    2,
    2,
    5,
    5,
    1,
    5,
    4,
    1,
    5,
    6,
    3,
    2,
    6,
    3,
    4,
    4,
    5,
    1,
    2,
    3,
    4,
    2,
    1,
    4,
    5,
    2,
    3,
    4,
    5,
    6,
    6,
    4,
    6,
    4,
    6,
    3,
    5,
    4,
    5,
    5,
    1386,
    1384,
    1384,
    1387,
    1385,
    1387,
    1386,
    1388,
    1388,
    1383,
    1384,
    1384,
    1385,
    1387,
    1388,
    1388,
    1383,
    1386,
    1384,
    1386,
    1386,
    1387,
    1384,
    1387,
    1385,
    1383,
    1386,
    1385,
    1386,
    1387,
    1383,
    1388,
    1387,
    1384,
    1387,
    1385,
    1384,
    1387,
    1386,
    1386,
    1388,
    1384,
    1383,
    1163,
    1108,
    1109,
    929,
    930,
    383,
    384,
    703,
    383,
    703,
    719,
    703,
    719,
    719,
    383,
    719,
    957,
    958,
    5,
    4,
    1,
    5,
    1,
    1,
    4,
    2,
    6,
    5,
    5,
    1,
    6,
    6,
    4,
    4,
    2,
    4,
    1,
    3,
    2,
    5,
    4,
    1,
    4,
    15,
    16,
    3,
    4,
    2,
    4,
    3,
    5,
    2,
    3,
    5,
    6,
    6,
    1,
    5,
    1,
    1,
    6,
    1,
    5,
    1,
    6,
    4,
    2,
    2,
    4,
    3,
    5,
    6,
    5,
    6,
    6,
    3,
    6,
    6,
    1,
    3,
    2,
    3,
    3,
    5,
    3,
    1387,
    1388,
    1383,
    1387,
    1384,
    1384,
    1388,
    1386,
    1383,
    1388,
    1388,
    1383,
    1383,
    1383,
    1386,
    1386,
    1385,
    1387,
    1384,
    1386,
    1387,
    1387,
    1386,
    1386,
    1387,
    1388,
    1384,
    1383,
    1387,
    1384,
    1163,
    1388,
    1388,
    1386,
    1386,
    1384,
    1388,
    1384,
    1386,
    1386,
    1387,
    1384,
    1384,
    1387,
    1108,
    1109,
    945,
    946,
    399,
    400,
    719,
    399,
    719,
    719,
    719,
    703,
    719,
    399,
    719,
    973,
    974,
    2,
    2,
    5,
    1,
    3,
    6,
    3,
    5,
    5,
    4,
    4,
    6,
    2,
    6,
    4,
    1,
    6,
    1,
    1,
    1,
    1,
    1,
    5,
    6,
    6,
    31,
    32,
    2,
    5,
    4,
    5,
    6,
    5,
    5,
    4,
    5,
    1,
    6,
    6,
    6,
    1,
    2,
    5,
    2,
    4,
    5,
    1,
    2,
    4,
    5,
    1,
    6,
    1,
    2,
    1,
    6,
    6,
    4,
    1,
    13,
    4,
    6,
    5,
    5,
    2,
    1,
    1,
    1386,
    1386,
    1388,
    1386,
    1385,
    1388,
    1385,
    1385,
    1386,
    1388,
    1386,
    1384,
    1384,
    1385,
    1165,
    1385,
    1386,
    1384,
    1384,
    1387,
    1385,
    1386,
    1383,
    1386,
    1388,
    1383,
    1385,
    1384,
    1386,
    1386,
    1385,
    1387,
    1386,
    1383,
    1383,
    1384,
    1387,
    1385,
    1384,
    1386,
    1388,
    1387,
    1388,
    1163,
    1108,
    1109,
    961,
    962,
    367,
    368,
    719,
    703,
    719,
    703,
    703,
    703,
    703,
    1319,
    703,
    941,
    942,
    4,
    1,
    5,
    3,
    5,
    4,
    5,
    6,
    3,
    3,
    2,
    5,
    1,
    3,
    5,
    6,
    1,
    3,
    6,
    4,
    5,
    2,
    3,
    4,
    2,
    3,
    5,
    3,
    2,
    5,
    2,
    2,
    2,
    2,
    6,
    15,
    16,
    5,
    4,
    3,
    3,
    2,
    2,
    4,
    1,
    4,
    4,
    2,
    2,
    5,
    4,
    4,
    5,
    6,
    2,
    5,
    3,
    4,
    2,
    5,
    4,
    2,
    1,
    6,
    2,
    5,
    1,
    1383,
    1386,
    1387,
    1386,
    1388,
    1384,
    1386,
    1388,
    1384,
    1383,
    1383,
    1387,
    1385,
    1388,
    1387,
    1388,
    1385,
    1387,
    1383,
    1388,
    1388,
    1388,
    1384,
    1387,
    1388,
    1383,
    1385,
    1388,
    1383,
    1387,
    1385,
    1383,
    1385,
    1385,
    1388,
    1385,
    1388,
    1388,
    1384,
    1383,
    1385,
    1388,
    1165,
    1123,
    1124,
    3,
    939,
    940,
    383,
    703,
    703,
    719,
    703,
    719,
    367,
    368,
    719,
    703,
    719,
    957,
    958,
    5,
    1,
    1,
    1,
    2,
    4,
    1,
    6,
    1,
    2,
    2,
    5,
    6,
    6,
    5,
    3,
    1,
    2,
    4,
    4,
    1,
    4,
    13,
    2,
    2,
    3,
    3,
    1,
    4,
    2,
    3,
    4,
    3,
    6,
    5,
    31,
    32,
    5,
    6,
    3,
    1,
    6,
    2,
    6,
    6,
    6,
    5,
    2,
    1,
    5,
    1,
    5,
    2,
    1,
    5,
    1,
    3,
    1,
    1,
    3,
    4,
    6,
    3,
    6,
    1,
    1,
    4,
    1385,
    1384,
    1388,
    1163,
    1384,
    1385,
    1387,
    1388,
    1383,
    1386,
    1387,
    1387,
    1385,
    1388,
    1385,
    1385,
    1388,
    1383,
    1385,
    1383,
    1384,
    1384,
    1387,
    1384,
    1387,
    1386,
    1384,
    1165,
    1388,
    1383,
    1386,
    1384,
    1386,
    1387,
    1386,
    1387,
    1387,
    1384,
    1383,
    1387,
    1383,
    1387,
    1125,
    1074,
    932,
    933,
    955,
    956,
    399,
    719,
    719,
    1179,
    719,
    399,
    383,
    384,
    703,
    719,
    703,
    973,
    974,
    6,
    2,
    6,
    5,
    3,
    5,
    6,
    2,
    4,
    4,
    6,
    2,
    2,
    2,
    4,
    1,
    6,
    1,
    4,
    1,
    2,
    4,
    1,
    2,
    3,
    1,
    3,
    1,
    6,
    1,
    3,
    4,
    2,
    5,
    2,
    1,
    4,
    1,
    3,
    1,
    3,
    4,
    2,
    3,
    6,
    2,
    3,
    2,
    3,
    13,
    6,
    6,
    5,
    5,
    6,
    5,
    2,
    1,
    1,
    5,
    1,
    5,
    1,
    4,
    6,
    5,
    4,
    1387,
    1384,
    1388,
    1387,
    1388,
    1386,
    1388,
    1383,
    1386,
    1383,
    1386,
    1386,
    1384,
    1385,
    1386,
    1386,
    1388,
    1387,
    1388,
    1384,
    1387,
    1383,
    1383,
    1387,
    1385,
    1385,
    1384,
    1383,
    1383,
    1388,
    1383,
    1385,
    1386,
    1384,
    1388,
    1164,
    1386,
    1385,
    1385,
    1387,
    1386,
    1124,
    1152,
    947,
    948,
    949,
    971,
    367,
    367,
    368,
    1304,
    1319,
    1320,
    992,
    399,
    400,
    719,
    399,
    719,
    944,
    5,
    2,
    6,
    4,
    2,
    4,
    4,
    1152,
    5,
    6,
    4,
    6,
    4,
    5,
    6,
    5,
    5,
    1,
    5,
    4,
    1,
    4,
    4,
    2,
    4,
    1,
    6,
    1,
    6,
    3,
    6,
    6,
    4,
    4,
    5,
    3,
    1,
    6,
    3,
    6,
    4,
    2,
    3,
    3,
    5,
    4,
    4,
    3,
    4,
    4,
    4,
    4,
    6,
    1,
    3,
    2,
    4,
    1,
    6,
    1,
    5,
    4,
    4,
    4,
    5,
    47,
    6,
    2,
    1385,
    1383,
    1386,
    1385,
    1388,
    1384,
    1383,
    1383,
    1383,
    1383,
    1387,
    1385,
    1386,
    1388,
    1383,
    1386,
    1387,
    1386,
    1383,
    1384,
    1385,
    1388,
    1387,
    1384,
    1386,
    1388,
    1388,
    1386,
    1388,
    1385,
    1386,
    1387,
    1385,
    1387,
    1386,
    1383,
    1386,
    1388,
    1383,
    1384,
    1108,
    1109,
    8,
    963,
    964,
    965,
    703,
    1303,
    383,
    1319,
    1320,
    367,
    368,
    1008,
    399,
    719,
    703,
    1320,
    959,
    960,
    1,
    4,
    4,
    13,
    6,
    6,
    2,
    3,
    2,
    6,
    2,
    6,
    1,
    6,
    6,
    4,
    1,
    15,
    16,
    5,
    4,
    3,
    1,
    6,
    4,
    2,
    1,
    3,
    4,
    1,
    3,
    4,
    13,
    3,
    5,
    5,
    6,
    4,
    4,
    4,
    4,
    6,
    1,
    6,
    3,
    3,
    6,
    5,
    4,
    6,
    5,
    4,
    4,
    4,
    3,
    4,
    4,
    6,
    6,
    5,
    3,
    5,
    4,
    4,
    4,
    5,
    6,
    1,
    1383,
    1384,
    1384,
    1383,
    1384,
    1386,
    1384,
    1388,
    1385,
    1387,
    1384,
    1384,
    1383,
    1387,
    1385,
    1387,
    1383,
    1385,
    1388,
    1384,
    1384,
    1388,
    1388,
    1385,
    1384,
    1385,
    1387,
    1387,
    1388,
    1386,
    1385,
    1387,
    1387,
    1388,
    1384,
    1385,
    1386,
    1386,
    1387,
    1388,
    1388,
    1093,
    3,
    929,
    930,
    1304,
    703,
    1319,
    1320,
    400,
    987,
    988,
    975,
    976,
    983,
    399,
    367,
    368,
    941,
    942,
    4,
    3,
    2,
    5,
    5,
    5,
    1,
    5,
    1,
    1,
    4,
    4,
    3,
    6,
    3,
    6,
    2,
    13,
    32,
    3,
    6,
    2,
    3,
    1,
    6,
    5,
    1,
    6,
    4,
    4,
    1,
    4,
    1,
    3,
    2,
    6,
    1,
    2,
    6,
    1,
    3,
    5,
    4,
    15,
    16,
    2,
    2,
    3,
    4,
    6,
    4,
    5,
    5,
    4,
    1,
    3,
    2,
    5,
    4,
    6,
    4,
    6,
    3,
    5,
    3,
    1,
    4,
    5,
    1384,
    1388,
    1383,
    1384,
    1388,
    1388,
    1383,
    1386,
    1387,
    1388,
    1384,
    1386,
    1386,
    1383,
    1383,
    1387,
    1388,
    1387,
    1386,
    1387,
    1388,
    1388,
    1384,
    1385,
    1387,
    1384,
    1388,
    1384,
    1385,
    1383,
    1384,
    1383,
    1385,
    1387,
    1387,
    1387,
    1384,
    1385,
    1388,
    1384,
    1386,
    1383,
    1092,
    945,
    946,
    1319,
    1320,
    719,
    703,
    944,
    1003,
    1004,
    15,
    16,
    999,
    1000,
    383,
    703,
    957,
    958,
    3,
    6,
    1,
    5,
    3,
    1,
    6,
    4,
    1,
    1,
    2,
    6,
    6,
    2,
    6,
    4,
    4,
    1,
    4,
    4,
    2,
    4,
    5,
    6,
    4,
    4,
    1152,
    3,
    4,
    5,
    3,
    4,
    5,
    4,
    5,
    5,
    1,
    3,
    4,
    1,
    4,
    1,
    5,
    31,
    32,
    2,
    4,
    1,
    1,
    3,
    6,
    4,
    5,
    6,
    1,
    5,
    4,
    3,
    4,
    6,
    4,
    2,
    4,
    5,
    4,
    1,
    4,
    1,
    1384,
    1384,
    1387,
    1383,
    1384,
    1388,
    1388,
    1386,
    1388,
    1387,
    1385,
    1388,
    1388,
    1384,
    1388,
    1387,
    1384,
    1387,
    1163,
    1385,
    1182,
    1147,
    1165,
    1388,
    1387,
    1387,
    1383,
    1385,
    1387,
    1385,
    1388,
    1384,
    1383,
    1383,
    1383,
    1387,
    1383,
    1386,
    1387,
    1386,
    1388,
    1387,
    1108,
    961,
    962,
    703,
    1320,
    992,
    959,
    960,
    6,
    6,
    5,
    1,
    929,
    930,
    399,
    719,
    973,
    974,
    4,
    3,
    6,
    4,
    4,
    5,
    1,
    4,
    1,
    15,
    16,
    4,
    4,
    4,
    5,
    4,
    4,
    1,
    2,
    4,
    3,
    3,
    4,
    4,
    5,
    2,
    2,
    4,
    4,
    2,
    4,
    4,
    2,
    4,
    1,
    4,
    4,
    4,
    4,
    3,
    3,
    4,
    5,
    6,
    4,
    1,
    4,
    4,
    2,
    4,
    3,
    2,
    4,
    6,
    3,
    4,
    1,
    4,
    4,
    5,
    5,
    4,
    4,
    4,
    3,
    4,
    2,
    1,
    1388,
    1384,
    1384,
    1383,
    1384,
    1384,
    1385,
    1383,
    1164,
    1388,
    1385,
    1387,
    1383,
    1386,
    1387,
    1388,
    1386,
    1384,
    1385,
    733,
    11,
    1182,
    1388,
    733,
    1388,
    1385,
    1385,
    1383,
    1385,
    1384,
    1386,
    1386,
    1387,
    1383,
    1385,
    1383,
    1384,
    1386,
    1383,
    1387,
    1163,
    1388,
    1124,
    929,
    930,
    719,
    1320,
    1008,
    941,
    942,
    5,
    5,
    5,
    4,
    945,
    946,
    367,
    368,
    941,
    942,
    4,
    4,
    1,
    4,
    3,
    4,
    5,
    2,
    4,
    31,
    32,
    3,
    4,
    4,
    6,
    6,
    5,
    4,
    6,
    2,
    5,
    4,
    2,
    5,
    5,
    4,
    4,
    1,
    5,
    4,
    4,
    3,
    6,
    4,
    6,
    4,
    1,
    5,
    4,
    2,
    4,
    6,
    3,
    3,
    6,
    4,
    4,
    4,
    4,
    5,
    4,
    4,
    5,
    6,
    4,
    5,
    3,
    4,
    4,
    2,
    2,
    1,
    4,
    4,
    4,
    4,
    3,
    6,
    1388,
    1384,
    1385,
    1384,
    1384,
    1386,
    1386,
    1386,
    1388,
    1384,
    1383,
    1384,
    1384,
    1383,
    1384,
    1388,
    1386,
    1388,
    1385,
    1383,
    1385,
    733,
    1383,
    1383,
    1388,
    1164,
    1386,
    1386,
    1383,
    1387,
    1383,
    1387,
    1388,
    1386,
    1383,
    1385,
    1387,
    1386,
    1388,
    1387,
    1385,
    1124,
    8,
    945,
    946,
    703,
    1320,
    1320,
    957,
    958,
    5,
    5,
    3,
    4,
    961,
    962,
    383,
    384,
    957,
    958,
    1,
    3,
    2,
    1,
    1,
    5,
    3,
    5,
    5,
    1,
    4,
    6,
    5,
    3,
    4,
    3,
    2,
    2,
    4,
    5,
    4,
    2,
    4,
    2,
    4,
    2,
    3,
    4,
    3,
    2,
    5,
    4,
    4,
    4,
    3,
    2,
    3,
    6,
    6,
    2,
    2,
    13,
    13,
    6,
    3,
    6,
    4,
    1,
    1,
    5,
    3,
    3,
    6,
    2,
    1,
    6,
    6,
    5,
    4,
    3,
    6,
    2,
    4,
    3,
    13,
    6,
    4,
    6,
    1384,
    1385,
    1384,
    1387,
    1383,
    1386,
    1384,
    1383,
    1383,
    1388,
    1383,
    1163,
    1384,
    1388,
    1386,
    1387,
    1384,
    1386,
    1385,
    1383,
    1182,
    1383,
    1388,
    1387,
    1387,
    1387,
    1384,
    1388,
    1384,
    1385,
    1384,
    1387,
    1386,
    1384,
    1165,
    1384,
    1385,
    1385,
    1383,
    1385,
    1108,
    1109,
    7,
    961,
    962,
    719,
    719,
    719,
    973,
    974,
    3,
    1,
    6,
    4,
    929,
    930,
    399,
    400,
    973,
    974,
    13,
    6,
    2,
    6,
    4,
    3,
    6,
    2,
    4,
    1,
    4,
    1,
    4,
    4,
    2,
    5,
    2,
    4,
    3,
    2,
    4,
    4,
    4,
    2,
    1,
    1,
    4,
    3,
    2,
    3,
    6,
    2,
    13,
    6,
    4,
    6,
    2,
    1,
    4,
    4,
    2,
    6,
    1,
    5,
    4,
    3,
    4,
    4,
    4,
    2,
    4,
    3,
    4,
    2,
    2,
    4,
    1,
    3,
    3,
    5,
    2,
    5,
    1,
    4,
    5,
    6,
    4,
    2,
    1384,
    1386,
    1165,
    1384,
    1383,
    1386,
    1383,
    1385,
    1383,
    1386,
    1385,
    1384,
    1387,
    1385,
    1384,
    1383,
    1384,
    1385,
    1385,
    1383,
    1385,
    1384,
    1388,
    1387,
    1386,
    1383,
    1386,
    1386,
    1387,
    1386,
    1384,
    1383,
    1387,
    1387,
    1388,
    1387,
    1385,
    1385,
    1387,
    1386,
    1108,
    1109,
    16,
    929,
    930,
    703,
    703,
    703,
    941,
    942,
    4,
    5,
    2,
    1,
    945,
    946,
    399,
    703,
    941,
    942,
    4,
    2,
    3,
    2,
    3,
    5,
    4,
    4,
    4,
    3,
    2,
    4,
    6,
    3,
    4,
    1,
    6,
    4,
    4,
    6,
    3,
    4,
    4,
    1,
    4,
    2,
    4,
    2,
    1,
    1,
    4,
    6,
    3,
    5,
    5,
    1,
    4,
    1,
    1,
    5,
    4,
    1,
    4,
    5,
    5,
    15,
    16,
    3,
    4,
    4,
    4,
    4,
    1,
    6,
    1104,
    4,
    2,
    1,
    4,
    4,
    1,
    4,
    3,
    3,
    1,
    1,
    3,
    6,
    1388,
    1383,
    1385,
    1383,
    1387,
    1387,
    1386,
    1384,
    1387,
    1388,
    1384,
    1385,
    1384,
    1387,
    1385,
    1386,
    1388,
    1385,
    1388,
    1385,
    1388,
    1385,
    1383,
    1386,
    1384,
    1388,
    1387,
    1386,
    1383,
    1387,
    1384,
    1384,
    1383,
    1384,
    1388,
    1383,
    1386,
    1383,
    1384,
    1384,
    1108,
    1109,
    1152,
    945,
    946,
    703,
    1304,
    719,
    957,
    958,
    6,
    1,
    6,
    5,
    961,
    962,
    1303,
    719,
    957,
    958,
    2,
    4,
    2,
    1,
    1,
    5,
    4,
    4,
    5,
    1,
    6,
    4,
    4,
    4,
    4,
    3,
    4,
    5,
    4,
    6,
    3,
    3,
    2,
    2,
    3,
    5,
    4,
    1,
    4,
    4,
    3,
    4,
    4,
    4,
    1,
    4,
    4,
    4,
    3,
    4,
    6,
    5,
    1,
    1,
    3,
    31,
    32,
    3,
    5,
    5,
    4,
    4,
    4,
    3,
    5,
    3,
    1,
    2,
    3,
    4,
    4,
    2,
    1,
    6,
    3,
    4,
    1,
    4,
    1383,
    1385,
    1385,
    1384,
    1388,
    1387,
    1384,
    1387,
    1388,
    1383,
    1385,
    1387,
    1387,
    1384,
    1387,
    1386,
    1164,
    1163,
    1383,
    1388,
    1387,
    1386,
    1388,
    1387,
    1385,
    1383,
    1388,
    1385,
    1384,
    1383,
    1387,
    1383,
    1384,
    1387,
    1387,
    1383,
    1385,
    1383,
    1383,
    1387,
    1386,
    1092,
    7,
    961,
    962,
    1319,
    1320,
    703,
    973,
    974,
    2,
    3,
    3,
    5,
    939,
    940,
    367,
    368,
    973,
    974,
    5,
    2,
    15,
    16,
    1,
    6,
    3,
    2,
    4,
    4,
    4,
    6,
    4,
    4,
    6,
    1,
    4,
    3,
    6,
    6,
    1,
    6,
    5,
    4,
    3,
    1,
    2,
    4,
    3,
    6,
    2,
    1,
    6,
    4,
    1,
    3,
    5,
    5,
    6,
    6,
    1,
    5,
    3,
    5,
    1090,
    1091,
    1091,
    1092,
    1152,
    4,
    6,
    5,
    5,
    3,
    5,
    5,
    1,
    4,
    5,
    4,
    4,
    3,
    6,
    3,
    5,
    1104,
    1090,
    1091,
    1385,
    1385,
    1383,
    1388,
    1385,
    1386,
    1387,
    1383,
    1386,
    1388,
    1383,
    1388,
    1385,
    1385,
    1385,
    1385,
    1384,
    1388,
    1383,
    1384,
    1383,
    1388,
    1386,
    1386,
    1385,
    1386,
    1383,
    1386,
    1387,
    1388,
    1388,
    1386,
    1387,
    1385,
    1386,
    1388,
    1388,
    1384,
    1387,
    1384,
    1164,
    1108,
    1109,
    929,
    930,
    719,
    703,
    719,
    1438,
    1439,
    1440,
    936,
    937,
    938,
    955,
    956,
    383,
    384,
    941,
    942,
    4,
    5,
    31,
    4,
    5,
    3,
    2,
    4,
    4,
    4,
    4,
    1,
    4,
    4,
    2,
    4,
    4,
    1,
    1152,
    1090,
    1091,
    1091,
    1092,
    2,
    5,
    1,
    2,
    6,
    4,
    16,
    1,
    3,
    3,
    1,
    1,
    5,
    4,
    2,
    6,
    5,
    1,
    1090,
    1091,
    1091,
    1182,
    731,
    732,
    1384,
    1092,
    4,
    5,
    2,
    2,
    2,
    3,
    4,
    3,
    5,
    2,
    5,
    2,
    6,
    6,
    2,
    1,
    1089,
    1385,
    1182,
    1384,
    1385,
    1386,
    1385,
    1386,
    1386,
    1386,
    1388,
    1384,
    1383,
    1388,
    1387,
    1165,
    1387,
    1386,
    1386,
    1385,
    1383,
    1385,
    1388,
    1384,
    1387,
    1388,
    1386,
    1386,
    1386,
    1388,
    1388,
    1386,
    1386,
    1165,
    1383,
    1384,
    1385,
    1388,
    1385,
    1384,
    1384,
    1388,
    1386,
    1163,
    1108,
    1109,
    945,
    946,
    367,
    703,
    992,
    1454,
    1455,
    1456,
    952,
    953,
    954,
    971,
    719,
    399,
    400,
    957,
    958,
    2,
    4,
    2,
    3,
    6,
    4,
    5,
    4,
    1,
    3,
    4,
    3,
    6,
    1,
    5,
    2,
    4,
    1090,
    1091,
    1164,
    731,
    732,
    1384,
    1091,
    1091,
    1092,
    4,
    3,
    31,
    32,
    4,
    1,
    6,
    2,
    2,
    6,
    2,
    6,
    4,
    1152,
    1089,
    1383,
    1165,
    731,
    732,
    747,
    748,
    1182,
    1163,
    1091,
    1092,
    6,
    1,
    3,
    5,
    1152,
    3,
    5,
    4,
    4,
    5,
    5,
    2,
    2,
    1090,
    1386,
    1150,
    1151,
    1387,
    1386,
    1386,
    1388,
    1383,
    1387,
    1385,
    1383,
    1385,
    1388,
    1388,
    1383,
    1386,
    1386,
    1383,
    1384,
    1385,
    1387,
    1388,
    1386,
    1386,
    1384,
    1384,
    1163,
    1383,
    1388,
    1386,
    1385,
    1386,
    1383,
    1385,
    1384,
    1386,
    1384,
    1387,
    1387,
    1386,
    1384,
    1388,
    1383,
    1384,
    1108,
    1109,
    961,
    962,
    383,
    719,
    1008,
    367,
    1471,
    1472,
    968,
    969,
    970,
    703,
    367,
    368,
    703,
    973,
    974,
    3,
    3,
    4,
    4,
    2,
    5,
    5,
    1,
    6,
    4,
    5,
    4,
    4,
    5,
    6,
    2,
    1090,
    1383,
    1387,
    1182,
    747,
    748,
    1147,
    1384,
    1182,
    1386,
    1092,
    6,
    4,
    1,
    1152,
    1090,
    1091,
    1091,
    1091,
    1092,
    1075,
    3,
    1,
    1090,
    731,
    732,
    1182,
    747,
    748,
    733,
    1150,
    1151,
    1182,
    731,
    732,
    1092,
    1075,
    1,
    5,
    1090,
    1091,
    1091,
    1091,
    1091,
    1092,
    4,
    1152,
    1089,
    1385,
    1182,
    1166,
    1167,
    1388,
    1386,
    1388,
    1388,
    1388,
    1163,
    1386,
    1386,
    1388,
    1383,
    1387,
    1384,
    1388,
    1384,
    1386,
    1384,
    1384,
    1384,
    1384,
    1383,
    1386,
    1385,
    1383,
    1383,
    1385,
    1384,
    1386,
    1388,
    1383,
    1384,
    1384,
    1386,
    1384,
    1384,
    1385,
    1165,
    1386,
    1385,
    1386,
    1387,
    1387,
    1384,
    1092,
    977,
    978,
    399,
    1303,
    1304,
    383,
    367,
    368,
    1303,
    1304,
    703,
    719,
    383,
    384,
    719,
    1015,
    1016,
    1017,
    4,
    2,
    2,
    4,
    2,
    5,
    4,
    3,
    4,
    6,
    4,
    4,
    2,
    4,
    1105,
    1106,
    733,
    1384,
    733,
    1182,
    1384,
    11,
    927,
    1386,
    1385,
    1165,
    1091,
    1091,
    1092,
    1090,
    1384,
    1182,
    1384,
    1164,
    1385,
    1091,
    1091,
    1091,
    1182,
    747,
    748,
    1383,
    1182,
    11,
    1182,
    1166,
    1167,
    1182,
    747,
    748,
    1147,
    1091,
    1092,
    1090,
    1385,
    1165,
    1383,
    1388,
    1384,
    1165,
    1092,
    1090,
    1164,
    1384,
    1386,
    1147,
    11,
    1384,
    1383,
    1384,
    1388,
    1386,
    1387,
    1388,
    1388,
    1388,
    1383,
    1386,
    1388,
    1387,
    1387,
    1386,
    1383,
    1387,
    1387,
    1383,
    1384,
    1385,
    1384,
    1388,
    1387,
    1387,
    1384,
    1383,
    1385,
    1383,
    1383,
    1388,
    1388,
    1384,
    1385,
    1387,
    1383,
    1386,
    1384,
    1388,
    1386,
    1385,
    1384,
    1386,
    1092,
    994,
    995,
    1319,
    1320,
    1304,
    383,
    703,
    367,
    368,
    703,
    399,
    367,
    368,
    703,
    1031,
    1032,
    1033,
    1034,
    4,
    1,
    1,
    2,
    3,
    4,
    4,
    5,
    4,
    4,
    4,
    3,
    3,
    1105,
    1106,
    1150,
    1151,
    11,
    1383,
    1182,
    1388,
    1384,
    1182,
    1385,
    1388,
    1387,
    1388,
    1182,
    1383,
    1387,
    1384,
    1384,
    1387,
    927,
    1386,
    11,
    1163,
    1385,
    1182,
    1388,
    1182,
    731,
    732,
    1164,
    1147,
    1182,
    733,
    1182,
    1147,
    1385,
    1164,
    1386,
    1384,
    1383,
    1386,
    1383,
    1384,
    1388,
    1384,
    1386,
    1384,
    1387,
    1383,
    10,
    1387,
    1182,
    1386,
    1384,
    1383,
    1387,
    1387,
    1388,
    1385,
    1388,
    1383,
    1386,
    1385,
    1383,
    1386,
    1164,
    1385,
    1384,
    1385,
    1386,
    1385,
    1386,
    1384,
    1385,
    1386,
    1386,
    1383,
    1383,
    1388,
    1388,
    1386,
    1383,
    1383,
    1387,
    1387,
    1386,
    1387,
    733,
    1383,
    1387,
    1387,
    1383,
    1385,
    1384,
    1165,
    1124,
    977,
    978,
    979,
    367,
    368,
    399,
    719,
    383,
    384,
    719,
    703,
    367,
    368,
    719,
    1047,
    1048,
    1049,
    1050,
    4,
    1,
    3,
    5,
    3,
    4,
    4,
    5,
    5,
    4,
    1,
    6,
    5,
    1105,
    1106,
    1166,
    1167,
    1385,
    1147,
    1385,
    1383,
    1386,
    1384,
    1388,
    1387,
    1384,
    1383,
    1388,
    1386,
    1388,
    1387,
    1383,
    1384,
    1387,
    1388,
    1147,
    1182,
    731,
    732,
    1182,
    733,
    747,
    748,
    1385,
    1182,
    731,
    732,
    1147,
    1386,
    1387,
    1384,
    1387,
    1386,
    1387,
    1386,
    1383,
    1388,
    1383,
    1387,
    1383,
    1388,
    1384,
    1383,
    1387,
    1386,
    1385,
    1385,
    1384,
    1384,
    1388,
    1383,
    1385,
    1384,
    1384,
    1384,
    1386,
    1388,
    1388,
    1387,
    1388,
    1387,
    1384,
    1384,
    1386,
    1387,
    1386,
    1386,
    1386,
    1386,
    1383,
    1387,
    1384,
    1386,
    1387,
    1386,
    1385,
    1387,
    1388,
    1384,
    1384,
    1384,
    1387,
    1388,
    1386,
    1385,
    1384,
    1388,
    1384,
    1124,
    1104,
    993,
    994,
    995,
    383,
    384,
    719,
    383,
    703,
    400,
    1303,
    719,
    703,
    384,
    1304,
    703,
    703,
    941,
    942,
    4,
    2,
    3,
    6,
    2,
    6,
    1,
    1,
    4,
    4,
    4,
    6,
    1,
    1090,
    1165,
    1182,
    1388,
    731,
    732,
    1387,
    1386,
    1386,
    1384,
    1385,
    1383,
    1386,
    1388,
    1383,
    1386,
    1383,
    1386,
    1385,
    1386,
    1386,
    1385,
    1386,
    1385,
    747,
    748,
    1147,
    10,
    1182,
    1388,
    1384,
    733,
    747,
    748,
    1385,
    1385,
    1387,
    1384,
    1388,
    1383,
    1385,
    1387,
    1386,
    1383,
    1384,
    1387,
    1384,
    1383,
    1383,
    1387,
    1387,
    1386,
    1388,
    1383,
    1387,
    1383,
    1385,
    1386,
    1383,
    1386,
    1386,
    1387,
    1385,
    1383,
    1384,
    1384,
    1383,
    1387,
    1387,
    1383,
    1386,
    1383,
    1385,
    1388,
    1384,
    1386,
    1387,
    1386,
    1387,
    1385,
    1165,
    1123,
    1123,
    1163,
    1182,
    1384,
    733,
    1182,
    733,
    1386,
    1385,
    1388,
    1384,
    1123,
    1125,
    3,
    5,
    5,
    929,
    930,
    399,
    400,
    703,
    399,
    719,
    719,
    703,
    1304,
    719,
    400,
    703,
    719,
    719,
    957,
    958,
    2,
    4,
    5,
    4,
    4,
    5,
    2,
    4,
    4,
    4,
    3,
    5,
    1105,
    1106,
    1387,
    1386,
    1385,
    747,
    748,
    1386,
    1388,
    1383,
    1165,
    1385,
    1383,
    1386,
    1388,
    1385,
    1386,
    1386,
    1386,
    1387,
    1387,
    1388,
    1384,
    1386,
    1385,
    1383,
    1147,
    1388,
    1383,
    1387,
    1384,
    1386,
    1384,
    1182,
    1385,
    1383,
    1384,
    1387,
    1387,
    1386,
    1383,
    1385,
    1386,
    1388,
    1386,
    1386,
    1385,
    1384,
    1387,
    1384,
    1383,
    1387,
    1163,
    1385,
    1383,
    1383,
    1387,
    1384,
    1388,
    1386,
    1384,
    1386,
    1387,
    1383,
    1386,
    1385,
    1163,
    1387,
    1383,
    1387,
    1384,
    1384,
    1385,
    1384,
    1388,
    1385,
    1384,
    1388,
    1383,
    1076,
    1077,
    1125,
    2,
    4,
    1121,
    1386,
    10,
    731,
    732,
    1386,
    1182,
    733,
    1386,
    1124,
    6,
    15,
    16,
    2,
    6,
    945,
    946,
    367,
    368,
    719,
    703,
    1304,
    367,
    719,
    703,
    367,
    368,
    719,
    367,
    368,
    973,
    974,
    4,
    6,
    3,
    5,
    4,
    4,
    6,
    2,
    4,
    1,
    13,
    4,
    1105,
    1106,
    1388,
    1385,
    1388,
    1387,
    1388,
    1388,
    1383,
    1385,
    1387,
    1386,
    1388,
    1388,
    1384,
    1384,
    1165,
    1388,
    1385,
    1383,
    1385,
    1386,
    1386,
    1384,
    1383,
    1385,
    1387,
    1388,
    1386,
    1387,
    1384,
    1163,
    1386,
    1386,
    1385,
    1385,
    1385,
    1387,
    1387,
    1384,
    1387,
    1384,
    1387,
    1386,
    1385,
    1383,
    1384,
    1383,
    1388,
    1385,
    1387,
    1387,
    1386,
    1383,
    1384,
    1386,
    1385,
    1387,
    1383,
    1165,
    1387,
    1387,
    1147,
    1387,
    1165,
    1385,
    11,
    1384,
    1383,
    1386,
    1383,
    1386,
    1388,
    1386,
    1388,
    1388,
    1386,
    1383,
    1385,
    11,
    1124,
    2,
    2,
    3,
    2,
    1122,
    1182,
    747,
    748,
    11,
    1123,
    1123,
    1124,
    1,
    1,
    31,
    32,
    4,
    4,
    961,
    962,
    383,
    384,
    992,
    719,
    703,
    383,
    384,
    719,
    383,
    384,
    703,
    383,
    384,
    941,
    942,
    3,
    1,
    3,
    5,
    3,
    4,
    6,
    6,
    4,
    4,
    5,
    1,
    6,
    1122,
    1385,
    1384,
    1388,
    1182,
    1387,
    1388,
    1388,
    1386,
    1384,
    1388,
    1383,
    1384,
    1388,
    1388,
    1387,
    1386,
    1386,
    1386,
    1387,
    1384,
    1384,
    1388,
    1386,
    1388,
    1386,
    1383,
    1387,
    1384,
    1384,
    1387,
    1383,
    1385,
    1386,
    1386,
    1387,
    1384,
    1385,
    1385,
    1383,
    1385,
    1386,
    1387,
    1383,
    1387,
    1388,
    1386,
    1388,
    1388,
    1388,
    1383,
    1384,
    1384,
    1385,
    1386,
    1388,
    1383,
    1387,
    1386,
    1383,
    1383,
    1383,
    11,
    733,
    1182,
    1383,
    1384,
    1383,
    1386,
    1387,
    1384,
    1388,
    1385,
    1385,
    1384,
    1385,
    1386,
    1164,
    1125,
    6,
    13,
    3,
    15,
    16,
    1104,
    1122,
    1164,
    1386,
    1124,
    1152,
    1074,
    6,
    13,
    5,
    6,
    6,
    1,
    5,
    939,
    940,
    399,
    400,
    1008,
    703,
    719,
    399,
    400,
    719,
    399,
    400,
    719,
    399,
    400,
    957,
    958,
    4,
    3,
    4,
    4,
    6,
    4,
    5,
    6,
    1,
    6,
    4,
    1,
    6,
    1105,
    1106,
    1386,
    1383,
    1387,
    1383,
    1388,
    1384,
    1383,
    1386,
    1387,
    1383,
    1385,
    1386,
    1385,
    1386,
    1385,
    1386,
    1387,
    1383,
    1388,
    1385,
    1384,
    1388,
    1387,
    1385,
    1383,
    1163,
    1388,
    1386,
    1385,
    1384,
    1386,
    1383,
    1388,
    1388,
    1387,
    1384,
    1386,
    1387,
    1383,
    1386,
    1384,
    1384,
    1385,
    1388,
    1385,
    1386,
    1387,
    1384,
    1386,
    1383,
    1386,
    1385,
    1165,
    1384,
    1387,
    1383,
    1386,
    1388,
    1383,
    1182,
    733,
    1147,
    927,
    1385,
    1387,
    1386,
    1388,
    1386,
    1386,
    1384,
    1383,
    1388,
    1383,
    1386,
    1388,
    1108,
    1152,
    1,
    5,
    2,
    31,
    32,
    1,
    3,
    1122,
    1124,
    4,
    4,
    2,
    15,
    16,
    2,
    6,
    6,
    1010,
    1011,
    955,
    956,
    1304,
    367,
    368,
    719,
    367,
    368,
    1304,
    367,
    368,
    1304,
    367,
    368,
    703,
    973,
    974,
    6,
    4,
    6,
    1,
    5,
    4,
    4,
    1,
    2,
    3,
    4,
    15,
    16,
    1105,
    1106,
    1386,
    1385,
    1384,
    1388,
    1383,
    1182,
    1385,
    1385,
    1384,
    1384,
    1388,
    1388,
    1388,
    1385,
    1386,
    1387,
    1386,
    1386,
    1386,
    1387,
    1385,
    1386,
    1387,
    1386,
    1384,
    1383,
    1388,
    1385,
    1386,
    1383,
    1386,
    1385,
    1387,
    1384,
    1387,
    1383,
    1388,
    1383,
    1163,
    1386,
    1387,
    1385,
    1384,
    1387,
    1384,
    1384,
    1386,
    1386,
    1387,
    1383,
    1383,
    1384,
    1387,
    1385,
    1383,
    1388,
    1384,
    1383,
    1385,
    1383,
    1385,
    927,
    11,
    1385,
    1384,
    1387,
    1387,
    1387,
    1386,
    1388,
    1384,
    1387,
    1388,
    1385,
    1383,
    1108,
    5,
    6,
    6,
    6,
    6,
    2,
    4,
    1,
    1,
    4,
    1,
    5,
    6,
    31,
    32,
    1,
    4,
    1025,
    1026,
    1027,
    971,
    1319,
    1320,
    367,
    703,
    703,
    383,
    384,
    703,
    383,
    384,
    703,
    383,
    384,
    719,
    944,
    3,
    2,
    1,
    3,
    5,
    1,
    6,
    5,
    3,
    5,
    4,
    5,
    31,
    32,
    1152,
    1122,
    1164,
    1385,
    1182,
    1383,
    1386,
    1385,
    1388,
    1388,
    1388,
    1385,
    1384,
    1384,
    1387,
    1388,
    1388,
    1388,
    1386,
    1385,
    1386,
    1386,
    1383,
    1385,
    1383,
    1384,
    1385,
    1384,
    1384,
    1383,
    1386,
    1384,
    1387,
    1386,
    1388,
    1388,
    1388,
    1384,
    1383,
    1387,
    1384,
    1387,
    1383,
    1387,
    1386,
    1387,
    1164,
    1388,
    1385,
    1385,
    1387,
    1385,
    1388,
    1386,
    1386,
    1383,
    1388,
    1387,
    1387,
    1388,
    1384,
    1387,
    1388,
    1385,
    1387,
    1388,
    1386,
    1383,
    1388,
    1387,
    1384,
    1387,
    1383,
    1387,
    1385,
    1386,
    1383,
    1165,
    1093,
    6,
    4,
    3,
    2,
    6,
    2,
    2,
    2,
    15,
    16,
    2,
    6,
    4,
    1,
    1010,
    1011,
    1041,
    1042,
    1043,
    367,
    368,
    703,
    383,
    719,
    719,
    399,
    703,
    703,
    399,
    400,
    719,
    399,
    400,
    959,
    960,
    1,
    4,
    6,
    4,
    6,
    6,
    3,
    1,
    4,
    4,
    6,
    5,
    1,
    3,
    6,
    1090,
    1386,
    731,
    732,
    1386,
    1387,
    1387,
    1384,
    1384,
    1385,
    1384,
    1383,
    1384,
    1383,
    1388,
    1387,
    1387,
    1386,
    1388,
    1386,
    1384,
    1385,
    1383,
    1385,
    1385,
    1385,
    1383,
    1386,
    1383,
    1384,
    1388,
    1383,
    1387,
    1385,
    1383,
    1383,
    1388,
    1384,
    1383,
    1388,
    1383,
    1387,
    1388,
    1384,
    1388,
    1385,
    1386,
    1387,
    1388,
    1383,
    1386,
    1387,
    1383,
    1386,
    1384,
    1385,
    1388,
    1385,
    1388,
    1388,
    1384,
    1164,
    1387,
    1384,
    1384,
    1386,
    1383,
    1385,
    1386,
    1385,
    1387,
    1386,
    1388,
    1384,
    1385,
    1385,
    1076,
    1077,
    1092,
    3,
    3,
    15,
    16,
    1,
    5,
    1,
    31,
    13,
    6,
    1,
    3,
    1025,
    1026,
    1027,
    1057,
    1058,
    703,
    383,
    384,
    703,
    367,
    368,
    1320,
    719,
    719,
    719,
    368,
    367,
    368,
    703,
    1303,
    941,
    942,
    5,
    1,
    1,
    15,
    16,
    5,
    4,
    3,
    3,
    1,
    6,
    6,
    2,
    2,
    1090,
    1388,
    1182,
    747,
    748,
    1388,
    1387,
    1387,
    1385,
    1385,
    1384,
    1384,
    1384,
    1383,
    1383,
    1386,
    1386,
    1388,
    1385,
    1387,
    1383,
    1386,
    1385,
    1387,
    1386,
    1387,
    1388,
    1384,
    1385,
    1383,
    1383,
    1384,
    1387,
    1384,
    1384,
    1388,
    1385,
    1384,
    1385,
    1388,
    1387,
    1384,
    1386,
    1384,
    1385,
    1383,
    1384,
    1388,
    1388,
    1386,
    1388,
    1383,
    1386,
    1387,
    1386,
    1386,
    1387,
    1383,
    1386,
    1384,
    1385,
    1386,
    1387,
    1387,
    1386,
    1385,
    1386,
    1388,
    1387,
    1388,
    1385,
    1163,
    1384,
    1386,
    1387,
    1383,
    1384,
    1385,
    1388,
    1108,
    1109,
    5,
    31,
    32,
    4,
    2,
    2,
    1,
    1,
    5,
    932,
    933,
    1041,
    1042,
    1043,
    367,
    368,
    719,
    399,
    400,
    719,
    703,
    703,
    703,
    1320,
    719,
    383,
    384,
    383,
    384,
    719,
    703,
    957,
    958,
    3,
    6,
    6,
    31,
    32,
    5,
    3,
    4,
    5,
    5,
    2,
    5,
    4,
    1105,
    1106,
    1385,
    731,
    732,
    1384,
    11,
    1388,
    1383,
    1386,
    1386,
    1387,
    1388,
    1383,
    1385,
    1386,
    1383,
    1383,
    1387,
    1387,
    1386,
    1386,
    1387,
    1163,
    1384,
    1387,
    1384,
    1384,
    1387,
    1384,
    1385,
    1384,
    1384,
    1388,
    1386,
    1385,
    1385,
    1383,
    1385,
    1385,
    1385,
    1388,
    1383,
    1386,
    1388,
    1385,
    1388,
    1386,
    1384,
    1385,
    1388,
    1386,
    1388,
    1383,
    1385,
    1385,
    1388,
    1384,
    1387,
    1388,
    1386,
    1386,
    1388,
    1388,
    1386,
    1388,
    1388,
    1387,
    1384,
    1384,
    1384,
    1386,
    1388,
    1386,
    1383,
    1387,
    1388,
    1385,
    1386,
    1165,
    1108,
    1109,
    1,
    2,
    5,
    4,
    5,
    6,
    5,
    3,
    947,
    948,
    949,
    1057,
    1058,
    992,
    383,
    384,
    703,
    703,
    1320,
    719,
    719,
    719,
    719,
    1319,
    1320,
    399,
    400,
    399,
    400,
    992,
    719,
    973,
    974,
    4,
    5,
    5,
    6,
    2,
    6,
    6,
    3,
    4,
    2,
    15,
    4,
    2,
    1105,
    1106,
    1384,
    747,
    748,
    1182,
    1386,
    733,
    1388,
    1383,
    1384,
    1384,
    1387,
    1386,
    1383,
    1386,
    1386,
    1383,
    1388,
    1385,
    1385,
    1383,
    1383,
    1385,
    1383,
    1385,
    1384,
    1383,
    1387,
    1384,
    1385,
    1386,
    1388,
    1387,
    1387,
    1387,
    1386,
    1387,
    1385,
    1165,
    1388,
    1384,
    1388,
    1385,
    1384,
    1386,
    1163,
    1383,
    1386,
    1384,
    1383,
    1388,
    1385,
    1384,
    1388,
    1388,
    1383,
    1384,
    1383,
    1384,
    1385,
    1387,
    1383,
    1384,
    1385,
    1384,
    1388,
    1385,
    1384,
    1386,
    1388,
    1386,
    1388,
    1385,
    1383,
    1386,
    1388,
    1386,
    1388,
    1383,
    1124,
    4,
    3,
    5,
    2,
    1,
    1104,
    6,
    6,
    5,
    963,
    964,
    965,
    367,
    368,
    1008,
    399,
    400,
    719,
    719,
    1304,
    703,
    719,
    368,
    703,
    703,
    368,
    1304,
    367,
    368,
    703,
    1008,
    989,
    990,
    991,
    6,
    2,
    4,
    3,
    4,
    6,
    4,
    5,
    5,
    4,
    31,
    4,
    2,
    6,
    1122,
    1388,
    1386,
    1182,
    1150,
    1151,
    1383,
    1383,
    1388,
    1386,
    1385,
    1385,
    1383,
    1385,
    1385,
    1386,
    1164,
    1383,
    1383,
    1383,
    1386,
    1384,
    1387,
    1388,
    1383,
    1388,
    1383,
    1387,
    1387,
    1386,
    1388,
    1386,
    1385,
    1385,
    1388,
    1387,
    1386,
    1384,
    1386,
    1385,
    1388,
    1383,
    1385,
    1388,
    1386,
    1386,
    1388,
    1388,
    1387,
    1385,
    1165,
    1384,
    1388,
    1385,
    1387,
    1164,
    1385,
    1385,
    1386,
    1387,
    1383,
    1384,
    1383,
    1384,
    1387,
    1384,
    1388,
    1388,
    1384,
    1383,
    1386,
    1385,
    1385,
    1387,
    1384,
    1388,
    1164,
    1123,
    1124,
    6,
    2,
    2,
    5,
    15,
    16,
    5,
    2,
    6,
    3,
    929,
    930,
    703,
    383,
    384,
    1304,
    1319,
    1320,
    703,
    1319,
    1320,
    703,
    719,
    703,
    719,
    703,
    703,
    703,
    383,
    384,
    719,
    944,
    1005,
    1006,
    1152,
    4,
    6,
    4,
    4,
    4,
    4,
    4,
    13,
    4,
    3,
    6,
    3,
    4,
    5,
    1152,
    1106,
    733,
    1388,
    1166,
    1167,
    1385,
    1388,
    1388,
    1388,
    1388,
    1383,
    1388,
    1387,
    1387,
    1385,
    1388,
    1388,
    1385,
    1387,
    1386,
    1387,
    1386,
    1383,
    1384,
    1386,
    1387,
    1164,
    1387,
    1384,
    1386,
    1387,
    1387,
    1385,
    1388,
    1386,
    1384,
    1387,
    1385,
    1383,
    1385,
    1383,
    1385,
    1383,
    1386,
    1383,
    1383,
    1388,
    1386,
    1386,
    1383,
    1387,
    1388,
    1386,
    1388,
    1387,
    1383,
    1386,
    1386,
    1385,
    1385,
    1385,
    1165,
    1384,
    1384,
    1384,
    1386,
    1385,
    1385,
    1383,
    1385,
    1388,
    1383,
    1388,
    10,
    1386,
    1124,
    4,
    3,
    4,
    5,
    5,
    6,
    31,
    32,
    6,
    13,
    5,
    4,
    945,
    946,
    719,
    399,
    400,
    703,
    1319,
    1320,
    719,
    367,
    368,
    719,
    399,
    719,
    719,
    719,
    703,
    719,
    399,
    400,
    959,
    960,
    4,
    5,
    5,
    1,
    4,
    3,
    6,
    2,
    6,
    4,
    6,
    4,
    4,
    2,
    6,
    3,
    3,
    1090,
    1383,
    1387,
    1182,
    1387,
    1387,
    1164,
    1386,
    1383,
    1385,
    1385,
    1386,
    1388,
    1386,
    1387,
    1387,
    1384,
    1383,
    1385,
    1385,
    1383,
    1383,
    1387,
    1385,
    1387,
    1388,
    1383,
    1385,
    1387,
    1384,
    1384,
    1386,
    1387,
    1163,
    1383,
    1383,
    1383,
    1383,
    1388,
    1385,
    1388,
    1384,
    1387,
    1384,
    1384,
    1387,
    1383,
    1384,
    1384,
    1388,
    1388,
    1386,
    1383,
    1388,
    1383,
    1383,
    1386,
    1383,
    1385,
    1387,
    1388,
    1383,
    1383,
    1386,
    1386,
    1388,
    1385,
    1385,
    1385,
    1388,
    1386,
    1383,
    1163,
    1384,
    1386,
    1125,
    5,
    2,
    3,
    2,
    4,
    5,
    5,
    3,
    6,
    6,
    4,
    1,
    2,
    961,
    962,
    1319,
    1320,
    703,
    719,
    367,
    368,
    703,
    383,
    384,
    719,
    1319,
    1320,
    703,
    719,
    719,
    1304,
    1179,
    989,
    990,
    991,
    5,
    1,
    5,
    6,
    6,
    6,
    4,
    4,
    3,
    6,
    4,
    4,
    6,
    3,
    8,
    2,
    1090,
    1163,
    1386,
    733,
    1384,
    1387,
    1385,
    1388,
    1388,
    1385,
    1165,
    1386,
    1385,
    1386,
    1383,
    1384,
    1388,
    1385,
    1386,
    1383,
    1384,
    1385,
    1385,
    1386,
    1383,
    1388,
    1388,
    1384,
    1388,
    1384,
    1385,
    1387,
    1385,
    1387,
    1383,
    1387,
    1385,
    1383,
    1387,
    1386,
    1388,
    1385,
    1388,
    1384,
    1387,
    1383,
    1386,
    1385,
    1384,
    1388,
    1384,
    1383,
    1388,
    1384,
    1383,
    1386,
    1383,
    1385,
    1383,
    1384,
    1384,
    1383,
    1385,
    1385,
    1384,
    1383,
    1384,
    1386,
    1387,
    1384,
    1388,
    1384,
    1388,
    1123,
    1123,
    1124,
    6,
    2,
    3,
    15,
    16,
    5,
    4,
    1,
    1,
    1,
    3,
    3,
    1,
    6,
    939,
    940,
    367,
    368,
    719,
    703,
    383,
    384,
    719,
    399,
    400,
    719,
    1320,
    1304,
    719,
    384,
    1320,
    1013,
    1014,
    1005,
    1006,
    8,
    5,
    5,
    5,
    5,
    4,
    4,
    4,
    1,
    6,
    4,
    4,
    6,
    4,
    5,
    3,
    1105,
    1106,
    1150,
    1151,
    1385,
    1387,
    1387,
    1387,
    1384,
    1383,
    1384,
    1383,
    1388,
    1387,
    1385,
    1388,
    1386,
    1387,
    1388,
    1387,
    1384,
    1385,
    1384,
    1384,
    1386,
    1386,
    1388,
    1387,
    1386,
    1384,
    1388,
    1388,
    1383,
    1384,
    1387,
    1385,
    1387,
    1385,
    1383,
    1386,
    1387,
    1388,
    1386,
    1384,
    1384,
    1388,
    1388,
    1385,
    1387,
    1387,
    1385,
    1386,
    1388,
    1385,
    1383,
    1385,
    1387,
    1386,
    1388,
    1383,
    1387,
    1385,
    1386,
    1383,
    1384,
    1386,
    1385,
    1386,
    1388,
    1387,
    1387,
    1164,
    1386,
    1124,
    1152,
    1,
    1,
    6,
    5,
    6,
    31,
    32,
    4,
    1,
    6,
    6,
    4,
    6,
    1,
    1010,
    1011,
    955,
    956,
    383,
    384,
    1304,
    719,
    367,
    368,
    1319,
    367,
    368,
    1304,
    1319,
    1320,
    399,
    400,
    1028,
    1029,
    1030,
    4,
    5,
    2,
    6,
    5,
    1,
    5,
    4,
    3,
    4,
    4,
    4,
    5,
    4,
    3,
    4,
    6,
    928,
    1090,
    1182,
    1166,
    1167,
    1386,
    1384,
    1387,
    1386,
    1385,
    1387,
    1384,
    1384,
    1387,
    1384,
    1384,
    1387,
    1383,
    1384,
    1388,
    1383,
    1388,
    1384,
    1384,
    1386,
    1383,
    1383,
    1388,
    1383,
    1386,
    1388,
    1388,
    1388,
    1384,
    1385,
    1386,
    1385,
    1383,
    1385,
    1388,
    1383,
    1385,
    1384,
    1387,
    1388,
    1388,
    1388,
    1385,
    1383,
    1383,
    1386,
    1386,
    1384,
    1388,
    1384,
    1387,
    1387,
    1182,
    1383,
    1386,
    1384,
    1388,
    1387,
    733,
    1384,
    1388,
    1388,
    1123,
    1123,
    1163,
    1077,
    1385,
    1123,
    1124,
    4,
    3,
    5,
    6,
    13,
    2,
    5,
    5,
    5,
    4,
    1,
    6,
    3,
    4,
    1,
    1025,
    1026,
    1027,
    971,
    1304,
    399,
    400,
    703,
    367,
    367,
    367,
    368,
    383,
    384,
    367,
    368,
    703,
    1304,
    944,
    1044,
    1045,
    6,
    2,
    3,
    2,
    6,
    6,
    1,
    6,
    4,
    4,
    1,
    2,
    6,
    6,
    2,
    4,
    4,
    4,
    1090,
    731,
    732,
    1387,
    733,
    731,
    732,
    1387,
    1383,
    1387,
    1385,
    1383,
    1387,
    1384,
    1386,
    1386,
    1388,
    1385,
    1386,
    1385,
    1383,
    1384,
    1385,
    1383,
    1387,
    1386,
    1384,
    1383,
    1383,
    1386,
    1384,
    1388,
    1386,
    1385,
    1387,
    1385,
    1384,
    1386,
    1384,
    1384,
    1385,
    1386,
    1388,
    1384,
    1388,
    1388,
    1384,
    1385,
    1387,
    1383,
    1385,
    1387,
    1386,
    1384,
    1387,
    1388,
    1182,
    731,
    732,
    1384,
    1182,
    1386,
    733,
    1385,
    1165,
    1384,
    1125,
    47,
    1152,
    1122,
    1123,
    1124,
    3,
    2,
    2,
    2,
    6,
    1,
    2,
    4,
    1,
    3,
    3,
    2,
    934,
    935,
    936,
    937,
    938,
    1041,
    1042,
    1043,
    367,
    368,
    703,
    1304,
    367,
    368,
    383,
    383,
    384,
    399,
    400,
    368,
    384,
    719,
    959,
    960,
    2,
    2,
    2,
    2,
    4,
    2,
    2,
    1,
    2,
    13,
    1,
    1,
    5,
    6,
    6,
    2,
    15,
    4,
    2,
    1152,
    1106,
    747,
    748,
    733,
    1182,
    747,
    748,
    1387,
    1388,
    1384,
    1163,
    1386,
    1386,
    1388,
    1383,
    1384,
    1386,
    1385,
    1384,
    1387,
    1383,
    1388,
    1388,
    1384,
    1385,
    1383,
    1384,
    1383,
    1386,
    1388,
    1385,
    1384,
    1383,
    1386,
    1386,
    1383,
    1386,
    1388,
    1385,
    1384,
    1384,
    1383,
    1385,
    1385,
    1386,
    1384,
    1386,
    1384,
    1384,
    1386,
    1383,
    1384,
    1388,
    1387,
    1383,
    1385,
    1384,
    747,
    748,
    1150,
    1151,
    733,
    1182,
    10,
    1383,
    1124,
    4,
    1,
    3,
    4,
    1074,
    7,
    3,
    6,
    4,
    3,
    6,
    3,
    4,
    934,
    935,
    936,
    937,
    938,
    950,
    951,
    952,
    953,
    954,
    1057,
    1058,
    1304,
    703,
    384,
    719,
    1319,
    703,
    703,
    399,
    399,
    400,
    400,
    383,
    384,
    400,
    989,
    990,
    991,
    3,
    3,
    4,
    3,
    1,
    4,
    3,
    3,
    6,
    6,
    5,
    4,
    5,
    4,
    4,
    6,
    31,
    32,
    5,
    1090,
    1182,
    1385,
    731,
    732,
    11,
    1388,
    1383,
    1387,
    1385,
    1388,
    1388,
    1385,
    1386,
    1384,
    1387,
    1384,
    1385,
    1384,
    1386,
    1387,
    1386,
    1383,
    1384,
    1383,
    1383,
    1387,
    1387,
    1165,
    1384,
    1384,
    1387,
    1385,
    1388,
    1384,
    1388,
    1383,
    1383,
    1388,
    1384,
    1384,
    1384,
    1383,
    1383,
    1164,
    1384,
    1387,
    1386,
    1384,
    1383,
    1383,
    1385,
    1383,
    1165,
    1384,
    1387,
    1384,
    1385,
    1388,
    1182,
    1166,
    1167,
    731,
    732,
    1385,
    1125,
    6,
    2,
    5,
    2,
    3,
    13,
    3,
    2,
    4,
    6,
    5,
    1,
    1010,
    1011,
    950,
    951,
    952,
    953,
    954,
    966,
    967,
    968,
    969,
    970,
    367,
    368,
    703,
    719,
    400,
    703,
    367,
    719,
    703,
    1319,
    703,
    1319,
    1320,
    399,
    400,
    1014,
    1005,
    1006,
    1007,
    4,
    1,
    6,
    2,
    5,
    5,
    1,
    15,
    16,
    3,
    2,
    3,
    3,
    5,
    2,
    6,
    1075,
    1075,
    1089,
    1383,
    1386,
    1182,
    747,
    748,
    1386,
    1182,
    1385,
    1388,
    1388,
    1383,
    10,
    1388,
    1383,
    1387,
    1388,
    1383,
    1385,
    1386,
    1384,
    1386,
    1384,
    1384,
    1384,
    1386,
    1384,
    1387,
    1385,
    1387,
    1383,
    1387,
    1383,
    1387,
    1388,
    1384,
    1388,
    1385,
    1387,
    1387,
    1385,
    1384,
    1386,
    1383,
    1388,
    1383,
    1386,
    1384,
    1387,
    1388,
    1388,
    1386,
    1386,
    1385,
    1383,
    1388,
    1386,
    1385,
    1182,
    1164,
    1388,
    11,
    1182,
    747,
    748,
    1108,
    6,
    1,
    2,
    3,
    7,
    5,
    1,
    2,
    3,
    2,
    4,
    1,
    1025,
    1026,
    1027,
    966,
    967,
    968,
    969,
    970,
    1304,
    1303,
    1304,
    1319,
    1320,
    703,
    384,
    703,
    368,
    367,
    368,
    383,
    384,
    719,
    367,
    368,
    703,
    1304,
    1028,
    1029,
    1030,
    15,
    16,
    4,
    2,
    5,
    3,
    1,
    5,
    1,
    6,
    31,
    32,
    6,
    1,
    3,
    2,
    4,
    3,
    1090,
    1091,
    1091,
    1165,
    1182,
    731,
    732,
    733,
    1182,
    1147,
    1388,
    1182,
    11,
    1388,
    1387,
    1386,
    1383,
    1385,
    1385,
    1384,
    1386,
    1388,
    1383,
    1388,
    1385,
    1384,
    1388,
    1388,
    1383,
    1387,
    1383,
    1386,
    1387,
    1383,
    1383,
    1387,
    1383,
    1387,
    1387,
    1387,
    1383,
    1388,
    1387,
    1388,
    1385,
    1386,
    1388,
    1386,
    1383,
    1386,
    1387,
    1387,
    1388,
    1383,
    1386,
    1387,
    1385,
    1383,
    1385,
    1383,
    1384,
    1123,
    1123,
    1384,
    733,
    1163,
    1383,
    1123,
    1124,
    2,
    1,
    1,
    934,
    935,
    936,
    937,
    936,
    937,
    936,
    937,
    938,
    1041,
    1042,
    1043,
    703,
    703,
    703,
    1303,
    1304,
    703,
    1319,
    1319,
    1320,
    703,
    719,
    400,
    719,
    368,
    383,
    703,
    703,
    703,
    703,
    383,
    703,
    719,
    944,
    1044,
    1045,
    4,
    31,
    32,
    1,
    5,
    2,
    6,
    6,
    4,
    6,
    1,
    6,
    2,
    2,
    5,
    1,
    3,
    3,
    1090,
    1383,
    1164,
    11,
    733,
    733,
    747,
    748,
    1384,
    731,
    732,
    10,
    1384,
    1383,
    1385,
    1383,
    1388,
    1386,
    1386,
    1384,
    1384,
    1386,
    1385,
    1384,
    1388,
    1386,
    1385,
    1388,
    1386,
    1384,
    1387,
    1385,
    1384,
    1383,
    1388,
    1384,
    1384,
    1383,
    1387,
    1388,
    1385,
    1385,
    1388,
    1384,
    1387,
    1386,
    1383,
    1387,
    1386,
    1388,
    1386,
    1384,
    1383,
    1387,
    1384,
    1386,
    1388,
    1385,
    1388,
    1385,
    1383,
    1385,
    1152,
    7,
    1122,
    1123,
    1123,
    1124,
    1,
    1,
    934,
    935,
    938,
    950,
    951,
    952,
    953,
    952,
    953,
    952,
    953,
    954,
    1057,
    1058,
    1304,
    719,
    719,
    719,
    1319,
    1320,
    719,
    1319,
    703,
    719,
    719,
    703,
    703,
    383,
    384,
    399,
    719,
    703,
    703,
    719,
    399,
    719,
    959,
    960,
    2,
    1,
    1,
    4,
    1,
    1,
    6,
    2,
    5,
    6,
    3,
    5,
    6,
    3,
    5,
    4,
    3,
    1,
    3,
    1090,
    1386,
    1150,
    1151,
    1182,
    731,
    732,
    733,
    1388,
    1182,
    747,
    748,
    1386,
    731,
    732,
    1388,
    1388,
    1387,
    1385,
    1388,
    1384,
    1385,
    1384,
    1388,
    1386,
    1388,
    1385,
    1386,
    1383,
    1383,
    1387,
    1387,
    1388,
    1386,
    1385,
    1383,
    1385,
    1386,
    1387,
    1384,
    1388,
    1384,
    1388,
    1387,
    1388,
    1387,
    1388,
    1386,
    1386,
    1387,
    1386,
    1386,
    1388,
    1384,
    1386,
    1386,
    1383,
    1386,
    1388,
    1388,
    1384,
    1383,
    1385,
    936,
    937,
    937,
    936,
    937,
    936,
    937,
    938,
    950,
    951,
    954,
    966,
    967,
    968,
    969,
    968,
    969,
    968,
    969,
    970,
    703,
    1304,
    987,
    988,
    975,
    976,
    975,
    976,
    983,
    984,
    719,
    368,
    703,
    719,
    719,
    703,
    400,
    703,
    719,
    719,
    703,
    703,
    1304,
    989,
    990,
    991,
    1,
    3,
    6,
    1,
    6,
    3,
    6,
    5,
    5,
    4,
    1,
    3,
    2,
    5,
    5,
    3,
    3,
    6,
    1105,
    1106,
    1163,
    1166,
    1167,
    733,
    747,
    748,
    10,
    1182,
    1150,
    1151,
    1182,
    1383,
    747,
    748,
    1385,
    1387,
    1385,
    1388,
    1386,
    1387,
    1388,
    1388,
    1385,
    1384,
    1387,
    1387,
    1388,
    1383,
    1388,
    1386,
    1384,
    1385,
    1387,
    1385,
    1385,
    1387,
    1387,
    1388,
    1383,
    1383,
    1388,
    1385,
    1384,
    1385,
    1385,
    1388,
    1388,
    1385,
    1385,
    1387,
    1383,
    1385,
    1386,
    1384,
    1383,
    1386,
    1385,
    1385,
    1163,
    1386,
    1387,
    1383,
    952,
    953,
    953,
    952,
    953,
    952,
    953,
    954,
    966,
    967,
    970,
    1319,
    1320,
    367,
    368,
    1304,
    367,
    368,
    703,
    1304,
    719,
    944,
    1003,
    1004,
    2,
    5,
    5,
    6,
    999,
    1000,
    383,
    384,
    719,
    703,
    383,
    719,
    703,
    719,
    384,
    383,
    703,
    719,
    944,
    1005,
    1006,
    1007,
    3,
    5,
    5,
    6,
    4,
    4,
    4,
    4,
    4,
    1,
    1,
    2,
    6,
    3,
    1,
    3,
    4,
    3,
    1105,
    1106,
    1383,
    1182,
    1385,
    1386,
    1384,
    1147,
    733,
    11,
    1166,
    1167,
    1387,
    1182,
    1385,
    1182,
    1384,
    1388,
    1164,
    1386,
    1383,
    1383,
    1385,
    1388,
    1163,
    1388,
    1388,
    1384,
    1388,
    1386,
    1388,
    1384,
    1384,
    1383,
    1383,
    1385,
    1384,
    1387,
    1385,
    1386,
    1386,
    1387,
    1163,
    1386,
    1387,
    1386,
    1388,
    1385,
    1385,
    1383,
    1385,
    1385,
    1387,
    1385,
    1383,
    1388,
    1384,
    1385,
    1384,
    1385,
    1387,
    1383,
    1385,
    1387,
    968,
    969,
    969,
    968,
    969,
    968,
    969,
    970,
    1319,
    1320,
    367,
    703,
    703,
    383,
    703,
    703,
    703,
    384,
    719,
    1304,
    959,
    960,
    3,
    2,
    2,
    15,
    16,
    1,
    929,
    930,
    399,
    400,
    703,
    719,
    399,
    400,
    719,
    703,
    400,
    399,
    719,
    959,
    960,
    2,
    3,
    2,
    4,
    1,
    4,
    4,
    3,
    2,
    1,
    1,
    2,
    6,
    5,
    2,
    6,
    2,
    3,
    6,
    6,
    4,
    3,
    1122,
    1386,
    1385,
    1385,
    731,
    732,
    1182,
    1182,
    731,
    732,
    1182,
    1387,
    731,
    732,
    1384,
    1386,
    1386,
    1386,
    1383,
    1385,
    1387,
    1383,
    1384,
    1386,
    1388,
    1384,
    1388,
    1384,
    1384,
    1384,
    1383,
    1383,
    1383,
    1383,
    1385,
    1386,
    1387,
    1385,
    1388,
    1383,
    1388,
    1384,
    1383,
    1383,
    1387,
    1384,
    1383,
    1386,
    1164,
    1385,
    1387,
    1388,
    1385,
    1384,
    1387,
    1388,
    1388,
    1388,
    1383,
    1387,
    1383,
    1383,
    1386,
    367,
    368,
    367,
    368,
    367,
    368,
    367,
    367,
    368,
    703,
    383,
    719,
    719,
    399,
    719,
    719,
    719,
    400,
    1319,
    992,
    1015,
    1016,
    1017,
    3,
    1,
    31,
    32,
    2,
    945,
    946,
    367,
    367,
    368,
    367,
    368,
    703,
    367,
    719,
    1320,
    1320,
    989,
    990,
    991,
    3,
    2,
    3,
    4,
    1,
    4,
    1,
    3,
    1,
    6,
    6,
    5,
    2,
    3,
    13,
    2,
    3,
    2,
    6,
    4,
    1,
    6,
    1152,
    1122,
    1384,
    1384,
    747,
    748,
    1150,
    1151,
    747,
    748,
    1147,
    1384,
    747,
    748,
    1182,
    1384,
    1387,
    1384,
    1384,
    1386,
    1383,
    1383,
    1385,
    1387,
    1383,
    1384,
    1384,
    1388,
    1387,
    1387,
    1385,
    1387,
    1387,
    1165,
    1388,
    1387,
    1383,
    1384,
    1384,
    1383,
    1388,
    1386,
    1384,
    1387,
    1387,
    1383,
    1386,
    1383,
    1383,
    1383,
    1387,
    1388,
    1385,
    1387,
    1384,
    1387,
    1383,
    1386,
    1386,
    1387,
    1383,
    1386,
    1387,
    383,
    384,
    703,
    384,
    703,
    703,
    703,
    703,
    384,
    719,
    399,
    400,
    1304,
    1319,
    1320,
    367,
    368,
    1304,
    1320,
    1008,
    1031,
    1032,
    1033,
    1034,
    1,
    6,
    3,
    5,
    961,
    962,
    383,
    703,
    384,
    383,
    703,
    719,
    383,
    384,
    1304,
    944,
    1005,
    1006,
    1007,
    15,
    16,
    3,
    1,
    6,
    6,
    5,
    3,
    3,
    6,
    1,
    4,
    4,
    6,
    15,
    16,
    2,
    5,
    5,
    6,
    4,
    1,
    5,
    2,
    1122,
    1165,
    1384,
    733,
    1166,
    1167,
    1182,
    733,
    731,
    732,
    1182,
    11,
    1388,
    1388,
    1385,
    1386,
    1384,
    1386,
    1383,
    1384,
    1388,
    1388,
    1386,
    1387,
    1388,
    1383,
    1384,
    1386,
    1385,
    1385,
    1387,
    1384,
    1387,
    1384,
    1383,
    1387,
    1388,
    1385,
    1386,
    1388,
    1387,
    1385,
    1386,
    1387,
    1387,
    1385,
    1384,
    1386,
    1388,
    1385,
    1388,
    1384,
    1384,
    1165,
    1388,
    1387,
    1385,
    1387,
    1386,
    1383,
    1384,
    399,
    400,
    719,
    400,
    719,
    719,
    719,
    703,
    400,
    367,
    368,
    703,
    367,
    368,
    703,
    383,
    703,
    1304,
    367,
    368,
    1047,
    1048,
    1049,
    1050,
    5,
    4,
    4,
    6,
    939,
    940,
    1304,
    719,
    400,
    399,
    719,
    1304,
    399,
    400,
    959,
    960,
    2,
    6,
    3,
    31,
    32,
    5,
    1,
    5,
    6,
    2,
    5,
    1,
    3,
    1,
    4,
    4,
    5,
    31,
    32,
    1,
    6,
    2,
    3,
    4,
    2,
    15,
    16,
    1105,
    1106,
    1385,
    1386,
    733,
    731,
    732,
    1182,
    747,
    748,
    1385,
    1182,
    1385,
    1386,
    1387,
    1385,
    1387,
    1385,
    1387,
    1384,
    1387,
    1383,
    1383,
    1386,
    1387,
    1387,
    1385,
    1385,
    1383,
    1386,
    1385,
    1386,
    1386,
    1387,
    1385,
    1386,
    1385,
    1386,
    1387,
    1385,
    1387,
    1388,
    1387,
    1387,
    1386,
    1386,
    1386,
    1383,
    1384,
    1383,
    1387,
    1386,
    1388,
    1383,
    1383,
    1387,
    1386,
    1387,
    1388,
    1387,
    1383,
    367,
    368,
    719,
    367,
    368,
    703,
    367,
    719,
    368,
    383,
    384,
    703,
    703,
    384,
    703,
    703,
    719,
    1304,
    383,
    703,
    367,
    368,
    1438,
    1439,
    1440,
    936,
    937,
    938,
    955,
    956,
    1304,
    987,
    988,
    975,
    976,
    985,
    986,
    989,
    990,
    991,
    5,
    2,
    1,
    5,
    2,
    3,
    4,
    4,
    4,
    2,
    4,
    4,
    13,
    2,
    5,
    5,
    1,
    5,
    5,
    3,
    1,
    4,
    4,
    4,
    3,
    31,
    32,
    1,
    1122,
    1164,
    1383,
    1182,
    747,
    748,
    1385,
    1384,
    10,
    1387,
    1383,
    1388,
    1387,
    1383,
    1386,
    1387,
    1385,
    1385,
    1387,
    1386,
    1387,
    1384,
    1388,
    1385,
    1387,
    1385,
    1384,
    1384,
    1385,
    1383,
    1388,
    1387,
    1383,
    1384,
    1383,
    1388,
    1383,
    1384,
    1388,
    1386,
    1385,
    1383,
    1383,
    1384,
    1386,
    1384,
    1388,
    1388,
    1388,
    1384,
    1387,
    1384,
    1384,
    1388,
    1384,
    1384,
    1386,
    1385,
    1385,
    1386,
    367,
    368,
    1304,
    367,
    368,
    719,
    367,
    368,
    703,
    703,
    703,
    719,
    719,
    703,
    703,
    719,
    367,
    368,
    703,
    703,
    703,
    384,
    1454,
    1455,
    1456,
    952,
    953,
    954,
    971,
    1304,
    944,
    1003,
    1004,
    2,
    1,
    1001,
    1002,
    1005,
    1006,
    1007,
    4,
    6,
    3,
    1,
    6,
    2,
    1,
    2,
    2,
    6,
    4,
    5,
    4,
    2,
    1,
    2,
    4,
    3,
    4,
    4,
    4,
    6,
    5,
    4,
    5,
    5,
    2,
    3,
    1105,
    1106,
    1386,
    1386,
    1385,
    1387,
    1182,
    1384,
    1182,
    731,
    732,
    1388,
    1386,
    1387,
    1163,
    1386,
    1387,
    1388,
    1383,
    1387,
    1386,
    1386,
    1388,
    1384,
    1383,
    1387,
    1383,
    1386,
    1384,
    1388,
    1385,
    1386,
    1387,
    1385,
    1388,
    1383,
    1387,
    1384,
    1385,
    1383,
    1388,
    1386,
    1384,
    1384,
    1385,
    1386,
    1388,
    1386,
    1386,
    1388,
    1387,
    1385,
    1385,
    1385,
    1384,
    1384,
    1385,
    1388,
    1384,
    1386,
    383,
    384,
    703,
    368,
    367,
    703,
    383,
    703,
    719,
    703,
    719,
    400,
    1319,
    719,
    719,
    719,
    383,
    384,
    719,
    719,
    719,
    400,
    1304,
    1471,
    1472,
    968,
    969,
    970,
    1304,
    959,
    960,
    6,
    3,
    1152,
    5,
    6,
    1,
    1,
    5,
    5,
    6,
    3,
    1,
    3,
    5,
    5,
    5,
    3,
    5,
    1,
    3,
    5,
    6,
    4,
    5,
    4,
    4,
    4,
    1,
    6,
    1,
    5,
    3,
    4,
    5,
    6,
    2,
    5,
    4,
    1122,
    1387,
    1383,
    1386,
    1384,
    1387,
    1387,
    1384,
    747,
    748,
    1182,
    1387,
    1385,
    1383,
    1387,
    1387,
    1386,
    1388,
    1387,
    1383,
    1386,
    1386,
    1385,
    1387,
    1164,
    1387,
    1388,
    1386,
    1388,
    1388,
    1386,
    1386,
    1384,
    1384,
    1384,
    1384,
    1388,
    1384,
    1388,
    1383,
    1385,
    1386,
    1388,
    1385,
    1384,
    1383,
    1386,
    1384,
    1383,
    1386,
    1384,
    1388,
    1386,
    1383,
    1388,
    1388,
    1383,
    1383,
    1383,
    399,
    400,
    719,
    703,
    383,
    703,
    399,
    719,
    399,
    719,
    719,
    367,
    367,
    368,
    368,
    703,
    399,
    400,
    703,
    719,
    987,
    988,
    975,
    976,
    975,
    976,
    985,
    986,
    989,
    990,
    991,
    2,
    4,
    5,
    3,
    5,
    3,
    1,
    3,
    3,
    6,
    1,
    2,
    2,
    4,
    3,
    4,
    2,
    2,
    15,
    16,
    3,
    2,
    6,
    3,
    47,
    3,
    6,
    6,
    4,
    4,
    5,
    2,
    1,
    4,
    5,
    1,
    4,
    2,
    3,
    1122,
    1123,
    1123,
    1123,
    1383,
    1387,
    1385,
    1182,
    1386,
    1384,
    1386,
    1388,
    1387,
    1384,
    1383,
    1386,
    1387,
    1385,
    1165,
    1384,
    1384,
    1384,
    1386,
    1386,
    1385,
    1386,
    1387,
    1385,
    1387,
    1385,
    1384,
    1384,
    1385,
    1385,
    1384,
    1384,
    1388,
    1387,
    1386,
    1383,
    1383,
    1384,
    1384,
    1384,
    1387,
    1385,
    1383,
    1387,
    1385,
    1388,
    1388,
    1388,
    1386,
    1387,
    1387,
    1388,
    1385,
    1384,
    1319,
    1319,
    399,
    719,
    399,
    719,
    703,
    384,
    703,
    703,
    703,
    992,
    383,
    703,
    384,
    719,
    1304,
    1319,
    719,
    944,
    1003,
    1004,
    4,
    3,
    1,
    4,
    1001,
    1002,
    1005,
    1006,
    1007,
    4,
    2,
    3,
    5,
    2,
    1,
    5,
    6,
    1,
    4,
    3,
    4,
    2,
    3,
    5,
    5,
    5,
    2,
    31,
    32,
    3,
    6,
    717,
    2,
    5,
    4,
    1,
    3,
    3,
    4,
    3,
    3,
    5,
    4,
    6,
    4,
    3,
    2,
    4,
    1152,
    6,
    6,
    5,
    1122,
    1163,
    1385,
    1384,
    1386,
    1385,
    1387,
    1387,
    1384,
    1386,
    1383,
    1384,
    1383,
    1386,
    1386,
    1385,
    1383,
    1387,
    1385,
    1388,
    1388,
    1384,
    1384,
    1388,
    1387,
    1383,
    1383,
    1387,
    1387,
    1383,
    1165,
    1388,
    1388,
    1384,
    1386,
    1387,
    1383,
    1383,
    1383,
    1384,
    1388,
    1386,
    1386,
    1383,
    1384,
    1387,
    1388,
    1387,
    1387,
    1163,
    1385,
    1383,
    1385,
    1388,
    367,
    368,
    1320,
    1320,
    719,
    703,
    703,
    400,
    719,
    719,
    719,
    1008,
    399,
    719,
    400,
    719,
    1319,
    1320,
    959,
    960,
    6,
    1152,
    1,
    3,
    6,
    5,
    2,
    1,
    2,
    6,
    5,
    1,
    6,
    4,
    1,
    4,
    6,
    1,
    5,
    4,
    1,
    2,
    3,
    3,
    2,
    5,
    1,
    1,
    6,
    3,
    5,
    5,
    6,
    3,
    2,
    1152,
    6,
    5,
    1,
    6,
    3,
    4,
    6,
    15,
    16,
    5,
    2,
    6,
    5,
    3,
    1,
    13,
    5,
    3,
    1105,
    1106,
    1388,
    1383,
    1387,
    1384,
    1383,
    1388,
    1384,
    1388,
    1383,
    1388,
    1387,
    1388,
    1384,
    1387,
    1385,
    1383,
    1388,
    1388,
    1384,
    1386,
    1383,
    1384,
    1385,
    1385,
    1384,
    1387,
    1384,
    1386,
    1386,
    1385,
    1386,
    1387,
    1383,
    1387,
    1386,
    1386,
    1386,
    1388,
    1164,
    1383,
    1383,
    1383,
    1386,
    1383,
    1385,
    1387,
    1387,
    1384,
    1388,
    1383,
    1388,
    1383,
    383,
    384,
    992,
    703,
    703,
    719,
    719,
    987,
    988,
    975,
    976,
    975,
    976,
    975,
    976,
    985,
    986,
    989,
    990,
    991,
    3,
    2,
    5,
    5,
    1,
    1,
    4,
    3,
    3,
    5,
    3,
    6,
    2,
    1,
    6,
    2,
    1,
    5,
    15,
    16,
    5,
    4,
    5,
    2,
    3,
    4,
    4,
    4,
    6,
    4,
    1,
    3,
    1,
    6,
    4,
    3,
    6,
    3,
    4,
    3,
    3,
    2,
    1,
    31,
    32,
    4,
    5,
    3,
    1,
    2,
    6,
    3,
    15,
    16,
    1105,
    1106,
    1385,
    1383,
    1384,
    1387,
    1384,
    1385,
    1383,
    1386,
    1387,
    1387,
    1385,
    1385,
    1388,
    1384,
    1383,
    1388,
    1386,
    1386,
    1384,
    1384,
    1385,
    1385,
    1384,
    1387,
    1384,
    1384,
    1383,
    1385,
    1383,
    1385,
    1387,
    1388,
    1384,
    1385,
    1386,
    1385,
    1386,
    1384,
    1385,
    1386,
    1384,
    1383,
    1384,
    1385,
    1388,
    1383,
    1383,
    1385,
    1385,
    1384,
    1388,
    1388,
    399,
    400,
    1008,
    719,
    719,
    1013,
    1014,
    1003,
    1004,
    3,
    6,
    6,
    4,
    4,
    2,
    1001,
    1002,
    1005,
    1006,
    1007,
    1,
    4,
    6,
    1,
    5,
    3,
    2,
    1,
    4,
    6,
    13,
    5,
    6,
    4,
    2,
    5,
    3,
    6,
    31,
    32,
    3,
    3,
    5,
    3,
    1,
    6,
    5,
    2,
    4,
    1,
    6,
    2,
    3,
    5,
    5,
    3,
    5,
    15,
    16,
    6,
    4,
    2,
    3,
    2,
    3,
    6,
    6,
    4,
    4,
    6,
    4,
    6,
    31,
    32,
    5,
    1122,
    1387,
    1385,
    1384,
    1385,
    1387,
    1383,
    1384,
    1385,
    1387,
    1388,
    1383,
    1385,
    1386,
    1387,
    1383,
    1386,
    1388,
    1383,
    1386,
    1388,
    1387,
    1165,
    1387,
    1386,
    1384,
    1386,
    1387,
    1383,
    1384,
    1388,
    1385,
    1386,
    1387,
    1388,
    1387,
    1164,
    1383,
    1388,
    1383,
    1385,
    1386,
    1388,
    1383,
    1387,
    1387,
    1385,
    1383,
    1384,
    1388,
    1384,
    1384,
    1387,
    975,
    976,
    985,
    986,
    1028,
    1029,
    1030,
    3,
    13,
    3,
    2,
    6,
    5,
    1,
    4,
    15,
    16,
    3,
    4,
    1,
    1,
    5,
    5,
    4,
    2,
    2,
    3,
    3,
    5,
    2,
    6,
    2,
    2,
    6,
    5,
    2,
    2,
    3,
    2,
    3,
    6,
    2,
    5,
    5,
    4,
    2,
    4,
    4,
    6,
    2,
    4,
    2,
    2,
    5,
    3,
    6,
    6,
    31,
    32,
    3,
    5,
    1,
    3,
    2,
    6,
    1,
    3,
    5,
    3,
    6,
    1,
    4,
    6,
    5,
    1,
    1105,
    1106,
    1384,
    1386,
    1384,
    1388,
    1388,
    1388,
    1386,
    1385,
    1385,
    1384,
    1388,
    1383,
    1388,
    1387,
    1386,
    1387,
    1384,
    1386,
    1387,
    1386,
    1386,
    1387,
    1384,
    1387,
    1384,
    1385,
    1386,
    1165,
    1384,
    1383,
    1386,
    1388,
    1385,
    1384,
    1383,
    1387,
    1386,
    1383,
    1387,
    1383,
    1385,
    1388,
    1383,
    1385,
    1386,
    1385,
    1385,
    1383,
    1383,
    1386,
    1384,
    4,
    1,
    1001,
    1002,
    1044,
    1045,
    5,
    5,
    4,
    5,
    6,
    2,
    2,
    3,
    8,
    31,
    32,
    5,
    3,
    5,
    5,
    1,
    1,
    1,
    1,
    1,
    3,
    5,
    6,
    5,
    4,
    4,
    5,
    1,
    5,
    3,
    1,
    5,
    1,
    3,
    3,
    5,
    3,
    13,
    4,
    1,
    4,
    6,
    2,
    1,
    5,
    6,
    1,
    1,
    2,
    6,
    5,
    2,
    5,
    1,
    5,
    4,
    6,
    6,
    3,
    4,
    1,
    4,
    2,
    4,
    5,
    3,
    2,
    6,
    4,
    1105,
    1106,
    1165,
    1385,
    1385,
    1387,
    1386,
    1385,
    1387,
    1384,
    1385,
    1384,
    1386,
    1163,
    1383,
    1383,
    1384,
    1387,
    1383,
    1385,
    1387,
    1385,
    1385,
    1385,
    1383,
    1387,
    1385,
    1388,
    1383,
    1388,
    1387,
    1386,
    1386,
    1388,
    1386,
    1383,
    1386,
    1384,
    1383,
    1384,
    1387,
    1387,
    1385,
    1384,
    1388,
    1387,
    1387,
    1387,
    1384,
    1386,
    1385,
    1387,
    1385,
    2,
    4,
    15,
    16,
    3,
    6,
    6,
    1,
    3,
    5,
    4,
    5,
    1,
    1,
    1,
    3,
    4,
    4,
    4,
    3,
    3,
    15,
    16,
    2,
    3,
    5,
    4,
    2,
    6,
    6,
    4,
    1,
    5,
    2,
    4,
    2,
    4,
    3,
    3,
    5,
    5,
    6,
    5,
    6,
    3,
    3,
    4,
    2,
    2,
    5,
    4,
    6,
    2,
    2,
    5,
    1,
    4,
    2,
    6,
    5,
    2,
    6,
    3,
    6,
    4,
    4,
    4,
    6,
    4,
    6,
    1,
    2,
    6,
    1,
    3,
    1105,
    1106,
    1164,
    1385,
    1387,
    1388,
    1165,
    1384,
    1383,
    1385,
    1388,
    1385,
    1388,
    1388,
    1386,
    1386,
    1383,
    1386,
    1385,
    1388,
    1386,
    1384,
    1385,
    1387,
    1388,
    1384,
    1384,
    1384,
    1387,
    1383,
    1388,
    1385,
    1386,
    1386,
    1386,
    1383,
    1385,
    1388,
    1386,
    1386,
    1388,
    1386,
    1387,
    1384,
    1387,
    1383,
    1388,
    1384,
    1388,
    1384,
    1384,
    1386,
    1386,
    1,
    5,
    31,
    32,
    1,
    6,
    4,
    15,
    16,
    3,
    5,
    2,
    6,
    4,
    2,
    1,
    6,
    1,
    5,
    6,
    1,
    31,
    32,
    5,
    3,
    5,
    4,
    6,
    2,
    4,
    1,
    6,
    3,
    5,
    4,
    3,
    3,
    5,
    6,
    1,
    5,
    1,
    2,
    6,
    4,
    3,
    5,
    2,
    4,
    6,
    1,
    6,
    2,
    1,
    6,
    6,
    6,
    1,
    5,
    6,
    4,
    5,
    1,
    1,
    4,
    4,
    6,
    1,
    2,
    5,
    2,
    2,
    3,
    6,
    15,
    1104,
    1122,
    1387,
    1387,
    1383,
    1384,
    1384,
    1384,
    1386,
    1385,
    1388,
    1386,
    1384,
    1388,
    1388,
    1388,
    1384,
    1385,
    1386,
    1387,
    1386,
    1386,
    1385,
    1384,
    1386,
    1386,
    1388,
    1388,
    1384,
    1385,
    1387,
    1384,
    1383,
    1383,
    1384,
    1384,
    1385,
    1384,
    1385,
    1388,
    1388,
    1384,
    1383,
    1387,
    1387,
    1388,
    1383,
    1384,
    1384,
    1383,
    1387,
    1385,
    1383,
    2,
    3,
    1,
    5,
    1,
    4,
    6,
    31,
    1152,
    5,
    2,
    2,
    6,
    13,
    2,
    3,
    1,
    3,
    4,
    3,
    5,
    6,
    2,
    4,
    3,
    3,
    1,
    3,
    6,
    1,
    1,
    15,
    16,
    4,
    2,
    5,
    6,
    2,
    5,
    6,
    3,
    2,
    2,
    2,
    6,
    5,
    6,
    6,
    1,
    3,
    6,
    4,
    1,
    2,
    5,
    5,
    5,
    6,
    6,
    1,
    1,
    1,
    5,
    6,
    1,
    4,
    6,
    1,
    4,
    4,
    4,
    4,
    4,
    2,
    31,
    32,
    1090,
    1388,
    1384,
    1387,
    1385,
    1383,
    1384,
    1388,
    1384,
    1384,
    1388,
    1388,
    1385,
    1386,
    1385,
    1386,
    1384,
    1385,
    1384,
    1388,
    1385,
    1383,
    1385,
    1387,
    1387,
    1383,
    1385,
    1385,
    1388,
    1387,
    1383,
    1388,
    1387,
    1387,
    1387,
    1383,
    1388,
    1385,
    1386,
    1386,
    1386,
    1387,
    1385,
    1387,
    1383,
    1388,
    1385,
    1388,
    1383,
    1387,
    1384,
    1383,
    13,
    6,
    2,
    6,
    4,
    1090,
    1091,
    1091,
    1092,
    6,
    6,
    6,
    4,
    6,
    2,
    4,
    5,
    4,
    6,
    6,
    6,
    4,
    5,
    6,
    1,
    2,
    5,
    3,
    2,
    1,
    5,
    31,
    32,
    5,
    2,
    2,
    2,
    2,
    2,
    3,
    5,
    6,
    6,
    3,
    1,
    6,
    6,
    3,
    5,
    6,
    4,
    5,
    3,
    5,
    2,
    3,
    1,
    2,
    4,
    4,
    1,
    2,
    4,
    5,
    2,
    2,
    5,
    1,
    3,
    4,
    2,
    5,
    1,
    6,
    6,
    1105,
    1106,
    1383,
    1385,
    1386,
    1387,
    1386,
    1388,
    1387,
    1384,
    1384,
    1385,
    1383,
    1388,
    1383,
    1388,
    1387,
    1385,
    1384,
    1385,
    1386,
    1383,
    1386,
    1385,
    1387,
    1387,
    1385,
    1386,
    1388,
    1384,
    1387,
    1388,
    1387,
    1383,
    1387,
    1383,
    1388,
    1385,
    1385,
    1383,
    1165,
    1383,
    1388,
    1386,
    1386,
    1383,
    1387,
    1385,
    1384,
    1383,
    1388,
    1388,
    1385,
    2,
    1,
    4,
    1090,
    1091,
    1383,
    1383,
    1165,
    1387,
    1092,
    1090,
    1091,
    1092,
    2,
    2,
    2,
    3,
    6,
    5,
    6,
    6,
    4,
    2,
    4,
    2,
    5,
    15,
    16,
    6,
    5,
    1,
    2,
    3,
    3,
    5,
    5,
    5,
    1,
    5,
    5,
    6,
    3,
    5,
    5,
    3,
    5,
    3,
    6,
    6,
    5,
    4,
    3,
    4,
    4,
    6,
    4,
    2,
    5,
    1,
    4,
    2,
    1,
    2,
    3,
    3,
    4,
    3,
    3,
    3,
    4,
    1,
    1,
    5,
    4,
    1,
    1105,
    1106,
    1386,
    1385,
    1388,
    1385,
    1388,
    1383,
    1387,
    1384,
    1386,
    1383,
    1383,
    1386,
    1386,
    1387,
    1388,
    1165,
    1384,
    1385,
    1387,
    1386,
    1384,
    1386,
    1388,
    1163,
    1388,
    1383,
    1384,
    1387,
    1387,
    1386,
    1388,
    1387,
    1387,
    1385,
    1383,
    1388,
    1384,
    1385,
    1383,
    1386,
    1385,
    1383,
    1387,
    1384,
    1384,
    1387,
    1383,
    1385,
    1163,
    1383,
    1385,
    1104,
    717,
    1090,
    1383,
    1383,
    1383,
    1384,
    1385,
    1386,
    1164,
    1384,
    1383,
    1384,
    1092,
    1152,
    1,
    5,
    6,
    3,
    1,
    6,
    13,
    1,
    3,
    3,
    5,
    31,
    32,
    1,
    6,
    3,
    5,
    5,
    6,
    2,
    2,
    5,
    2,
    2,
    5,
    1,
    2,
    5,
    3,
    4,
    5,
    3,
    5,
    4,
    4,
    1,
    1,
    2,
    5,
    4,
    6,
    4,
    3,
    4,
    2,
    2,
    6,
    1,
    6,
    6,
    5,
    4,
    3,
    4,
    1,
    4,
    4,
    1,
    3,
    6,
    4,
    1122,
    1383,
    1163,
    1385,
    1388,
    1383,
    1386,
    1386,
    1385,
    1385,
    1385,
    1388,
    1384,
    1387,
    1385,
    1385,
    1383,
    1387,
    1386,
    1387,
    1384,
    1388,
    1387,
    1387,
    1386,
    1388,
    1385,
    1386,
    1388,
    1386,
    1387,
    1388,
    1385,
    1386,
    1388,
    1388,
    1384,
    1384,
    1385,
    1386,
    1388,
    1386,
    1387,
    1383,
    1384,
    1386,
    1383,
    1383,
    1386,
    1386,
    1383,
    1383,
    1091,
    1091,
    1107,
    1147,
    1163,
    1386,
    1383,
    1383,
    1388,
    1384,
    1384,
    1387,
    1384,
    1108,
    1,
    5,
    1,
    2,
    4,
    3,
    4,
    1,
    5,
    1,
    4,
    5,
    2,
    4,
    2,
    1,
    1,
    5,
    2,
    1,
    5,
    5,
    1,
    2,
    3,
    3,
    3,
    2,
    5,
    4,
    6,
    1,
    2,
    6,
    4,
    2,
    6,
    2,
    1,
    3,
    5,
    1,
    6,
    5,
    1,
    6,
    5,
    1,
    2,
    6,
    5,
    1,
    6,
    4,
    5,
    4,
    2,
    13,
    6,
    1,
    2,
    6,
    5,
    1122,
    1123,
    1123,
    1384,
    1386,
    1385,
    1165,
    1383,
    1386,
    1384,
    1124,
    1122,
    1123,
    1123,
    1387,
    1387,
    1384,
    1385,
    1387,
    1383,
    1387,
    1385,
    1386,
    1385,
    1383,
    1387,
    1385,
    1384,
    1388,
    1388,
    1385,
    1388,
    1388,
    1384,
    1388,
    1387,
    1384,
    1386,
    1383,
    1386,
    1384,
    1386,
    1386,
    1383,
    1387,
    1164,
    1384,
    1387,
    1387,
    1384,
    1388,
    731,
    732,
    1182,
    1385,
    11,
    1387,
    1123,
    1123,
    1124,
    1121,
    1388,
    1386,
    1163,
    1385,
    1092,
    15,
    16,
    4,
    1,
    1,
    3,
    5,
    5,
    1,
    4,
    6,
    5,
    6,
    5,
    4,
    3,
    4,
    3,
    6,
    2,
    4,
    6,
    3,
    5,
    3,
    5,
    6,
    4,
    5,
    1,
    4,
    3,
    6,
    13,
    3,
    2,
    3,
    5,
    1,
    4,
    3,
    5,
    2,
    1152,
    5,
    6,
    1,
    4,
    5,
    5,
    1,
    1,
    1,
    2,
    2,
    5,
    4,
    5,
    5,
    4,
    2,
    1,
    3,
    1152,
    2,
    1122,
    1387,
    1388,
    1388,
    1387,
    1123,
    1124,
    1152,
    4,
    4,
    3,
    1121,
    1384,
    1387,
    1386,
    1383,
    1385,
    1385,
    1384,
    1388,
    1387,
    1387,
    1386,
    1386,
    1384,
    1388,
    1384,
    1386,
    1388,
    1385,
    1385,
    1386,
    1383,
    1386,
    1384,
    1385,
    1387,
    1385,
    1388,
    1387,
    1386,
    1388,
    1387,
    1383,
    1388,
    1387,
    1387,
    1385,
    747,
    748,
    1383,
    1383,
    1383,
    1125,
    717,
    1139,
    1139,
    2,
    1122,
    1384,
    1383,
    1385,
    1383,
    1092,
    32,
    1,
    6,
    2,
    3,
    5,
    6,
    1,
    2,
    1,
    4,
    5,
    3,
    1,
    3,
    2,
    1,
    3,
    1,
    5,
    1,
    3,
    4,
    1,
    5,
    5,
    2,
    5,
    2,
    3,
    6,
    4,
    6,
    6,
    5,
    2,
    1,
    3,
    1,
    5,
    3,
    5,
    5,
    1,
    6,
    1,
    3,
    3,
    5,
    4,
    1,
    4,
    6,
    4,
    4,
    6,
    3,
    3,
    6,
    3,
    6,
    3,
    2,
    1,
    2,
    1122,
    1123,
    1123,
    1124,
    1074,
    6,
    15,
    16,
    5,
    3,
    1104,
    1122,
    1383,
    1387,
    1163,
    1386,
    1387,
    1383,
    1383,
    1388,
    1385,
    1387,
    1163,
    1384,
    1383,
    1383,
    1385,
    1387,
    1384,
    1383,
    1387,
    1385,
    1384,
    1386,
    1383,
    1387,
    1385,
    1388,
    1383,
    1388,
    1384,
    1388,
    1383,
    1384,
    1385,
    1386,
    1384,
    1182,
    1387,
    1383,
    1123,
    1124,
    4,
    1154,
    1155,
    1155,
    1156,
    1152,
    1121,
    1182,
    1384,
    1385,
    1108,
    6,
    3,
    6,
    4,
    1,
    5,
    6,
    3,
    3,
    3,
    5,
    5,
    5,
    5,
    6,
    4,
    2,
    1,
    4,
    5,
    6,
    6,
    3,
    4,
    2,
    3,
    1,
    6,
    5,
    3,
    3,
    3,
    2,
    3,
    2,
    2,
    5,
    3,
    2,
    5,
    2,
    4,
    3,
    5,
    2,
    1,
    3,
    4,
    5,
    4,
    3,
    6,
    1,
    4,
    4,
    2,
    3,
    3,
    6,
    6,
    4,
    6,
    1,
    2,
    1,
    2,
    1,
    2,
    4,
    4,
    6,
    31,
    32,
    1,
    3,
    6,
    2,
    1122,
    1164,
    1388,
    1387,
    1383,
    1388,
    1386,
    1385,
    1384,
    1384,
    1387,
    1388,
    1388,
    1386,
    1387,
    1383,
    1386,
    1387,
    1385,
    1388,
    1387,
    1385,
    1385,
    1387,
    1385,
    1383,
    1385,
    1384,
    1383,
    1385,
    1387,
    1384,
    1383,
    1388,
    1385,
    1163,
    1387,
    1125,
    3,
    1139,
    1153,
    367,
    703,
    1320,
    1320,
    1157,
    6,
    1122,
    733,
    1383,
    1388,
    1092,
    1075,
    3,
    6,
    4,
    2,
    5,
    4,
    4,
    2,
    2,
    6,
    3,
    5,
    4,
    1,
    2,
    5,
    5,
    5,
    6,
    5,
    5,
    4,
    6,
    5,
    4,
    4,
    1,
    2,
    3,
    6,
    4,
    6,
    4,
    1,
    3,
    2,
    2,
    1,
    2,
    2,
    1,
    4,
    5,
    13,
    4,
    4,
    3,
    6,
    6,
    4,
    2,
    6,
    6,
    2,
    4,
    1,
    2,
    6,
    6,
    5,
    5,
    6,
    5,
    1,
    4,
    4,
    4,
    2,
    2,
    1,
    1,
    5,
    6,
    5,
    2,
    1105,
    1106,
    1385,
    1386,
    1384,
    1384,
    1385,
    1123,
    1388,
    1383,
    1388,
    1384,
    1385,
    1383,
    1383,
    1383,
    1385,
    1385,
    1383,
    1384,
    1386,
    1385,
    1387,
    1384,
    1387,
    1388,
    1383,
    1385,
    1386,
    1388,
    1384,
    1384,
    1182,
    1388,
    1387,
    1123,
    1124,
    1,
    1154,
    1155,
    703,
    703,
    719,
    703,
    1303,
    1304,
    1157,
    3,
    1121,
    10,
    1383,
    1384,
    1091,
    1092,
    2,
    6,
    1,
    5,
    3,
    3,
    3,
    3,
    6,
    5,
    2,
    6,
    6,
    1,
    4,
    3,
    6,
    6,
    2,
    3,
    4,
    4,
    3,
    1,
    5,
    5,
    5,
    2,
    6,
    4,
    1,
    5,
    5,
    3,
    1,
    6,
    3,
    6,
    2,
    1,
    4,
    4,
    4,
    4,
    5,
    4,
    4,
    1,
    6,
    5,
    4,
    5,
    4,
    1,
    1,
    2,
    6,
    4,
    1,
    5,
    13,
    6,
    2,
    6,
    5,
    4,
    1,
    4,
    3,
    1,
    5,
    2,
    5,
    5,
    3,
    1122,
    1387,
    1384,
    1388,
    1163,
    1124,
    6,
    1122,
    1386,
    1388,
    1385,
    1388,
    1388,
    1384,
    1383,
    1383,
    1383,
    1383,
    1385,
    1384,
    1386,
    1383,
    1385,
    1388,
    1388,
    1386,
    1385,
    1387,
    1383,
    1388,
    1384,
    1385,
    1150,
    1151,
    1139,
    1139,
    1153,
    703,
    368,
    719,
    719,
    719,
    719,
    703,
    703,
    703,
    1156,
    1105,
    1106,
    1384,
    1388,
    1385,
    1387,
    1092,
    1152,
    4,
    5,
    2,
    6,
    2,
    6,
    4,
    2,
    3,
    2,
    2,
    3,
    5,
    6,
    2,
    5,
    2,
    3,
    6,
    4,
    5,
    3,
    2,
    5,
    4,
    6,
    2,
    2,
    8,
    1,
    1,
    3,
    1,
    13,
    3,
    6,
    5,
    4,
    2,
    3,
    2,
    3,
    2,
    2,
    6,
    4,
    1,
    5,
    6,
    2,
    5,
    4,
    6,
    2,
    2,
    3,
    6,
    6,
    6,
    1,
    4,
    3,
    2,
    4,
    2,
    2,
    4,
    4,
    4,
    6,
    5,
    4,
    4,
    3,
    1122,
    1123,
    1123,
    1124,
    1152,
    6,
    2,
    1121,
    1388,
    1384,
    1383,
    1388,
    1384,
    1384,
    1388,
    1386,
    1383,
    1383,
    1388,
    1385,
    1387,
    1386,
    1386,
    1388,
    1384,
    1387,
    1388,
    1388,
    1388,
    1384,
    1385,
    1166,
    1167,
    1155,
    1155,
    703,
    719,
    384,
    703,
    703,
    367,
    368,
    703,
    719,
    719,
    1172,
    1173,
    1106,
    1165,
    1182,
    1387,
    1384,
    1387,
    1091,
    1092,
    6,
    2,
    5,
    4,
    1,
    3,
    4,
    5,
    1,
    3,
    3,
    1,
    5,
    4,
    6,
    5,
    2,
    3,
    5,
    1,
    2,
    2,
    5,
    6,
    6,
    3,
    1,
    5,
    3,
    5,
    6,
    3,
    2,
    6,
    3,
    4,
    6,
    4,
    1,
    2,
    1,
    6,
    5,
    3,
    1,
    4,
    6,
    3,
    4,
    5,
    4,
    6,
    1,
    1,
    4,
    6,
    2,
    4,
    6,
    5,
    1,
    4,
    6,
    2,
    4,
    4,
    4,
    3,
    5,
    5,
    3,
    6,
    6,
    1,
    6,
    4,
    2,
    3,
    1,
    1,
    2,
    1122,
    1123,
    1123,
    1386,
    1165,
    1383,
    1388,
    1386,
    1388,
    1383,
    1385,
    1385,
    1385,
    1383,
    1385,
    1386,
    1384,
    1387,
    1388,
    1387,
    1384,
    1182,
    1385,
    10,
    1388,
    703,
    1320,
    719,
    399,
    703,
    719,
    719,
    703,
    384,
    703,
    703,
    703,
    1172,
    1173,
    1106,
    731,
    732,
    733,
    1388,
    1388,
    1387,
    1384,
    1092,
    4,
    4,
    4,
    3,
    3,
    4,
    1,
    3,
    5,
    1,
    4,
    5,
    1,
    4,
    1,
    2,
    2,
    4,
    1,
    5,
    2,
    3,
    1,
    6,
    5,
    1,
    2,
    2,
    1,
    3,
    3,
    4,
    5,
    2,
    3,
    3,
    4,
    5,
    4,
    6,
    4,
    2,
    2,
    6,
    4,
    5,
    3,
    1,
    5,
    5,
    1,
    4,
    1,
    1152,
    3,
    3,
    3,
    6,
    2,
    2,
    5,
    4,
    5,
    2,
    4,
    2,
    5,
    5,
    1,
    5,
    3,
    1,
    5,
    3,
    3,
    1,
    4,
    13,
    2,
    6,
    3,
    4,
    1104,
    1122,
    1385,
    1385,
    1385,
    1384,
    1385,
    1388,
    1384,
    1388,
    1384,
    1385,
    1386,
    1386,
    1388,
    1388,
    1386,
    1383,
    1387,
    1383,
    731,
    732,
    1387,
    719,
    367,
    703,
    703,
    719,
    368,
    703,
    719,
    703,
    719,
    703,
    719,
    1188,
    1090,
    1182,
    747,
    748,
    1182,
    1387,
    1385,
    1165,
    1383,
    1108,
    1109,
    2,
    1,
    5,
    6,
    3,
    6,
    1,
    6,
    6,
    2,
    5,
    5,
    6,
    5,
    4,
    1,
    3,
    3,
    5,
    6,
    1,
    1,
    3,
    4,
    6,
    1,
    6,
    3,
    5,
    2,
    4,
    1,
    1,
    1,
    4,
    6,
    4,
    4,
    5,
    4,
    5,
    4,
    4,
    4,
    5,
    6,
    4,
    4,
    6,
    6,
    5,
    5,
    4,
    1,
    5,
    5,
    5,
    2,
    1,
    1,
    1,
    2,
    4,
    4,
    6,
    2,
    1,
    1,
    2,
    4,
    1,
    6,
    3,
    15,
    16,
    5,
    6,
    3,
    1,
    3,
    4,
    2,
    5,
    1122,
    1123,
    1123,
    1384,
    1388,
    1164,
    1387,
    1387,
    1384,
    1383,
    1388,
    1383,
    1387,
    1385,
    1182,
    1385,
    1384,
    1147,
    747,
    748,
    1182,
    719,
    383,
    703,
    719,
    703,
    384,
    703,
    703,
    719,
    719,
    719,
    1189,
    1090,
    731,
    732,
    11,
    1164,
    733,
    1387,
    1384,
    1385,
    1123,
    1124,
    3,
    6,
    4,
    6,
    6,
    4,
    1,
    1,
    1,
    6,
    4,
    4,
    6,
    4,
    3,
    3,
    6,
    5,
    1,
    5,
    2,
    6,
    2,
    5,
    1,
    6,
    3,
    1,
    6,
    1,
    6,
    3,
    4,
    6,
    4,
    1,
    4,
    2,
    4,
    4,
    4,
    4,
    4,
    3,
    5,
    5,
    4,
    4,
    3,
    15,
    16,
    3,
    2,
    6,
    2,
    5,
    6,
    3,
    1,
    5,
    5,
    2,
    1,
    6,
    5,
    1,
    5,
    4,
    3,
    1,
    2,
    5,
    4,
    1,
    31,
    32,
    5,
    1,
    4,
    3,
    5,
    2,
    6,
    2,
    15,
    16,
    1,
    1122,
    1123,
    1123,
    1123,
    1386,
    1165,
    1385,
    1384,
    1388,
    1385,
    1385,
    1388,
    1385,
    731,
    732,
    1387,
    1123,
    1123,
    703,
    399,
    719,
    703,
    719,
    400,
    719,
    719,
    1319,
    1320,
    1189,
    6,
    1106,
    747,
    748,
    1147,
    1384,
    1385,
    1384,
    1123,
    1124,
    6,
    6,
    6,
    2,
    6,
    3,
    4,
    6,
    6,
    4,
    5,
    3,
    4,
    5,
    5,
    1,
    3,
    6,
    1,
    6,
    4,
    1,
    2,
    1,
    5,
    1,
    6,
    4,
    2,
    1,
    5,
    4,
    4,
    2,
    5,
    3,
    3,
    1,
    3,
    2,
    4,
    4,
    4,
    1,
    15,
    16,
    6,
    3,
    4,
    5,
    2,
    31,
    32,
    3,
    5,
    6,
    1,
    1,
    2,
    6,
    6,
    6,
    1,
    6,
    3,
    5,
    2,
    3,
    1,
    6,
    1,
    2,
    4,
    6,
    1,
    1,
    4,
    1,
    6,
    2,
    2,
    3,
    2,
    6,
    1,
    4,
    31,
    32,
    6,
    6,
    1152,
    4,
    4,
    1122,
    1385,
    1384,
    1387,
    1388,
    1383,
    1385,
    1385,
    1182,
    747,
    748,
    1124,
    47,
    1,
    719,
    1319,
    1320,
    367,
    703,
    1320,
    703,
    367,
    368,
    1172,
    1173,
    1090,
    731,
    732,
    1150,
    1151,
    1182,
    1383,
    1124,
    2,
    4,
    6,
    6,
    2,
    4,
    4,
    1,
    6,
    2,
    1,
    1,
    6,
    3,
    4,
    5,
    4,
    1,
    2,
    4,
    4,
    2,
    3,
    2,
    3,
    4,
    6,
    1,
    4,
    3,
    6,
    4,
    5,
    4,
    4,
    1,
    4,
    4,
    1,
    1,
    6,
    4,
    3,
    5,
    3,
    5,
    31,
    32,
    5,
    4,
    5,
    4,
    6,
    6,
    3,
    2,
    2,
    2,
    1,
    2,
    3,
    6,
    4,
    1,
    4,
    3,
    4,
    2,
    1,
    2,
    4,
    5,
    5,
    5,
    4,
    6,
    2,
    4,
    5,
    6,
    5,
    1,
    1,
    3,
    3,
    2,
    1,
    3,
    6,
    4,
    5,
    1,
    5,
    2,
    5,
    6,
    1122,
    1123,
    1123,
    1386,
    1388,
    1388,
    1388,
    1387,
    1182,
    1125,
    1152,
    1,
    1,
    367,
    368,
    703,
    703,
    719,
    703,
    719,
    703,
    703,
    1172,
    1173,
    1106,
    747,
    748,
    1166,
    1167,
    1384,
    1124,
    1152,
    2,
    5,
    5,
    5,
    2,
    4,
    5,
    2,
    6,
    4,
    6,
    6,
    2,
    6,
    6,
    3,
    4,
    4,
    2,
    5,
    5,
    3,
    5,
    1,
    4,
    2,
    1,
    4,
    1,
    6,
    6,
    2,
    3,
    4,
    3,
    6,
    5,
    6,
    2,
    2,
    5,
    5,
    6,
    2,
    3,
    4,
    4,
    6,
    4,
    3,
    5,
    3,
    6,
    4,
    6,
    3,
    3,
    4,
    5,
    6,
    1,
    6,
    5,
    5,
    2,
    5,
    3,
    2,
    3,
    6,
    4,
    3,
    3,
    1,
    4,
    3,
    2,
    1,
    6,
    3,
    3,
    5,
    3,
    4,
    3,
    1,
    15,
    16,
    6,
    13,
    4,
    3,
    6,
    4,
    3,
    6,
    3,
    2,
    1,
    1122,
    1387,
    1384,
    1165,
    1384,
    1124,
    2,
    3,
    4,
    2,
    703,
    367,
    368,
    719,
    400,
    703,
    719,
    719,
    719,
    1188,
    1105,
    1106,
    733,
    731,
    732,
    733,
    1108,
    1109,
    6,
    1,
    3,
    4,
    2,
    1,
    1,
    5,
    4,
    1,
    4,
    3,
    2,
    3,
    5,
    6,
    3,
    6,
    2,
    1,
    5,
    4,
    6,
    4,
    1,
    2,
    1,
    4,
    6,
    1,
    6,
    3,
    3,
    1,
    6,
    5,
    1,
    1,
    3,
    1,
    3,
    1,
    4,
    2,
    4,
    5,
    1,
    5,
    6,
    1,
    1,
    1,
    5,
    4,
    6,
    6,
    1,
    5,
    5,
    6,
    1,
    1,
    5,
    5,
    3,
    6,
    1,
    3,
    4,
    5,
    3,
    4,
    4,
    1,
    5,
    2,
    3,
    6,
    5,
    6,
    5,
    5,
    5,
    1,
    6,
    2,
    3,
    31,
    32,
    6,
    5,
    3,
    4,
    4,
    4,
    4,
    2,
    4,
    5,
    1,
    1104,
    1122,
    1123,
    1123,
    1124,
    6,
    4,
    2,
    1,
    2,
    719,
    383,
    703,
    719,
    719,
    719,
    1189,
    1138,
    1138,
    4,
    1090,
    1182,
    1387,
    747,
    748,
    1123,
    1124,
    4,
    3,
    2,
    13,
    4,
    1,
    1,
    6,
    4,
    1,
    3,
    4,
    6,
    6,
    1,
    3,
    2,
    5,
    4,
    6,
    2,
    1,
    3,
    1,
    1,
    2,
    4,
    5,
    5,
    3,
    5,
    2,
    4,
    4,
    2,
    2,
    6,
    6,
    2,
    4,
    3,
    3,
    6,
    1,
    5,
    1,
    6,
    5,
    5,
    3,
    6,
    1,
    4,
    1,
    2,
    1,
    1,
    2,
    4,
    1,
    1,
    5,
    4,
    3,
    5,
    3,
    4,
    1,
    1,
    4,
    6,
    6,
    3,
    4,
    4,
    6,
    1,
    5,
    1,
    2,
    4,
    2,
    3,
    4,
    6,
    3,
    2,
    6,
    6,
    1,
    4,
    1,
    2,
    5,
    2,
    1,
    5,
    4,
    4,
    2,
    2,
    5,
    5,
    1,
    2,
    2,
    2,
    6,
    6,
    5,
    5,
    367,
    399,
    719,
    368,
    1304,
    1188,
    5,
    6,
    6,
    1105,
    1106,
    1150,
    1151,
    733,
    1124,
    5,
    4,
    4,
    4,
    1,
    4,
    1,
    2,
    5,
    2,
    6,
    3,
    2,
    5,
    4,
    4,
    5,
    6,
    6,
    1,
    5,
    4,
    15,
    16,
    5,
    2,
    1,
    6,
    5,
    1,
    2,
    2,
    2,
    2,
    6,
    3,
    5,
    2,
    2,
    3,
    5,
    5,
    6,
    6,
    3,
    2,
    6,
    5,
    8,
    6,
    2,
    3,
    4,
    4,
    4,
    4,
    3,
    6,
    3,
    6,
    15,
    16,
    1,
    4,
    1,
    2,
    5,
    5,
    6,
    2,
    5,
    6,
    1,
    1,
    1,
    4,
    3,
    2,
    1,
    3,
    5,
    2,
    4,
    3,
    1,
    6,
    3,
    3,
    1,
    4,
    1,
    6,
    6,
    6,
    1,
    3,
    5,
    4,
    2,
    2,
    3,
    4,
    5,
    3,
    5,
    3,
    4,
    3,
    4,
    3,
    6,
    1,
    1,
    383,
    703,
    383,
    703,
    1189,
    4,
    1,
    2,
    4,
    1090,
    1182,
    1166,
    1167,
    1108,
    1109,
    2,
    1,
    4,
    4,
    3,
    1,
    1,
    6,
    1,
    1,
    4,
    5,
    2,
    4,
    6,
    1,
    3,
    1,
    2,
    3,
    5,
    3,
    31,
    32,
    3,
    2,
    5,
    3,
    3,
    1,
    5,
    4,
    5,
    1,
    4,
    5,
    5,
    4,
    4,
    2,
    6,
    3,
    3,
    5,
    2,
    5,
    5,
    4,
    6,
    5,
    3,
    6,
    3,
    1,
    4,
    1,
    1,
    3,
    3,
    3,
    31,
    32,
    4,
    1,
    5,
    3,
    3,
    4,
    1,
    5,
    5,
    5,
    2,
    6,
    1,
    5,
    2,
    1,
    1,
    3,
    5,
    1,
    4,
    4,
    1,
    4,
    5,
    4,
    5,
    3,
    4,
    2,
    2,
    5,
    1,
    2,
    5,
    5,
    1,
    6,
    5,
    6,
    3,
    6,
    5,
    6,
    1,
    4,
    6,
    5,
    5,
    3,
    2,
    399,
    719,
    399,
    719,
    1173,
    3,
    4,
    4,
    1,
    1122,
    1386,
    1383,
    1386,
    1124,
    2,
    2,
    2,
    6,
    1,
    3,
    1,
    3,
    6,
    4,
    3,
    1,
    5,
    5,
    3,
    4,
    6,
    1,
    1,
    6,
    3,
    6,
    5,
    4,
    1,
    1,
    5,
    4,
    4,
    3,
    5,
    4,
    6,
    6,
    5,
    5,
    3,
    2,
    2,
    1,
    2,
    5,
    1,
    1,
    3,
    1,
    6,
    1,
    5,
    6,
    4,
    5,
    5,
    3,
    4,
    2,
    2,
    2,
    6,
    2,
    6,
    2,
    3,
    6,
    5,
    5,
    2,
    6,
    1,
    2,
    3,
    4,
    4,
    3,
    4,
    6,
    6,
    6,
    6,
    2,
    15,
    16,
    3,
    5,
    5,
    3,
    2,
    6,
    1,
    6,
    5,
    4,
    6,
    3,
    5,
    3,
    3,
    2,
    5,
    6,
    15,
    16,
    1,
    6,
    4,
    5,
    6,
    1,
    3,
    6,
    1,
    3,
    4,
    2,
    1303,
    1304,
    1179,
    1176,
    1157,
    8,
    6,
    4,
    1,
    1152,
    1122,
    1123,
    1124,
    1,
    2,
    4,
    5,
    5,
    6,
    1,
    6,
    2,
    3,
    2,
    6,
    4,
    2,
    3,
    5,
    2,
    3,
    1,
    4,
    6,
    1,
    3,
    4,
    1,
    2,
    5,
    6,
    3,
    4,
    6,
    6,
    6,
    1,
    3,
    5,
    6,
    1,
    4,
    5,
    1,
    1,
    2,
    2,
    3,
    1,
    5,
    6,
    6,
    4,
    6,
    3,
    6,
    6,
    2,
    2,
    5,
    2,
    4,
    2,
    3,
    3,
    3,
    1,
    4,
    6,
    6,
    1,
    5,
    4,
    3,
    6,
    2,
    3,
    3,
    4,
    6,
    5,
    5,
    3,
    3,
    31,
    32,
    6,
    5,
    3,
    5,
    6,
    1,
    1,
    4,
    4,
    4,
    1,
    3,
    3,
    6,
    3,
    3,
    3,
    6,
    31,
    4,
    4,
    5,
    4,
    2,
    6,
    3,
    1,
    2,
    6,
    4,
    2,
    1,
    703,
    1320,
    1189,
    1185,
    1176,
    1157,
    4,
    1,
    5,
    3,
    5,
    1,
    3,
    6,
    1152,
    3,
    2,
    6,
    4,
    6,
    4,
    5,
    1,
    6,
    3,
    5,
    2,
    4,
    3,
    1,
    1,
    6,
    6,
    4,
    6,
    2,
    4,
    1,
    3,
    3,
    5,
    1,
    2,
    5,
    6,
    1,
    5,
    6,
    2,
    2,
    6,
    4,
    2,
    3,
    1,
    6,
    4,
    6,
    4,
    1,
    2,
    1,
    3,
    5,
    6,
    4,
    5,
    4,
    4,
    5,
    4,
    4,
    6,
    15,
    16,
    3,
    2,
    6,
    5,
    5,
    3,
    3,
    6,
    3,
    6,
    5,
    4,
    2,
    5,
    4,
    4,
    6,
    5,
    5,
    5,
    4,
    1,
    1,
    2,
    6,
    4,
    4,
    2,
    4,
    1,
    2,
    1,
    4,
    6,
    2,
    3,
    6,
    4,
    2,
    1,
    4,
    3,
    1152,
    5,
    3,
    6,
    3,
    4,
    5,
    4,
    15,
    16,
    1,
    719,
    1172,
    1173,
    4,
    1185,
    1187,
    1155,
    1156,
    3,
    4,
    13,
    6,
    4,
    6,
    3,
    5,
    5,
    3,
    1,
    6,
    5,
    4,
    2,
    4,
    2,
    3,
    2,
    1152,
    6,
    4,
    5,
    6,
    6,
    3,
    1,
    1,
    3,
    3,
    5,
    6,
    4,
    2,
    6,
    6,
    2,
    2,
    2,
    2,
    5,
    4,
    5,
    1,
    1,
    15,
    16,
    2,
    4,
    3,
    4,
    4,
    4,
    3,
    6,
    5,
    4,
    2,
    4,
    2,
    6,
    13,
    6,
    3,
    5,
    31,
    32,
    2,
    6,
    2,
    6,
    6,
    3,
    4,
    1,
    1,
    5,
    13,
    2,
    15,
    16,
    4,
    2,
    6,
    5,
    6,
    6,
    2,
    6,
    6,
    2,
    6,
    1,
    1,
    1,
    2,
    15,
    4,
    4,
    1,
    6,
    5,
    6,
    5,
    4,
    6,
    3,
    3,
    1,
    6,
    6,
    1,
    6,
    4,
    2,
    5,
    4,
    4,
    32,
    4,
    1187,
    1188,
    1,
    3,
    2,
    1138,
    1185,
    1176,
    1157,
    1139,
    1139,
    3,
    1,
    5,
    5,
    3,
    3,
    3,
    4,
    2,
    6,
    2,
    4,
    3,
    4,
    1,
    4,
    4,
    3,
    1,
    3,
    4,
    4,
    6,
    1,
    6,
    2,
    3,
    3,
    3,
    1,
    6,
    5,
    6,
    6,
    4,
    13,
    5,
    3,
    3,
    4,
    5,
    5,
    4,
    32,
    3,
    5,
    1,
    6,
    4,
    1,
    1,
    4,
    1,
    3,
    6,
    3,
    1,
    2,
    3,
    6,
    4,
    4,
    6,
    4,
    4,
    3,
    5,
    6,
    4,
    4,
    5,
    4,
    6,
    6,
    5,
    2,
    31,
    32,
    6,
    6,
    3,
    4,
    5,
    2,
    1,
    4,
    4,
    4,
    2,
    4,
    4,
    1,
    2,
    31,
    32,
    4,
    1,
    4,
    4,
    2,
    4,
    13,
    2,
    4,
    1,
    1,
    3,
    4,
    4,
    5,
    6,
    2,
    4,
    6,
    1,
    4,
    2,
    3,
    4,
    1,
    1,
    1,
    5,
    1152,
    1186,
    1176,
    1155,
    1155,
    1156,
    6,
    1088,
    6,
    1,
    2,
    5,
    3,
    6,
    4,
    2,
    4,
    13,
    2,
    5,
    3,
    1,
    1,
    6,
    15,
    16,
    4,
    6,
    3,
    4,
    1,
    4,
    3,
    5,
    6,
    6,
    3,
    4,
    5,
    3,
    6,
    5,
    2,
    6,
    1,
    3,
    3,
    4,
    4,
    4,
    1152,
    5,
    2,
    6,
    1,
    4,
    2,
    3,
    4,
    3,
    6,
    1,
    6,
    4,
    6,
    5,
    3,
    4,
    3,
    2,
    1,
    6,
    5,
    6,
    5,
    4,
    4,
    5,
    4,
    6,
    1,
    1,
    4,
    1,
    4,
    4,
    5,
    5,
    6,
    5,
    4,
    4,
    6,
    4,
    1,
    4,
    3,
    4,
    3,
    1,
    6,
    1,
    4,
    1,
    6,
    6,
    6,
    1,
    2,
    4,
    2,
    5,
    1,
    1,
    4,
    3,
    1,
    6,
    3,
    2,
    4,
    5,
    2,
    6,
    2,
    5,
    1,
    2,
    3,
    2,
    1138,
    1138,
    1138,
    1185,
    1157,
    1139,
    47,
    4,
    5,
    5,
    4,
    2,
    5,
    4,
    2,
    2,
    2,
    5,
    1,
    5,
    5,
    3,
    31,
    32,
    1,
    3,
    1,
    6,
    1,
    6,
    2,
    4,
    6,
    3,
    6,
    2,
    6,
    5,
    6,
    6,
    4,
    3,
    3,
    2,
    3,
    4,
    5,
    3,
    47,
    1152,
    5,
    928,
    3,
    15,
    16,
    4,
    4,
    4,
    6,
    1,
    4,
    3,
    1,
    6,
    5,
    2,
    1,
    2,
    1,
    1,
    3,
    6,
    6,
    5,
    3,
    4,
    2,
    6,
    6,
    5,
    1,
    4,
    1,
    3,
    6,
    4,
    4,
    4,
    4,
    2,
    4,
    1,
    4,
    3,
    4,
    4,
    1,
    4,
    1,
    4,
    4,
    3,
    2,
    5,
    4,
    5,
    2,
    6,
    1,
    2,
    3,
    2,
    2,
    1,
    4,
    5,
    1152,
    2,
    1,
    5,
    15,
    16,
    1,
    5,
    5,
    3,
    3,
    6,
    3,
    1,
    1,
    6,
    1186,
    1155,
    1156,
    5,
    3,
    6,
    1,
    5,
    6,
    1,
    1,
    3,
    1,
    3,
    5,
    4,
    3,
    6,
    6,
    1,
    3,
    4,
    2,
    4,
    2,
    6,
    3,
    5,
    1,
    1,
    4,
    3,
    4,
    4,
    2,
    4,
    3,
    3,
    5,
    5,
    4,
    5,
    5,
    4,
    717,
    4,
    8,
    1,
    3,
    31,
    32,
    5,
    1,
    1,
    6,
    3,
    3,
    2,
    2,
    1,
    3,
    4,
    5,
    6,
    2,
    2,
    5,
    2,
    3,
    15,
    16,
    4,
    4,
    3,
    1,
    6,
    1,
    4,
    4,
    1,
    1,
    4,
    5,
    1,
    5,
    2,
    3,
    6,
    1,
    6,
    4,
    4,
    5,
    4,
    4,
    2,
    6,
    2,
    6,
    3,
    4,
    4,
    1,
    4,
    6,
    4,
    4,
    13,
    5,
    5,
    6,
    2,
    1,
    5,
    3,
    4,
    31,
    32,
    1,
    5,
    4,
    15,
    16,
    6,
    2,
    6,
    5,
    3,
    4,
    1185,
    1176,
    1173,
    4,
    15,
    16,
    6,
    4,
    5,
    5,
    2,
    6,
    2,
    2,
    1,
    2,
    2,
    3,
    3,
    1,
    15,
    16,
    4,
    4,
    6,
    2,
    3,
    6,
    1,
    1,
    6,
    2,
    4,
    1,
    2,
    1,
    5,
    1,
    2,
    2,
    1,
    4,
    5,
    8,
    4,
    928,
    3,
    6,
    1,
    4,
    3,
    4,
    1,
    2,
    5,
    6,
    4,
    6,
    2,
    5,
    4,
    3,
    2,
    3,
    3,
    5,
    2,
    2,
    31,
    32,
    3,
    6,
    4,
    5,
    2,
    6,
    1,
    6,
    6,
    4,
    6,
    5,
    3,
    4,
    1,
    3,
    3,
    6,
    5,
    6,
    4,
    4,
    3,
    2,
    6,
    3,
    6,
    1,
    1,
    6,
    5,
    2,
    2,
    5,
    4,
    4,
    4,
    4,
    4,
    1,
    6,
    6,
    3,
    5,
    4,
    6,
    6,
    13,
    2,
    2,
    31,
    32,
    4,
    3,
    5,
    5,
    3,
    3,
    1169,
    1170,
    1173,
    2,
    31,
    32,
    1,
    6,
    1,
    4,
    1,
    2,
    1,
    4,
    5,
    3,
    4,
    5,
    2,
    4,
    31,
    32,
    3,
    2,
    5,
    4,
    2,
    2,
    2,
    1,
    15,
    16,
    2,
    6,
    4,
    1,
    6,
    3,
    3,
    4,
    6,
    3,
    1152,
    3,
    3,
    4,
    4,
    1152,
    6,
    4,
    4,
    2,
    5,
    4,
    1,
    4,
    4,
    2,
    6,
    2,
    6,
    4,
    4,
    4,
    6,
    4,
    5,
    3,
    4,
    3,
    2,
    5,
    1,
    5,
    4,
    5,
    4,
    6,
    1,
    6,
    6,
    5,
    4,
    1,
    2,
    3,
    4,
    1,
    5,
    13,
    1,
    6,
    1,
    2,
    4,
    4,
    1,
    3,
    4,
    2,
    15,
    16,
    2,
    2,
    4,
    5,
    4,
    1,
    1,
    2,
    4,
    1,
    2,
    2,
    5,
    4,
    6,
    2,
    2,
    1,
    4,
    2,
    2,
    4,
    4,
    5,
    3,
    4,
    1169,
    1170,
    1173,
    2,
    4,
    1,
    4,
    5,
    8,
    2,
    5,
    3,
    3,
    2,
    2,
    4,
    5,
    3,
    5,
    2,
    1,
    3,
    3,
    6,
    4,
    6,
    3,
    1,
    1,
    5,
    31,
    32,
    2,
    4,
    2,
    6,
    2,
    4,
    6,
    4,
    16,
    4,
    4,
    4,
    5,
    1,
    6,
    4,
    3,
    4,
    3,
    6,
    3,
    1,
    2,
    3,
    4,
    5,
    1,
    5,
    2,
    5,
    4,
    3,
    6,
    4,
    5,
    2,
    4,
    2,
    5,
    4,
    1,
    4,
    4,
    4,
    2,
    5,
    1,
    13,
    2,
    4,
    6,
    6,
    1,
    3,
    1,
    5,
    6,
    6,
    2,
    5,
    4,
    15,
    16,
    4,
    1,
    4,
    4,
    5,
    31,
    32,
    6,
    2,
    1,
    5,
    4,
    4,
    4,
    5,
    4,
    4,
    1,
    4,
    2,
    2,
    6,
    4,
    6,
    2,
    6,
    1,
    1,
    5,
    4,
    2,
    5,
    6,
    1152,
    1186,
    1157,
    3,
    2,
    5,
    5,
    4,
    6,
    3,
    4,
    3,
    6,
    5,
    4,
    4,
    4,
    3,
    2,
    4,
    1,
    1,
    2,
    4,
    4,
    13,
    6,
    6,
    5,
    1,
    5,
    5,
    4,
    3,
    5,
    1,
    3,
    1,
    6,
    31,
    32,
    3,
    4,
    4,
    3,
    2,
    4,
    4,
    6,
    5,
    6,
    4,
    5,
    5,
    6,
    6,
    4,
    3,
    1,
    1,
    1,
    5,
    2,
    4,
    2,
    6,
    4,
    5,
    5,
    1,
    5,
    5,
    6,
    4,
    5,
    1,
    3,
    4,
    5,
    6,
    4,
    5,
    1,
    3,
    2,
    5,
    1,
    3,
    6,
    4,
    4,
    1,
    2,
    31,
    32,
    4,
    3,
    5,
    3,
    1,
    1,
    1,
    6,
    2,
    4,
    2,
    1,
    4,
    5,
    6,
    2,
    6,
    4,
    2,
    6,
    3,
    5,
    1,
    3,
    3,
    6,
    5,
    6,
    6,
    6,
    2,
    13,
    6,
    6,
    5,
    1185,
    1156,
    2,
    6,
    2,
    1,
    5,
    1,
    1,
    1,
    5,
    6,
    1,
    6,
    5,
    13,
    2,
    5,
    2,
    5,
    6,
    2,
    5,
    4,
    1,
    2,
    6,
    1,
    1,
    3,
    3,
    5,
    1,
    5,
    5,
    5,
    5,
    4,
    1,
    1,
    5,
    5,
    4,
    4,
    2,
    4,
    4,
    5,
    1,
    5,
    2,
    5,
    6,
    1,
    6,
    3,
    5,
    3,
    2,
    5,
    5,
    2,
    4,
    4,
    4,
    5,
    5,
    6,
    6,
    5,
    4,
    1,
    3,
    5,
    2,
    4,
    6,
    4,
    6,
    4,
    3,
    4,
    4,
    2,
    2,
    5,
    1,
    3,
    5,
    4,
    4,
    4,
    4,
    6,
    4,
    5,
    3,
    6,
    5,
    3,
    4,
    2,
    3,
    6,
    1,
    5,
    2,
    4,
    1,
    2,
    6,
    6,
    1,
    2,
    1,
    2,
    6,
    3,
    734,
    1,
    5,
    1,
    3,
    4,
    3,
    2,
    4,
    3,
    1169,
    1170,
    1173,
    6,
    3,
    4,
    6,
    6,
    2,
    4,
    4,
    6,
    5,
    1,
    4,
    3,
    6,
    2,
    2,
    1,
    4,
    2,
    3,
    6,
    1,
    1,
    15,
    16,
    4,
    5,
    4,
    1,
    6,
    1,
    3,
    1,
    2,
    2,
    2,
    4,
    2,
    2,
    3,
    6,
    6,
    1,
    4,
    4,
    5,
    6,
    2,
    1,
    4,
    2,
    5,
    4,
    6,
    1,
    5,
    6,
    6,
    5,
    5,
    4,
    3,
    4,
    2,
    1,
    4,
    3,
    1,
    6,
    6,
    4,
    1,
    1,
    6,
    2,
    5,
    4,
    4,
    15,
    16,
    1,
    6,
    2,
    6,
    1,
    6,
    1,
    1,
    3,
    4,
    6,
    5,
    4,
    1,
    3,
    5,
    6,
    6,
    3,
    1,
    5,
    6,
    5,
    2,
    5,
    4,
    4,
    3,
    2,
    6
   ]
  },
  {
   "id": 2,
   "name": "spawns",
   "type": "objectgroup",
   "x": 0,
   "y": 0,
   "width": 0,
   "height": 0,
   "opacity": 1,
   "visible": true,
   "draworder": "topdown",
   "objects": [
    {
     "height": 0,
     "id": 1,
     "name": "edge-1",
     "point": true,
     "rotation": 0,
     "type": "",
     "visible": true,
     "width": 0,
     "x": 1900,
     "y": 60
    },
    {
     "height": 0,
     "id": 2,
     "name": "edge-2",
     "point": true,
     "rotation": 0,
     "type": "",
     "visible": true,
     "width": 0,
     "x": 60,
     "y": 340
    }
   ]
  },
  {
   "id": 3,
   "name": "collision",
   "type": "tilelayer",
   "x": 0,
   "y": 0,
   "width": 128,
   "height": 128,
   "opacity": 1,
   "visible": false,
   "data": [
    0,
    0,
    0,
    0,
    0,
    0,
    0,
    0,
    0,
    1552,
    0,
    1552,
    1552,
    1552,
    1552,
    0,
    1552,
    1552,
    0,
    0,
    0,
    0,
    1552,
    1552,
    1552,
    1552,
    1552,
    1552,
    1552,
    1552,
    1552,
    1552,
    1552,
    1552,
    0,
    1552,
    1552,
    1552,
    0,
    0,
    0,
    0,
    0,
    0,
    0,
    0,
    0,
    1552,
    0,
    0,
    0,
    0,
    0,
    0,
    1552,
    1552,
    1552,
    1552,
    1552,
    1552,
    1552,
    1552,
    1552,
    1552,
    1552,
    1552,
    1552,
    1552,
    0,
    0,
    0,
    0,
    0,
    0,
    0,
    0,
    1552,
    0,
    1552,
    1552,
    0,
    1552,
    1552,
    0,
    1552,
    1552,
    1552,
    1552,
    1552,
    1552,
    1552,
    1552,
    1552,
    1552,
    0,
    0,
    1552,
    1552,
    0,
    0,
    1552,
    0,
    0,
    0,
    0,
    0,
    0,
    0,
    0,
    0,
    0,
    0,
    0,
    1552,
    0,
    0,
    0,
    0,
    1552,
    1552,
    1552,
    1552,
    0,
    0,
    0,
    0,
    0,
    0,
    0,
    0,
    0,
    0,
    0,
    0,
    0,
    1552,
    1552,
    1552,
    0,
    0,
    1552,
    1552,
    1552,
    1552,
    1552,
    1552,
    0,
    0,
    1552,
    1552,
    1552,
    1552,
    1552,
    1552,
    1552,
    0,
    1552,
    1552,
    1552,
    1552,
    1552,
    1552,
    1552,
    1552,
    1552,
    0,
    0,
    0,
    0,
    0,
    0,
    0,
    0,
    0,
    0,
    0,
    0,
    0,
    0,
    0,
    0,
    0,
    0,
    1552,
    1552,
    1552,
    1552,
    1552,
    1552,
    1552,
    1552,
    1552,
    1552,
    1552,
    1552,
    1552,
    0,
    0,
    0,
    0,
    0,
    0,
    0,
    0,
    1552,
    1552,
    1552,
    1552,
    0,
    0,
    0,
    1552,
    1552,
    1552,
    1552,
    1552,
    1552,
    1552,
    1552,
    1552,
    1552,
    1552,
    1552,
    0,
    1552,
    1552,
    0,
    1552,
    0,
    0,
    0,
    0,
    0,
    0,
    0,
    0,
    0,
    0,
    0,
    0,
    0,
    0,
    0,
    0,
    0,
    0,
    0,
    1552,
    1552,
    0,
    0,
    0,
    0,
    0,
    0,
    0,
    0,
    0,
    0,
    0,
    0,
    0,
    0,
    1552,
    1552,
    1552,
    0,
    1552,
    1552,
    1552,
    1552,
    1552,
    1552,
    1552,
    1552,
    0,
    1552,
    1552,
    1552,
    0,
    1552,
    1552,
    1552,
    1552,
    1552,
    1552,
    1552,
    1552,
    1552,
    1552,
    1552,
    1552,
    0,
    0,
    0,
    0,
    0,
    0,
    0,
    0,
    0,
    0,
    0,
    0,
    0,
    0,
    0,
    0,
    0,
    0,
    0,
    1552,
    1552,
    1552,
    1552,
    1552,
    1552,
    1552,
    1552,
    1552,
    1552,
    1552,
    1552,
    1552,
    0,
    0,
    0,
    0,
    0,
    0,
    0,
    0,
    1552,
    1552,
    0,
    0,
    0,
    0,
    1552,
    1552,
    1552,
    1552,
    1552,
    1552,
    1552,
    1552,
    1552,
    1552,
    1552,
    1552,
    1552,
    0,
    0,
    1552,
    0,
    0,
    0,
    0,
    0,
    0,
    0,
    0,
    0,
    0,
    0,
    0,
    0,
    0,
    0,
    0,
    0,
    0,
    0,
    0,
    0,
    0,
    0,
    0,
    0,
    0,
    0,
    0,
    0,
    0,
    0,
    0,
    0,
    0,
    0,
    0,
    0,
    0,
    0,
    0,
    1552,
    1552,
    1552,
    1552,
    1552,
    1552,
    1552,
    1552,
    1552,
    0,
    0,
    0,
    0,
    1552,
    1552,
    1552,
    1552,
    1552,
    1552,
    1552,
    1552,
    1552,
    1552,
    1552,
    1552,
    0,
    0,
    0,
    0,
    0,
    0,
    0,
    0,
    0,
    0,
    0,
    0,
    0,
    0,
    0,
    0,
    0,
    0,
    0,
    0,
    1552,
    1552,
    1552,
    1552,
    1552,
    1552,
    1552,
    1552,
    1552,
    1552,
    1552,
    1552,
    1552,
    0,
    0,
    0,
    0,
    0,
    0,
    0,
    1552,
    0,
    0,
    0,
    0,
    0,
    1552,
    1552,
    1552,
    1552,
    1552,
    1552,
    1552,
    1552,
    1552,
    1552,
    1552,
    1552,
    1552,
    1552,
    0,
    0,
    0,
    0,
    0,
    0,
    0,
    0,
    0,
    0,
    0,
    0,
    0,
    0,
    0,
    0,
    0,
    0,
    0,
    0,
    0,
    0,
    0,
    0,
    0,
    0,
    0,
    0,
    0,
    0,
    0,
    0,
    0,
    0,
    0,
    0,
    0,
    0,
    0,
    0,
    0,
    0,
    1552,
    1552,
    1552,
    1552,
    1552,
    1552,
    1552,
    0,
    1552,
    1552,
    1552,
    0,
    1552,
    0,
    0,
    1552,
    1552,
    1552,
    1552,
    1552,
    1552,
    1552,
    1552,
    0,
    0,
    0,
    0,
    0,
    0,
    0,
    0,
    0,
    0,
    0,
    0,
    0,
    0,
    0,
    0,
    0,
    0,
    0,
    0,
    0,
    0,
    0,
    1552,
    1552,
    1552,
    1552,
    1552,
    1552,
    1552,
    1552,
    1552,
    1552,
    1552,
    1552,
    1552,
    0,
    0,
    0,
    0,
    0,
    0,
    0,
    0,
    0,
    0,
    0,
    0,
    0,
    1552,
    1552,
    1552,
    1552,
    1552,
    1552,
    1552,
    1552,
    1552,
    1552,
    1552,
    1552,
    1552,
    1552,
    0,
    1552,
    0,
    0,
    0,
    1552,
    0,
    0,
    0,
    0,
    0,
    0,
    0,
    0,
    0,
    0,
    0,
    0,
    0,
    0,
    0,
    0,
    0,
    0,
    0,
    0,
    0,
    0,
    0,
    0,
    0,
    0,
    0,
    0,
    0,
    0,
    0,
    0,
    0,
    0,
    0,
    0,
    0,
    0,
    0,
    1552,
    1552,
    1552,
    1552,
    0,
    1552,
    1552,
    0,
    0,
    0,
    0,
    0,
    0,
    1552,
    1552,
    1552,
    1552,
    1552,
    0,
    0,
    0,
    0,
    0,
    0,
    0,
    0,
    0,
    0,
    0,
    0,
    0,
    0,
    0,
    0,
    0,
    0,
    0,
    0,
    0,
    0,
    0,
    0,
    0,
    1552,
    1552,
    1552,
    1552,
    1552,
    1552,
    1552,
    1552,
    1552,
    1552,
    1552,
    1552,
    1552,
    0,
    0,
    0,
    0,
    0,
    0,
    0,
    0,
    0,
    0,
    0,
    0,
    0,
    1552,
    1552,
    1552,
    1552,
    1552,
    1552,
    1552,
    1552,
    1552,
    1552,
    1552,
    1552,
    1552,
    0,
    0,
    0,
    0,
    0,
    0,
    0,
    0,
    0,
    0,
    0,
    0,
    0,
    0,
    0,
    0,
    0,
    0,
    0,
    0,
    0,
    0,
    0,
    0,
    0,
    0,
    0,
    0,
    0,
    0,
    0,
    0,
    0,
    0,
    0,
    0,
    0,
    0,
    0,
    0,
    0,
    0,
    0,
    0,
    0,
    0,
    1552,
    1552,
    1552,
    0,
    0,
    0,
    0,
    0,
    0,
    0,
    0,
    0,
    0,
    0,
    0,
    1552,
    1552,
    0,
    0,
    0,
    0,
    0,
    0,
    0,
    0,
    0,
    0,
    0,
    0,
    0,
    0,
    0,
    0,
    0,
    0,
    0,
    0,
    0,
    0,
    0,
    0,
    0,
    0,
    1552,
    1552,
    1552,
    1552,
    1552,
    1552,
    1552,
    1552,
    1552,
    1552,
    1552,
    1552,
    1552,
    1552,
    0,
    0,
    0,
    0,
    0,
    0,
    0,
    0,
    0,
    0,
    1552,
    1552,
    1552,
    1552,
    1552,
    1552,
    1552,
    1552,
    1552,
    1552,
    1552,
    1552,
    1552,
    1552,
    0,
    0,
    0,
    0,
    0,
    0,
    0,
    0,
    0,
    0,
    0,
    0,
    0,
    0,
    0,
    0,
    0,
    0,
    0,
    0,
    0,
    0,
    0,
    0,
    0,
    0,
    0,
    0,
    0,
    0,
    0,
    0,
    0,
    0,
    0,
    0,
    0,
    0,
    0,
    0,
    0,
    0,
    0,
    0,
    0,
    0,
    0,
    0,
    0,
    0,
    0,
    0,
    0,
    0,
    0,
    0,
    0,
    0,
    0,
    0,
    0,
    0,
    0,
    0,
    0,
    0,
    0,
    0,
    0,
    0,
    0,
    0,
    0,
    0,
    0,
    0,
    0,
    0,
    0,
    0,
    0,
    0,
    0,
    0,
    0,
    0,
    0,
    0,
    0,
    1552,
    1552,
    1552,
    1552,
    1552,
    1552,
    1552,
    1552,
    1552,
    1552,
    1552,
    1552,
    1552,
    1552,
    1552,
    0,
    0,
    0,
    0,
    0,
    0,
    0,
    0,
    0,
    0,
    1552,
    1552,
    1552,
    1552,
    1552,
    1552,
    1552,
    1552,
    1552,
    1552,
    1552,
    1552,
    1552,
    1552,
    0,
    0,
    0,
    0,
    0,
    0,
    0,
    0,
    0,
    0,
    0,
    0,
    0,
    0,
    0,
    0,
    0,
    0,
    0,
    0,
    0,
    0,
    0,
    0,
    0,
    0,
    0,
    0,
    0,
    0,
    0,
    0,
    0,
    0,
    0,
    1552,
    0,
    0,
    0,
    0,
    0,
    0,
    0,
    0,
    0,
    0,
    0,
    0,
    0,
    0,
    0,
    0,
    0,
    0,
    0,
    0,
    0,
    0,
    0,
    0,
    0,
    0,
    0,
    0,
    0,
    0,
    0,
    0,
    0,
    0,
    0,
    0,
    0,
    0,
    0,
    0,
    0,
    0,
    0,
    0,
    0,
    0,
    0,
    0,
    0,
    0,
    0,
    0,
    1552,
    1552,
    1552,
    1552,
    1552,
    1552,
    1552,
    1552,
    1552,
    1552,
    1552,
    1552,
    1552,
    1552,
    1552,
    1552,
    1552,
    0,
    0,
    0,
    0,
    0,
    0,
    0,
    0,
    1552,
    1552,
    1552,
    1552,
    1552,
    1552,
    1552,
    1552,
    1552,
    1552,
    1552,
    1552,
    1552,
    1552,
    1552,
    1552,
    0,
    0,
    0,
    0,
    0,
    0,
    0,
    0,
    0,
    0,
    0,
    0,
    0,
    0,
    0,
    0,
    0,
    0,
    0,
    0,
    0,
    0,
    0,
    0,
    0,
    0,
    0,
    0,
    0,
    0,
    0,
    0,
    0,
    0,
    0,
    0,
    0,
    0,
    0,
    0,
    0,
    0,
    0,
    0,
    0,
    0,
    0,
    0,
    0,
    0,
    0,
    0,
    0,
    0,
    0,
    0,
    0,
    0,
    0,
    0,
    0,
    0,
    0,
    0,
    0,
    0,
    1552,
    1552,
    1552,
    0,
    0,
    0,
    0,
    0,
    0,
    0,
    0,
    0,
    0,
    0,
    0,
    0,
    0,
    0,
    0,
    1552,
    1552,
    1552,
    1552,
    1552,
    1552,
    1552,
    1552,
    1552,
    1552,
    1552,
    1552,
    1552,
    1552,
    1552,
    1552,
    1552,
    1552,
    1552,
    0,
    0,
    0,
    0,
    0,
    0,
    0,
    0,
    1552,
    1552,
    1552,
    1552,
    1552,
    1552,
    1552,
    1552,
    1552,
    1552,
    1552,
    1552,
    1552,
    1552,
    1552,
    1552,
    0,
    0,
    0,
    0,
    0,
    0,
    0,
    0,
    0,
    0,
    0,
    0,
    0,
    0,
    0,
    0,
    0,
    0,
    0,
    0,
    0,
    0,
    0,
    0,
    0,
    0,
    0,
    0,
    0,
    0,
    0,
    0,
    0,
    0,
    0,
    0,
    0,
    0,
    0,
    0,
    0,
    0,
    0,
    0,
    0,
    0,
    0,
    0,
    0,
    0,
    0,
    0,
    0,
    0,
    0,
    0,
    0,
    0,
    0,
    0,
    0,
    0,
    0,
    0,
    0,
    1552,
    1552,
    1552,
    1552,
    1552,
    0,
    0,
    0,
    0,
    0,
    0,
    0,
    0,
    0,
    0,
    0,
    0,
    0,
    0,
    0,
    0,
    1552,
    1552,
    1552,
    1552,
    1552,
    1552,
    1552,
    1552,
    1552,
    1552,
    1552,
    1552,
    1552,
    1552,
    1552,
    1552,
    1552,
    1552,
    0,
    0,
    0,
    0,
    0,
    0,
    0,
    0,
    1552,
    1552,
    1552,
    1552,
    1552,
    1552,
    1552,
    1552,
    1552,
    1552,
    1552,
    1552,
    1552,
    1552,
    1552,
    1552,
    0,
    0,
    0,
    0,
    0,
    0,
    0,
    0,
    0,
    0,
    0,
    0,
    0,
    0,
    0,
    0,
    0,
    0,
    0,
    0,
    0,
    0,
    0,
    0,
    0,
    0,
    0,
    0,
    0,
    0,
    0,
    0,
    0,
    0,
    0,
    0,
    0,
    0,
    0,
    0,
    0,
    0,
    0,
    0,
    0,
    0,
    0,
    0,
    0,
    0,
    0,
    0,
    1552,
    1552,
    0,
    0,
    0,
    0,
    0,
    0,
    0,
    0,
    1552,
    1552,
    1552,
    1552,
    1552,
    1552,
    1552,
    0,
    0,
    0,
    0,
    0,
    0,
    0,
    0,
    0,
    0,
    0,
    0,
    0,
    0,
    0,
    0,
    0,
    1552,
    1552,
    1552,
    1552,
    1552,
    1552,
    1552,
    1552,
    1552,
    1552,
    1552,
    1552,
    1552,
    1552,
    1552,
    1552,
    1552,
    1552,
    0,
    0,
    0,
    0,
    0,
    0,
    0,
    0,
    1552,
    1552,
    1552,
    1552,
    1552,
    1552,
    1552,
    1552,
    1552,
    1552,
    1552,
    1552,
    1552,
    1552,
    1552,
    1552,
    0,
    0,
    0,
    0,
    0,
    0,
    0,
    0,
    0,
    0,
    0,
    0,
    0,
    0,
    0,
    0,
    0,
    0,
    0,
    0,
    0,
    0,
    0,
    0,
    0,
    0,
    0,
    0,
    0,
    0,
    0,
    0,
    0,
    0,
    0,
    0,
    0,
    0,
    0,
    0,
    0,
    0,
    0,
    0,
    0,
    0,
    0,
    0,
    0,
    1552,
    1552,
    1552,
    1552,
    1552,
    1552,
    1552,
    0,
    1552,
    1552,
    0,
    0,
    0,
    1552,
    1552,
    1552,
    1552,
    1552,
    1552,
    1552,
    1552,
    0,
    0,
    0,
    0,
    0,
    0,
    0,
    0,
    0,
    0,
    0,
    0,
    0,
    0,
    0,
    0,
    1552,
    1552,
    1552,
    1552,
    1552,
    1552,
    1552,
    1552,
    1552,
    1552,
    1552,
    1552,
    1552,
    1552,
    1552,
    1552,
    1552,
    0,
    0,
    0,
    0,
    0,
    0,
    0,
    0,
    0,
    0,
    1552,
    1552,
    1552,
    1552,
    1552,
    1552,
    1552,
    1552,
    0,
    0,
    0,
    1552,
    1552,
    1552,
    0,
    0,
    0,
    0,
    0,
    0,
    0,
    0,
    0,
    0,
    0,
    0,
    0,
    0,
    0,
    0,
    0,
    0,
    0,
    0,
    0,
    0,
    0,
    0,
    0,
    0,
    0,
    0,
    0,
    0,
    0,
    0,
    0,
    0,
    0,
    0,
    0,
    0,
    0,
    0,
    0,
    0,
    0,
    0,
    0,
    0,
    0,
    0,
    0,
    1552,
    1552,
    1552,
    1552,
    1552,
    1552,
    1552,
    1552,
    0,
    1552,
    1552,
    1552,
    1552,
    1552,
    1552,
    1552,
    1552,
    1552,
    1552,
    1552,
    1552,
    1552,
    1552,
    1552,
    1552,
    0,
    0,
    0,
    0,
    0,
    0,
    0,
    1552,
    1552,
    0,
    1552,
    1552,
    0,
    1552,
    1552,
    1552,
    1552,
    1552,
    1552,
    1552,
    1552,
    1552,
    1552,
    1552,
    1552,
    1552,
    1552,
    1552,
    1552,
    0,
    0,
    0,
    0,
    0,
    0,
    0,
    0,
    0,
    0,
    0,
    0,
    0,
    0,
    1552,
    1552,
    1552,
    1552,
    0,
    0,
    0,
    0,
    0,
    0,
    0,
    0,
    0,
    1552,
    0,
    0,
    0,
    0,
    0,
    0,
    0,
    0,
    0,
    0,
    0,
    0,
    0,
    0,
    0,
    0,
    0,
    0,
    0,
    0,
    0,
    0,
    0,
    0,
    0,
    0,
    0,
    0,
    0,
    0,
    0,
    0,
    0,
    0,
    0,
    0,
    0,
    0,
    0,
    0,
    0,
    0,
    0,
    0,
    1552,
    0,
    1552,
    1552,
    1552,
    1552,
    1552,
    1552,
    1552,
    1552,
    1552,
    1552,
    1552,
    1552,
    1552,
    1552,
    1552,
    1552,
    1552,
    0,
    1552,
    1552,
    0,
    1552,
    1552,
    1552,
    0,
    0,
    0,
    0,
    0,
    0,
    1552,
    1552,
    1552,
    1552,
    1552,
    1552,
    1552,
    0,
    1552,
    1552,
    1552,
    1552,
    1552,
    1552,
    1552,
    1552,
    1552,
    1552,
    1552,
    1552,
    1552,
    1552,
    1552,
    0,
    0,
    0,
    0,
    0,
    0,
    0,
    0,
    0,
    0,
    0,
    0,
    0,
    0,
    0,
    0,
    1552,
    1552,
    0,
    0,
    0,
    1552,
    1552,
    1552,
    1552,
    0,
    0,
    0,
    0,
    0,
    0,
    0,
    0,
    0,
    0,
    0,
    0,
    0,
    0,
    0,
    0,
    0,
    0,
    0,
    0,
    0,
    0,
    0,
    0,
    0,
    0,
    0,
    0,
    0,
    0,
    0,
    0,
    0,
    0,
    0,
    0,
    0,
    0,
    0,
    0,
    0,
    0,
    0,
    0,
    0,
    0,
    0,
    0,
    1552,
    1552,
    1552,
    1552,
    1552,
    1552,
    0,
    1552,
    1552,
    1552,
    1552,
    1552,
    1552,
    1552,
    0,
    1552,
    1552,
    1552,
    1552,
    0,
    1552,
    1552,
    0,
    1552,
    1552,
    0,
    0,
    0,
    0,
    0,
    0,
    0,
    1552,
    1552,
    1552,
    1552,
    1552,
    1552,
    1552,
    0,
    1552,
    1552,
    1552,
    1552,
    1552,
    1552,
    1552,
    1552,
    1552,
    1552,
    1552,
    1552,
    1552,
    1552,
    1552,
    0,
    0,
    0,
    0,
    0,
    0,
    0,
    0,
    0,
    0,
    0,
    0,
    0,
    0,
    0,
    0,
    0,
    0,
    0,
    0,
    0,
    1552,
    1552,
    0,
    0,
    0,
    0,
    0,
    0,
    0,
    0,
    0,
    0,
    0,
    0,
    0,
    0,
    0,
    0,
    0,
    0,
    0,
    0,
    0,
    0,
    0,
    0,
    0,
    0,
    0,
    0,
    0,
    0,
    0,
    0,
    0,
    0,
    0,
    0,
    0,
    0,
    0,
    0,
    0,
    0,
    0,
    0,
    0,
    0,
    0,
    0,
    0,
    1552,
    1552,
    1552,
    0,
    1552,
    1552,
    1552,
    1552,
    1552,
    1552,
    1552,
    1552,
    1552,
    1552,
    1552,
    0,
    1552,
    1552,
    1552,
    1552,
    1552,
    0,
    1552,
    1552,
    1552,
    1552,
    1552,
    1552,
    0,
    0,
    0,
    0,
    0,
    1552,
    1552,
    1552,
    1552,
    1552,
    1552,
    0,
    0,
    1552,
    1552,
    1552,
    1552,
    1552,
    1552,
    1552,
    1552,
    1552,
    1552,
    1552,
    1552,
    1552,
    1552,
    1552,
    0,
    0,
    0,
    0,
    0,
    0,
    0,
    0,
    0,
    0,
    0,
    0,
    0,
    0,
    0,
    0,
    0,
    0,
    0,
    0,
    0,
    0,
    0,
    0,
    0,
    0,
    0,
    0,
    0,
    0,
    0,
    0,
    0,
    0,
    0,
    0,
    0,
    0,
    0,
    0,
    0,
    0,
    0,
    0,
    0,
    0,
    0,
    0,
    0,
    0,
    0,
    0,
    0,
    0,
    0,
    0,
    0,
    0,
    0,
    0,
    0,
    0,
    0,
    0,
    0,
    0,
    0,
    0,
    0,
    0,
    0,
    1552,
    1552,
    1552,
    1552,
    1552,
    1552,
    1552,
    0,
    1552,
    1552,
    1552,
    0,
    1552,
    1552,
    0,
    0,
    1552,
    0,
    1552,
    1552,
    1552,
    1552,
    0,
    1552,
    1552,
    0,
    1552,
    1552,
    1552,
    0,
    0,
    0,
    0,
    1552,
    1552,
    1552,
    1552,
    0,
    1552,
    0,
    0,
    1552,
    1552,
    1552,
    1552,
    1552,
    1552,
    1552,
    1552,
    1552,
    1552,
    1552,
    1552,
    1552,
    1552,
    1552,
    1552,
    0,
    0,
    0,
    0,
    0,
    0,
    0,
    0,
    0,
    0,
    0,
    0,
    0,
    0,
    0,
    0,
    0,
    0,
    0,
    0,
    0,
    0,
    0,
    0,
    0,
    0,
    0,
    0,
    0,
    0,
    0,
    0,
    0,
    0,
    0,
    0,
    0,
    0,
    0,
    0,
    0,
    0,
    0,
    0,
    0,
    0,
    0,
    0,
    0,
    0,
    0,
    0,
    0,
    0,
    0,
    0,
    0,
    0,
    0,
    0,
    0,
    0,
    0,
    0,
    0,
    0,
    0,
    0,
    0,
    0,
    0,
    1552,
    1552,
    1552,
    1552,
    1552,
    1552,
    1552,
    1552,
    1552,
    1552,
    1552,
    1552,
    0,
    0,
    0,
    1552,
    0,
    0,
    1552,
    1552,
    0,
    0,
    0,
    0,
    0,
    1552,
    0,
    0,
    0,
    0,
    0,
    0,
    0,
    1552,
    1552,
    1552,
    0,
    0,
    0,
    1552,
    1552,
    1552,
    1552,
    1552,
    1552,
    1552,
    1552,
    1552,
    1552,
    1552,
    1552,
    1552,
    1552,
    1552,
    1552,
    1552,
    1552,
    0,
    0,
    0,
    0,
    0,
    0,
    0,
    0,
    0,
    0,
    0,
    0,
    0,
    0,
    0,
    0,
    0,
    0,
    0,
    0,
    0,
    0,
    0,
    0,
    0,
    0,
    0,
    0,
    0,
    0,
    0,
    0,
    0,
    0,
    0,
    0,
    0,
    0,
    0,
    0,
    0,
    0,
    0,
    0,
    0,
    0,
    0,
    0,
    0,
    0,
    0,
    0,
    0,
    0,
    0,
    0,
    0,
    0,
    0,
    0,
    0,
    0,
    0,
    0,
    0,
    0,
    0,
    0,
    0,
    0,
    0,
    1552,
    1552,
    1552,
    1552,
    1552,
    1552,
    0,
    1552,
    1552,
    0,
    1552,
    1552,
    0,
    0,
    0,
    0,
    0,
    0,
    0,
    0,
    0,
    0,
    0,
    0,
    0,
    0,
    0,
    0,
    0,
    0,
    0,
    0,
    1552,
    0,
    1552,
    1552,
    0,
    0,
    1552,
    1552,
    1552,
    1552,
    1552,
    1552,
    1552,
    1552,
    1552,
    1552,
    1552,
    1552,
    1552,
    1552,
    1552,
    1552,
    1552,
    1552,
    1552,
    0,
    0,
    0,
    0,
    0,
    0,
    0,
    0,
    0,
    0,
    0,
    0,
    0,
    0,
    0,
    0,
    0,
    0,
    0,
    0,
    0,
    0,
    0,
    0,
    0,
    0,
    0,
    0,
    0,
    0,
    0,
    0,
    0,
    0,
    0,
    0,
    0,
    0,
    0,
    0,
    0,
    0,
    0,
    0,
    0,
    0,
    0,
    0,
    0,
    0,
    0,
    0,
    0,
    0,
    0,
    0,
    0,
    0,
    0,
    0,
    0,
    0,
    0,
    0,
    0,
    0,
    1552,
    0,
    0,
    0,
    1552,
    1552,
    1552,
    1552,
    1552,
    1552,
    1552,
    0,
    0,
    0,
    0,
    0,
    0,
    0,
    0,
    0,
    0,
    0,
    0,
    0,
    0,
    0,
    0,
    0,
    0,
    0,
    0,
    1552,
    0,
    0,
    0,
    0,
    0,
    0,
    0,
    1552,
    0,
    0,
    1552,
    1552,
    1552,
    1552,
    1552,
    1552,
    1552,
    1552,
    1552,
    1552,
    1552,
    1552,
    1552,
    1552,
    1552,
    1552,
    1552,
    1552,
    1552,
    1552,
    0,
    0,
    0,
    0,
    0,
    0,
    0,
    0,
    0,
    0,
    0,
    0,
    0,
    0,
    0,
    0,
    0,
    0,
    0,
    0,
    0,
    0,
    0,
    0,
    0,
    0,
    0,
    0,
    0,
    0,
    0,
    0,
    0,
    0,
    0,
    0,
    0,
    0,
    0,
    0,
    0,
    0,
    0,
    0,
    0,
    0,
    0,
    0,
    0,
    0,
    0,
    0,
    0,
    0,
    0,
    0,
    0,
    0,
    0,
    0,
    0,
    0,
    0,
    0,
    0,
    0,
    1552,
    1552,
    0,
    1552,
    1552,
    1552,
    1552,
    1552,
    1552,
    1552,
    0,
    0,
    0,
    0,
    0,
    0,
    0,
    0,
    0,
    0,
    0,
    0,
    0,
    0,
    0,
    0,
    0,
    0,
    0,
    0,
    0,
    0,
    0,
    0,
    0,
    0,
    0,
    0,
    0,
    0,
    0,
    1552,
    1552,
    1552,
    1552,
    1552,
    1552,
    1552,
    1552,
    1552,
    1552,
    1552,
    1552,
    1552,
    1552,
    1552,
    1552,
    1552,
    1552,
    1552,
    1552,
    0,
    0,
    0,
    0,
    0,
    0,
    0,
    0,
    0,
    0,
    0,
    0,
    0,
    0,
    0,
    0,
    0,
    0,
    0,
    0,
    0,
    0,
    0,
    0,
    0,
    0,
    0,
    0,
    0,
    0,
    0,
    0,
    0,
    0,
    0,
    0,
    0,
    0,
    0,
    0,
    0,
    0,
    0,
    0,
    0,
    0,
    0,
    0,
    0,
    0,
    0,
    0,
    0,
    0,
    0,
    0,
    0,
    0,
    0,
    0,
    0,
    0,
    0,
    0,
    0,
    0,
    1552,
    1552,
    1552,
    1552,
    1552,
    1552,
    1552,
    1552,
    0,
    0,
    0,
    0,
    0,
    0,
    0,
    0,
    0,
    0,
    0,
    0,
    0,
    0,
    0,
    0,
    0,
    0,
    0,
    0,
    0,
    0,
    0,
    0,
    0,
    0,
    0,
    0,
    0,
    0,
    0,
    0,
    0,
    0,
    1552,
    1552,
    1552,
    1552,
    1552,
    1552,
    1552,
    1552,
    1552,
    1552,
    1552,
    1552,
    1552,
    1552,
    1552,
    1552,
    1552,
    1552,
    1552,
    0,
    0,
    0,
    0,
    0,
    0,
    0,
    0,
    0,
    0,
    0,
    0,
    0,
    0,
    0,
    0,
    0,
    0,
    0,
    0,
    0,
    0,
    0,
    0,
    0,
    0,
    0,
    0,
    0,
    0,
    0,
    0,
    0,
    0,
    0,
    0,
    0,
    0,
    0,
    0,
    0,
    0,
    0,
    0,
    0,
    0,
    0,
    0,
    0,
    0,
    0,
    0,
    0,
    0,
    0,
    0,
    0,
    0,
    0,
    0,
    0,
    0,
    0,
    0,
    0,
    0,
    0,
    1552,
    1552,
    1552,
    1552,
    1552,
    0,
    0,
    0,
    0,
    0,
    0,
    0,
    0,
    0,
    0,
    0,
    0,
    0,
    0,
    0,
    0,
    0,
    0,
    0,
    0,
    0,
    0,
    0,
    0,
    0,
    0,
    0,
    0,
    0,
    0,
    0,
    0,
    0,
    0,
    0,
    0,
    0,
    1552,
    1552,
    1552,
    1552,
    1552,
    1552,
    1552,
    1552,
    1552,
    1552,
    1552,
    1552,
    1552,
    1552,
    1552,
    1552,
    1552,
    1552,
    0,
    0,
    0,
    0,
    0,
    0,
    0,
    0,
    0,
    0,
    0,
    0,
    0,
    0,
    0,
    0,
    0,
    0,
    0,
    0,
    0,
    0,
    0,
    0,
    0,
    0,
    0,
    0,
    0,
    0,
    0,
    0,
    0,
    0,
    0,
    0,
    0,
    0,
    0,
    0,
    0,
    0,
    0,
    0,
    0,
    0,
    0,
    0,
    0,
    0,
    0,
    0,
    0,
    0,
    0,
    0,
    0,
    0,
    0,
    0,
    0,
    0,
    0,
    0,
    0,
    0,
    0,
    0,
    0,
    1552,
    1552,
    1552,
    0,
    0,
    0,
    0,
    0,
    0,
    0,
    0,
    0,
    0,
    0,
    0,
    0,
    0,
    0,
    0,
    0,
    1552,
    0,
    0,
    0,
    0,
    0,
    0,
    0,
    0,
    0,
    0,
    0,
    0,
    0,
    0,
    0,
    0,
    0,
    0,
    0,
    0,
    1552,
    1552,
    1552,
    1552,
    1552,
    1552,
    1552,
    1552,
    1552,
    1552,
    1552,
    1552,
    1552,
    1552,
    1552,
    1552,
    1552,
    0,
    0,
    0,
    0,
    0,
    0,
    0,
    0,
    0,
    0,
    0,
    0,
    0,
    0,
    0,
    0,
    0,
    0,
    0,
    0,
    0,
    0,
    0,
    0,
    0,
    0,
    0,
    0,
    0,
    0,
    0,
    0,
    0,
    0,
    0,
    0,
    0,
    0,
    0,
    0,
    0,
    0,
    0,
    0,
    0,
    0,
    0,
    0,
    0,
    0,
    0,
    0,
    0,
    0,
    0,
    0,
    0,
    0,
    0,
    0,
    0,
    0,
    0,
    0,
    0,
    0,
    0,
    0,
    0,
    0,
    0,
    0,
    0,
    0,
    0,
    0,
    0,
    0,
    0,
    0,
    0,
    0,
    0,
    0,
    0,
    0,
    0,
    0,
    0,
    0,
    1552,
    1552,
    0,
    0,
    0,
    0,
    0,
    0,
    0,
    0,
    0,
    0,
    0,
    0,
    0,
    0,
    0,
    0,
    0,
    0,
    1552,
    1552,
    1552,
    1552,
    1552,
    1552,
    1552,
    1552,
    1552,
    1552,
    1552,
    1552,
    1552,
    1552,
    1552,
    1552,
    1552,
    0,
    0,
    0,
    0,
    0,
    0,
    0,
    0,
    0,
    0,
    0,
    0,
    0,
    0,
    0,
    0,
    0,
    0,
    0,
    0,
    0,
    0,
    0,
    0,
    0,
    0,
    0,
    0,
    0,
    0,
    0,
    0,
    0,
    0,
    0,
    0,
    0,
    0,
    0,
    0,
    0,
    0,
    0,
    0,
    0,
    0,
    0,
    0,
    0,
    0,
    0,
    0,
    0,
    0,
    0,
    0,
    0,
    0,
    0,
    0,
    0,
    0,
    0,
    0,
    0,
    0,
    0,
    0,
    0,
    0,
    0,
    0,
    0,
    0,
    0,
    0,
    0,
    0,
    0,
    0,
    0,
    0,
    0,
    0,
    0,
    0,
    0,
    0,
    0,
    0,
    0,
    0,
    0,
    0,
    0,
    0,
    0,
    0,
    0,
    0,
    0,
    0,
    0,
    0,
    0,
    0,
    0,
    0,
    1552,
    0,
    0,
    0,
    1552,
    1552,
    1552,
    1552,
    1552,
    1552,
    1552,
    1552,
    1552,
    1552,
    1552,
    1552,
    1552,
    1552,
    1552,
    0,
    0,
    0,
    0,
    0,
    0,
    0,
    0,
    0,
    0,
    0,
    0,
    0,
    0,
    0,
    0,
    0,
    0,
    0,
    0,
    0,
    0,
    0,
    0,
    0,
    0,
    0,
    0,
    0,
    0,
    0,
    0,
    0,
    0,
    0,
    0,
    0,
    0,
    0,
    0,
    0,
    0,
    0,
    0,
    0,
    0,
    0,
    0,
    0,
    0,
    0,
    0,
    0,
    0,
    0,
    0,
    0,
    0,
    0,
    0,
    0,
    0,
    0,
    0,
    0,
    0,
    0,
    0,
    0,
    0,
    0,
    0,
    0,
    0,
    0,
    0,
    0,
    0,
    0,
    0,
    0,
    0,
    0,
    0,
    0,
    0,
    0,
    0,
    0,
    0,
    0,
    0,
    0,
    0,
    0,
    0,
    0,
    0,
    0,
    0,
    0,
    0,
    0,
    0,
    0,
    0,
    0,
    0,
    0,
    0,
    0,
    0,
    0,
    1552,
    1552,
    1552,
    1552,
    1552,
    1552,
    1552,
    1552,
    1552,
    1552,
    1552,
    1552,
    1552,
    1552,
    1552,
    0,
    0,
    0,
    0,
    0,
    0,
    0,
    0,
    0,
    0,
    0,
    0,
    0,
    0,
    0,
    0,
    0,
    0,
    0,
    0,
    0,
    0,
    0,
    0,
    0,
    0,
    0,
    0,
    0,
    0,
    0,
    0,
    0,
    0,
    0,
    0,
    0,
    0,
    0,
    0,
    0,
    0,
    0,
    0,
    0,
    0,
    0,
    0,
    0,
    0,
    0,
    0,
    0,
    0,
    0,
    0,
    0,
    0,
    0,
    0,
    0,
    0,
    0,
    0,
    0,
    0,
    0,
    0,
    0,
    0,
    0,
    0,
    0,
    0,
    0,
    0,
    0,
    0,
    0,
    0,
    0,
    0,
    0,
    0,
    0,
    0,
    0,
    0,
    0,
    0,
    0,
    0,
    0,
    0,
    0,
    0,
    0,
    0,
    0,
    0,
    0,
    0,
    0,
    0,
    0,
    0,
    0,
    0,
    0,
    0,
    0,
    0,
    0,
    1552,
    1552,
    1552,
    1552,
    1552,
    1552,
    1552,
    1552,
    1552,
    1552,
    1552,
    1552,
    1552,
    1552,
    1552,
    0,
    0,
    0,
    0,
    0,
    0,
    0,
    0,
    0,
    0,
    0,
    0,
    0,
    0,
    0,
    0,
    0,
    0,
    0,
    0,
    0,
    0,
    0,
    0,
    0,
    0,
    0,
    0,
    0,
    0,
    0,
    0,
    0,
    0,
    0,
    0,
    0,
    0,
    0,
    0,
    0,
    0,
    0,
    0,
    0,
    0,
    0,
    0,
    0,
    0,
    0,
    0,
    0,
    0,
    0,
    0,
    0,
    0,
    0,
    0,
    0,
    0,
    0,
    0,
    0,
    0,
    0,
    0,
    0,
    0,
    0,
    0,
    0,
    0,
    0,
    0,
    0,
    0,
    0,
    0,
    0,
    0,
    0,
    0,
    0,
    0,
    0,
    0,
    0,
    0,
    0,
    0,
    0,
    0,
    0,
    0,
    0,
    0,
    0,
    0,
    0,
    0,
    0,
    0,
    0,
    0,
    0,
    0,
    0,
    0,
    0,
    0,
    0,
    1552,
    1552,
    1552,
    1552,
    1552,
    1552,
    1552,
    1552,
    1552,
    1552,
    1552,
    1552,
    1552,
    1552,
    1552,
    0,
    0,
    0,
    0,
    0,
    0,
    0,
    0,
    0,
    0,
    0,
    0,
    0,
    0,
    0,
    0,
    0,
    0,
    0,
    0,
    0,
    0,
    0,
    0,
    0,
    0,
    0,
    0,
    0,
    0,
    0,
    0,
    0,
    0,
    0,
    0,
    0,
    0,
    0,
    0,
    0,
    0,
    0,
    0,
    0,
    0,
    0,
    0,
    0,
    0,
    0,
    0,
    0,
    0,
    0,
    0,
    0,
    0,
    0,
    0,
    0,
    0,
    0,
    0,
    0,
    0,
    0,
    0,
    0,
    0,
    0,
    0,
    0,
    0,
    0,
    0,
    0,
    0,
    0,
    0,
    0,
    0,
    0,
    0,
    0,
    0,
    0,
    0,
    0,
    0,
    0,
    0,
    0,
    0,
    0,
    0,
    0,
    0,
    0,
    0,
    0,
    0,
    0,
    0,
    0,
    0,
    0,
    0,
    0,
    0,
    0,
    0,
    0,
    1552,
    1552,
    1552,
    1552,
    1552,
    1552,
    1552,
    1552,
    1552,
    1552,
    1552,
    1552,
    1552,
    1552,
    1552,
    0,
    0,
    0,
    0,
    0,
    0,
    0,
    0,
    0,
    0,
    0,
    0,
    0,
    0,
    0,
    0,
    0,
    0,
    0,
    0,
    0,
    0,
    0,
    0,
    0,
    0,
    0,
    0,
    0,
    0,
    0,
    0,
    0,
    0,
    0,
    0,
    0,
    0,
    0,
    0,
    0,
    0,
    0,
    0,
    0,
    0,
    0,
    0,
    0,
    0,
    0,
    0,
    0,
    0,
    0,
    0,
    0,
    0,
    0,
    0,
    0,
    0,
    0,
    0,
    0,
    0,
    0,
    0,
    0,
    0,
    0,
    0,
    0,
    0,
    0,
    0,
    0,
    0,
    0,
    0,
    0,
    0,
    0,
    0,
    0,
    0,
    0,
    0,
    0,
    0,
    0,
    0,
    0,
    0,
    0,
    0,
    0,
    0,
    0,
    0,
    0,
    0,
    0,
    0,
    0,
    0,
    0,
    0,
    0,
    0,
    0,
    0,
    0,
    1552,
    1552,
    1552,
    1552,
    1552,
    1552,
    1552,
    1552,
    1552,
    1552,
    1552,
    1552,
    1552,
    1552,
    1552,
    0,
    0,
    0,
    0,
    0,
    0,
    0,
    0,
    0,
    0,
    0,
    0,
    0,
    0,
    0,
    0,
    0,
    0,
    0,
    0,
    0,
    0,
    0,
    0,
    0,
    0,
    0,
    0,
    0,
    0,
    0,
    0,
    0,
    0,
    0,
    0,
    0,
    0,
    0,
    0,
    0,
    0,
    0,
    0,
    0,
    0,
    0,
    0,
    0,
    0,
    0,
    0,
    0,
    0,
    0,
    0,
    0,
    0,
    0,
    0,
    0,
    0,
    0,
    0,
    0,
    0,
    0,
    0,
    0,
    0,
    0,
    0,
    0,
    0,
    0,
    0,
    0,
    0,
    0,
    0,
    0,
    0,
    0,
    0,
    0,
    0,
    0,
    0,
    0,
    0,
    0,
    0,
    0,
    0,
    0,
    0,
    0,
    0,
    0,
    0,
    0,
    0,
    0,
    0,
    0,
    0,
    0,
    0,
    0,
    0,
    0,
    0,
    1552,
    1552,
    1552,
    1552,
    1552,
    1552,
    1552,
    1552,
    1552,
    1552,
    1552,
    1552,
    1552,
    1552,
    1552,
    1552,
    0,
    0,
    0,
    0,
    0,
    0,
    0,
    0,
    0,
    0,
    0,
    0,
    0,
    0,
    0,
    0,
    0,
    0,
    0,
    0,
    0,
    0,
    0,
    0,
    0,
    0,
    0,
    0,
    0,
    0,
    0,
    0,
    0,
    0,
    0,
    0,
    0,
    0,
    0,
    0,
    0,
    0,
    0,
    0,
    0,
    0,
    0,
    0,
    0,
    0,
    0,
    0,
    0,
    0,
    0,
    0,
    0,
    0,
    0,
    0,
    0,
    0,
    0,
    0,
    0,
    0,
    0,
    0,
    0,
    0,
    0,
    0,
    0,
    0,
    0,
    0,
    0,
    0,
    0,
    0,
    0,
    0,
    0,
    0,
    0,
    0,
    0,
    0,
    0,
    0,
    0,
    0,
    0,
    0,
    0,
    0,
    0,
    0,
    0,
    0,
    0,
    0,
    0,
    0,
    0,
    0,
    0,
    0,
    0,
    0,
    0,
    1552,
    1552,
    1552,
    1552,
    1552,
    1552,
    1552,
    1552,
    1552,
    1552,
    1552,
    1552,
    1552,
    1552,
    1552,
    1552,
    0,
    0,
    0,
    0,
    0,
    0,
    0,
    0,
    0,
    0,
    0,
    0,
    0,
    0,
    0,
    0,
    0,
    0,
    0,
    0,
    0,
    0,
    0,
    0,
    0,
    0,
    0,
    0,
    0,
    0,
    0,
    0,
    0,
    0,
    0,
    0,
    0,
    0,
    0,
    0,
    0,
    0,
    0,
    0,
    0,
    0,
    0,
    0,
    0,
    0,
    0,
    0,
    0,
    0,
    0,
    0,
    0,
    0,
    0,
    0,
    0,
    0,
    0,
    0,
    0,
    1552,
    0,
    0,
    0,
    0,
    0,
    0,
    0,
    0,
    0,
    0,
    0,
    0,
    0,
    0,
    0,
    0,
    0,
    0,
    0,
    0,
    0,
    0,
    0,
    0,
    0,
    0,
    0,
    0,
    0,
    0,
    0,
    0,
    0,
    0,
    0,
    0,
    0,
    0,
    0,
    0,
    0,
    0,
    0,
    0,
    1552,
    1552,
    1552,
    1552,
    1552,
    1552,
    1552,
    1552,
    1552,
    1552,
    1552,
    1552,
    1552,
    1552,
    1552,
    1552,
    1552,
    1552,
    0,
    0,
    0,
    0,
    0,
    0,
    0,
    0,
    0,
    0,
    0,
    0,
    0,
    0,
    0,
    0,
    0,
    0,
    0,
    0,
    0,
    0,
    0,
    0,
    0,
    0,
    0,
    0,
    0,
    0,
    0,
    0,
    0,
    0,
    0,
    0,
    0,
    0,
    0,
    0,
    0,
    0,
    0,
    0,
    0,
    0,
    0,
    0,
    0,
    0,
    0,
    0,
    0,
    0,
    0,
    0,
    0,
    0,
    0,
    0,
    0,
    0,
    0,
    0,
    0,
    0,
    0,
    0,
    0,
    0,
    0,
    0,
    0,
    0,
    0,
    0,
    0,
    0,
    0,
    0,
    0,
    0,
    0,
    0,
    0,
    0,
    0,
    0,
    0,
    0,
    0,
    0,
    0,
    0,
    0,
    0,
    0,
    0,
    0,
    0,
    0,
    0,
    0,
    0,
    0,
    0,
    0,
    0,
    0,
    0,
    0,
    1552,
    1552,
    1552,
    1552,
    1552,
    1552,
    1552,
    1552,
    1552,
    1552,
    1552,
    1552,
    1552,
    1552,
    1552,
    1552,
    1552,
    0,
    0,
    0,
    0,
    0,
    0,
    0,
    0,
    0,
    0,
    0,
    0,
    0,
    0,
    0,
    0,
    0,
    0,
    0,
    0,
    0,
    0,
    0,
    0,
    0,
    0,
    0,
    0,
    0,
    0,
    0,
    0,
    0,
    0,
    0,
    0,
    0,
    0,
    0,
    0,
    0,
    0,
    0,
    0,
    0,
    0,
    0,
    0,
    0,
    0,
    0,
    0,
    0,
    0,
    0,
    0,
    0,
    0,
    0,
    0,
    0,
    0,
    0,
    0,
    0,
    0,
    0,
    0,
    0,
    0,
    0,
    0,
    0,
    0,
    0,
    0,
    0,
    0,
    0,
    0,
    0,
    0,
    0,
    0,
    0,
    0,
    0,
    0,
    0,
    0,
    0,
    0,
    0,
    0,
    0,
    0,
    0,
    0,
    0,
    0,
    0,
    0,
    0,
    0,
    0,
    0,
    0,
    0,
    0,
    0,
    0,
    1552,
    1552,
    1552,
    1552,
    1552,
    1552,
    1552,
    1552,
    0,
    0,
    0,
    1552,
    1552,
    1552,
    1552,
    1552,
    1552,
    0,
    0,
    0,
    0,
    0,
    0,
    0,
    0,
    0,
    0,
    0,
    0,
    0,
    0,
    0,
    0,
    0,
    0,
    0,
    0,
    0,
    0,
    0,
    0,
    0,
    0,
    0,
    0,
    0,
    0,
    0,
    0,
    0,
    0,
    0,
    0,
    0,
    0,
    0,
    0,
    0,
    0,
    0,
    0,
    0,
    0,
    0,
    0,
    0,
    0,
    0,
    0,
    0,
    0,
    0,
    0,
    0,
    0,
    0,
    0,
    0,
    0,
    0,
    0,
    0,
    0,
    0,
    0,
    0,
    0,
    0,
    0,
    0,
    0,
    0,
    0,
    0,
    0,
    0,
    0,
    0,
    0,
    0,
    0,
    0,
    0,
    0,
    0,
    1552,
    1552,
    0,
    0,
    0,
    0,
    0,
    0,
    0,
    0,
    0,
    0,
    0,
    0,
    0,
    0,
    0,
    0,
    0,
    0,
    0,
    0,
    0,
    1552,
    1552,
    1552,
    1552,
    1552,
    1552,
    1552,
    0,
    0,
    0,
    0,
    1552,
    1552,
    1552,
    1552,
    1552,
    1552,
    0,
    0,
    0,
    0,
    0,
    0,
    0,
    0,
    0,
    0,
    0,
    0,
    0,
    0,
    0,
    0,
    0,
    0,
    0,
    0,
    0,
    0,
    0,
    0,
    0,
    0,
    0,
    0,
    0,
    0,
    0,
    0,
    0,
    0,
    0,
    0,
    0,
    0,
    0,
    0,
    0,
    0,
    0,
    0,
    0,
    0,
    0,
    0,
    0,
    0,
    0,
    0,
    0,
    0,
    0,
    0,
    0,
    0,
    0,
    0,
    0,
    0,
    0,
    0,
    0,
    0,
    0,
    0,
    0,
    0,
    0,
    0,
    0,
    0,
    0,
    0,
    0,
    0,
    0,
    0,
    0,
    0,
    0,
    0,
    0,
    0,
    0,
    1552,
    1552,
    1552,
    0,
    1552,
    0,
    0,
    0,
    0,
    0,
    0,
    0,
    0,
    0,
    0,
    0,
    0,
    0,
    0,
    0,
    0,
    0,
    0,
    0,
    1552,
    1552,
    1552,
    1552,
    1552,
    1552,
    1552,
    0,
    0,
    0,
    0,
    1552,
    1552,
    1552,
    1552,
    1552,
    1552,
    0,
    0,
    0,
    0,
    0,
    0,
    0,
    0,
    0,
    0,
    0,
    0,
    0,
    0,
    0,
    0,
    0,
    0,
    0,
    0,
    0,
    0,
    0,
    0,
    0,
    0,
    0,
    0,
    0,
    0,
    0,
    0,
    0,
    0,
    0,
    0,
    0,
    0,
    0,
    0,
    0,
    0,
    0,
    0,
    0,
    0,
    0,
    0,
    0,
    0,
    0,
    0,
    0,
    0,
    0,
    0,
    0,
    0,
    0,
    0,
    0,
    0,
    0,
    0,
    0,
    0,
    0,
    0,
    0,
    0,
    0,
    0,
    0,
    0,
    0,
    0,
    0,
    0,
    0,
    0,
    0,
    0,
    0,
    0,
    0,
    0,
    0,
    0,
    0,
    1552,
    0,
    0,
    0,
    0,
    0,
    0,
    0,
    0,
    0,
    0,
    0,
    0,
    0,
    0,
    0,
    0,
    0,
    0,
    0,
    0,
    1552,
    1552,
    1552,
    1552,
    1552,
    1552,
    1552,
    1552,
    0,
    0,
    0,
    0,
    1552,
    1552,
    1552,
    1552,
    1552,
    1552,
    0,
    0,
    0,
    0,
    0,
    0,
    0,
    0,
    0,
    0,
    0,
    0,
    0,
    0,
    0,
    0,
    0,
    0,
    0,
    0,
    0,
    0,
    0,
    0,
    0,
    0,
    0,
    0,
    0,
    0,
    0,
    0,
    0,
    0,
    0,
    0,
    0,
    0,
    0,
    0,
    0,
    0,
    0,
    0,
    0,
    0,
    0,
    0,
    0,
    0,
    0,
    0,
    0,
    0,
    0,
    0,
    0,
    0,
    0,
    0,
    0,
    0,
    0,
    0,
    0,
    0,
    0,
    0,
    0,
    0,
    0,
    0,
    0,
    0,
    0,
    0,
    0,
    0,
    0,
    0,
    0,
    0,
    0,
    0,
    0,
    0,
    0,
    0,
    1552,
    0,
    0,
    0,
    0,
    0,
    0,
    0,
    0,
    0,
    0,
    0,
    0,
    0,
    0,
    0,
    0,
    0,
    0,
    0,
    0,
    0,
    0,
    1552,
    1552,
    1552,
    1552,
    1552,
    1552,
    1552,
    0,
    0,
    0,
    0,
    1552,
    1552,
    1552,
    1552,
    1552,
    1552,
    0,
    0,
    0,
    0,
    0,
    0,
    0,
    0,
    0,
    0,
    0,
    0,
    0,
    0,
    0,
    0,
    0,
    0,
    0,
    0,
    0,
    0,
    0,
    0,
    0,
    0,
    0,
    0,
    0,
    0,
    0,
    0,
    0,
    0,
    0,
    0,
    0,
    0,
    0,
    0,
    0,
    0,
    0,
    0,
    0,
    0,
    0,
    0,
    0,
    0,
    0,
    0,
    0,
    0,
    0,
    0,
    0,
    0,
    0,
    0,
    0,
    0,
    0,
    0,
    0,
    0,
    0,
    0,
    0,
    0,
    0,
    0,
    0,
    0,
    0,
    0,
    0,
    0,
    0,
    0,
    0,
    0,
    0,
    0,
    0,
    0,
    0,
    0,
    0,
    0,
    0,
    0,
    0,
    0,
    0,
    0,
    0,
    0,
    0,
    0,
    0,
    0,
    0,
    0,
    0,
    0,
    0,
    0,
    0,
    0,
    0,
    1552,
    1552,
    1552,
    1552,
    1552,
    1552,
    1552,
    0,
    0,
    0,
    0,
    1552,
    1552,
    1552,
    1552,
    1552,
    1552,
    0,
    0,
    0,
    0,
    0,
    0,
    0,
    0,
    0,
    0,
    0,
    0,
    0,
    0,
    0,
    0,
    0,
    0,
    0,
    0,
    0,
    0,
    0,
    0,
    0,
    0,
    0,
    0,
    0,
    0,
    0,
    0,
    0,
    0,
    0,
    0,
    0,
    0,
    0,
    0,
    0,
    0,
    0,
    0,
    0,
    0,
    0,
    0,
    0,
    0,
    0,
    0,
    0,
    0,
    0,
    0,
    0,
    0,
    0,
    0,
    0,
    0,
    0,
    0,
    0,
    0,
    0,
    0,
    0,
    0,
    0,
    0,
    0,
    0,
    0,
    0,
    0,
    0,
    0,
    0,
    0,
    0,
    0,
    0,
    0,
    0,
    0,
    0,
    0,
    0,
    0,
    0,
    0,
    0,
    0,
    0,
    0,
    0,
    0,
    0,
    0,
    0,
    0,
    0,
    0,
    0,
    0,
    0,
    0,
    0,
    0,
    1552,
    1552,
    1552,
    1552,
    1552,
    1552,
    1552,
    0,
    0,
    0,
    0,
    1552,
    1552,
    1552,
    1552,
    1552,
    1552,
    0,
    0,
    0,
    0,
    0,
    0,
    0,
    0,
    0,
    0,
    0,
    0,
    0,
    0,
    0,
    0,
    0,
    0,
    0,
    0,
    0,
    0,
    0,
    0,
    0,
    0,
    0,
    0,
    0,
    0,
    0,
    0,
    0,
    0,
    0,
    0,
    0,
    0,
    0,
    0,
    0,
    0,
    0,
    0,
    0,
    0,
    0,
    0,
    0,
    0,
    0,
    0,
    0,
    0,
    0,
    0,
    0,
    0,
    0,
    0,
    0,
    0,
    0,
    0,
    0,
    0,
    0,
    0,
    0,
    0,
    0,
    0,
    0,
    0,
    0,
    0,
    0,
    0,
    0,
    0,
    0,
    0,
    0,
    0,
    0,
    0,
    0,
    0,
    0,
    0,
    0,
    0,
    0,
    0,
    0,
    0,
    0,
    0,
    0,
    0,
    0,
    0,
    0,
    0,
    0,
    0,
    0,
    0,
    0,
    0,
    0,
    1552,
    1552,
    1552,
    1552,
    1552,
    1552,
    1552,
    0,
    0,
    0,
    0,
    1552,
    1552,
    1552,
    1552,
    1552,
    1552,
    0,
    0,
    0,
    0,
    0,
    0,
    0,
    0,
    0,
    0,
    0,
    0,
    0,
    0,
    0,
    0,
    0,
    0,
    0,
    0,
    0,
    0,
    0,
    0,
    0,
    0,
    0,
    0,
    0,
    0,
    0,
    0,
    0,
    0,
    0,
    0,
    0,
    0,
    0,
    0,
    0,
    0,
    0,
    0,
    0,
    0,
    0,
    0,
    0,
    0,
    0,
    0,
    0,
    0,
    0,
    0,
    0,
    0,
    0,
    0,
    0,
    0,
    0,
    0,
    0,
    0,
    0,
    0,
    0,
    0,
    0,
    0,
    0,
    0,
    0,
    0,
    0,
    0,
    0,
    0,
    0,
    0,
    0,
    0,
    0,
    0,
    0,
    0,
    0,
    0,
    0,
    0,
    0,
    0,
    0,
    0,
    0,
    0,
    0,
    0,
    0,
    0,
    0,
    0,
    0,
    0,
    0,
    0,
    0,
    0,
    0,
    1552,
    1552,
    1552,
    1552,
    1552,
    1552,
    1552,
    1552,
    1552,
    1552,
    1552,
    1552,
    1552,
    1552,
    1552,
    1552,
    1552,
    0,
    0,
    0,
    0,
    0,
    0,
    0,
    0,
    0,
    0,
    0,
    0,
    0,
    0,
    0,
    0,
    0,
    0,
    0,
    0,
    0,
    0,
    0,
    0,
    0,
    0,
    0,
    0,
    0,
    0,
    0,
    0,
    0,
    0,
    0,
    0,
    0,
    0,
    0,
    0,
    0,
    0,
    0,
    0,
    1552,
    1552,
    1552,
    0,
    0,
    0,
    0,
    0,
    0,
    0,
    0,
    0,
    0,
    0,
    0,
    0,
    0,
    0,
    0,
    0,
    0,
    0,
    0,
    1552,
    0,
    0,
    0,
    0,
    0,
    0,
    0,
    0,
    0,
    0,
    0,
    0,
    0,
    0,
    0,
    0,
    0,
    0,
    0,
    0,
    0,
    0,
    0,
    0,
    0,
    0,
    0,
    0,
    0,
    0,
    0,
    0,
    0,
    0,
    0,
    0,
    0,
    0,
    0,
    0,
    0,
    0,
    0,
    1552,
    1552,
    1552,
    1552,
    1552,
    1552,
    1552,
    1552,
    1552,
    1552,
    1552,
    1552,
    1552,
    1552,
    1552,
    1552,
    1552,
    0,
    0,
    0,
    0,
    0,
    0,
    0,
    0,
    0,
    0,
    0,
    0,
    0,
    0,
    0,
    0,
    0,
    0,
    0,
    0,
    1552,
    1552,
    0,
    0,
    0,
    0,
    0,
    0,
    0,
    0,
    0,
    0,
    0,
    0,
    0,
    0,
    0,
    0,
    0,
    0,
    0,
    0,
    0,
    1552,
    1552,
    1552,
    1552,
    1552,
    0,
    0,
    0,
    0,
    0,
    0,
    0,
    0,
    0,
    0,
    0,
    0,
    0,
    0,
    0,
    0,
    0,
    0,
    1552,
    1552,
    0,
    0,
    0,
    0,
    0,
    0,
    0,
    0,
    0,
    0,
    0,
    0,
    0,
    0,
    0,
    0,
    0,
    0,
    0,
    0,
    0,
    0,
    0,
    0,
    0,
    0,
    0,
    0,
    0,
    0,
    0,
    0,
    0,
    0,
    0,
    0,
    0,
    0,
    0,
    0,
    0,
    0,
    0,
    1552,
    1552,
    1552,
    1552,
    1552,
    1552,
    1552,
    1552,
    1552,
    1552,
    1552,
    1552,
    1552,
    1552,
    1552,
    1552,
    1552,
    0,
    0,
    0,
    0,
    0,
    0,
    0,
    0,
    0,
    0,
    0,
    0,
    0,
    0,
    0,
    0,
    0,
    0,
    0,
    1552,
    1552,
    1552,
    1552,
    0,
    1552,
    0,
    0,
    0,
    0,
    0,
    0,
    0,
    0,
    0,
    0,
    0,
    0,
    0,
    0,
    0,
    1552,
    1552,
    1552,
    1552,
    1552,
    1552,
    1552,
    1552,
    1552,
    1552,
    1552,
    0,
    0,
    0,
    0,
    0,
    0,
    0,
    0,
    0,
    0,
    0,
    0,
    0,
    0,
    1552,
    1552,
    1552,
    0,
    0,
    0,
    0,
    0,
    0,
    0,
    0,
    0,
    0,
    0,
    0,
    0,
    0,
    0,
    0,
    0,
    0,
    0,
    0,
    0,
    0,
    0,
    0,
    0,
    0,
    0,
    0,
    0,
    0,
    0,
    0,
    0,
    0,
    0,
    0,
    0,
    0,
    0,
    0,
    0,
    0,
    0,
    0,
    1552,
    1552,
    1552,
    1552,
    1552,
    1552,
    1552,
    1552,
    1552,
    1552,
    1552,
    1552,
    1552,
    1552,
    1552,
    1552,
    1552,
    0,
    0,
    0,
    0,
    0,
    0,
    0,
    0,
    0,
    0,
    0,
    0,
    0,
    0,
    0,
    0,
    1552,
    0,
    1552,
    1552,
    0,
    1552,
    1552,
    0,
    0,
    0,
    0,
    0,
    0,
    0,
    0,
    1552,
    0,
    0,
    0,
    0,
    0,
    0,
    1552,
    1552,
    1552,
    0,
    1552,
    1552,
    1552,
    1552,
    1552,
    1552,
    1552,
    1552,
    1552,
    0,
    0,
    0,
    0,
    0,
    0,
    0,
    0,
    0,
    0,
    0,
    0,
    0,
    0,
    1552,
    1552,
    0,
    0,
    0,
    0,
    0,
    0,
    0,
    0,
    0,
    0,
    0,
    0,
    0,
    0,
    0,
    0,
    0,
    0,
    0,
    0,
    0,
    0,
    0,
    0,
    0,
    0,
    0,
    0,
    0,
    0,
    0,
    0,
    0,
    0,
    0,
    0,
    0,
    0,
    0,
    0,
    0,
    0,
    0,
    0,
    1552,
    1552,
    1552,
    1552,
    1552,
    1552,
    1552,
    1552,
    1552,
    1552,
    1552,
    1552,
    1552,
    1552,
    1552,
    1552,
    1552,
    0,
    0,
    0,
    0,
    0,
    0,
    0,
    0,
    0,
    0,
    0,
    0,
    0,
    0,
    0,
    0,
    1552,
    1552,
    1552,
    0,
    1552,
    0,
    0,
    1552,
    0,
    0,
    0,
    0,
    1552,
    0,
    0,
    0,
    0,
    0,
    1552,
    0,
    1552,
    0,
    0,
    1552,
    0,
    1552,
    1552,
    1552,
    0,
    1552,
    1552,
    1552,
    1552,
    1552,
    0,
    0,
    0,
    0,
    0,
    0,
    0,
    0,
    0,
    0,
    0,
    0,
    0,
    0,
    1552,
    0,
    1552,
    0,
    0,
    0,
    0,
    0,
    0,
    0,
    0,
    0,
    0,
    0,
    0,
    0,
    0,
    0,
    0,
    0,
    0,
    0,
    0,
    0,
    0,
    0,
    0,
    0,
    0,
    0,
    0,
    0,
    0,
    0,
    0,
    0,
    0,
    0,
    1552,
    0,
    0,
    0,
    0,
    0,
    0,
    0,
    0,
    0,
    1552,
    1552,
    1552,
    1552,
    1552,
    1552,
    1552,
    1552,
    1552,
    1552,
    1552,
    1552,
    1552,
    1552,
    1552,
    1552,
    1552,
    0,
    0,
    0,
    0,
    0,
    0,
    0,
    0,
    0,
    0,
    0,
    0,
    0,
    0,
    0,
    1552,
    1552,
    0,
    1552,
    0,
    0,
    0,
    0,
    0,
    0,
    0,
    0,
    0,
    0,
    0,
    0,
    0,
    0,
    0,
    0,
    1552,
    1552,
    1552,
    1552,
    1552,
    1552,
    1552,
    1552,
    0,
    1552,
    1552,
    1552,
    1552,
    0,
    0,
    0,
    0,
    0,
    0,
    0,
    0,
    0,
    0,
    0,
    0,
    0,
    0,
    0,
    0,
    0,
    0,
    0,
    0,
    0,
    0,
    0,
    0,
    0,
    0,
    0,
    0,
    0,
    0,
    0,
    0,
    0,
    0,
    0,
    0,
    0,
    0,
    0,
    0,
    0,
    0,
    0,
    0,
    0,
    0,
    0,
    0,
    0,
    0,
    0,
    0,
    0,
    0,
    0,
    0,
    0,
    0,
    0,
    0,
    0,
    0,
    0,
    1552,
    1552,
    1552,
    1552,
    1552,
    1552,
    1552,
    1552,
    1552,
    1552,
    1552,
    1552,
    1552,
    1552,
    1552,
    1552,
    1552,
    0,
    0,
    0,
    0,
    0,
    0,
    0,
    0,
    0,
    0,
    0,
    0,
    0,
    0,
    0,
    1552,
    0,
    1552,
    1552,
    0,
    0,
    0,
    0,
    0,
    0,
    0,
    0,
    0,
    0,
    0,
    0,
    0,
    0,
    0,
    0,
    0,
    0,
    1552,
    1552,
    1552,
    1552,
    1552,
    0,
    0,
    1552,
    1552,
    1552,
    0,
    0,
    0,
    0,
    0,
    0,
    0,
    0,
    0,
    0,
    0,
    0,
    0,
    0,
    0,
    0,
    0,
    0,
    0,
    0,
    0,
    0,
    0,
    0,
    0,
    0,
    0,
    0,
    0,
    0,
    0,
    0,
    0,
    0,
    0,
    0,
    0,
    0,
    0,
    0,
    0,
    0,
    0,
    0,
    0,
    0,
    0,
    0,
    0,
    0,
    1552,
    0,
    1552,
    1552,
    1552,
    0,
    0,
    0,
    0,
    0,
    0,
    0,
    0,
    0,
    1552,
    1552,
    1552,
    1552,
    1552,
    1552,
    1552,
    1552,
    1552,
    1552,
    1552,
    1552,
    1552,
    1552,
    1552,
    1552,
    1552,
    0,
    0,
    0,
    0,
    0,
    0,
    0,
    0,
    0,
    0,
    0,
    0,
    0,
    0,
    0,
    0,
    0,
    1552,
    1552,
    0,
    0,
    0,
    0,
    0,
    0,
    0,
    0,
    0,
    0,
    0,
    0,
    0,
    0,
    0,
    0,
    0,
    0,
    0,
    1552,
    0,
    0,
    0,
    0,
    0,
    0,
    1552,
    0,
    0,
    0,
    0,
    0,
    0,
    0,
    0,
    0,
    0,
    0,
    0,
    0,
    0,
    0,
    0,
    0,
    0,
    0,
    0,
    0,
    0,
    0,
    0,
    0,
    0,
    0,
    0,
    0,
    0,
    0,
    0,
    0,
    0,
    0,
    0,
    0,
    0,
    0,
    0,
    0,
    0,
    0,
    0,
    0,
    0,
    0,
    0,
    0,
    0,
    0,
    0,
    1552,
    1552,
    1552,
    0,
    1552,
    1552,
    0,
    0,
    0,
    0,
    0,
    0,
    0,
    1552,
    1552,
    1552,
    1552,
    1552,
    1552,
    1552,
    1552,
    1552,
    1552,
    1552,
    1552,
    1552,
    1552,
    1552,
    1552,
    1552,
    0,
    0,
    0,
    0,
    0,
    0,
    0,
    0,
    0,
    0,
    0,
    0,
    0,
    0,
    0,
    0,
    0,
    0,
    0,
    0,
    0,
    0,
    0,
    0,
    0,
    0,
    0,
    0,
    0,
    0,
    0,
    0,
    0,
    0,
    0,
    0,
    0,
    0,
    0,
    0,
    0,
    0,
    0,
    0,
    0,
    0,
    0,
    0,
    0,
    0,
    0,
    0,
    0,
    0,
    0,
    0,
    0,
    0,
    0,
    0,
    0,
    0,
    0,
    0,
    0,
    0,
    0,
    0,
    0,
    0,
    0,
    0,
    0,
    0,
    1552,
    0,
    0,
    0,
    1552,
    0,
    0,
    0,
    0,
    0,
    0,
    0,
    0,
    0,
    0,
    0,
    0,
    1552,
    0,
    0,
    0,
    0,
    0,
    0,
    1552,
    1552,
    1552,
    1552,
    0,
    0,
    0,
    0,
    0,
    0,
    0,
    0,
    0,
    1552,
    1552,
    1552,
    1552,
    1552,
    1552,
    1552,
    1552,
    1552,
    1552,
    1552,
    1552,
    1552,
    1552,
    1552,
    1552,
    1552,
    0,
    0,
    0,
    0,
    0,
    0,
    0,
    0,
    0,
    0,
    0,
    0,
    0,
    0,
    0,
    0,
    0,
    1552,
    0,
    0,
    0,
    0,
    0,
    0,
    0,
    0,
    0,
    0,
    0,
    0,
    0,
    0,
    0,
    0,
    0,
    0,
    0,
    0,
    0,
    0,
    0,
    0,
    0,
    0,
    0,
    0,
    0,
    0,
    0,
    0,
    0,
    0,
    0,
    0,
    0,
    0,
    0,
    0,
    0,
    0,
    0,
    0,
    0,
    0,
    0,
    0,
    0,
    0,
    0,
    0,
    0,
    0,
    0,
    0,
    0,
    1552,
    1552,
    1552,
    0,
    0,
    0,
    0,
    0,
    0,
    0,
    0,
    0,
    0,
    0,
    0,
    0,
    0,
    0,
    0,
    0,
    0,
    0,
    0,
    0,
    0,
    0,
    0,
    0,
    0,
    0,
    0,
    0,
    0,
    0,
    0,
    0,
    1552,
    1552,
    1552,
    1552,
    1552,
    1552,
    1552,
    1552,
    1552,
    1552,
    1552,
    1552,
    1552,
    1552,
    1552,
    1552,
    1552,
    0,
    0,
    0,
    0,
    0,
    0,
    0,
    0,
    0,
    0,
    0,
    0,
    0,
    0,
    0,
    0,
    0,
    0,
    0,
    0,
    0,
    0,
    0,
    0,
    0,
    0,
    0,
    0,
    0,
    0,
    0,
    0,
    0,
    0,
    0,
    0,
    0,
    0,
    0,
    0,
    0,
    0,
    0,
    0,
    0,
    0,
    0,
    0,
    0,
    0,
    0,
    0,
    0,
    0,
    0,
    0,
    0,
    0,
    0,
    0,
    0,
    0,
    0,
    0,
    0,
    0,
    0,
    0,
    0,
    0,
    0,
    0,
    0,
    0,
    1552,
    1552,
    1552,
    1552,
    0,
    0,
    0,
    0,
    0,
    0,
    0,
    0,
    0,
    0,
    0,
    0,
    0,
    0,
    0,
    0,
    0,
    0,
    0,
    0,
    0,
    0,
    0,
    0,
    0,
    0,
    0,
    0,
    0,
    0,
    0,
    0,
    1552,
    1552,
    1552,
    1552,
    1552,
    1552,
    1552,
    1552,
    1552,
    1552,
    1552,
    1552,
    1552,
    1552,
    1552,
    1552,
    1552,
    1552,
    0,
    0,
    0,
    0,
    0,
    0,
    0,
    0,
    0,
    0,
    0,
    0,
    0,
    0,
    0,
    0,
    0,
    0,
    0,
    0,
    1552,
    0,
    0,
    0,
    0,
    0,
    0,
    0,
    0,
    0,
    0,
    0,
    0,
    0,
    0,
    0,
    0,
    0,
    0,
    0,
    0,
    0,
    0,
    0,
    0,
    0,
    0,
    0,
    0,
    0,
    0,
    0,
    0,
    0,
    0,
    0,
    0,
    0,
    0,
    0,
    0,
    0,
    0,
    0,
    0,
    0,
    0,
    0,
    0,
    0,
    0,
    0,
    0,
    0,
    0,
    0,
    1552,
    1552,
    0,
    0,
    0,
    0,
    0,
    0,
    0,
    0,
    0,
    0,
    0,
    0,
    0,
    0,
    0,
    0,
    0,
    0,
    0,
    0,
    0,
    0,
    0,
    0,
    0,
    0,
    0,
    0,
    0,
    0,
    1552,
    1552,
    1552,
    1552,
    1552,
    1552,
    1552,
    1552,
    1552,
    1552,
    1552,
    1552,
    1552,
    1552,
    1552,
    1552,
    1552,
    1552,
    1552,
    0,
    0,
    0,
    0,
    0,
    0,
    0,
    0,
    0,
    0,
    0,
    0,
    0,
    0,
    0,
    0,
    0,
    0,
    1552,
    0,
    0,
    0,
    0,
    0,
    0,
    0,
    0,
    0,
    0,
    0,
    0,
    0,
    0,
    0,
    0,
    0,
    0,
    0,
    0,
    0,
    0,
    0,
    0,
    0,
    0,
    0,
    0,
    0,
    0,
    0,
    0,
    0,
    0,
    0,
    0,
    0,
    0,
    0,
    0,
    0,
    0,
    0,
    0,
    0,
    0,
    0,
    0,
    0,
    0,
    0,
    0,
    0,
    0,
    0,
    0,
    0,
    0,
    0,
    0,
    0,
    0,
    0,
    0,
    0,
    0,
    0,
    0,
    0,
    0,
    0,
    0,
    0,
    0,
    0,
    0,
    0,
    0,
    0,
    0,
    0,
    0,
    0,
    0,
    0,
    0,
    0,
    0,
    0,
    1552,
    1552,
    1552,
    1552,
    1552,
    1552,
    1552,
    1552,
    1552,
    1552,
    1552,
    1552,
    1552,
    1552,
    1552,
    1552,
    1552,
    1552,
    1552,
    1552,
    0,
    0,
    0,
    0,
    0,
    0,
    0,
    0,
    0,
    0,
    0,
    0,
    0,
    0,
    0,
    0,
    0,
    1552,
    1552,
    0,
    0,
    0,
    0,
    0,
    0,
    0,
    0,
    0,
    0,
    0,
    0,
    0,
    0,
    0,
    0,
    0,
    0,
    0,
    0,
    0,
    0,
    0,
    0,
    0,
    0,
    0,
    0,
    0,
    0,
    0,
    0,
    0,
    0,
    0,
    0,
    0,
    0,
    0,
    0,
    0,
    0,
    0,
    0,
    0,
    0,
    0,
    0,
    0,
    0,
    0,
    0,
    0,
    0,
    0,
    0,
    0,
    0,
    0,
    0,
    0,
    0,
    0,
    0,
    0,
    0,
    0,
    0,
    0,
    0,
    0,
    0,
    0,
    0,
    0,
    0,
    0,
    0,
    0,
    0,
    0,
    0,
    0,
    0,
    0,
    0,
    0,
    1552,
    1552,
    1552,
    1552,
    1552,
    1552,
    1552,
    1552,
    1552,
    1552,
    1552,
    1552,
    1552,
    1552,
    1552,
    1552,
    1552,
    1552,
    1552,
    1552,
    1552,
    1552,
    0,
    0,
    0,
    0,
    0,
    0,
    0,
    0,
    0,
    0,
    0,
    0,
    0,
    0,
    0,
    0,
    1552,
    1552,
    1552,
    0,
    0,
    0,
    0,
    0,
    0,
    0,
    0,
    0,
    0,
    0,
    0,
    0,
    0,
    0,
    0,
    0,
    0,
    0,
    0,
    0,
    0,
    0,
    0,
    0,
    0,
    0,
    0,
    0,
    0,
    0,
    0,
    0,
    0,
    0,
    0,
    0,
    0,
    0,
    0,
    0,
    0,
    0,
    0,
    0,
    0,
    0,
    0,
    0,
    0,
    0,
    0,
    0,
    0,
    0,
    0,
    0,
    0,
    0,
    0,
    0,
    0,
    0,
    0,
    0,
    0,
    0,
    0,
    0,
    0,
    0,
    0,
    0,
    0,
    0,
    0,
    0,
    0,
    0,
    0,
    0,
    0,
    0,
    0,
    0,
    0,
    1552,
    1552,
    1552,
    1552,
    1552,
    1552,
    1552,
    1552,
    1552,
    1552,
    1552,
    1552,
    1552,
    1552,
    1552,
    1552,
    1552,
    1552,
    1552,
    1552,
    1552,
    1552,
    1552,
    0,
    0,
    0,
    0,
    0,
    0,
    0,
    0,
    0,
    0,
    0,
    0,
    0,
    0,
    0,
    0,
    1552,
    1552,
    0,
    1552,
    0,
    0,
    0,
    0,
    0,
    0,
    0,
    0,
    0,
    0,
    0,
    0,
    0,
    0,
    0,
    0,
    0,
    0,
    0,
    0,
    0,
    0,
    0,
    0,
    0,
    0,
    0,
    0,
    0,
    0,
    0,
    0,
    0,
    0,
    0,
    0,
    0,
    0,
    0,
    0,
    0,
    0,
    0,
    0,
    0,
    0,
    0,
    0,
    0,
    0,
    0,
    0,
    0,
    0,
    0,
    0,
    0,
    0,
    0,
    0,
    0,
    0,
    0,
    0,
    0,
    0,
    0,
    0,
    0,
    0,
    0,
    0,
    0,
    0,
    0,
    0,
    0,
    0,
    0,
    0,
    0,
    0,
    0,
    0,
    1552,
    1552,
    1552,
    1552,
    1552,
    1552,
    1552,
    1552,
    1552,
    1552,
    1552,
    1552,
    1552,
    1552,
    1552,
    1552,
    1552,
    1552,
    1552,
    1552,
    1552,
    1552,
    1552,
    1552,
    0,
    0,
    0,
    0,
    0,
    0,
    0,
    0,
    0,
    0,
    0,
    0,
    0,
    0,
    0,
    0,
    1552,
    1552,
    1552,
    0,
    1552,
    0,
    0,
    0,
    0,
    0,
    0,
    0,
    0,
    0,
    0,
    0,
    0,
    0,
    0,
    0,
    0,
    0,
    0,
    0,
    0,
    0,
    0,
    0,
    0,
    0,
    0,
    0,
    0,
    0,
    0,
    0,
    0,
    0,
    0,
    0,
    0,
    0,
    0,
    0,
    0,
    0,
    0,
    0,
    0,
    0,
    0,
    0,
    0,
    0,
    0,
    0,
    0,
    0,
    0,
    0,
    0,
    0,
    0,
    0,
    0,
    0,
    0,
    0,
    0,
    0,
    0,
    0,
    0,
    0,
    0,
    0,
    0,
    0,
    0,
    0,
    0,
    0,
    0,
    0,
    0,
    0,
    0,
    1552,
    1552,
    1552,
    1552,
    1552,
    1552,
    1552,
    1552,
    1552,
    1552,
    1552,
    1552,
    1552,
    1552,
    1552,
    1552,
    1552,
    1552,
    1552,
    1552,
    1552,
    1552,
    1552,
    1552,
    0,
    0,
    0,
    0,
    0,
    0,
    0,
    0,
    0,
    0,
    0,
    0,
    0,
    0,
    0,
    0,
    0,
    0,
    1552,
    1552,
    1552,
    0,
    0,
    0,
    0,
    0,
    0,
    0,
    0,
    0,
    0,
    0,
    0,
    0,
    0,
    0,
    0,
    0,
    0,
    0,
    0,
    0,
    0,
    0,
    0,
    0,
    0,
    0,
    0,
    0,
    0,
    0,
    0,
    0,
    0,
    0,
    0,
    0,
    0,
    0,
    0,
    0,
    0,
    0,
    0,
    0,
    0,
    0,
    0,
    0,
    0,
    0,
    0,
    0,
    0,
    0,
    0,
    0,
    0,
    0,
    0,
    0,
    0,
    0,
    0,
    0,
    0,
    0,
    0,
    0,
    0,
    0,
    0,
    0,
    0,
    0,
    0,
    0,
    0,
    0,
    0,
    0,
    0,
    0,
    1552,
    1552,
    1552,
    1552,
    1552,
    1552,
    1552,
    1552,
    1552,
    1552,
    1552,
    1552,
    1552,
    1552,
    1552,
    1552,
    1552,
    1552,
    1552,
    1552,
    1552,
    1552,
    1552,
    0,
    0,
    0,
    0,
    0,
    0,
    0,
    0,
    0,
    0,
    0,
    0,
    0,
    0,
    0,
    0,
    0,
    0,
    1552,
    0,
    1552,
    1552,
    0,
    0,
    0,
    0,
    0,
    0,
    0,
    0,
    0,
    0,
    0,
    0,
    0,
    0,
    0,
    0,
    0,
    0,
    0,
    0,
    0,
    0,
    0,
    0,
    0,
    0,
    0,
    0,
    0,
    0,
    0,
    0,
    0,
    0,
    0,
    0,
    0,
    0,
    0,
    0,
    0,
    0,
    0,
    0,
    0,
    0,
    0,
    0,
    0,
    0,
    0,
    0,
    0,
    0,
    0,
    0,
    0,
    0,
    0,
    0,
    0,
    0,
    0,
    0,
    0,
    0,
    0,
    0,
    1552,
    0,
    0,
    0,
    0,
    0,
    0,
    0,
    0,
    0,
    0,
    0,
    0,
    0,
    0,
    1552,
    1552,
    1552,
    1552,
    1552,
    1552,
    1552,
    1552,
    1552,
    1552,
    1552,
    1552,
    1552,
    1552,
    1552,
    1552,
    1552,
    1552,
    1552,
    1552,
    1552,
    1552,
    0,
    0,
    0,
    0,
    0,
    0,
    0,
    0,
    0,
    0,
    0,
    0,
    0,
    0,
    0,
    0,
    0,
    0,
    0,
    0,
    1552,
    0,
    0,
    0,
    0,
    0,
    0,
    0,
    0,
    0,
    0,
    0,
    0,
    0,
    0,
    0,
    0,
    0,
    0,
    0,
    0,
    0,
    0,
    0,
    0,
    0,
    0,
    0,
    0,
    0,
    0,
    0,
    0,
    0,
    0,
    0,
    0,
    0,
    0,
    0,
    0,
    0,
    0,
    0,
    0,
    0,
    0,
    0,
    0,
    0,
    0,
    0,
    0,
    0,
    0,
    0,
    0,
    0,
    0,
    0,
    0,
    0,
    0,
    0,
    0,
    0,
    0,
    0,
    0,
    0,
    0,
    0,
    0,
    0,
    0,
    0,
    0,
    0,
    0,
    0,
    0,
    0,
    0,
    0,
    0,
    0,
    1552,
    1552,
    1552,
    1552,
    1552,
    1552,
    1552,
    1552,
    1552,
    1552,
    1552,
    1552,
    1552,
    1552,
    1552,
    1552,
    1552,
    1552,
    1552,
    1552,
    1552,
    0,
    0,
    0,
    0,
    0,
    0,
    0,
    0,
    0,
    0,
    0,
    0,
    0,
    0,
    0,
    1552,
    0,
    0,
    0,
    0,
    1552,
    0,
    0,
    0,
    0,
    0,
    0,
    0,
    0,
    0,
    0,
    0,
    0,
    0,
    0,
    0,
    0,
    0,
    0,
    0,
    0,
    0,
    0,
    0,
    0,
    0,
    0,
    0,
    0,
    0,
    0,
    0,
    0,
    0,
    0,
    0,
    0,
    0,
    0,
    0,
    0,
    0,
    0,
    0,
    0,
    0,
    0,
    0,
    0,
    0,
    0,
    0,
    0,
    0,
    0,
    0,
    0,
    0,
    0,
    0,
    0,
    0,
    0,
    0,
    0,
    0,
    0,
    0,
    0,
    0,
    0,
    0,
    0,
    0,
    0,
    0,
    0,
    0,
    0,
    0,
    0,
    0,
    0,
    0,
    0,
    0,
    0,
    1552,
    1552,
    1552,
    1552,
    1552,
    1552,
    1552,
    1552,
    1552,
    1552,
    1552,
    1552,
    1552,
    1552,
    1552,
    1552,
    1552,
    1552,
    1552,
    1552,
    0,
    1552,
    0,
    0,
    0,
    0,
    0,
    0,
    0,
    0,
    0,
    0,
    0,
    0,
    0,
    0,
    0,
    0,
    0,
    1552,
    1552,
    0,
    0,
    0,
    0,
    0,
    0,
    0,
    0,
    0,
    0,
    0,
    0,
    0,
    0,
    0,
    0,
    0,
    0,
    0,
    0,
    0,
    0,
    0,
    0,
    0,
    0,
    0,
    0,
    0,
    0,
    0,
    0,
    0,
    0,
    0,
    0,
    0,
    0,
    0,
    0,
    0,
    0,
    0,
    0,
    0,
    0,
    0,
    0,
    0,
    0,
    0,
    0,
    0,
    0,
    0,
    0,
    0,
    0,
    0,
    0,
    0,
    0,
    0,
    0,
    0,
    0,
    0,
    0,
    0,
    0,
    0,
    0,
    0,
    0,
    0,
    0,
    0,
    0,
    0,
    0,
    0,
    0,
    0,
    0,
    0,
    0,
    1552,
    1552,
    1552,
    1552,
    1552,
    1552,
    1552,
    1552,
    1552,
    1552,
    1552,
    1552,
    1552,
    1552,
    1552,
    1552,
    1552,
    1552,
    1552,
    0,
    0,
    0,
    0,
    0,
    0,
    0,
    0,
    0,
    0,
    0,
    0,
    0,
    0,
    0,
    0,
    0,
    0,
    1552,
    0,
    1552,
    1552,
    1552,
    0,
    0,
    0,
    0,
    0,
    0,
    0,
    0,
    0,
    0,
    0,
    0,
    0,
    0,
    0,
    0,
    0,
    0,
    0,
    0,
    0,
    0,
    0,
    0,
    0,
    0,
    0,
    0,
    0,
    0,
    0,
    0,
    0,
    0,
    0,
    0,
    0,
    0,
    0,
    0,
    0,
    0,
    0,
    0,
    0,
    0,
    0,
    0,
    0,
    0,
    0,
    0,
    1552,
    0,
    0,
    0,
    0,
    0,
    1552,
    0,
    0,
    0,
    0,
    0,
    0,
    0,
    0,
    0,
    0,
    0,
    0,
    0,
    0,
    0,
    0,
    0,
    0,
    0,
    0,
    0,
    0,
    0,
    0,
    0,
    1552,
    1552,
    1552,
    1552,
    1552,
    1552,
    1552,
    1552,
    1552,
    1552,
    1552,
    1552,
    1552,
    1552,
    1552,
    1552,
    1552,
    1552,
    1552,
    1552,
    0,
    0,
    0,
    0,
    0,
    0,
    0,
    0,
    0,
    0,
    0,
    0,
    0,
    0,
    0,
    0,
    0,
    0,
    0,
    0,
    1552,
    1552,
    0,
    1552,
    1552,
    1552,
    0,
    0,
    0,
    0,
    0,
    0,
    0,
    0,
    0,
    0,
    0,
    0,
    0,
    0,
    0,
    0,
    0,
    0,
    0,
    0,
    0,
    0,
    0,
    0,
    0,
    0,
    0,
    0,
    0,
    0,
    0,
    0,
    0,
    0,
    0,
    0,
    0,
    0,
    0,
    0,
    0,
    0,
    0,
    0,
    0,
    0,
    0,
    0,
    0,
    1552,
    1552,
    1552,
    0,
    1552,
    0,
    1552,
    0,
    0,
    0,
    0,
    1552,
    0,
    0,
    0,
    0,
    0,
    0,
    0,
    0,
    0,
    0,
    0,
    0,
    0,
    0,
    0,
    0,
    1552,
    1552,
    1552,
    1552,
    1552,
    1552,
    1552,
    1552,
    1552,
    1552,
    1552,
    1552,
    1552,
    1552,
    1552,
    1552,
    1552,
    1552,
    1552,
    1552,
    1552,
    1552,
    1552,
    1552,
    0,
    0,
    0,
    0,
    0,
    0,
    0,
    0,
    0,
    0,
    0,
    0,
    0,
    0,
    0,
    0,
    0,
    0,
    0,
    0,
    0,
    1552,
    1552,
    1552,
    1552,
    1552,
    1552,
    0,
    0,
    0,
    0,
    0,
    0,
    0,
    0,
    0,
    0,
    0,
    0,
    0,
    0,
    0,
    0,
    0,
    0,
    0,
    0,
    0,
    0,
    0,
    0,
    0,
    0,
    0,
    0,
    0,
    0,
    0,
    0,
    0,
    0,
    0,
    0,
    0,
    0,
    0,
    0,
    0,
    0,
    0,
    0,
    0,
    0,
    0,
    0,
    0,
    0,
    1552,
    1552,
    1552,
    1552,
    1552,
    1552,
    1552,
    0,
    0,
    0,
    0,
    0,
    0,
    0,
    0,
    0,
    0,
    0,
    0,
    0,
    0,
    0,
    1552,
    1552,
    1552,
    1552,
    1552,
    1552,
    1552,
    1552,
    1552,
    1552,
    1552,
    1552,
    1552,
    1552,
    1552,
    1552,
    1552,
    1552,
    1552,
    1552,
    1552,
    1552,
    1552,
    1552,
    1552,
    1552,
    1552,
    1552,
    0,
    0,
    0,
    0,
    0,
    0,
    0,
    0,
    0,
    0,
    0,
    0,
    0,
    0,
    0,
    0,
    0,
    0,
    0,
    0,
    0,
    1552,
    0,
    1552,
    1552,
    1552,
    0,
    0,
    0,
    0,
    0,
    0,
    0,
    0,
    0,
    0,
    0,
    0,
    0,
    0,
    0,
    0,
    0,
    0,
    0,
    0,
    0,
    0,
    0,
    0,
    0,
    0,
    0,
    0,
    0,
    0,
    0,
    0,
    0,
    0,
    0,
    0,
    0,
    0,
    0,
    0,
    0,
    0,
    0,
    0,
    0,
    0,
    0,
    0,
    0,
    0,
    0,
    0,
    0,
    1552,
    1552,
    1552,
    1552,
    1552,
    0,
    0,
    0,
    0,
    0,
    0,
    0,
    0,
    0,
    0,
    0,
    0,
    0,
    0,
    0,
    1552,
    1552,
    1552,
    1552,
    1552,
    1552,
    1552,
    1552,
    1552,
    1552,
    1552,
    1552,
    1552,
    1552,
    1552,
    1552,
    1552,
    1552,
    1552,
    1552,
    1552,
    1552,
    1552,
    1552,
    1552,
    1552,
    1552,
    1552,
    0,
    0,
    0,
    0,
    0,
    0,
    0,
    0,
    0,
    0,
    0,
    0,
    0,
    0,
    0,
    0,
    0,
    0,
    0,
    0,
    0,
    0,
    0,
    1552,
    1552,
    1552,
    0,
    1552,
    0,
    0,
    0,
    0,
    1552,
    0,
    0,
    0,
    0,
    0,
    0,
    0,
    0,
    0,
    0,
    0,
    0,
    0,
    0,
    0,
    0,
    0,
    0,
    0,
    0,
    0,
    0,
    0,
    0,
    0,
    0,
    0,
    0,
    0,
    0,
    0,
    0,
    0,
    0,
    0,
    0,
    0,
    0,
    0,
    0,
    0,
    0,
    0,
    0,
    0,
    1552,
    0,
    0,
    1552,
    1552,
    1552,
    1552,
    0,
    0,
    0,
    0,
    0,
    0,
    0,
    0,
    0,
    0,
    0,
    0,
    0,
    1552,
    1552,
    1552,
    1552,
    1552,
    1552,
    1552,
    1552,
    1552,
    1552,
    1552,
    1552,
    1552,
    1552,
    1552,
    1552,
    1552,
    1552,
    1552,
    1552,
    1552,
    1552,
    1552,
    1552,
    1552,
    1552,
    1552,
    1552,
    0,
    0,
    0,
    0,
    0,
    0,
    0,
    0,
    0,
    0,
    0,
    0,
    0,
    0,
    0,
    0,
    0,
    0,
    0,
    0,
    0,
    0,
    0,
    1552,
    1552,
    1552,
    1552,
    1552,
    1552,
    0,
    1552,
    1552,
    0,
    0,
    0,
    0,
    0,
    0,
    0,
    0,
    0,
    0,
    0,
    0,
    0,
    0,
    0,
    0,
    0,
    0,
    0,
    0,
    0,
    0,
    0,
    0,
    0,
    0,
    0,
    0,
    0,
    0,
    0,
    0,
    0,
    0,
    0,
    0,
    0,
    0,
    0,
    0,
    0,
    0,
    0,
    0,
    0,
    0,
    0,
    0,
    0,
    0,
    0,
    1552,
    0,
    0,
    0,
    0,
    0,
    0,
    0,
    1552,
    1552,
    1552,
    1552,
    1552,
    1552,
    1552,
    1552,
    1552,
    1552,
    1552,
    1552,
    1552,
    1552,
    1552,
    1552,
    1552,
    1552,
    1552,
    1552,
    1552,
    1552,
    1552,
    1552,
    1552,
    1552,
    1552,
    1552,
    1552,
    1552,
    1552,
    1552,
    1552,
    1552,
    1552,
    1552,
    0,
    0,
    0,
    0,
    0,
    0,
    0,
    0,
    0,
    0,
    0,
    0,
    0,
    0,
    0,
    0,
    0,
    0,
    0,
    0,
    0,
    0,
    1552,
    1552,
    1552,
    1552,
    1552,
    0,
    1552,
    1552,
    1552,
    0,
    0,
    0,
    0,
    0,
    0,
    0,
    0,
    0,
    0,
    0,
    0,
    0,
    0,
    0,
    0,
    0,
    0,
    0,
    0,
    0,
    0,
    0,
    0,
    0,
    0,
    0,
    0,
    0,
    0,
    0,
    0,
    0,
    0,
    0,
    0,
    0,
    0,
    0,
    0,
    0,
    0,
    0,
    0,
    0,
    0,
    0,
    0,
    0,
    0,
    0,
    0,
    0,
    0,
    0,
    0,
    0,
    0,
    1552,
    1552,
    1552,
    1552,
    1552,
    1552,
    1552,
    1552,
    1552,
    1552,
    1552,
    1552,
    1552,
    1552,
    1552,
    1552,
    1552,
    1552,
    1552,
    1552,
    1552,
    1552,
    1552,
    1552,
    1552,
    1552,
    1552,
    1552,
    1552,
    1552,
    1552,
    1552,
    1552,
    1552,
    1552,
    1552,
    1552,
    1552,
    0,
    0,
    0,
    0,
    0,
    0,
    0,
    0,
    0,
    0,
    0,
    0,
    0,
    0,
    0,
    0,
    0,
    0,
    0,
    0,
    0,
    1552,
    1552,
    1552,
    1552,
    1552,
    1552,
    0,
    1552,
    1552,
    1552,
    0,
    1552,
    1552,
    0,
    0,
    0,
    0,
    0,
    0,
    0,
    0,
    0,
    0,
    0,
    0,
    0,
    0,
    0,
    0,
    0,
    0,
    0,
    0,
    0,
    0,
    0,
    0,
    0,
    0,
    0,
    0,
    0,
    0,
    0,
    0,
    0,
    0,
    0,
    0,
    0,
    0,
    0,
    0,
    0,
    0,
    0,
    0,
    0,
    0,
    0,
    0,
    1552,
    1552,
    1552,
    1552,
    1552,
    1552,
    1552,
    1552,
    1552,
    1552,
    1552,
    1552,
    1552,
    1552,
    1552,
    1552,
    1552,
    1552,
    1552,
    1552,
    1552,
    1552,
    1552,
    1552,
    1552,
    1552,
    1552,
    1552,
    1552,
    1552,
    1552,
    1552,
    1552,
    1552,
    1552,
    1552,
    1552,
    1552,
    1552,
    1552,
    1552,
    1552,
    1552,
    1552,
    1552,
    0,
    0,
    0,
    0,
    0,
    0,
    0,
    0,
    0,
    0,
    0,
    0,
    0,
    0,
    0,
    0,
    0,
    0,
    0,
    0,
    0,
    0,
    1552,
    1552,
    1552,
    1552,
    1552,
    1552,
    1552,
    1552,
    1552,
    1552,
    0,
    1552,
    1552,
    0,
    0,
    0,
    0,
    0,
    0,
    0,
    0,
    0,
    0,
    0,
    0,
    0,
    0,
    0,
    0,
    0,
    0,
    0,
    0,
    0,
    0,
    0,
    0,
    0,
    0,
    0,
    0,
    0,
    0,
    0,
    0,
    0,
    0,
    0,
    0,
    0,
    0,
    0,
    0,
    0,
    0,
    0,
    0,
    0,
    0,
    0,
    0,
    1552,
    1552,
    1552,
    1552,
    1552,
    1552,
    1552,
    1552,
    1552,
    1552,
    1552,
    1552,
    1552,
    1552,
    1552,
    1552,
    1552,
    1552,
    1552,
    1552,
    1552,
    1552,
    1552,
    0,
    0,
    0,
    0,
    0,
    1552,
    1552,
    1552,
    1552,
    1552,
    1552,
    1552,
    1552,
    1552,
    1552,
    1552,
    1552,
    1552,
    1552,
    1552,
    1552,
    0,
    0,
    0,
    0,
    0,
    0,
    0,
    0,
    0,
    0,
    0,
    0,
    0,
    0,
    0,
    0,
    0,
    0,
    0,
    0,
    0,
    0,
    0,
    1552,
    0,
    0,
    0,
    1552,
    1552,
    1552,
    1552,
    1552,
    0,
    1552,
    0,
    1552,
    0,
    0,
    0,
    0,
    0,
    0,
    0,
    0,
    0,
    0,
    0,
    0,
    0,
    0,
    0,
    0,
    0,
    0,
    0,
    0,
    0,
    0,
    0,
    0,
    0,
    0,
    0,
    0,
    0,
    0,
    0,
    0,
    0,
    0,
    0,
    0,
    0,
    0,
    0,
    0,
    0,
    0,
    0,
    0,
    0,
    0,
    0,
    0,
    1552,
    1552,
    1552,
    1552,
    1552,
    1552,
    1552,
    1552,
    1552,
    1552,
    1552,
    1552,
    1552,
    1552,
    1552,
    1552,
    1552,
    1552,
    1552,
    1552,
    1552,
    1552,
    0,
    0,
    0,
    0,
    0,
    0,
    1552,
    1552,
    1552,
    1552,
    1552,
    1552,
    1552,
    1552,
    1552,
    1552,
    1552,
    1552,
    1552,
    1552,
    1552,
    0,
    0,
    0,
    0,
    0,
    0,
    0,
    0,
    0,
    0,
    0,
    0,
    0,
    0,
    0,
    0,
    0,
    0,
    0,
    0,
    0,
    0,
    0,
    0,
    0,
    0,
    1552,
    1552,
    1552,
    1552,
    1552,
    1552,
    1552,
    0,
    1552,
    1552,
    0,
    0,
    0,
    0,
    0,
    0,
    0,
    0,
    0,
    0,
    0,
    0,
    0,
    0,
    0,
    0,
    0,
    0,
    0,
    0,
    0,
    0,
    0,
    0,
    0,
    0,
    0,
    0,
    0,
    0,
    0,
    0,
    0,
    0,
    0,
    0,
    0,
    0,
    0,
    0,
    0,
    0,
    0,
    0,
    0,
    0,
    0,
    0,
    0,
    1552,
    1552,
    1552,
    1552,
    1552,
    1552,
    1552,
    1552,
    1552,
    1552,
    1552,
    1552,
    1552,
    1552,
    1552,
    1552,
    1552,
    1552,
    1552,
    1552,
    1552,
    1552,
    1552,
    0,
    0,
    0,
    0,
    0,
    1552,
    1552,
    1552,
    1552,
    1552,
    1552,
    1552,
    1552,
    1552,
    1552,
    1552,
    1552,
    1552,
    1552,
    0,
    0,
    0,
    0,
    0,
    0,
    0,
    0,
    0,
    0,
    0,
    0,
    0,
    0,
    0,
    0,
    0,
    0,
    0,
    0,
    0,
    0,
    0,
    0,
    0,
    0,
    0,
    1552,
    1552,
    1552,
    1552,
    1552,
    1552,
    1552,
    0,
    1552,
    1552,
    1552,
    0,
    0,
    0,
    0,
    0,
    0,
    0,
    0,
    0,
    0,
    0,
    0,
    0,
    0,
    0,
    0,
    0,
    0,
    0,
    0,
    0,
    0,
    0,
    0,
    0,
    0,
    0,
    0,
    0,
    0,
    0,
    0,
    0,
    0,
    0,
    0,
    0,
    0,
    0,
    0,
    0,
    0,
    0,
    0,
    0,
    0,
    0,
    0,
    1552,
    1552,
    1552,
    1552,
    1552,
    1552,
    1552,
    1552,
    1552,
    1552,
    1552,
    1552,
    1552,
    1552,
    1552,
    1552,
    1552,
    1552,
    1552,
    1552,
    1552,
    1552,
    1552,
    0,
    0,
    0,
    0,
    0,
    1552,
    1552,
    1552,
    1552,
    1552,
    1552,
    1552,
    1552,
    1552,
    1552,
    1552,
    1552,
    1552,
    0,
    0,
    0,
    0,
    0,
    0,
    0,
    0,
    0,
    0,
    0,
    0,
    0,
    0,
    0,
    0,
    0,
    0,
    0,
    0,
    0,
    0,
    0,
    0,
    0,
    0,
    0,
    0,
    0,
    1552,
    1552,
    1552,
    1552,
    1552,
    1552,
    1552,
    1552,
    1552,
    0,
    0,
    0,
    0,
    0,
    0,
    0,
    0,
    0,
    0,
    0,
    0,
    0,
    0,
    0,
    0,
    0,
    0,
    0,
    0,
    0,
    0,
    0,
    0,
    0,
    0,
    0,
    0,
    0,
    0,
    0,
    0,
    0,
    0,
    0,
    0,
    0,
    0,
    0,
    0,
    0,
    0,
    0,
    0,
    0,
    0,
    0,
    0,
    0,
    1552,
    1552,
    1552,
    1552,
    1552,
    1552,
    1552,
    1552,
    1552,
    1552,
    1552,
    1552,
    1552,
    1552,
    1552,
    1552,
    1552,
    1552,
    1552,
    1552,
    1552,
    1552,
    1552,
    1552,
    0,
    0,
    0,
    0,
    1552,
    1552,
    1552,
    1552,
    1552,
    1552,
    1552,
    1552,
    1552,
    1552,
    1552,
    1552,
    0,
    0,
    0,
    0,
    0,
    0,
    0,
    0,
    0,
    0,
    0,
    0,
    0,
    0,
    0,
    0,
    0,
    0,
    0,
    0,
    0,
    0,
    0,
    0,
    0,
    0,
    0,
    0,
    0,
    0,
    0,
    1552,
    1552,
    1552,
    1552,
    1552,
    1552,
    0,
    1552,
    0,
    0,
    0,
    0,
    0,
    0,
    0,
    0,
    0,
    0,
    0,
    0,
    0,
    0,
    0,
    0,
    0,
    0,
    0,
    0,
    0,
    0,
    0,
    0,
    0,
    0,
    0,
    0,
    0,
    0,
    0,
    0,
    0,
    0,
    0,
    0,
    0,
    0,
    0,
    0,
    0,
    0,
    0,
    0,
    0,
    0,
    0,
    0,
    0,
    1552,
    1552,
    1552,
    1552,
    1552,
    1552,
    1552,
    1552,
    1552,
    1552,
    1552,
    1552,
    1552,
    1552,
    1552,
    1552,
    1552,
    1552,
    1552,
    1552,
    1552,
    1552,
    1552,
    1552,
    1552,
    1552,
    1552,
    1552,
    1552,
    1552,
    1552,
    1552,
    1552,
    1552,
    1552,
    1552,
    1552,
    1552,
    1552,
    0,
    0,
    0,
    0,
    0,
    0,
    0,
    0,
    0,
    0,
    0,
    0,
    0,
    0,
    0,
    0,
    0,
    0,
    0,
    0,
    0,
    0,
    0,
    0,
    0,
    0,
    0,
    0,
    0,
    0,
    0,
    0,
    1552,
    1552,
    1552,
    0,
    0,
    1552,
    0,
    0,
    0,
    0,
    0,
    0,
    0,
    0,
    0,
    0,
    0,
    0,
    0,
    0,
    0,
    0,
    0,
    0,
    0,
    0,
    0,
    0,
    0,
    0,
    0,
    0,
    0,
    0,
    0,
    0,
    0,
    0,
    0,
    0,
    0,
    0,
    0,
    0,
    0,
    0,
    0,
    0,
    0,
    0,
    0,
    0,
    0,
    0,
    0,
    0,
    0,
    1552,
    1552,
    1552,
    1552,
    1552,
    1552,
    1552,
    1552,
    1552,
    1552,
    1552,
    1552,
    1552,
    1552,
    1552,
    1552,
    1552,
    1552,
    1552,
    1552,
    1552,
    1552,
    1552,
    1552,
    1552,
    1552,
    1552,
    1552,
    1552,
    1552,
    1552,
    1552,
    0,
    0,
    0,
    0,
    1552,
    1552,
    0,
    0,
    0,
    0,
    0,
    0,
    0,
    0,
    0,
    0,
    0,
    0,
    0,
    0,
    0,
    0,
    0,
    0,
    0,
    0,
    0,
    0,
    0,
    0,
    0,
    0,
    0,
    0,
    0,
    0,
    0,
    0,
    0,
    0,
    0,
    0,
    1552,
    0,
    1552,
    1552,
    1552,
    0,
    0,
    0,
    0,
    0,
    0,
    0,
    0,
    0,
    0,
    0,
    0,
    0,
    0,
    0,
    0,
    0,
    0,
    0,
    0,
    0,
    0,
    0,
    0,
    0,
    0,
    0,
    0,
    0,
    0,
    0,
    0,
    0,
    0,
    0,
    0,
    0,
    0,
    0,
    0,
    0,
    0,
    0,
    0,
    0,
    0,
    0,
    0,
    0,
    1552,
    1552,
    1552,
    1552,
    1552,
    1552,
    1552,
    1552,
    1552,
    1552,
    1552,
    1552,
    1552,
    1552,
    1552,
    1552,
    1552,
    1552,
    1552,
    1552,
    1552,
    1552,
    1552,
    1552,
    1552,
    1552,
    1552,
    1552,
    1552,
    1552,
    1552,
    0,
    0,
    0,
    0,
    0,
    0,
    0,
    0,
    0,
    0,
    0,
    0,
    0,
    0,
    0,
    0,
    0,
    0,
    0,
    0,
    0,
    0,
    0,
    0,
    0,
    0,
    0,
    0,
    0,
    0,
    0,
    0,
    0,
    0,
    0,
    0,
    0,
    0,
    0,
    0,
    0,
    0,
    0,
    0,
    0,
    0,
    1552,
    1552,
    1552,
    0,
    0,
    0,
    0,
    0,
    0,
    0,
    0,
    0,
    0,
    0,
    0,
    0,
    0,
    0,
    0,
    0,
    0,
    0,
    0,
    0,
    0,
    0,
    0,
    0,
    0,
    0,
    0,
    0,
    0,
    0,
    0,
    0,
    0,
    0,
    0,
    0,
    0,
    0,
    0,
    0,
    0,
    0,
    0,
    0,
    0,
    0,
    0,
    1552,
    1552,
    1552,
    1552,
    1552,
    1552,
    1552,
    1552,
    1552,
    1552,
    1552,
    1552,
    1552,
    1552,
    1552,
    1552,
    1552,
    1552,
    1552,
    1552,
    1552,
    1552,
    1552,
    1552,
    1552,
    1552,
    1552,
    1552,
    1552,
    1552,
    0,
    0,
    0,
    0,
    0,
    0,
    0,
    0,
    0,
    0,
    0,
    0,
    0,
    0,
    0,
    0,
    0,
    0,
    0,
    0,
    0,
    0,
    0,
    0,
    0,
    1552,
    0,
    0,
    0,
    0,
    0,
    0,
    0,
    0,
    0,
    0,
    0,
    0,
    0,
    0,
    0,
    0,
    0,
    0,
    0,
    0,
    0,
    1552,
    0,
    0,
    0,
    0,
    0,
    0,
    0,
    0,
    0,
    0,
    0,
    0,
    0,
    0,
    0,
    0,
    0,
    0,
    0,
    0,
    0,
    0,
    0,
    0,
    0,
    0,
    0,
    0,
    0,
    0,
    0,
    0,
    0,
    0,
    0,
    0,
    0,
    0,
    0,
    0,
    0,
    0,
    0,
    0,
    0,
    0,
    0,
    0,
    0,
    0,
    1552,
    1552,
    1552,
    1552,
    1552,
    1552,
    1552,
    1552,
    1552,
    1552,
    1552,
    1552,
    1552,
    1552,
    1552,
    1552,
    1552,
    1552,
    1552,
    1552,
    1552,
    0,
    0,
    0,
    0,
    0,
    0,
    1552,
    1552,
    0,
    0,
    0,
    0,
    0,
    0,
    0,
    0,
    0,
    0,
    0,
    0,
    0,
    0,
    0,
    0,
    0,
    0,
    0,
    0,
    0,
    0,
    0,
    0,
    1552,
    0,
    0,
    0,
    0,
    0,
    0,
    0,
    0,
    0,
    0,
    0,
    0,
    0,
    0,
    0,
    0,
    0,
    0,
    0,
    0,
    0,
    0,
    0,
    0,
    0,
    0,
    0,
    0,
    0,
    0,
    0,
    0,
    0,
    0,
    0,
    0,
    0,
    0,
    0,
    0,
    0,
    0,
    0,
    0,
    0,
    0,
    0,
    0,
    0,
    0,
    0,
    0,
    0,
    0,
    0,
    0,
    0,
    0,
    0,
    0,
    0,
    0,
    0,
    0,
    0,
    0,
    0,
    0,
    0,
    0,
    0,
    0,
    0,
    0,
    1552,
    1552,
    1552,
    1552,
    1552,
    1552,
    1552,
    1552,
    1552,
    1552,
    1552,
    1552,
    1552,
    1552,
    1552,
    1552,
    1552,
    1552,
    1552,
    1552,
    0,
    0,
    0,
    0,
    0,
    0,
    0,
    0,
    0,
    0,
    0,
    0,
    0,
    0,
    0,
    0,
    0,
    0,
    0,
    0,
    0,
    0,
    0,
    0,
    0,
    0,
    0,
    0,
    0,
    0,
    0,
    0,
    0,
    0,
    0,
    0,
    0,
    0,
    0,
    0,
    0,
    0,
    0,
    0,
    0,
    0,
    0,
    0,
    0,
    0,
    0,
    0,
    0,
    0,
    0,
    0,
    0,
    0,
    0,
    0,
    0,
    0,
    0,
    0,
    0,
    0,
    0,
    0,
    0,
    0,
    0,
    0,
    0,
    0,
    0,
    0,
    0,
    0,
    0,
    0,
    0,
    0,
    0,
    0,
    0,
    0,
    0,
    0,
    0,
    0,
    0,
    0,
    0,
    0,
    0,
    0,
    0,
    0,
    0,
    0,
    0,
    0,
    0,
    0,
    0,
    0,
    0,
    0,
    1552,
    1552,
    1552,
    1552,
    1552,
    1552,
    1552,
    1552,
    1552,
    1552,
    1552,
    1552,
    1552,
    1552,
    1552,
    1552,
    1552,
    1552,
    1552,
    0,
    0,
    0,
    0,
    0,
    0,
    0,
    0,
    0,
    0,
    0,
    0,
    0,
    0,
    0,
    0,
    0,
    0,
    0,
    0,
    0,
    0,
    0,
    0,
    0,
    0,
    0,
    0,
    0,
    0,
    0,
    0,
    0,
    0,
    0,
    0,
    0,
    0,
    0,
    0,
    0,
    0,
    0,
    0,
    0,
    0,
    0,
    0,
    0,
    0,
    0,
    0,
    0,
    0,
    0,
    0,
    0,
    0,
    0,
    0,
    0,
    0,
    0,
    0,
    0,
    0,
    0,
    0,
    0,
    0,
    0,
    0,
    0,
    0,
    0,
    0,
    0,
    0,
    0,
    0,
    0,
    0,
    0,
    0,
    0,
    0,
    0,
    0,
    0,
    0,
    0,
    0,
    0,
    0,
    0,
    0,
    0,
    0,
    0,
    0,
    0,
    0,
    0,
    0,
    0,
    0,
    0,
    0,
    0,
    1552,
    1552,
    1552,
    1552,
    1552,
    1552,
    1552,
    1552,
    0,
    0,
    0,
    0,
    0,
    0,
    0,
    0,
    1552,
    1552,
    0,
    0,
    0,
    0,
    0,
    0,
    0,
    0,
    0,
    0,
    0,
    0,
    0,
    0,
    0,
    0,
    0,
    0,
    0,
    0,
    0,
    0,
    0,
    0,
    0,
    0,
    0,
    0,
    0,
    0,
    0,
    0,
    0,
    0,
    0,
    0,
    0,
    0,
    0,
    0,
    0,
    0,
    0,
    0,
    0,
    0,
    0,
    0,
    0,
    0,
    0,
    0,
    0,
    0,
    0,
    0,
    0,
    0,
    0,
    0,
    0,
    0,
    0,
    0,
    0,
    0,
    0,
    0,
    0,
    0,
    0,
    0,
    0,
    0,
    0,
    0,
    0,
    0,
    0,
    0,
    0,
    0,
    0,
    0,
    0,
    0,
    0,
    0,
    0,
    0,
    0,
    0,
    0,
    0,
    0,
    0,
    0,
    0,
    0,
    0,
    0,
    0,
    0,
    0,
    0,
    0,
    0,
    0,
    0,
    0,
    1552,
    1552,
    1552,
    1552,
    1552,
    1552,
    0,
    0,
    0,
    0,
    0,
    0,
    0,
    0,
    0,
    0,
    0,
    0,
    0,
    0,
    0,
    0,
    0,
    0,
    0,
    0,
    0,
    0,
    0,
    0,
    0,
    0,
    0,
    0,
    0,
    0,
    0,
    0,
    0,
    0,
    0,
    0,
    0,
    0,
    0,
    0,
    0,
    0,
    0,
    0,
    0,
    0,
    0,
    0,
    0,
    0,
    0,
    0,
    0,
    0,
    0,
    0,
    0,
    0,
    0,
    0,
    0,
    0,
    0,
    0,
    0,
    0,
    0,
    0,
    0,
    0,
    0,
    0,
    0,
    0,
    0,
    0,
    0,
    0,
    0,
    0,
    0,
    0,
    0,
    0,
    0,
    0,
    0,
    0,
    0,
    0,
    0,
    0,
    0,
    0,
    0,
    0,
    0,
    0,
    0,
    0,
    0,
    0,
    0,
    0,
    0,
    0,
    0,
    0,
    0,
    0,
    0,
    0,
    0,
    0,
    0,
    0,
    0,
    0,
    0,
    0,
    0,
    0,
    0,
    0,
    0,
    1552,
    1552,
    0,
    0,
    0,
    0,
    0,
    0,
    0,
    0,
    0,
    1552,
    0,
    0,
    0,
    0,
    0,
    0,
    0,
    0,
    0,
    0,
    0,
    0,
    0,
    0,
    0,
    0,
    0,
    0,
    0,
    0,
    0,
    0,
    0,
    0,
    0,
    0,
    0,
    0,
    0,
    0,
    0,
    0,
    0,
    0,
    0,
    0,
    0,
    0,
    0,
    0,
    0,
    0,
    0,
    0,
    0,
    0,
    0,
    0,
    0,
    0,
    0,
    0,
    0,
    0,
    0,
    0,
    0,
    0,
    0,
    0,
    0,
    0,
    0,
    0,
    0,
    0,
    0,
    0,
    0,
    0,
    0,
    0,
    0,
    0,
    0,
    0,
    0,
    0,
    0,
    0,
    0,
    0,
    0,
    0,
    0,
    0,
    0,
    0,
    0,
    0,
    0,
    0,
    0,
    0,
    0,
    0,
    0,
    0,
    0,
    0,
    0,
    0,
    0,
    0,
    0,
    0,
    0,
    0,
    0,
    0,
    0,
    0,
    0,
    0,
    0,
    0,
    0,
    0,
    0,
    0,
    0,
    0,
    0,
    0,
    0,
    0,
    0,
    0,
    0,
    0,
    0,
    0,
    0,
    0,
    0,
    0,
    0,
    0,
    0,
    0,
    0,
    0,
    0,
    0,
    0,
    0,
    0,
    0,
    0,
    0,
    0,
    0,
    0,
    0,
    0,
    0,
    0,
    0,
    0,
    0,
    0,
    0,
    0,
    0,
    0,
    0,
    0,
    0,
    0,
    0,
    0,
    0,
    0,
    0,
    0,
    0,
    0,
    0,
    0,
    0,
    0,
    0,
    0,
    0,
    0,
    0,
    0,
    0,
    0,
    0,
    0,
    0,
    0,
    0,
    0,
    0,
    0,
    0,
    0,
    0,
    0,
    0,
    0,
    0,
    0,
    0,
    0,
    0,
    0,
    0,
    0,
    0,
    0,
    0,
    0,
    0,
    0,
    0,
    0,
    0,
    0,
    0,
    0,
    0,
    0,
    0,
    0,
    0,
    0,
    0,
    0,
    0,
    0,
    0,
    0,
    0,
    0,
    0,
    0,
    0,
    0,
    0,
    0,
    0,
    0,
    0,
    0,
    0,
    0,
    0,
    0,
    0,
    0,
    0,
    0,
    0,
    0,
    0,
    0,
    0,
    0,
    0,
    0,
    0,
    0,
    0,
    0,
    0,
    0,
    0,
    0,
    0,
    0,
    0,
    0,
    0,
    0,
    0,
    0,
    0,
    0,
    0,
    0,
    0,
    0,
    0,
    0,
    0,
    0,
    0,
    0,
    0,
    0,
    0,
    0,
    0,
    0,
    0,
    0,
    0,
    0,
    0,
    0,
    0,
    0,
    0,
    0,
    0,
    0,
    0,
    0,
    0,
    0,
    0,
    0,
    0,
    0,
    0,
    0,
    0,
    0,
    0,
    0,
    0,
    0,
    0,
    0,
    0,
    0,
    0,
    0,
    0,
    0,
    0,
    0,
    0,
    0,
    0,
    0,
    0,
    0,
    0,
    0,
    0,
    0,
    0,
    0,
    0,
    0,
    0,
    0,
    0,
    0,
    0,
    0,
    0,
    0,
    0,
    0,
    0,
    0,
    0,
    0,
    0,
    0,
    0,
    0,
    0,
    0,
    0,
    0,
    0,
    0,
    0,
    0,
    0,
    0,
    0,
    0,
    0,
    0,
    0,
    0,
    0,
    0,
    0,
    0,
    0,
    0,
    0,
    0,
    0,
    0,
    0,
    0,
    0,
    0,
    0,
    0,
    0,
    0,
    0,
    0,
    0,
    0,
    0,
    0,
    0,
    0,
    0,
    0,
    0,
    0,
    0,
    0,
    0,
    0,
    0,
    0,
    0,
    0,
    0,
    0,
    0,
    0,
    0,
    0,
    0,
    0,
    0,
    0,
    0,
    0,
    0,
    0,
    0,
    0,
    0,
    0,
    0,
    0,
    0,
    0,
    0,
    0,
    0,
    0,
    0,
    0,
    0,
    0,
    0,
    0,
    0,
    0,
    0,
    0,
    0,
    0,
    0,
    0,
    0,
    0,
    0,
    0,
    0,
    0,
    0,
    0,
    0,
    0,
    0,
    0,
    0,
    0,
    0,
    0,
    0,
    0,
    0,
    0,
    0,
    0,
    0,
    0,
    0,
    0,
    0,
    0,
    0,
    0,
    0,
    0,
    0,
    0,
    0,
    0,
    0,
    0,
    0,
    0,
    0,
    0,
    0,
    0,
    0,
    0,
    0,
    0,
    0,
    0,
    0,
    0,
    0,
    0,
    0,
    0,
    0,
    0,
    0,
    0,
    0,
    0,
    0,
    0,
    0,
    0,
    0,
    0,
    0,
    0,
    0,
    0,
    0,
    0,
    0,
    0,
    0,
    0,
    0,
    0,
    0,
    0,
    0,
    0,
    0,
    0,
    0,
    0,
    0,
    0,
    0,
    0,
    0,
    0,
    0,
    0,
    0,
    0,
    0,
    0,
    0,
    0,
    0,
    0,
    0,
    0,
    0,
    0,
    0,
    0,
    0,
    0,
    0,
    0,
    0,
    0,
    0,
    0,
    0,
    0,
    0,
    0,
    0,
    0,
    0,
    0,
    0,
    0,
    0,
    0,
    0,
    0,
    0,
    0,
    0,
    0,
    0,
    0,
    0,
    0,
    0,
    0,
    0,
    0,
    0,
    0,
    0,
    0,
    0,
    0,
    0,
    0,
    0,
    0,
    0,
    0,
    0,
    0,
    0,
    0,
    0,
    0,
    0,
    0,
    0,
    0,
    0,
    0,
    0,
    0,
    0,
    0,
    0,
    0,
    0,
    0,
    0,
    0,
    0,
    0,
    0,
    0,
    0,
    0,
    0,
    0,
    0,
    0,
    0,
    0,
    0,
    0,
    0,
    0,
    0,
    0,
    0,
    0,
    0,
    0,
    0,
    0,
    0,
    0,
    0,
    0,
    0,
    0,
    0,
    0,
    0,
    0,
    0,
    0,
    0,
    0,
    0,
    0,
    0,
    0,
    0,
    0,
    0,
    0,
    0,
    0,
    0,
    0,
    0,
    0,
    0,
    0,
    0,
    0,
    0,
    0,
    0,
    0,
    0,
    0,
    0,
    0,
    0,
    0,
    0,
    0,
    0,
    0,
    0,
    0,
    0,
    0,
    0,
    0,
    0,
    0,
    0,
    0,
    0,
    0,
    0,
    0,
    0,
    0,
    0,
    0,
    0,
    0,
    0,
    0,
    0,
    0,
    0,
    0,
    0,
    0,
    0,
    0,
    0,
    0,
    0,
    0,
    0,
    0,
    0,
    0,
    0,
    0,
    0,
    0,
    0,
    0,
    0,
    1552,
    0,
    0,
    0,
    0,
    0,
    0,
    0,
    0,
    0,
    0,
    0,
    0,
    0,
    0,
    0,
    0,
    0,
    0,
    0,
    0,
    0,
    0,
    0,
    0,
    0,
    0,
    0,
    0,
    0,
    0,
    0,
    0,
    0,
    0,
    0,
    0,
    0,
    0,
    0,
    0,
    0,
    0,
    0,
    0,
    0,
    0,
    0,
    0,
    0,
    0,
    0,
    0,
    0,
    0,
    0,
    0,
    0,
    0,
    0,
    0,
    0,
    0,
    0,
    0,
    0,
    0,
    0,
    0,
    0,
    0,
    0,
    0,
    0,
    0,
    0,
    0,
    0,
    0,
    0,
    0,
    0,
    0,
    0,
    0,
    0,
    0,
    0,
    0,
    0,
    0,
    0,
    0,
    0,
    0,
    0,
    0,
    0,
    0,
    0,
    0,
    0,
    0,
    0,
    0,
    0,
    0,
    0,
    0,
    0,
    0,
    0,
    0,
    0,
    0,
    0,
    0,
    0,
    0,
    0,
    0,
    0,
    0,
    0,
    0,
    0,
    0,
    0,
    0,
    0,
    1552,
    0,
    0,
    0,
    0,
    0,
    0,
    0,
    0,
    0,
    0,
    0,
    0,
    0,
    0,
    0,
    0,
    0,
    0,
    0,
    0,
    0,
    0,
    0,
    0,
    0,
    0,
    0,
    0,
    0,
    0,
    0,
    0,
    0,
    0,
    0,
    0,
    0,
    0,
    0,
    0,
    0,
    0,
    0,
    0,
    0,
    0,
    0,
    0,
    0,
    0,
    0,
    0,
    0,
    0,
    0,
    0,
    0,
    0,
    0,
    0,
    0,
    0,
    0,
    0,
    0,
    0,
    0,
    0,
    0,
    0,
    0,
    0,
    0,
    0,
    0,
    0,
    0,
    0,
    0,
    0,
    0,
    0,
    0,
    0,
    0,
    0,
    0,
    0,
    0,
    0,
    0,
    0,
    0,
    0,
    0,
    0,
    0,
    0,
    0,
    0,
    0,
    0,
    0,
    0,
    0,
    0,
    0,
    0,
    0,
    0,
    0,
    0,
    0,
    0,
    0,
    0,
    0,
    0,
    0,
    0,
    0,
    0,
    0,
    0,
    1552,
    1552,
    1552,
    0,
    1552,
    0,
    0,
    0,
    0,
    0,
    0,
    0,
    0,
    0,
    0,
    0,
    0,
    0,
    0,
    0,
    0,
    0,
    0,
    0,
    0,
    0,
    0,
    0,
    0,
    0,
    0,
    0,
    0,
    0,
    0,
    0,
    0,
    0,
    0,
    0,
    0,
    0,
    0,
    0,
    0,
    0,
    0,
    0,
    0,
    0,
    0,
    0,
    0,
    0,
    0,
    0,
    0,
    0,
    0,
    0,
    0,
    0,
    0,
    0,
    0,
    0,
    0,
    0,
    0,
    0,
    0,
    0,
    0,
    0,
    0,
    0,
    0,
    0,
    0,
    0,
    0,
    0,
    0,
    0,
    0,
    0,
    0,
    0,
    0,
    0,
    0,
    0,
    0,
    0,
    0,
    0,
    0,
    0,
    0,
    0,
    0,
    0,
    0,
    0,
    0,
    0,
    0,
    0,
    0,
    0,
    0,
    0,
    0,
    0,
    0,
    0,
    0,
    0,
    0,
    0,
    0,
    0,
    0,
    0,
    0,
    0,
    0,
    0,
    1552,
    1552,
    0,
    0,
    0,
    0,
    1552,
    0,
    0,
    0,
    0,
    0,
    0,
    0,
    0,
    0,
    0,
    0,
    0,
    0,
    0,
    0,
    0,
    0,
    0,
    0,
    0,
    0,
    0,
    0,
    0,
    0,
    0,
    0,
    0,
    0,
    0,
    0,
    0,
    0,
    0,
    0,
    0,
    0,
    0,
    0,
    0,
    0,
    0,
    0,
    0,
    0,
    0,
    0,
    0,
    0,
    0,
    0,
    0,
    0,
    0,
    0,
    0,
    0,
    0,
    0,
    0,
    0,
    0,
    0,
    0,
    0,
    0,
    0,
    0,
    0,
    0,
    0,
    0,
    0,
    0,
    0,
    0,
    0,
    0,
    0,
    0,
    0,
    0,
    0,
    0,
    0,
    0,
    0,
    0,
    0,
    0,
    0,
    0,
    0,
    0,
    0,
    0,
    0,
    0,
    0,
    0,
    0,
    0,
    0,
    0,
    0,
    0,
    0,
    0,
    0,
    0,
    0,
    0,
    0,
    0,
    0,
    0,
    0,
    0,
    0,
    0,
    0,
    1552,
    0,
    0,
    0,
    0,
    0,
    1552,
    1552,
    1552,
    1552,
    0,
    0,
    1552,
    0,
    0,
    0,
    0,
    0,
    0,
    0,
    0,
    0,
    0,
    0,
    0,
    0,
    0,
    0,
    0,
    0,
    0,
    0,
    0,
    0,
    0,
    0,
    0,
    0,
    0,
    0,
    0,
    0,
    0,
    0,
    0,
    0,
    0,
    0,
    0,
    0,
    0,
    0,
    0,
    0,
    0,
    0,
    0,
    0,
    0,
    0,
    0,
    0,
    0,
    0,
    0,
    0,
    0,
    0,
    0,
    0,
    0,
    0,
    0,
    0,
    0,
    0,
    0,
    0,
    0,
    0,
    0,
    0,
    0,
    0,
    0,
    0,
    0,
    0,
    0,
    0,
    0,
    0,
    0,
    0,
    0,
    0,
    0,
    0,
    0,
    0,
    0,
    0,
    0,
    0,
    0,
    0,
    0,
    0,
    0,
    0,
    0,
    0,
    0,
    0,
    0,
    0,
    0,
    0,
    0,
    0,
    0,
    0,
    0,
    0,
    0,
    0,
    0,
    0,
    0,
    0,
    0,
    0,
    0,
    1552,
    1552,
    1552,
    1552,
    1552,
    1552,
    0,
    0,
    1552,
    0,
    0,
    0,
    0,
    0,
    0,
    0,
    0,
    0,
    0,
    0,
    0,
    0,
    0,
    0,
    0,
    0,
    0,
    0,
    0,
    0,
    0,
    0,
    0,
    0,
    0,
    0,
    0,
    0,
    0,
    0,
    0,
    0,
    0,
    0,
    0,
    0,
    0,
    0,
    0,
    0,
    0,
    0,
    0,
    0,
    0,
    0,
    0,
    0,
    0,
    0,
    0,
    0,
    0,
    0,
    0,
    0,
    0,
    0,
    0,
    0,
    0,
    0,
    0,
    0,
    0,
    0,
    0,
    0,
    0,
    0,
    0,
    0,
    0,
    0,
    0,
    0,
    0,
    0,
    0,
    0,
    0,
    0,
    0,
    0,
    0,
    0,
    0,
    0,
    0,
    0,
    0,
    0,
    0,
    0,
    0,
    0,
    0,
    0,
    0,
    0,
    0,
    0,
    0,
    0,
    0,
    0,
    0,
    0,
    0,
    0,
    1552,
    0,
    0,
    0,
    0,
    0,
    1552,
    1552,
    1552,
    1552,
    1552,
    1552,
    1552,
    1552,
    1552,
    0,
    0,
    1552,
    0,
    0,
    0,
    0,
    0,
    0,
    0,
    0,
    0,
    0,
    0,
    0,
    0,
    0,
    0,
    0,
    0,
    0,
    0,
    0,
    0,
    0,
    0,
    0,
    0,
    0,
    0,
    0,
    0,
    0,
    0,
    0,
    0,
    0,
    0,
    0,
    0,
    0,
    0,
    0,
    0,
    0,
    0,
    0,
    0,
    0,
    0,
    0,
    0,
    0,
    0,
    0,
    0,
    0,
    0,
    0,
    0,
    0,
    0,
    0,
    0,
    0,
    0,
    0,
    0,
    0,
    0,
    0,
    0,
    0,
    0,
    0,
    0,
    0,
    0,
    0,
    0,
    0,
    0,
    0,
    0,
    0,
    0,
    0,
    0,
    0,
    0,
    0,
    0,
    0,
    0,
    0,
    0,
    0,
    0,
    0,
    0,
    0,
    0,
    0,
    0,
    0,
    0,
    0,
    0,
    0,
    0,
    0,
    0,
    0,
    0,
    1552,
    1552,
    0,
    0,
    1552,
    1552,
    1552,
    1552,
    1552,
    1552,
    1552,
    1552,
    1552,
    1552,
    1552,
    0,
    0,
    0,
    0,
    0,
    0,
    0,
    0,
    0,
    0,
    0,
    0,
    0,
    0,
    0,
    0,
    0,
    0,
    0,
    0,
    0,
    0,
    0,
    0,
    0,
    0,
    0,
    0,
    0,
    0,
    0,
    0,
    0,
    0,
    0,
    0,
    1552,
    0,
    0,
    0,
    0,
    0,
    0,
    0,
    0,
    0,
    0,
    0,
    0,
    0,
    0,
    0,
    0,
    0,
    0,
    0,
    0,
    0,
    0,
    0,
    0,
    0,
    0,
    0,
    0,
    0,
    0,
    0,
    0,
    0,
    0,
    0,
    0,
    0,
    0,
    0,
    0,
    0,
    0,
    0,
    0,
    0,
    0,
    0,
    0,
    0,
    0,
    0,
    0,
    0,
    0,
    0,
    0,
    0,
    0,
    0,
    0,
    0,
    0,
    0,
    0,
    0,
    0,
    0,
    0,
    0,
    0,
    0,
    0,
    0,
    0,
    0,
    0,
    1552,
    1552,
    1552,
    1552,
    1552,
    1552,
    1552,
    1552,
    1552,
    1552,
    1552,
    1552,
    1552,
    1552,
    1552,
    0,
    0,
    0,
    1552,
    0,
    0,
    0,
    0,
    0,
    0,
    0,
    0,
    0,
    0,
    0,
    0,
    0,
    0,
    0,
    0,
    0,
    0,
    0,
    0,
    0,
    0,
    0,
    0,
    0,
    0,
    0,
    0,
    0,
    0,
    0,
    0,
    0,
    0,
    0,
    0,
    0,
    0,
    0,
    0,
    0,
    0,
    0,
    0,
    0,
    0,
    0,
    0,
    0,
    0,
    0,
    0,
    0,
    0,
    0,
    0,
    0,
    0,
    0,
    0,
    0,
    0,
    0,
    0,
    0,
    0,
    0,
    0,
    0,
    0,
    0,
    0,
    0,
    0,
    0,
    0,
    0,
    0,
    0,
    0,
    0,
    0,
    0,
    0,
    0,
    0,
    0,
    0,
    0,
    0,
    0,
    0,
    0,
    0,
    0,
    0,
    0,
    0,
    0,
    0,
    0,
    0,
    0,
    0,
    0,
    0,
    0,
    1552,
    0,
    1552,
    0,
    1552,
    1552,
    1552,
    1552,
    1552,
    1552,
    1552,
    1552,
    1552,
    1552,
    1552,
    1552,
    1552,
    0,
    0,
    1552,
    1552,
    1552,
    0,
    0,
    0,
    0,
    0,
    0,
    0,
    0,
    0,
    0,
    0,
    0,
    0,
    0,
    0,
    0,
    0,
    0,
    0,
    0,
    0,
    0,
    0,
    0,
    0,
    0,
    0,
    0,
    0,
    0,
    0,
    0,
    0,
    0,
    0,
    0,
    0,
    0,
    0,
    0,
    0,
    0,
    0,
    0,
    0,
    0,
    0,
    0,
    0,
    0,
    0,
    0,
    0,
    0,
    0,
    0,
    0,
    0,
    0,
    0,
    0,
    0,
    0,
    0,
    0,
    0,
    0,
    0,
    0,
    0,
    0,
    0,
    0,
    0,
    0,
    0,
    0,
    0,
    0,
    0,
    0,
    0,
    0,
    0,
    0,
    0,
    0,
    0,
    0,
    0,
    0,
    0,
    0,
    0,
    0,
    0,
    0,
    0,
    0,
    0,
    0,
    0,
    0,
    0,
    0,
    0,
    0,
    1552,
    1552,
    0,
    1552,
    1552,
    1552,
    1552,
    1552,
    1552,
    1552,
    1552,
    1552,
    1552,
    1552,
    1552,
    1552,
    0,
    1552,
    1552,
    1552,
    1552,
    0,
    0,
    0,
    0,
    0,
    0,
    0,
    0,
    0,
    0,
    0,
    0,
    0,
    0,
    0,
    0,
    0,
    0,
    0,
    0,
    0,
    0,
    0,
    0,
    0,
    0,
    0,
    0,
    0,
    0,
    0,
    0,
    0,
    0,
    0,
    0,
    0,
    0,
    0,
    0,
    0,
    0,
    0,
    0,
    0,
    0,
    0,
    0,
    0,
    0,
    0,
    0,
    0,
    0,
    0,
    0,
    0,
    0,
    0,
    0,
    0,
    0,
    0,
    0,
    0,
    0,
    0,
    0,
    0,
    0,
    0,
    0,
    0,
    0,
    0,
    0,
    0,
    0,
    0,
    0,
    0,
    0,
    0,
    0,
    0,
    0,
    0,
    0,
    0,
    0,
    0,
    0,
    0,
    0,
    0,
    0,
    0,
    0,
    0,
    0,
    0,
    0,
    0,
    1552,
    0,
    0,
    1552,
    1552,
    1552,
    1552,
    1552,
    1552,
    1552,
    1552,
    1552,
    1552,
    1552,
    1552,
    1552,
    1552,
    1552,
    1552,
    0,
    1552,
    1552,
    1552,
    0,
    1552,
    0,
    0,
    0,
    0,
    0,
    0,
    0,
    0,
    0,
    0,
    0,
    0,
    0,
    0,
    0,
    0,
    0,
    0,
    0,
    0,
    0,
    0,
    0,
    0,
    0,
    0,
    0,
    0,
    0,
    0,
    0,
    0,
    0,
    0,
    0,
    0,
    0,
    0,
    0,
    0,
    0,
    0,
    0,
    0,
    0,
    0,
    0,
    0,
    0,
    0,
    0,
    0,
    0,
    0,
    0,
    0,
    0,
    0,
    0,
    0,
    0,
    0,
    0,
    0,
    0,
    0,
    0,
    0,
    0,
    0,
    0,
    0,
    0,
    0,
    0,
    0,
    0,
    0,
    0,
    0,
    0,
    0,
    0,
    0,
    0,
    0,
    0,
    0,
    0,
    0,
    0,
    0,
    0,
    0,
    0,
    0,
    0,
    0,
    0,
    0,
    0,
    0,
    0,
    0,
    0,
    1552,
    1552,
    0,
    0,
    0,
    1552,
    1552,
    1552,
    1552,
    1552,
    1552,
    1552,
    1552,
    1552,
    1552,
    1552,
    0,
    0,
    1552,
    1552,
    1552,
    0,
    0,
    0,
    0,
    0,
    0,
    0,
    0,
    0,
    0,
    0,
    0,
    0,
    0,
    0,
    0,
    0,
    0,
    0,
    0,
    0,
    0,
    0,
    0,
    0,
    0,
    0,
    0,
    0,
    0,
    0,
    0,
    0,
    0,
    0,
    0,
    0,
    0,
    0,
    0,
    0,
    0,
    0,
    0,
    0,
    0,
    0,
    0,
    0,
    0,
    0,
    0,
    0,
    0,
    0,
    0,
    0,
    0,
    0,
    0,
    0,
    0,
    0,
    0,
    0,
    0,
    0,
    0,
    0,
    0,
    0,
    0,
    0,
    0,
    0,
    0,
    0,
    0,
    0,
    0,
    0,
    0,
    0,
    0,
    0,
    0,
    0,
    0,
    0,
    0,
    0,
    0,
    0,
    0,
    0,
    0,
    0,
    0,
    0,
    0,
    0,
    0,
    0,
    0,
    0,
    0,
    1552,
    1552,
    1552,
    0,
    1552,
    0,
    1552,
    1552,
    1552,
    1552,
    1552,
    1552,
    1552,
    1552,
    1552,
    1552,
    0,
    0,
    1552,
    1552,
    1552,
    1552,
    1552,
    0,
    0,
    0,
    0,
    0,
    0,
    0,
    0,
    0,
    0,
    0,
    0,
    0,
    0,
    0,
    0,
    0,
    0,
    0,
    0,
    0,
    0,
    0,
    0,
    0,
    0,
    0,
    0,
    0,
    0,
    0,
    0,
    0,
    0,
    0,
    0,
    0,
    0,
    0,
    0,
    0,
    0,
    0,
    0,
    0,
    0,
    0,
    0,
    0,
    0,
    0,
    0,
    0,
    0,
    0,
    0,
    0,
    0,
    0,
    0,
    0,
    0,
    0,
    0,
    0,
    0,
    0,
    0,
    0,
    0,
    0,
    0,
    0,
    0,
    0,
    0,
    0,
    0,
    0,
    0,
    0,
    0,
    0,
    0,
    0,
    0,
    0,
    0,
    0,
    0,
    0,
    0,
    0,
    0,
    0,
    0,
    0,
    0,
    0,
    0,
    0,
    0,
    0,
    0,
    0,
    0,
    1552,
    0,
    0,
    0,
    0,
    1552,
    1552,
    1552,
    1552,
    1552,
    1552,
    1552,
    1552,
    1552,
    1552,
    0,
    0,
    1552,
    1552,
    1552,
    1552,
    0,
    0,
    0,
    0,
    0,
    0,
    0,
    0,
    0,
    0,
    0,
    0,
    0,
    0,
    0,
    0,
    0,
    0,
    0,
    0,
    0,
    0,
    0,
    0,
    0,
    0,
    0,
    0,
    0,
    0,
    0,
    0,
    0,
    0,
    0,
    0,
    0,
    0,
    0,
    0,
    0,
    0,
    0,
    0,
    0,
    0,
    0,
    0,
    0,
    0,
    0,
    0,
    0,
    0,
    0,
    0,
    0,
    0,
    0,
    0,
    0,
    0,
    0,
    0,
    0,
    0,
    0,
    0,
    0,
    0,
    0,
    0,
    0,
    0,
    0,
    0,
    0,
    0,
    0,
    0,
    0,
    0,
    0,
    0,
    0,
    0,
    0,
    0,
    0,
    0,
    0,
    0,
    0,
    0,
    0,
    0,
    0,
    0,
    0,
    0,
    0,
    0,
    0,
    0,
    0,
    0,
    0,
    0,
    0,
    0,
    0,
    0,
    1552,
    1552,
    1552,
    1552,
    1552,
    1552,
    1552,
    1552,
    1552,
    1552,
    0,
    0,
    1552,
    1552,
    1552,
    1552,
    0,
    0,
    0,
    0,
    0,
    0,
    0,
    0,
    0,
    0,
    0,
    0,
    0,
    0,
    0,
    0,
    0,
    0,
    0,
    0,
    0,
    0,
    0,
    0,
    0,
    0,
    0,
    0,
    0,
    0,
    0,
    0,
    0,
    0,
    0,
    0,
    0,
    0,
    0,
    0,
    0,
    0,
    0,
    0,
    0,
    0,
    0,
    0,
    0,
    0,
    0,
    0,
    0,
    0,
    0,
    0,
    0,
    0,
    0,
    0,
    0,
    0,
    0,
    0,
    0,
    0,
    0,
    0,
    0,
    0,
    0,
    0,
    0,
    0,
    0,
    0,
    0,
    0,
    0,
    0,
    0,
    0,
    0,
    0,
    0,
    0,
    0,
    0,
    0,
    0,
    0,
    0,
    0,
    0,
    0,
    0,
    0,
    0,
    0,
    0,
    0,
    0,
    0,
    0,
    0,
    0,
    0,
    0,
    0,
    0,
    0,
    0,
    1552,
    1552,
    1552,
    1552,
    1552,
    1552,
    1552,
    0,
    0,
    0,
    0,
    1552,
    0,
    1552,
    1552,
    0,
    0,
    0,
    0,
    0,
    0,
    0,
    0,
    0,
    0,
    0,
    0,
    0,
    0,
    0,
    0,
    0,
    0,
    0,
    0,
    0,
    0,
    0,
    0,
    0,
    0,
    0,
    0,
    0,
    0,
    0,
    0,
    0,
    0,
    0,
    0,
    0,
    0,
    0,
    0,
    0,
    0,
    0,
    0,
    0,
    0,
    0,
    0,
    0,
    0,
    0,
    0,
    0,
    0,
    0,
    0,
    0,
    0,
    0,
    0,
    0,
    0,
    0,
    0,
    0,
    0,
    0,
    0,
    0,
    0,
    0,
    0,
    0,
    0,
    0,
    0,
    0,
    0,
    0,
    0,
    0,
    0,
    0,
    0,
    0,
    0,
    0,
    0,
    0,
    0,
    0,
    0,
    0,
    0,
    0,
    0,
    0,
    0,
    0,
    0,
    0,
    0,
    0,
    0,
    0,
    0,
    0,
    0,
    0,
    0,
    0,
    0,
    0,
    1552,
    1552,
    1552,
    1552,
    1552,
    1552,
    0,
    0,
    0,
    0,
    0,
    1552,
    1552,
    1552,
    0,
    0,
    0,
    0,
    0,
    0,
    0,
    0,
    0,
    0,
    0,
    0,
    0,
    0,
    0,
    0,
    0,
    0,
    0,
    0,
    0,
    0,
    0,
    0,
    0,
    0,
    0,
    0,
    0,
    0,
    0,
    0,
    0,
    0,
    0,
    0,
    0,
    0,
    0,
    0,
    0,
    0,
    0,
    0,
    0,
    0,
    0,
    0,
    0,
    1552,
    0,
    0,
    0,
    0,
    0,
    0,
    0,
    0,
    0,
    0,
    0,
    0,
    0,
    0,
    0,
    0,
    0,
    0,
    0,
    0,
    0,
    0,
    0,
    0,
    0,
    0,
    0,
    0,
    0,
    0,
    0,
    0,
    0,
    0,
    0,
    0,
    0,
    0,
    0,
    0,
    0,
    0,
    0,
    0,
    0,
    0,
    0,
    0,
    0,
    0,
    0,
    0,
    0,
    0,
    0,
    0,
    0,
    0,
    0,
    0,
    0,
    0,
    0,
    0,
    1552,
    1552,
    1552,
    1552,
    1552,
    0,
    0,
    0,
    0,
    0,
    1552,
    1552,
    1552,
    0,
    0,
    0,
    0,
    0,
    0,
    0,
    0,
    0,
    0,
    0,
    0,
    0,
    0,
    0,
    0,
    0,
    0,
    0,
    0,
    0,
    0,
    0,
    0,
    0,
    0,
    0,
    0,
    0,
    0,
    0,
    0,
    0,
    0,
    0,
    0,
    0,
    0,
    0,
    0,
    0,
    0,
    0,
    0,
    0,
    0,
    0,
    0,
    0,
    0,
    0,
    0,
    0,
    0,
    0,
    0,
    0,
    0,
    0,
    0,
    0,
    0,
    0,
    0,
    0,
    0,
    0,
    0,
    0,
    0,
    0,
    0,
    0,
    0,
    0,
    0,
    0,
    0,
    0,
    0,
    0,
    0,
    0,
    0,
    0,
    0,
    0,
    0,
    0,
    0,
    0,
    0,
    0,
    0,
    0,
    0,
    0,
    0,
    0,
    0,
    0,
    0,
    0,
    0,
    0,
    0,
    0,
    0,
    0,
    0,
    0,
    0,
    0,
    0,
    0,
    1552,
    1552,
    1552,
    1552,
    0,
    0,
    0,
    0,
    0,
    0,
    0,
    0,
    0,
    0,
    0,
    0,
    0,
    0,
    0,
    0,
    0,
    0,
    0,
    0,
    0,
    0,
    0,
    0,
    0,
    0,
    0,
    0,
    0,
    0,
    0,
    0,
    0,
    0,
    0,
    0,
    0,
    0,
    0,
    0,
    0,
    0,
    0,
    0,
    0,
    0,
    0,
    0,
    0,
    0,
    0,
    0,
    0,
    0,
    0,
    0,
    0,
    0,
    0,
    0,
    0,
    0,
    0,
    0,
    0,
    0,
    0,
    0,
    0,
    0,
    0,
    0,
    0,
    0,
    0,
    0,
    0,
    0,
    0,
    0,
    0,
    0,
    0,
    0,
    0,
    0,
    0,
    0,
    0,
    0,
    0,
    0,
    0,
    0,
    0,
    0,
    0,
    0,
    0,
    0,
    0,
    0,
    0,
    0,
    0,
    0,
    0,
    0,
    0,
    0,
    0,
    0,
    0,
    0,
    0,
    0,
    0,
    0,
    0,
    0,
    0,
    0,
    0,
    0,
    1552,
    1552,
    1552,
    1552,
    1552,
    1552,
    0,
    0,
    0,
    0,
    0,
    0,
    0,
    0,
    0,
    0,
    0,
    0,
    0,
    0,
    0,
    0,
    0,
    0,
    0,
    0,
    0,
    0,
    0,
    0,
    0,
    0,
    0,
    0,
    0,
    0,
    0,
    0,
    0,
    0,
    0,
    0,
    0,
    0,
    0,
    0,
    0,
    0,
    0,
    0,
    0,
    0,
    0,
    0,
    0,
    0,
    0,
    0,
    0,
    0,
    0,
    0,
    0,
    0,
    0,
    0,
    0,
    0,
    0,
    0,
    0,
    0,
    0,
    0,
    0,
    0,
    0,
    0,
    0,
    0,
    0,
    0,
    0,
    0,
    0,
    0,
    0,
    0,
    0,
    0,
    0,
    0,
    0,
    0,
    0,
    0,
    0,
    0,
    0,
    0,
    0,
    0,
    0,
    0,
    0,
    0,
    0,
    0,
    0,
    0,
    0,
    0,
    0,
    0,
    0,
    0,
    0,
    0,
    0,
    0,
    0,
    0,
    0,
    0,
    0,
    0,
    0,
    0,
    1552,
    1552,
    1552,
    1552,
    1552,
    1552,
    0,
    0,
    0,
    0,
    0,
    0,
    0,
    0,
    0,
    0,
    0,
    0,
    0,
    0,
    0,
    0,
    0,
    0,
    0,
    0,
    0,
    0,
    0,
    0,
    0,
    0,
    0,
    0,
    0,
    0,
    0,
    0,
    0,
    0,
    0,
    0,
    0,
    0,
    0,
    0,
    0,
    0,
    0,
    0,
    0,
    0,
    0,
    0,
    0,
    0,
    0,
    0,
    0,
    0,
    0,
    0,
    0,
    0,
    0,
    0,
    0,
    0,
    0,
    0,
    0,
    0,
    0,
    0,
    0,
    0,
    0,
    0,
    0,
    0,
    0,
    0,
    0,
    0,
    0,
    0,
    0,
    0,
    0,
    0,
    0,
    0,
    0,
    0,
    0,
    0,
    0,
    0,
    0,
    0,
    0,
    0,
    0,
    0,
    0,
    0,
    0,
    0,
    0,
    0,
    0,
    0,
    0,
    0,
    0,
    0,
    0,
    0,
    0,
    0,
    0,
    0,
    0,
    0,
    0,
    0,
    0,
    0,
    1552,
    1552,
    0,
    0,
    1552,
    1552,
    1552,
    1552,
    0,
    0,
    0,
    0,
    0,
    0,
    0,
    0,
    0,
    0,
    0,
    0,
    0,
    0,
    0,
    0,
    0,
    0,
    0,
    0,
    0,
    0,
    0,
    0,
    0,
    0,
    0,
    0,
    0,
    0,
    0,
    0,
    0,
    0,
    0,
    0,
    0,
    0,
    0,
    0,
    0,
    0,
    0,
    0,
    0,
    0,
    0,
    0,
    0,
    0,
    0,
    0,
    0,
    0,
    0,
    0,
    0,
    0,
    0,
    0,
    0,
    0,
    0,
    0,
    0,
    0,
    0,
    0,
    0,
    0,
    0,
    0,
    0,
    0,
    0,
    0,
    0,
    0,
    0,
    0,
    0,
    0,
    0,
    0,
    0,
    0,
    0,
    0,
    0,
    0,
    0,
    0,
    0,
    0,
    0,
    0,
    0,
    0,
    0,
    0,
    0,
    0,
    0,
    0,
    0,
    0,
    0,
    0,
    0,
    0,
    0,
    0,
    0,
    0,
    0,
    0,
    0,
    0,
    0,
    0,
    1552,
    1552,
    0,
    0,
    0,
    0,
    1552,
    1552,
    1552,
    0,
    0,
    0,
    0,
    0,
    0,
    0,
    0,
    0,
    0,
    0,
    0,
    0,
    0,
    0,
    0,
    0,
    0,
    0,
    0,
    0,
    0,
    0,
    0,
    0,
    0,
    0,
    0,
    0,
    0,
    0,
    0,
    0,
    0,
    0,
    0,
    0,
    0,
    0,
    0,
    0,
    0,
    0,
    0,
    0,
    0,
    0,
    0,
    0,
    0,
    0,
    0,
    0,
    0,
    0,
    0,
    0,
    0,
    0,
    0,
    0,
    0,
    0,
    0,
    0,
    0,
    0,
    0,
    0,
    0,
    0,
    0,
    0,
    0,
    0,
    0,
    0,
    0,
    0,
    0,
    0,
    0,
    0,
    0,
    0,
    0,
    0,
    0,
    0,
    0,
    0,
    0,
    0,
    0,
    0,
    0,
    0,
    0,
    0,
    0,
    0,
    0,
    0,
    0,
    0,
    0,
    0,
    0,
    0,
    0,
    0,
    0,
    0,
    0,
    0,
    0,
    0,
    0,
    0,
    0,
    0,
    0,
    0,
    0,
    0,
    0,
    1552,
    1552,
    1552,
    1552,
    1552,
    0,
    0,
    0,
    0,
    0,
    0,
    0,
    0,
    0,
    0,
    0,
    0,
    0,
    0,
    0,
    0,
    0,
    0,
    0,
    0,
    0,
    0,
    0,
    0,
    0,
    0,
    0,
    0,
    0,
    0,
    0,
    0,
    0,
    0,
    0,
    0,
    0,
    0,
    0,
    0,
    0,
    0,
    0,
    0,
    0,
    0,
    0,
    0,
    0,
    0,
    0,
    0,
    0,
    0,
    0,
    0,
    0,
    0,
    0,
    0,
    0,
    0,
    0,
    0,
    0,
    0,
    0,
    0,
    0,
    0,
    0,
    0,
    0,
    0,
    0,
    0,
    0,
    0,
    0,
    0,
    0,
    0,
    0,
    0,
    0,
    0,
    0,
    0,
    0,
    0,
    0,
    0,
    0,
    0,
    0,
    0,
    0,
    0,
    0,
    0,
    0,
    0,
    0,
    0,
    0,
    0,
    0,
    0,
    0,
    0,
    0,
    0,
    0,
    0,
    0,
    0,
    0,
    0,
    0,
    0,
    0,
    0,
    0,
    0,
    0,
    0,
    0,
    1552,
    1552,
    0,
    1552,
    0,
    0,
    0,
    0,
    0,
    0,
    0,
    0,
    0,
    0,
    0,
    0,
    0,
    0,
    0,
    0,
    0,
    0,
    0,
    0,
    0,
    0,
    0,
    0,
    0,
    0,
    0,
    0,
    0,
    0,
    0,
    0,
    0,
    0,
    0,
    0,
    0,
    0,
    0,
    0,
    0,
    1552,
    0,
    0,
    1552,
    0,
    0,
    0,
    0,
    0,
    0,
    0,
    0,
    0,
    0,
    0,
    0,
    0,
    0,
    0,
    0,
    0,
    0,
    0,
    0,
    0,
    0,
    0,
    0,
    0,
    0,
    0,
    0,
    0,
    0,
    0,
    0,
    0,
    0,
    0,
    0,
    0,
    0,
    0,
    0,
    0,
    0,
    0,
    0,
    0,
    0,
    0,
    0,
    0,
    0,
    0,
    0,
    0,
    0,
    0,
    0,
    0,
    0,
    0,
    0,
    0,
    0,
    0,
    0,
    0,
    0,
    0,
    0,
    0,
    0,
    0,
    0,
    0,
    0,
    0,
    0,
    0,
    0,
    0,
    0,
    1552,
    1552,
    1552,
    0,
    0,
    0,
    0,
    0,
    0,
    0,
    0,
    0,
    0,
    0,
    0,
    0,
    0,
    0,
    0,
    0,
    0,
    0,
    0,
    0,
    0,
    0,
    0,
    0,
    0,
    0,
    0,
    0,
    0,
    0,
    0,
    0,
    0,
    0,
    0,
    0,
    0,
    0,
    0,
    0,
    1552,
    0,
    1552,
    0,
    0,
    0,
    0,
    0,
    0,
    0,
    0,
    0,
    0,
    0,
    0,
    0,
    0,
    0,
    0,
    0,
    0,
    0,
    0,
    0,
    0,
    0,
    0,
    0,
    0,
    0,
    0,
    0,
    0,
    0,
    0,
    0,
    0,
    0,
    0,
    0,
    0,
    0,
    0,
    0,
    0,
    0,
    0,
    0,
    0,
    0,
    0,
    0,
    0,
    0,
    0,
    0,
    0,
    0,
    0,
    0,
    0,
    0,
    0,
    0,
    0,
    0,
    0,
    0,
    0,
    0,
    0,
    0,
    0,
    0,
    0,
    0,
    0,
    0,
    0,
    0,
    0,
    0,
    0,
    0,
    0,
    1552,
    1552,
    0,
    0,
    0,
    0,
    0,
    0,
    0,
    0,
    0,
    0,
    0,
    0,
    0,
    0,
    0,
    0,
    0,
    0,
    0,
    0,
    0,
    0,
    0,
    0,
    0,
    0,
    0,
    0,
    0,
    0,
    0,
    0,
    0,
    0,
    0,
    0,
    0,
    0,
    0,
    0,
    0,
    1552,
    0,
    1552,
    0,
    0,
    0,
    0,
    0,
    0,
    0,
    0,
    0,
    0,
    0,
    0,
    0,
    0,
    0,
    0,
    0,
    0,
    0,
    0,
    0,
    0,
    0,
    0,
    0,
    0,
    0,
    0,
    0,
    0,
    0,
    0,
    0,
    0,
    0,
    0,
    0,
    0,
    0,
    0,
    0,
    0,
    0,
    0,
    0,
    0,
    0,
    0,
    0,
    0,
    0,
    0,
    0,
    0,
    0,
    0,
    0,
    0,
    0,
    0,
    0,
    0,
    0,
    0,
    0,
    0,
    0,
    0,
    0,
    0,
    0,
    0,
    0,
    0,
    0,
    0,
    0,
    0,
    0,
    0,
    0,
    0,
    0,
    1552,
    0,
    0,
    0,
    0,
    0,
    0,
    0,
    0,
    0,
    0,
    0,
    0,
    0,
    0,
    0,
    0,
    0,
    0,
    0,
    0,
    0,
    0,
    0,
    0,
    0,
    0,
    0,
    0,
    0,
    0,
    0,
    0,
    0,
    0,
    0,
    0,
    0,
    0,
    0,
    0,
    0,
    0,
    0,
    0,
    0,
    0,
    0,
    0,
    0,
    0,
    0,
    0,
    0,
    0,
    0,
    0,
    0,
    0,
    0,
    0,
    0,
    0,
    0,
    0,
    0,
    0,
    0,
    0,
    0,
    0,
    0,
    0,
    0,
    0,
    0,
    0,
    0,
    0,
    0,
    0,
    0,
    0,
    0,
    0,
    0,
    0,
    0,
    0,
    0,
    0,
    0,
    0,
    0,
    0,
    0,
    0,
    0,
    0,
    0,
    0,
    0,
    0,
    0,
    0,
    0,
    0,
    0,
    0,
    0,
    0,
    0,
    0,
    0,
    0,
    0,
    0,
    0,
    0,
    0,
    0,
    0,
    0,
    0,
    0,
    0,
    0,
    0,
    1552,
    0,
    0,
    0,
    0,
    0,
    0,
    1552,
    0,
    0,
    0,
    0,
    0,
    0,
    0,
    0,
    0,
    0,
    0,
    0,
    0,
    0,
    0,
    0,
    0,
    0,
    0,
    0,
    0,
    0,
    0,
    0,
    0,
    0,
    0,
    0,
    0,
    0,
    0,
    0,
    0,
    0,
    0,
    0,
    0,
    0,
    0,
    0,
    0,
    0,
    0,
    0,
    0,
    0,
    0,
    0,
    0,
    0,
    0,
    0,
    0,
    0,
    0,
    0,
    0,
    0,
    0,
    0,
    0,
    0,
    0,
    0,
    0,
    0,
    0,
    0,
    0,
    0,
    0,
    0,
    0,
    0,
    0,
    0,
    0,
    0,
    0,
    0,
    0,
    0,
    0,
    0,
    0,
    0,
    0,
    0,
    0,
    0,
    0,
    0,
    0,
    0,
    0,
    0,
    0,
    0,
    0,
    0,
    0,
    0,
    0,
    0,
    0,
    0,
    0,
    0,
    0,
    0,
    0,
    0,
    0,
    0,
    0,
    0,
    0,
    0,
    0,
    0,
    1552,
    1552,
    0,
    0,
    0,
    0,
    0,
    0,
    0,
    0,
    0,
    0,
    0,
    0,
    0,
    0,
    0,
    0,
    0,
    0,
    0,
    0,
    0,
    0,
    0,
    0,
    0,
    0,
    0,
    0,
    0,
    0,
    0,
    0,
    0,
    0,
    0,
    0,
    0,
    0,
    0,
    0,
    0,
    0,
    0,
    0,
    0,
    0,
    0,
    0,
    0,
    0,
    0,
    0,
    0,
    0,
    0,
    0,
    0,
    0,
    0,
    0,
    0,
    0,
    0,
    0,
    0,
    0,
    0,
    0,
    0,
    0,
    0,
    0,
    0,
    0,
    0,
    0,
    0,
    0,
    0,
    0,
    0,
    0,
    0,
    0,
    0,
    0,
    0,
    0,
    0,
    0,
    0,
    0,
    0,
    0,
    0,
    0,
    0,
    0,
    0,
    0,
    0,
    0,
    0,
    0,
    0,
    0,
    0,
    0,
    0,
    0,
    0,
    0,
    0,
    0,
    0,
    0,
    0,
    0,
    0,
    0,
    0,
    0,
    0,
    0,
    0,
    0,
    0,
    1552,
    1552,
    0,
    0,
    0,
    0,
    0,
    0,
    0,
    0,
    0,
    0,
    0,
    0,
    0,
    0,
    0,
    0,
    0,
    0,
    0,
    0,
    0,
    0,
    0,
    0,
    0,
    0,
    0,
    0,
    0,
    0,
    0,
    0,
    0,
    0,
    0,
    0,
    0,
    0,
    0,
    0,
    0,
    0,
    0,
    0,
    0,
    0,
    0,
    0,
    0,
    0,
    0,
    0,
    0,
    0,
    0,
    0,
    0,
    0,
    0,
    0,
    0,
    0,
    0,
    0,
    0,
    0,
    0,
    0,
    0,
    0,
    0,
    0,
    0,
    0,
    0,
    0,
    0,
    0,
    0,
    0,
    0,
    0,
    0,
    0,
    0,
    0,
    0,
    0,
    0,
    0,
    0,
    0,
    0,
    0,
    0,
    0,
    0,
    0,
    0,
    0,
    0,
    0,
    0,
    0,
    0,
    0,
    0,
    0,
    0,
    0,
    0,
    0,
    0,
    0,
    0,
    0,
    1552,
    0,
    0,
    0,
    0,
    0,
    0,
    0,
    0,
    0,
    0,
    1552,
    0,
    0,
    0,
    0,
    0,
    0,
    0,
    0,
    0,
    0,
    0,
    0,
    0,
    0,
    0,
    0,
    0,
    0,
    0,
    0,
    0,
    0,
    0,
    0,
    0,
    0,
    0,
    0,
    0,
    0,
    0,
    0,
    0,
    0,
    0,
    0,
    0,
    0,
    0,
    0,
    0,
    0,
    0,
    0,
    0,
    0,
    0,
    0,
    0,
    0,
    0,
    0,
    0,
    0,
    0,
    0,
    0,
    0,
    0,
    0,
    0,
    0,
    0,
    0,
    0,
    0,
    0,
    0,
    0,
    0,
    0,
    0,
    0,
    0,
    0,
    0,
    0,
    0,
    0,
    0,
    0,
    0,
    0,
    0,
    0,
    0,
    0,
    0,
    0,
    0,
    0,
    0,
    0,
    0,
    0,
    0,
    0,
    0,
    0,
    0,
    0,
    0,
    0,
    0,
    0,
    0,
    0,
    0,
    0,
    0,
    0
   ]
  }
 ]
}
