{
 "type": "map",
 "version": 1.1,
 "tiledversion": "1.11.0",
 "orientation": "orthogonal",
 "renderorder": "right-down",
 "width": 128,
 "height": 128,
 "tilewidth": 40,
 "tileheight": 40,
 "infinite": false,
 "nextlayerid": 4,
 "nextobjectid": 5,
 "compressionlevel": -1,
 "properties": [],
 "tilesets": [
  {
   "firstgid": 1,
   "source": "terrain.tsx"
  }
 ],
 "layers": [
  {
   "id": 1,
   "name": "terrain",
   "type": "tilelayer",
   "x": 0,
   "y": 0,
   "width": 128,
   "height": 128,
   "opacity": 1,
   "visible": true,
   "data": [
    1148,
    1199,
    1200,
    11,
    1148,
    1147,
    1387,
    1199,
    1200,
    1385,
    11,
    927,
    1147,
    1385,
    1385,
    1387,
    1199,
    1200,
    1164,
    1163,
    1386,
    1124,
    866,
    867,
    812,
    813,
    2,
    817,
    818,
    819,
    785,
    786,
    787,
    3,
    1105,
    1106,
    1387,
    1149,
    1163,
    1387,
    1388,
    1384,
    1387,
    1388,
    1386,
    1385,
    1385,
    1387,
    1385,
    1387,
    702,
    1385,
    1388,
    1091,
    1091,
    1091,
    1092,
    14,
    855,
    856,
    2,
    855,
    856,
    833,
    834,
    835,
    15,
    2,
    1152,
    16,
    1105,
    1106,
    1182,
    927,
    1182,
    1385,
    731,
    732,
    11,
    927,
    1150,
    1151,
    1384,
    1388,
    1384,
    1387,
    1123,
    1386,
    1388,
    1388,
    1387,
    1386,
    1387,
    1383,
    1387,
    1384,
    1387,
    927,
    1148,
    1388,
    1388,
    1388,
    927,
    1199,
    1200,
    731,
    732,
    1150,
    1151,
    1147,
    1384,
    1383,
    1385,
    1383,
    1386,
    1386,
    1385,
    1386,
    1388,
    1388,
    1388,
    1387,
    1384,
    1384,
    1385,
    1388,
    1388,
    1388,
    1388,
    1215,
    1216,
    1149,
    1199,
    1200,
    1147,
    1215,
    1216,
    1149,
    1199,
    1200,
    1385,
    1388,
    1163,
    1383,
    1215,
    1216,
    1123,
    1123,
    1124,
    881,
    882,
    883,
    828,
    4,
    3,
    796,
    797,
    1,
    801,
    802,
    803,
    47,
    1089,
    1388,
    1197,
    1198,
    1182,
    1387,
    1149,
    1388,
    1388,
    1386,
    1385,
    1386,
    1383,
    1386,
    1384,
    1387,
    1388,
    1385,
    1384,
    1199,
    1200,
    927,
    1386,
    1092,
    785,
    786,
    787,
    785,
    786,
    787,
    850,
    851,
    31,
    32,
    31,
    32,
    1089,
    1388,
    1387,
    733,
    1165,
    1147,
    747,
    748,
    731,
    732,
    1166,
    1167,
    1383,
    1163,
    1123,
    1124,
    8,
    1122,
    1123,
    1123,
    1123,
    1383,
    1386,
    1383,
    1385,
    1385,
    1385,
    1383,
    1385,
    1384,
    1164,
    1388,
    1386,
    1215,
    1216,
    747,
    748,
    1166,
    1167,
    1384,
    1148,
    1384,
    1384,
    1387,
    1387,
    1386,
    1384,
    1386,
    1386,
    1388,
    1388,
    1385,
    1384,
    1385,
    1387,
    1383,
    1386,
    1385,
    1164,
    1387,
    1386,
    1384,
    1215,
    1216,
    1199,
    1200,
    1148,
    1163,
    1215,
    1216,
    1165,
    1387,
    1388,
    1123,
    1123,
    1124,
    1152,
    866,
    867,
    897,
    898,
    899,
    15,
    16,
    1389,
    812,
    813,
    1,
    817,
    818,
    819,
    1090,
    1163,
    1182,
    1213,
    1214,
    1197,
    1198,
    1383,
    1385,
    1384,
    1163,
    1386,
    1387,
    1383,
    1388,
    1388,
    1386,
    1385,
    1385,
    1385,
    1215,
    1216,
    1197,
    1198,
    1108,
    801,
    802,
    803,
    801,
    802,
    803,
    785,
    786,
    787,
    15,
    7,
    1090,
    1149,
    731,
    732,
    1150,
    1151,
    1149,
    1182,
    927,
    747,
    748,
    1385,
    1387,
    1164,
    1125,
    843,
    844,
    911,
    912,
    911,
    912,
    839,
    1122,
    1165,
    1387,
    1386,
    1387,
    1385,
    1386,
    1383,
    1387,
    1385,
    1388,
    1386,
    1386,
    1182,
    1383,
    731,
    732,
    1147,
    927,
    1385,
    1387,
    1163,
    1388,
    1384,
    1387,
    1385,
    1388,
    1385,
    1384,
    1388,
    1383,
    1386,
    1385,
    1164,
    1388,
    1384,
    1387,
    1149,
    1148,
    1386,
    1163,
    1388,
    1386,
    1215,
    1216,
    1388,
    1385,
    1388,
    1384,
    1123,
    1123,
    1124,
    2,
    47,
    3,
    881,
    882,
    883,
    913,
    914,
    1,
    31,
    32,
    1405,
    828,
    1,
    1,
    796,
    797,
    1105,
    1106,
    1384,
    927,
    1199,
    1200,
    1213,
    1214,
    1387,
    1387,
    1388,
    1387,
    1384,
    1386,
    1385,
    1383,
    1388,
    1388,
    1165,
    1388,
    927,
    1197,
    1198,
    1213,
    1214,
    1108,
    817,
    818,
    819,
    817,
    818,
    819,
    801,
    802,
    803,
    31,
    1089,
    1388,
    1147,
    747,
    748,
    1166,
    1167,
    731,
    732,
    927,
    1147,
    1386,
    1385,
    1123,
    1124,
    870,
    859,
    860,
    1075,
    1090,
    1091,
    1092,
    855,
    856,
    1122,
    1123,
    1182,
    1199,
    1200,
    1383,
    1148,
    1150,
    1151,
    1165,
    1384,
    1384,
    1165,
    1147,
    747,
    748,
    1148,
    1387,
    1384,
    1388,
    1387,
    1386,
    1386,
    1387,
    1387,
    1383,
    1383,
    1386,
    1385,
    1383,
    1388,
    1387,
    1386,
    1386,
    1383,
    1388,
    1199,
    1200,
    1148,
    1386,
    1386,
    1386,
    1387,
    1383,
    1386,
    1147,
    1123,
    1124,
    1,
    1,
    2,
    791,
    792,
    795,
    897,
    898,
    899,
    2,
    2,
    1023,
    1024,
    4,
    1421,
    1,
    866,
    867,
    812,
    813,
    1090,
    1383,
    1386,
    1182,
    1215,
    1216,
    1147,
    1386,
    1383,
    1164,
    1383,
    1385,
    1384,
    1386,
    1384,
    1385,
    1388,
    1182,
    1383,
    1197,
    1198,
    1213,
    1214,
    1147,
    1147,
    1125,
    796,
    797,
    2,
    785,
    786,
    787,
    817,
    818,
    819,
    1090,
    1149,
    1387,
    1199,
    1200,
    1387,
    1182,
    11,
    747,
    748,
    1386,
    1165,
    1388,
    1125,
    884,
    885,
    886,
    15,
    16,
    1090,
    1384,
    1165,
    1108,
    836,
    837,
    838,
    1074,
    1122,
    1215,
    1216,
    731,
    732,
    1166,
    1167,
    731,
    732,
    1387,
    1388,
    1383,
    1387,
    1148,
    1386,
    1384,
    1385,
    1384,
    1385,
    1387,
    1384,
    1387,
    1163,
    1387,
    1387,
    1385,
    1383,
    1383,
    1388,
    1386,
    1385,
    1385,
    1383,
    1385,
    1215,
    1216,
    1199,
    1200,
    1147,
    1148,
    1387,
    1384,
    1163,
    1124,
    4,
    3,
    1,
    4,
    1389,
    807,
    808,
    811,
    913,
    914,
    1,
    866,
    867,
    1039,
    1040,
    2,
    3,
    881,
    882,
    883,
    828,
    1090,
    1386,
    1199,
    1200,
    1383,
    1163,
    1182,
    927,
    1384,
    1384,
    1386,
    1384,
    1386,
    1388,
    1386,
    1386,
    1384,
    1385,
    1385,
    1148,
    1213,
    1214,
    1148,
    1123,
    1123,
    1124,
    881,
    812,
    813,
    1104,
    801,
    802,
    803,
    785,
    786,
    787,
    1106,
    1386,
    927,
    1215,
    1216,
    1147,
    1197,
    1198,
    1182,
    1147,
    1383,
    1123,
    1124,
    870,
    900,
    901,
    1090,
    1109,
    32,
    1122,
    1123,
    1123,
    1124,
    852,
    853,
    854,
    839,
    840,
    1106,
    1165,
    747,
    748,
    1199,
    1200,
    747,
    748,
    1148,
    1384,
    1386,
    1387,
    1388,
    1385,
    1385,
    1386,
    1388,
    1386,
    1387,
    1387,
    1383,
    1388,
    1383,
    1388,
    1387,
    1384,
    1386,
    1383,
    1383,
    1383,
    1388,
    1386,
    1385,
    1384,
    1147,
    1215,
    1216,
    1123,
    11,
    1164,
    1147,
    1124,
    1152,
    3,
    1023,
    1024,
    1,
    1405,
    823,
    824,
    827,
    4,
    2,
    881,
    882,
    883,
    1055,
    2,
    4,
    1389,
    897,
    898,
    899,
    1089,
    1386,
    927,
    1215,
    1216,
    1182,
    1383,
    1383,
    1388,
    1385,
    1388,
    1147,
    1150,
    1151,
    1383,
    1147,
    1386,
    1385,
    1165,
    1383,
    1388,
    1182,
    1123,
    1124,
    791,
    792,
    795,
    897,
    828,
    2,
    3,
    817,
    818,
    819,
    801,
    802,
    803,
    1122,
    1384,
    1149,
    731,
    732,
    927,
    1213,
    1214,
    1149,
    1077,
    1124,
    884,
    885,
    886,
    1089,
    1091,
    1124,
    843,
    844,
    911,
    912,
    839,
    840,
    8,
    3,
    5,
    855,
    856,
    1122,
    1123,
    1123,
    1182,
    1215,
    1216,
    1386,
    731,
    732,
    1147,
    1386,
    1388,
    1385,
    1387,
    1387,
    1387,
    1383,
    1386,
    1385,
    1384,
    1383,
    1388,
    1385,
    1383,
    1385,
    1385,
    1386,
    1388,
    1386,
    1387,
    1387,
    1384,
    1383,
    1122,
    1123,
    1123,
    1124,
    1,
    1122,
    1123,
    1124,
    791,
    792,
    795,
    1039,
    1040,
    4,
    1421,
    1,
    1152,
    2,
    866,
    867,
    897,
    898,
    899,
    3,
    15,
    16,
    1405,
    913,
    914,
    1090,
    1163,
    1197,
    1198,
    1150,
    1151,
    1147,
    1384,
    1383,
    1164,
    1386,
    927,
    1165,
    1166,
    1167,
    1199,
    1200,
    1385,
    1383,
    1383,
    1385,
    1383,
    1124,
    6,
    1389,
    807,
    808,
    811,
    913,
    914,
    1,
    1,
    796,
    797,
    2,
    817,
    818,
    819,
    14,
    1122,
    1388,
    747,
    748,
    1199,
    1200,
    1147,
    1384,
    1124,
    880,
    900,
    901,
    1090,
    1165,
    1124,
    880,
    859,
    860,
    1075,
    7,
    855,
    856,
    4,
    1,
    3,
    836,
    837,
    838,
    1074,
    1074,
    1122,
    1123,
    1387,
    1148,
    747,
    748,
    1148,
    927,
    1385,
    1385,
    1383,
    1163,
    1383,
    1383,
    1383,
    1387,
    1386,
    1384,
    1384,
    1387,
    1385,
    1383,
    1388,
    1387,
    1385,
    1387,
    1383,
    1383,
    1385,
    1385,
    793,
    794,
    793,
    793,
    794,
    793,
    794,
    795,
    807,
    808,
    811,
    1055,
    1,
    13,
    7,
    1,
    1,
    881,
    882,
    883,
    913,
    914,
    1,
    2,
    31,
    32,
    1421,
    1090,
    1091,
    1384,
    1182,
    1213,
    1214,
    1166,
    1167,
    1388,
    1384,
    1163,
    1388,
    1388,
    1147,
    1182,
    1199,
    1200,
    1215,
    1216,
    927,
    1383,
    1387,
    1388,
    1124,
    6,
    3,
    1405,
    823,
    824,
    827,
    7,
    865,
    866,
    867,
    812,
    813,
    7,
    796,
    797,
    7,
    8,
    1090,
    1150,
    1151,
    1386,
    1215,
    1216,
    1386,
    1108,
    895,
    896,
    1090,
    1091,
    1387,
    1108,
    895,
    896,
    7,
    7,
    1090,
    1092,
    833,
    834,
    835,
    15,
    16,
    852,
    853,
    854,
    911,
    912,
    839,
    840,
    1122,
    1164,
    1387,
    1199,
    1200,
    1147,
    1383,
    1147,
    1385,
    1386,
    1386,
    1387,
    1384,
    1386,
    1387,
    1388,
    1386,
    1387,
    1385,
    1386,
    1386,
    1386,
    1388,
    1383,
    1387,
    1385,
    1388,
    1388,
    809,
    810,
    809,
    809,
    810,
    809,
    810,
    811,
    823,
    824,
    827,
    1,
    7,
    1,
    791,
    792,
    795,
    897,
    898,
    899,
    1,
    13,
    1,
    1023,
    1024,
    1090,
    1091,
    1386,
    1384,
    1383,
    1388,
    1385,
    1388,
    1386,
    1388,
    1388,
    1388,
    1387,
    927,
    1148,
    1197,
    1198,
    1215,
    1216,
    1197,
    1198,
    1165,
    1164,
    1123,
    1124,
    1,
    1,
    4,
    1421,
    1023,
    1024,
    15,
    16,
    1389,
    882,
    883,
    828,
    866,
    867,
    812,
    813,
    1090,
    1091,
    1147,
    1166,
    1167,
    1388,
    1385,
    1388,
    1383,
    1108,
    1109,
    1105,
    1106,
    1165,
    1385,
    1108,
    798,
    799,
    1,
    1089,
    1385,
    1163,
    1092,
    850,
    851,
    31,
    32,
    3,
    5,
    2,
    3,
    7,
    855,
    856,
    7,
    1121,
    1383,
    1215,
    1216,
    731,
    732,
    1388,
    1386,
    1386,
    1384,
    1384,
    1385,
    1384,
    1387,
    1388,
    1387,
    1386,
    1388,
    1385,
    1387,
    1388,
    1387,
    1384,
    1387,
    1383,
    1386,
    1386,
    825,
    826,
    825,
    825,
    826,
    825,
    826,
    827,
    1,
    791,
    792,
    793,
    794,
    795,
    807,
    808,
    811,
    913,
    914,
    1,
    7,
    866,
    867,
    1039,
    1040,
    1106,
    1163,
    1387,
    1387,
    1383,
    1163,
    1388,
    1385,
    1388,
    1386,
    1383,
    1384,
    1147,
    1199,
    1200,
    1213,
    1214,
    1182,
    1147,
    1213,
    1214,
    1147,
    1125,
    3,
    4,
    4,
    4,
    914,
    790,
    1039,
    1040,
    31,
    32,
    1405,
    898,
    899,
    1389,
    882,
    883,
    828,
    1105,
    1106,
    10,
    1147,
    1182,
    1383,
    1388,
    731,
    732,
    1182,
    1108,
    798,
    799,
    1122,
    11,
    1387,
    1108,
    814,
    815,
    1090,
    1388,
    11,
    1147,
    1108,
    836,
    837,
    838,
    6,
    5,
    4,
    2,
    912,
    839,
    840,
    837,
    838,
    2,
    1122,
    1385,
    927,
    747,
    748,
    1386,
    1385,
    1385,
    1386,
    1386,
    1386,
    1383,
    1384,
    1388,
    1383,
    1387,
    1385,
    1386,
    1385,
    1387,
    1385,
    1383,
    1386,
    1386,
    1165,
    1388,
    793,
    794,
    793,
    794,
    793,
    794,
    793,
    794,
    795,
    807,
    808,
    809,
    810,
    811,
    823,
    824,
    827,
    7,
    1,
    1,
    881,
    882,
    883,
    1055,
    1090,
    1386,
    1388,
    1164,
    1388,
    1130,
    1126,
    1129,
    1127,
    1385,
    1182,
    1388,
    927,
    1164,
    1215,
    1216,
    1147,
    1148,
    1163,
    1148,
    1123,
    1123,
    1124,
    1023,
    1024,
    3,
    3,
    804,
    805,
    806,
    1055,
    1090,
    1092,
    1,
    1421,
    914,
    1,
    1405,
    898,
    899,
    1,
    1090,
    1199,
    1200,
    1385,
    1384,
    1388,
    733,
    747,
    748,
    1147,
    1124,
    814,
    815,
    7,
    1122,
    1387,
    1124,
    830,
    831,
    1106,
    1147,
    1199,
    1200,
    1147,
    1092,
    853,
    854,
    839,
    840,
    3,
    1075,
    1,
    855,
    856,
    853,
    854,
    839,
    840,
    1121,
    1387,
    1386,
    1148,
    1164,
    1383,
    1386,
    1387,
    1388,
    1388,
    1384,
    1388,
    1386,
    1385,
    1385,
    1384,
    1387,
    1388,
    1386,
    1387,
    1387,
    1385,
    1384,
    1386,
    1385,
    809,
    810,
    809,
    810,
    809,
    810,
    809,
    810,
    811,
    823,
    824,
    825,
    826,
    827,
    2,
    4,
    1,
    791,
    792,
    795,
    897,
    898,
    899,
    1090,
    1147,
    1387,
    927,
    1386,
    1130,
    12,
    1087,
    1180,
    1110,
    1111,
    1386,
    1199,
    1200,
    1147,
    1148,
    1123,
    1125,
    1122,
    1123,
    1124,
    791,
    792,
    795,
    1039,
    1040,
    4,
    3,
    820,
    821,
    822,
    1090,
    1107,
    1163,
    1091,
    1092,
    1,
    1,
    1421,
    914,
    1090,
    1091,
    1147,
    1215,
    1216,
    1388,
    1384,
    731,
    732,
    1147,
    1182,
    1108,
    1109,
    830,
    831,
    4,
    1105,
    1106,
    1109,
    779,
    780,
    1122,
    1182,
    1215,
    1216,
    1182,
    1149,
    1091,
    1092,
    855,
    856,
    7,
    1090,
    1092,
    836,
    837,
    838,
    1,
    855,
    856,
    1105,
    1106,
    927,
    731,
    732,
    927,
    1384,
    1385,
    1384,
    1386,
    1386,
    1388,
    1383,
    1385,
    1164,
    1384,
    1386,
    1386,
    1387,
    1385,
    1385,
    1383,
    1386,
    1388,
    1386,
    825,
    826,
    825,
    826,
    825,
    826,
    825,
    826,
    827,
    1,
    1152,
    13,
    791,
    792,
    793,
    794,
    795,
    807,
    808,
    811,
    913,
    1090,
    1091,
    1385,
    1199,
    1200,
    1386,
    1388,
    1098,
    1117,
    1086,
    1087,
    1094,
    1164,
    1387,
    1215,
    1216,
    1123,
    1124,
    791,
    792,
    793,
    794,
    795,
    807,
    808,
    811,
    1055,
    914,
    13,
    6,
    796,
    797,
    2,
    1122,
    1123,
    1123,
    1123,
    1124,
    1023,
    1024,
    1090,
    1091,
    1384,
    1384,
    1383,
    1384,
    1384,
    1384,
    1182,
    747,
    748,
    1199,
    1200,
    1108,
    1109,
    871,
    872,
    873,
    1105,
    1106,
    1092,
    735,
    736,
    1090,
    1383,
    1165,
    731,
    732,
    11,
    1148,
    1108,
    836,
    837,
    838,
    1122,
    1124,
    852,
    853,
    854,
    839,
    836,
    837,
    838,
    1122,
    1384,
    747,
    748,
    1387,
    1384,
    1386,
    1386,
    1387,
    1387,
    1385,
    1383,
    1388,
    1388,
    1384,
    1388,
    1384,
    1163,
    1385,
    1385,
    1388,
    1383,
    1386,
    1387,
    793,
    794,
    793,
    794,
    793,
    794,
    794,
    793,
    794,
    793,
    794,
    795,
    807,
    808,
    809,
    810,
    811,
    823,
    824,
    827,
    1090,
    733,
    1197,
    1198,
    1215,
    1216,
    10,
    1383,
    1165,
    1097,
    1080,
    1094,
    11,
    1383,
    1383,
    1386,
    1124,
    789,
    790,
    807,
    808,
    809,
    810,
    811,
    823,
    824,
    827,
    7,
    865,
    1,
    1389,
    812,
    813,
    7,
    791,
    792,
    793,
    794,
    795,
    1039,
    1040,
    1106,
    1165,
    733,
    927,
    1199,
    1200,
    1383,
    1165,
    1199,
    1200,
    1147,
    1215,
    1216,
    1214,
    1092,
    887,
    888,
    889,
    890,
    1122,
    1124,
    798,
    799,
    1122,
    1164,
    1383,
    747,
    748,
    1149,
    10,
    927,
    1092,
    853,
    854,
    911,
    912,
    839,
    840,
    1,
    855,
    856,
    853,
    854,
    839,
    1122,
    1163,
    1148,
    1147,
    1384,
    1385,
    1388,
    1384,
    1388,
    1388,
    1387,
    1386,
    1388,
    1385,
    1387,
    1385,
    1384,
    1388,
    1385,
    1387,
    1385,
    1387,
    1384,
    809,
    810,
    809,
    810,
    809,
    810,
    810,
    809,
    810,
    809,
    810,
    811,
    823,
    824,
    825,
    826,
    827,
    7,
    1,
    1090,
    1388,
    1147,
    1213,
    1214,
    1147,
    1182,
    1383,
    1384,
    1384,
    1385,
    1096,
    1163,
    1387,
    1384,
    1182,
    1108,
    804,
    805,
    806,
    823,
    824,
    825,
    826,
    827,
    1090,
    1092,
    3,
    2,
    5,
    6,
    1405,
    828,
    866,
    867,
    807,
    808,
    809,
    810,
    811,
    1055,
    1090,
    1387,
    1182,
    1147,
    1182,
    1215,
    1216,
    1385,
    1388,
    1215,
    1216,
    1182,
    1387,
    1199,
    1200,
    1385,
    1093,
    904,
    905,
    906,
    15,
    16,
    814,
    815,
    1105,
    1106,
    1388,
    1148,
    1149,
    1199,
    1200,
    1149,
    1164,
    1091,
    1092,
    47,
    1,
    855,
    856,
    1,
    833,
    834,
    835,
    1,
    855,
    856,
    1121,
    927,
    1388,
    1383,
    1387,
    1385,
    1386,
    1385,
    1384,
    1386,
    1388,
    1383,
    1388,
    1385,
    1386,
    1386,
    1386,
    1384,
    1386,
    1387,
    1387,
    1388,
    825,
    826,
    825,
    826,
    825,
    826,
    826,
    825,
    826,
    825,
    826,
    827,
    1090,
    1091,
    1091,
    1092,
    7,
    1,
    1090,
    1148,
    1197,
    1198,
    1148,
    1182,
    1197,
    1198,
    1149,
    1387,
    1384,
    1384,
    1384,
    1386,
    1387,
    1199,
    1200,
    1108,
    820,
    821,
    822,
    1,
    1090,
    1091,
    1091,
    1091,
    1165,
    1124,
    1,
    4,
    1,
    2,
    1421,
    881,
    882,
    883,
    823,
    824,
    825,
    826,
    827,
    1090,
    1383,
    1386,
    731,
    732,
    1148,
    1164,
    1163,
    1383,
    733,
    1182,
    1147,
    1388,
    1147,
    1215,
    1216,
    1149,
    1383,
    1092,
    2,
    15,
    16,
    7,
    830,
    831,
    1105,
    1106,
    1383,
    1385,
    1147,
    1215,
    1216,
    1384,
    1148,
    1388,
    1383,
    1092,
    13,
    833,
    834,
    835,
    849,
    850,
    851,
    1,
    785,
    786,
    787,
    1106,
    1388,
    1386,
    1384,
    1383,
    1387,
    1385,
    1383,
    1386,
    1384,
    1387,
    1384,
    1383,
    1388,
    1384,
    1383,
    1385,
    1387,
    1386,
    1384,
    1385,
    1091,
    1091,
    1092,
    1090,
    1091,
    1091,
    1091,
    1092,
    7,
    8,
    1090,
    1091,
    1182,
    1148,
    1385,
    1182,
    1093,
    1089,
    1388,
    11,
    1213,
    1214,
    1199,
    1200,
    1213,
    1214,
    1164,
    1128,
    1384,
    1384,
    927,
    1387,
    1147,
    1215,
    1216,
    1124,
    785,
    786,
    787,
    1090,
    1200,
    1164,
    1147,
    1123,
    1124,
    1023,
    1024,
    6,
    3,
    914,
    1389,
    897,
    898,
    899,
    15,
    7,
    1090,
    1091,
    1091,
    927,
    1388,
    1182,
    747,
    748,
    1199,
    1200,
    1388,
    1386,
    1386,
    1387,
    1386,
    1386,
    1388,
    1387,
    1387,
    1388,
    1165,
    1108,
    15,
    31,
    32,
    32,
    798,
    799,
    1105,
    1106,
    1388,
    1387,
    1387,
    927,
    1383,
    1383,
    1199,
    1200,
    1147,
    1384,
    1092,
    849,
    850,
    851,
    5,
    785,
    786,
    787,
    801,
    802,
    803,
    1106,
    1163,
    1147,
    1385,
    1388,
    1383,
    1384,
    1385,
    1385,
    1384,
    1384,
    1387,
    1384,
    1386,
    1383,
    1387,
    1386,
    1386,
    1385,
    1387,
    1383,
    1150,
    1151,
    1182,
    1147,
    1165,
    1199,
    1200,
    733,
    1093,
    1090,
    1147,
    1165,
    1384,
    1388,
    733,
    1388,
    1385,
    1385,
    1147,
    1383,
    733,
    1147,
    1215,
    1216,
    1150,
    1151,
    1130,
    1083,
    1127,
    1383,
    1384,
    1199,
    1200,
    1147,
    1108,
    1109,
    801,
    802,
    803,
    1106,
    1216,
    1148,
    1124,
    866,
    867,
    1039,
    1040,
    3,
    3,
    2,
    1405,
    913,
    1090,
    1092,
    31,
    1090,
    1147,
    927,
    1150,
    1151,
    1387,
    1385,
    1182,
    1148,
    1215,
    1216,
    1387,
    1385,
    1385,
    1147,
    1182,
    1149,
    1385,
    1182,
    1199,
    1200,
    1387,
    1124,
    31,
    32,
    7,
    16,
    814,
    815,
    1105,
    1106,
    1386,
    1388,
    1388,
    1165,
    1199,
    1200,
    1215,
    1216,
    1199,
    1200,
    1108,
    1,
    796,
    797,
    3,
    801,
    802,
    803,
    817,
    818,
    819,
    1122,
    1123,
    1388,
    1199,
    1200,
    1164,
    1147,
    1387,
    1387,
    1383,
    1388,
    1387,
    1385,
    1386,
    1386,
    1384,
    1386,
    1387,
    1385,
    1165,
    1386,
    1166,
    1167,
    1388,
    1147,
    1182,
    1215,
    1216,
    1147,
    1182,
    733,
    1164,
    1388,
    1384,
    1383,
    1385,
    1383,
    1387,
    1388,
    1388,
    1387,
    1387,
    1387,
    1386,
    1384,
    1166,
    1167,
    1098,
    1086,
    1087,
    1126,
    1385,
    1215,
    1216,
    1386,
    1124,
    1,
    817,
    818,
    819,
    1122,
    1123,
    1125,
    881,
    882,
    883,
    1055,
    914,
    6,
    3,
    7,
    1421,
    1090,
    1385,
    1165,
    1091,
    1150,
    1151,
    1147,
    1166,
    1167,
    1387,
    731,
    732,
    1182,
    1147,
    1385,
    1387,
    1388,
    1147,
    1199,
    1200,
    1182,
    1150,
    1151,
    1215,
    1216,
    1124,
    16,
    735,
    736,
    31,
    32,
    830,
    831,
    7,
    1122,
    1383,
    1385,
    1387,
    1385,
    1215,
    1216,
    1150,
    1151,
    1215,
    1216,
    1108,
    1389,
    812,
    813,
    6,
    817,
    818,
    819,
    785,
    786,
    787,
    3,
    1105,
    1106,
    1215,
    1216,
    1182,
    1387,
    733,
    1383,
    1387,
    1387,
    1386,
    1383,
    1383,
    1387,
    1384,
    1387,
    1385,
    1385,
    1387,
    1386,
    1383,
    1388,
    1384,
    733,
    1147,
    1383,
    1182,
    1384,
    733,
    1387,
    1385,
    1387,
    1387,
    1388,
    1385,
    1387,
    1385,
    1383,
    1164,
    1387,
    1385,
    1387,
    1388,
    1384,
    1384,
    1383,
    1385,
    1096,
    1098,
    1094,
    1163,
    1386,
    1123,
    1124,
    1,
    1,
    796,
    797,
    1,
    1,
    791,
    795,
    897,
    898,
    899,
    789,
    1023,
    1024,
    5,
    1090,
    1091,
    1387,
    1388,
    1387,
    1148,
    1166,
    1167,
    1388,
    1385,
    1387,
    1182,
    747,
    748,
    1383,
    1383,
    1387,
    1385,
    1385,
    1149,
    1215,
    1216,
    1182,
    1166,
    1167,
    11,
    1182,
    1092,
    32,
    798,
    799,
    15,
    16,
    798,
    799,
    7,
    1090,
    1385,
    1387,
    1387,
    1385,
    1386,
    1384,
    1166,
    1167,
    927,
    1165,
    1124,
    1405,
    828,
    1,
    3,
    796,
    797,
    13,
    801,
    802,
    803,
    2,
    1089,
    1163,
    927,
    731,
    732,
    1148,
    1387,
    731,
    732,
    733,
    1383,
    1386,
    1385,
    1387,
    1387,
    1386,
    1388,
    1387,
    1383,
    1384,
    1383,
    1165,
    1387,
    1388,
    1387,
    1383,
    1384,
    1386,
    1383,
    1182,
    1387,
    1386,
    1385,
    1385,
    1386,
    1388,
    1384,
    1130,
    1127,
    1130,
    1126,
    1163,
    1387,
    1383,
    1163,
    1388,
    1385,
    1388,
    1384,
    1384,
    1386,
    1125,
    1074,
    1,
    866,
    867,
    812,
    813,
    789,
    790,
    807,
    811,
    913,
    914,
    804,
    805,
    1039,
    1040,
    1090,
    1386,
    1384,
    1384,
    1165,
    1387,
    1387,
    1386,
    1384,
    1386,
    1163,
    1385,
    1385,
    1383,
    1182,
    1386,
    1385,
    1387,
    1385,
    1387,
    1388,
    1182,
    1147,
    731,
    732,
    1147,
    1199,
    1200,
    1388,
    1092,
    814,
    815,
    31,
    32,
    814,
    815,
    1105,
    1106,
    1385,
    1387,
    1387,
    1385,
    1163,
    1386,
    1388,
    1385,
    1388,
    1147,
    1092,
    1421,
    1,
    1,
    1389,
    812,
    813,
    1,
    817,
    818,
    819,
    1090,
    1384,
    1182,
    1387,
    747,
    748,
    1385,
    1147,
    747,
    748,
    1383,
    1383,
    1386,
    1383,
    1387,
    1387,
    1384,
    1386,
    1388,
    1383,
    1384,
    1388,
    1383,
    1383,
    1384,
    1387,
    1384,
    1385,
    1383,
    1387,
    1383,
    1386,
    1388,
    1387,
    1387,
    1386,
    1385,
    1165,
    1114,
    12,
    1086,
    1087,
    1127,
    1128,
    1130,
    1126,
    1385,
    1386,
    1385,
    1165,
    1384,
    1108,
    1109,
    1,
    881,
    882,
    883,
    828,
    804,
    805,
    806,
    823,
    827,
    1090,
    1092,
    820,
    821,
    1055,
    1090,
    1385,
    1385,
    1388,
    1384,
    1386,
    1387,
    1385,
    1386,
    1383,
    1383,
    1388,
    1386,
    1383,
    1385,
    1384,
    1387,
    1384,
    1383,
    1385,
    1387,
    1385,
    1384,
    1386,
    747,
    748,
    1182,
    1215,
    1216,
    1147,
    1108,
    830,
    831,
    7,
    1152,
    830,
    831,
    4,
    1122,
    1383,
    1387,
    1384,
    1386,
    1386,
    1385,
    1386,
    1387,
    1386,
    1388,
    1182,
    1091,
    1092,
    32,
    1405,
    828,
    1,
    1,
    796,
    797,
    1105,
    1106,
    1384,
    1164,
    1150,
    1151,
    927,
    1182,
    1199,
    1200,
    731,
    732,
    1163,
    1148,
    1388,
    1383,
    1383,
    1387,
    1386,
    1387,
    1388,
    1387,
    1383,
    1388,
    1383,
    1383,
    1383,
    1384,
    1388,
    1387,
    1383,
    1387,
    1385,
    1385,
    1388,
    1385,
    1383,
    1388,
    1384,
    1098,
    1086,
    1087,
    1117,
    1086,
    1087,
    12,
    1110,
    1384,
    1387,
    1111,
    1384,
    1383,
    1124,
    789,
    790,
    897,
    898,
    899,
    1,
    820,
    821,
    822,
    1,
    1090,
    11,
    1108,
    785,
    786,
    787,
    1106,
    731,
    732,
    1147,
    1386,
    1384,
    1387,
    1386,
    1384,
    1384,
    1385,
    1384,
    1387,
    1385,
    1386,
    1387,
    1388,
    1387,
    1385,
    1163,
    1387,
    1387,
    1387,
    1385,
    1385,
    1384,
    1388,
    1388,
    1076,
    1165,
    1124,
    798,
    799,
    7,
    1090,
    1092,
    872,
    873,
    7,
    1122,
    1386,
    1387,
    1385,
    1123,
    1123,
    1165,
    1165,
    1388,
    1385,
    1383,
    1387,
    1147,
    1092,
    1421,
    1,
    866,
    867,
    812,
    813,
    1090,
    1383,
    731,
    732,
    1166,
    1167,
    1148,
    733,
    1215,
    1216,
    747,
    748,
    1384,
    731,
    732,
    1384,
    1388,
    1384,
    1148,
    1386,
    1385,
    1385,
    1388,
    1387,
    1388,
    1387,
    1388,
    1386,
    1386,
    1385,
    1163,
    1383,
    1388,
    1386,
    1385,
    1384,
    1385,
    1387,
    1147,
    1386,
    1098,
    1117,
    1086,
    1083,
    1086,
    1087,
    1086,
    1127,
    1386,
    1164,
    1388,
    1124,
    804,
    805,
    806,
    913,
    914,
    2,
    4,
    785,
    786,
    787,
    1090,
    1076,
    1077,
    1124,
    801,
    802,
    803,
    1106,
    747,
    748,
    927,
    1147,
    1386,
    1150,
    1151,
    1388,
    1164,
    1388,
    1383,
    1387,
    1384,
    1385,
    1383,
    1388,
    1386,
    1384,
    1384,
    1385,
    1386,
    1388,
    1386,
    1386,
    1388,
    1387,
    1385,
    1383,
    1108,
    1109,
    814,
    815,
    8,
    1106,
    1108,
    888,
    889,
    890,
    1,
    1106,
    1164,
    1124,
    1,
    47,
    1122,
    1123,
    1383,
    1384,
    1387,
    1148,
    1387,
    1108,
    3,
    881,
    882,
    883,
    828,
    1090,
    1386,
    1182,
    747,
    748,
    1148,
    731,
    732,
    1182,
    10,
    1197,
    1198,
    1147,
    927,
    747,
    748,
    1388,
    1148,
    731,
    732,
    927,
    1383,
    1165,
    1385,
    1388,
    1384,
    1383,
    1388,
    1388,
    1387,
    1388,
    1384,
    1383,
    1388,
    1388,
    1383,
    1384,
    1387,
    1388,
    1383,
    1148,
    1384,
    1097,
    1117,
    1086,
    1083,
    1117,
    1080,
    1094,
    1385,
    1387,
    1108,
    1109,
    820,
    821,
    822,
    5,
    3,
    1,
    5,
    801,
    802,
    803,
    1106,
    1384,
    1108,
    1109,
    817,
    818,
    819,
    1122,
    1388,
    927,
    1182,
    731,
    732,
    1166,
    1167,
    1386,
    1384,
    1387,
    1386,
    1388,
    1388,
    1388,
    1385,
    1387,
    1383,
    1385,
    1387,
    1384,
    1384,
    1384,
    1383,
    1383,
    1386,
    1387,
    1388,
    1383,
    1108,
    1109,
    830,
    831,
    4,
    1122,
    1387,
    1092,
    905,
    906,
    14,
    1122,
    1124,
    791,
    792,
    875,
    876,
    877,
    1121,
    1384,
    1388,
    1383,
    1386,
    1124,
    1389,
    897,
    898,
    899,
    1089,
    1150,
    1151,
    1388,
    1147,
    1147,
    1182,
    747,
    748,
    11,
    1147,
    1213,
    1214,
    927,
    1197,
    1198,
    1165,
    1384,
    1383,
    747,
    748,
    1385,
    1388,
    1386,
    1386,
    1383,
    1388,
    1386,
    1385,
    1385,
    1383,
    1385,
    1388,
    1385,
    1383,
    1383,
    1386,
    1384,
    1388,
    1387,
    10,
    1197,
    1198,
    1163,
    1114,
    1083,
    1117,
    1095,
    1096,
    1163,
    1387,
    1384,
    1384,
    1093,
    836,
    837,
    838,
    4,
    2,
    4,
    1,
    817,
    818,
    819,
    1122,
    1388,
    1383,
    1092,
    836,
    837,
    838,
    14,
    1122,
    1383,
    1149,
    747,
    748,
    1199,
    1200,
    1384,
    1388,
    1387,
    1385,
    1386,
    1387,
    1387,
    1388,
    1387,
    1384,
    1383,
    1386,
    1386,
    1388,
    1384,
    1383,
    1383,
    1383,
    1387,
    1386,
    1386,
    1383,
    1092,
    871,
    872,
    873,
    1105,
    1106,
    1108,
    1390,
    1391,
    1392,
    794,
    795,
    807,
    808,
    891,
    892,
    893,
    1105,
    1106,
    1165,
    1385,
    1124,
    16,
    1405,
    913,
    914,
    1090,
    1388,
    1166,
    1167,
    1199,
    1200,
    1148,
    927,
    1388,
    1197,
    1198,
    1182,
    927,
    731,
    732,
    1213,
    1214,
    1388,
    731,
    732,
    10,
    1199,
    1200,
    1384,
    1384,
    1388,
    1385,
    1388,
    1387,
    1385,
    1385,
    1383,
    1384,
    1383,
    1387,
    1383,
    1385,
    1388,
    1387,
    1385,
    1387,
    1383,
    1213,
    1214,
    1164,
    1098,
    1080,
    1095,
    1163,
    1387,
    1386,
    1385,
    1383,
    1384,
    1383,
    1092,
    853,
    854,
    839,
    840,
    5,
    2,
    836,
    837,
    838,
    1,
    1122,
    1384,
    1388,
    1092,
    853,
    854,
    839,
    840,
    1121,
    1387,
    1182,
    1147,
    1215,
    1216,
    1385,
    1385,
    1385,
    1383,
    1388,
    1384,
    1385,
    1386,
    1385,
    1386,
    1384,
    1385,
    1386,
    1384,
    1383,
    1384,
    1163,
    1388,
    1383,
    1383,
    1385,
    1383,
    1108,
    1109,
    888,
    889,
    890,
    1106,
    1165,
    1092,
    1407,
    1408,
    810,
    811,
    823,
    824,
    907,
    908,
    909,
    910,
    1122,
    1123,
    1124,
    31,
    32,
    1421,
    1090,
    1091,
    1384,
    1164,
    1383,
    1148,
    1215,
    1216,
    1387,
    1148,
    1182,
    1213,
    1214,
    1197,
    1198,
    747,
    748,
    927,
    1385,
    1147,
    747,
    748,
    1149,
    1215,
    1216,
    1383,
    1385,
    1383,
    1384,
    1388,
    1384,
    1383,
    1388,
    1385,
    1386,
    1386,
    1385,
    1387,
    1387,
    1182,
    1383,
    1384,
    1386,
    927,
    1383,
    1387,
    1147,
    1387,
    1096,
    1182,
    1197,
    1198,
    1386,
    1386,
    1383,
    1385,
    1383,
    1165,
    1093,
    1,
    855,
    856,
    2,
    1090,
    1092,
    853,
    854,
    7,
    2,
    1122,
    1383,
    1388,
    1092,
    1,
    855,
    856,
    1105,
    1106,
    927,
    1182,
    1385,
    1387,
    1387,
    1384,
    1388,
    1385,
    1387,
    1384,
    1384,
    1388,
    1387,
    1385,
    1384,
    1386,
    11,
    1387,
    1386,
    1385,
    1384,
    1385,
    1387,
    1388,
    1388,
    1387,
    1108,
    1109,
    904,
    905,
    906,
    1122,
    1123,
    1124,
    1423,
    1424,
    826,
    827,
    1090,
    1091,
    1092,
    924,
    925,
    926,
    3,
    1074,
    1023,
    1024,
    1090,
    1091,
    1163,
    731,
    732,
    1148,
    1385,
    1388,
    1386,
    1147,
    731,
    732,
    1199,
    1200,
    1147,
    1213,
    1214,
    1384,
    1149,
    1197,
    1198,
    731,
    732,
    1182,
    1197,
    1198,
    1387,
    1164,
    1149,
    1385,
    1384,
    1163,
    1386,
    1384,
    1387,
    1386,
    1388,
    1387,
    1388,
    1387,
    1385,
    1386,
    1387,
    1383,
    1385,
    1387,
    1147,
    1182,
    1387,
    1165,
    1148,
    1149,
    1213,
    1214,
    1384,
    1383,
    1384,
    1384,
    1385,
    1383,
    1385,
    1092,
    785,
    786,
    787,
    1106,
    1384,
    1091,
    1092,
    1,
    6,
    6,
    1121,
    1383,
    1387,
    1093,
    836,
    837,
    838,
    1122,
    1384,
    1388,
    1147,
    1387,
    1150,
    1151,
    1388,
    1383,
    1387,
    1384,
    1384,
    1387,
    1387,
    1385,
    1386,
    1387,
    1383,
    1384,
    1387,
    1384,
    1387,
    1386,
    1385,
    1387,
    1385,
    1383,
    1164,
    1092,
    7,
    1390,
    1391,
    1392,
    875,
    876,
    877,
    7,
    1,
    1090,
    1388,
    1147,
    1388,
    1093,
    1390,
    1391,
    1392,
    795,
    1039,
    1040,
    1106,
    1384,
    1148,
    747,
    748,
    1199,
    1200,
    1388,
    1165,
    1386,
    747,
    748,
    1215,
    1216,
    731,
    732,
    1384,
    731,
    732,
    1213,
    1214,
    747,
    748,
    1147,
    1213,
    1214,
    1388,
    1383,
    731,
    1383,
    1384,
    1385,
    1383,
    1388,
    1386,
    1388,
    1383,
    1387,
    1383,
    1383,
    1388,
    1165,
    1388,
    1387,
    1385,
    1383,
    1148,
    1386,
    1387,
    1385,
    1386,
    1147,
    1388,
    1384,
    1383,
    1383,
    1388,
    1383,
    1385,
    1163,
    1385,
    1108,
    801,
    802,
    803,
    1122,
    1076,
    1077,
    1383,
    1092,
    1,
    4,
    4,
    1106,
    1386,
    1387,
    1092,
    853,
    854,
    839,
    1122,
    1383,
    1388,
    1149,
    1166,
    1167,
    1387,
    1388,
    1386,
    1384,
    1165,
    1388,
    1383,
    1383,
    1386,
    1386,
    1386,
    1383,
    1386,
    1384,
    1383,
    1384,
    1387,
    1387,
    1387,
    1387,
    1385,
    1388,
    1092,
    1406,
    1407,
    1408,
    891,
    892,
    893,
    894,
    1090,
    1147,
    1383,
    1199,
    1200,
    1108,
    1109,
    1407,
    1408,
    811,
    1055,
    1090,
    1386,
    1150,
    1151,
    1197,
    1198,
    1215,
    1216,
    1199,
    1200,
    1387,
    1386,
    1387,
    1147,
    927,
    747,
    748,
    1182,
    747,
    748,
    1182,
    1149,
    1182,
    1199,
    1200,
    927,
    1385,
    1387,
    1182,
    747,
    1385,
    1384,
    1386,
    1385,
    1388,
    1384,
    1386,
    1387,
    1386,
    1384,
    1388,
    1384,
    1385,
    1386,
    1386,
    1384,
    1386,
    1385,
    1384,
    1182,
    1383,
    1386,
    1387,
    1385,
    1385,
    1384,
    1388,
    1384,
    1387,
    1387,
    1388,
    1384,
    1108,
    817,
    818,
    819,
    1105,
    1106,
    1385,
    1163,
    1108,
    4,
    4,
    3,
    1106,
    1383,
    1386,
    1387,
    1093,
    1,
    855,
    856,
    1121,
    1383,
    1387,
    1387,
    1385,
    1386,
    1388,
    1384,
    1387,
    1388,
    1383,
    1388,
    1388,
    1385,
    1388,
    1388,
    1386,
    1388,
    1385,
    1383,
    1388,
    1385,
    1388,
    1388,
    1383,
    1387,
    1387,
    1387,
    1093,
    1423,
    1424,
    907,
    908,
    909,
    910,
    1106,
    1165,
    1147,
    1215,
    1216,
    1147,
    1092,
    1423,
    1424,
    827,
    15,
    1122,
    1076,
    1166,
    1167,
    1213,
    1214,
    731,
    732,
    1215,
    1216,
    1147,
    1387,
    1164,
    1385,
    731,
    732,
    927,
    1147,
    1182,
    11,
    731,
    732,
    1385,
    1215,
    1216,
    1384,
    1385,
    1163,
    731,
    732,
    1387,
    1387,
    1383,
    1385,
    1384,
    1386,
    1388,
    1387,
    1383,
    1383,
    1385,
    1387,
    1386,
    1388,
    1386,
    1385,
    1388,
    1387,
    1386,
    1385,
    1384,
    1388,
    1386,
    1384,
    1386,
    1388,
    1384,
    1386,
    1383,
    1385,
    1387,
    1388,
    1124,
    817,
    818,
    819,
    1090,
    1385,
    1384,
    1387,
    1124,
    6,
    2,
    5,
    1122,
    1385,
    1387,
    1386,
    1387,
    1092,
    785,
    786,
    787,
    1106,
    1385,
    1383,
    1387,
    1384,
    1387,
    1387,
    1386,
    1387,
    1385,
    1384,
    1383,
    1383,
    1388,
    1384,
    1384,
    1387,
    1384,
    1383,
    1164,
    1385,
    1165,
    1385,
    1384,
    1383,
    1386,
    1164,
    1388,
    1091,
    1091,
    1092,
    924,
    925,
    926,
    1122,
    1123,
    1124,
    1122,
    1148,
    1199,
    1200,
    1092,
    1075,
    15,
    7,
    15,
    1122,
    1123,
    1123,
    1387,
    1383,
    747,
    748,
    1182,
    1147,
    731,
    732,
    1387,
    1386,
    747,
    748,
    731,
    732,
    1197,
    1198,
    747,
    748,
    927,
    1384,
    1147,
    1182,
    1383,
    1387,
    747,
    748,
    1383,
    1388,
    1383,
    1387,
    1388,
    1386,
    1386,
    1387,
    1385,
    1388,
    1383,
    1387,
    1383,
    1384,
    1383,
    1383,
    1384,
    1383,
    1388,
    1383,
    1385,
    1385,
    1384,
    1388,
    1384,
    1386,
    1385,
    1387,
    1388,
    1387,
    1385,
    1108,
    1,
    836,
    837,
    838,
    1122,
    1123,
    1384,
    1384,
    1093,
    1,
    5,
    3,
    1105,
    1106,
    1388,
    1388,
    1387,
    1108,
    801,
    802,
    803,
    1106,
    1385,
    1387,
    1386,
    1387,
    1383,
    1384,
    1386,
    1385,
    1387,
    1384,
    1388,
    1163,
    1384,
    1385,
    1386,
    1385,
    1388,
    1385,
    1387,
    1388,
    1386,
    1384,
    1388,
    1384,
    1386,
    1388,
    1385,
    1385,
    1384,
    1163,
    1092,
    1390,
    1391,
    1392,
    875,
    876,
    877,
    1121,
    1215,
    1216,
    1108,
    1109,
    31,
    32,
    31,
    32,
    1074,
    1074,
    1121,
    1383,
    1148,
    1383,
    731,
    732,
    747,
    748,
    1147,
    1385,
    1386,
    1383,
    747,
    748,
    1213,
    1214,
    1150,
    1151,
    731,
    732,
    927,
    1384,
    1387,
    1197,
    1198,
    1182,
    1388,
    1386,
    1386,
    1388,
    1387,
    1386,
    1385,
    1384,
    1384,
    1385,
    1385,
    1385,
    1385,
    1384,
    1163,
    1387,
    1388,
    1387,
    1386,
    1386,
    1164,
    1384,
    1383,
    1388,
    1385,
    1388,
    1384,
    1387,
    1383,
    1385,
    1383,
    1164,
    1093,
    1,
    853,
    854,
    1,
    6,
    1122,
    1164,
    1387,
    1092,
    1,
    1,
    839,
    1122,
    1383,
    1388,
    1383,
    1108,
    817,
    818,
    819,
    1122,
    1163,
    1388,
    1383,
    1386,
    1384,
    1388,
    1388,
    1385,
    1388,
    1388,
    1383,
    1383,
    1383,
    1385,
    1385,
    1383,
    1384,
    1386,
    1387,
    1385,
    1386,
    1383,
    1385,
    1387,
    1386,
    1384,
    1386,
    1386,
    1383,
    1387,
    1108,
    1406,
    1407,
    1408,
    891,
    892,
    893,
    894,
    1106,
    1148,
    1108,
    1109,
    3,
    1023,
    1024,
    7,
    7,
    1,
    1090,
    1384,
    1197,
    1198,
    747,
    748,
    927,
    1148,
    1182,
    1383,
    1387,
    1386,
    1148,
    731,
    732,
    1147,
    1166,
    1167,
    747,
    748,
    1384,
    1387,
    1388,
    1213,
    1214,
    1164,
    1385,
    1385,
    1385,
    1388,
    1385,
    1386,
    1387,
    1383,
    1386,
    1385,
    1385,
    1387,
    1383,
    1387,
    1385,
    1385,
    1386,
    1387,
    1388,
    1384,
    1387,
    1386,
    1165,
    1182,
    1386,
    1383,
    1387,
    1388,
    1383,
    1384,
    1385,
    1384,
    1387,
    1092,
    1,
    849,
    2,
    5,
    2,
    1106,
    1386,
    1387,
    1093,
    1,
    855,
    856,
    1121,
    1383,
    1387,
    1124,
    836,
    837,
    838,
    2,
    1122,
    1383,
    1385,
    1387,
    1384,
    1383,
    1383,
    1383,
    1383,
    1385,
    1384,
    1386,
    1385,
    1387,
    1385,
    1387,
    1387,
    1385,
    1385,
    1388,
    1387,
    1386,
    1388,
    1387,
    1383,
    1388,
    1387,
    1387,
    1386,
    1385,
    1384,
    1092,
    1423,
    1424,
    907,
    908,
    909,
    910,
    1122,
    1123,
    1124,
    866,
    867,
    1039,
    1040,
    15,
    16,
    1105,
    1106,
    1388,
    1213,
    1214,
    1148,
    1150,
    1151,
    1197,
    1198,
    1182,
    1388,
    1383,
    1385,
    747,
    748,
    1383,
    731,
    732,
    1148,
    1388,
    1388,
    1383,
    927,
    1148,
    731,
    732,
    1387,
    1385,
    1388,
    1387,
    1384,
    1388,
    1384,
    1388,
    1386,
    1384,
    1384,
    1385,
    1388,
    1386,
    1386,
    1387,
    1385,
    1383,
    1388,
    1385,
    1383,
    1384,
    733,
    11,
    1147,
    1383,
    1385,
    1383,
    1384,
    1386,
    1165,
    1388,
    1383,
    1164,
    1093,
    6,
    2,
    4,
    4,
    1122,
    1387,
    1386,
    1387,
    1092,
    785,
    786,
    787,
    1106,
    1385,
    1092,
    7,
    853,
    854,
    839,
    840,
    1122,
    1385,
    1383,
    1388,
    1386,
    1387,
    1384,
    1385,
    1387,
    1385,
    1384,
    1388,
    1385,
    1387,
    1163,
    1388,
    1386,
    1388,
    1387,
    1388,
    1388,
    1384,
    1385,
    1384,
    1388,
    1385,
    1384,
    1388,
    1383,
    1387,
    1388,
    1091,
    1091,
    1092,
    924,
    925,
    926,
    3,
    1074,
    881,
    882,
    883,
    1055,
    2,
    31,
    32,
    1089,
    1385,
    1148,
    927,
    731,
    732,
    1166,
    1167,
    1213,
    1214,
    1148,
    927,
    1386,
    1165,
    1385,
    1386,
    1148,
    747,
    748,
    1387,
    1388,
    1164,
    1149,
    731,
    732,
    747,
    748,
    1384,
    1386,
    1385,
    1388,
    1384,
    1385,
    1383,
    1386,
    1386,
    1387,
    1388,
    1386,
    1388,
    1385,
    1384,
    1387,
    1385,
    1165,
    1383,
    1384,
    1385,
    1383,
    1384,
    1386,
    1383,
    1384,
    1387,
    1387,
    1386,
    1385,
    1385,
    1384,
    1387,
    1386,
    1383,
    1092,
    5,
    3,
    4,
    4,
    1122,
    1123,
    1386,
    1108,
    801,
    802,
    803,
    1106,
    1385,
    1386,
    1091,
    1092,
    1,
    855,
    856,
    1105,
    1106,
    1385,
    1383,
    1182,
    1384,
    1387,
    1385,
    1387,
    1384,
    1384,
    1383,
    1388,
    1384,
    1386,
    1385,
    1387,
    1385,
    1388,
    1388,
    1388,
    1387,
    1384,
    1387,
    1384,
    1387,
    1386,
    1387,
    1383,
    1385,
    1387,
    1388,
    1384,
    1165,
    1093,
    1390,
    1391,
    1392,
    795,
    897,
    898,
    899,
    4,
    1075,
    1075,
    1090,
    1383,
    927,
    731,
    732,
    747,
    748,
    731,
    732,
    1150,
    1151,
    1147,
    731,
    732,
    1383,
    1384,
    1387,
    1386,
    1387,
    1383,
    1385,
    1385,
    1150,
    1151,
    747,
    748,
    1199,
    1200,
    1385,
    1165,
    1385,
    1384,
    1385,
    1182,
    1385,
    1383,
    1386,
    1384,
    1383,
    1384,
    1388,
    1385,
    1386,
    1388,
    1387,
    1388,
    1386,
    1388,
    1388,
    1387,
    1388,
    1384,
    1383,
    1386,
    1387,
    1384,
    1383,
    1387,
    1386,
    1385,
    1385,
    1383,
    1387,
    1388,
    1092,
    5,
    5,
    2,
    839,
    840,
    1122,
    1124,
    817,
    818,
    819,
    1122,
    1386,
    1388,
    1123,
    1387,
    1093,
    785,
    786,
    787,
    1122,
    1385,
    1164,
    1386,
    1383,
    1384,
    1386,
    1383,
    1386,
    1383,
    1385,
    1385,
    1387,
    1386,
    1384,
    1383,
    1383,
    1383,
    1383,
    1387,
    1387,
    1384,
    1384,
    1386,
    1384,
    1385,
    1383,
    1388,
    1386,
    1383,
    1383,
    1385,
    1388,
    1108,
    1109,
    1407,
    1408,
    811,
    913,
    914,
    3,
    1090,
    1091,
    1091,
    1386,
    1199,
    1200,
    747,
    748,
    11,
    927,
    747,
    748,
    1166,
    1167,
    1384,
    747,
    748,
    1150,
    1151,
    1388,
    1387,
    1386,
    1383,
    1384,
    1148,
    1166,
    1167,
    1384,
    1148,
    1215,
    1216,
    1388,
    1387,
    1387,
    1388,
    1182,
    1384,
    11,
    1387,
    1182,
    1384,
    1388,
    1385,
    1385,
    1387,
    1388,
    1385,
    1384,
    1385,
    1385,
    1388,
    1388,
    1383,
    1388,
    1388,
    1384,
    1383,
    1388,
    1383,
    1384,
    1388,
    1385,
    1387,
    1384,
    1387,
    1388,
    1387,
    1108,
    1109,
    1,
    3,
    855,
    856,
    1,
    15,
    836,
    837,
    838,
    31,
    1122,
    1124,
    1,
    1122,
    1124,
    801,
    802,
    803,
    1105,
    1106,
    1385,
    1384,
    1385,
    1182,
    1383,
    1387,
    1385,
    1385,
    1387,
    1386,
    1388,
    1386,
    1383,
    1387,
    1388,
    1388,
    1385,
    1384,
    1388,
    1384,
    1387,
    1388,
    1386,
    1383,
    1383,
    1387,
    1386,
    1384,
    1385,
    1387,
    1384,
    1384,
    1092,
    1423,
    1424,
    827,
    3,
    2,
    1089,
    1385,
    731,
    732,
    927,
    1215,
    1216,
    1384,
    1386,
    1147,
    731,
    732,
    1387,
    10,
    731,
    732,
    1163,
    1147,
    1166,
    1167,
    1199,
    1200,
    1388,
    1165,
    1383,
    1199,
    1200,
    731,
    732,
    1384,
    1383,
    1197,
    1387,
    1387,
    1385,
    1147,
    1386,
    1147,
    731,
    732,
    1385,
    1383,
    1147,
    1182,
    1388,
    1385,
    1385,
    1384,
    1386,
    1388,
    1383,
    1385,
    1388,
    1385,
    1384,
    1383,
    1387,
    1387,
    1383,
    1383,
    1384,
    1388,
    1387,
    1384,
    1384,
    1385,
    1384,
    1384,
    1383,
    1092,
    2,
    3,
    785,
    786,
    787,
    31,
    32,
    853,
    854,
    839,
    840,
    4,
    839,
    840,
    1,
    817,
    818,
    819,
    1105,
    1106,
    1385,
    1386,
    1384,
    1384,
    1384,
    1383,
    1387,
    1383,
    1386,
    1388,
    1387,
    1388,
    1385,
    1383,
    1387,
    1386,
    1385,
    1383,
    1383,
    1386,
    1388,
    1385,
    1387,
    1384,
    1383,
    1388,
    1387,
    1387,
    1165,
    1386,
    1387,
    1386,
    1384,
    1092,
    1075,
    1075,
    1075,
    1090,
    1386,
    1149,
    747,
    748,
    1149,
    731,
    732,
    1385,
    731,
    732,
    747,
    748,
    731,
    732,
    747,
    748,
    1387,
    1148,
    731,
    732,
    1215,
    1216,
    1386,
    1388,
    1148,
    1215,
    1216,
    747,
    748,
    731,
    732,
    1213,
    1386,
    1385,
    1386,
    1182,
    927,
    1384,
    747,
    748,
    1147,
    1182,
    11,
    1388,
    1387,
    1385,
    1385,
    1387,
    1387,
    1385,
    1385,
    1387,
    1387,
    1383,
    1386,
    1386,
    1387,
    1384,
    1386,
    1384,
    1387,
    1386,
    1386,
    1388,
    1386,
    1384,
    1383,
    1150,
    1151,
    1385,
    1092,
    2,
    801,
    802,
    803,
    1,
    1090,
    1092,
    14,
    855,
    856,
    2,
    855,
    856,
    833,
    785,
    786,
    787,
    1090,
    1385,
    1383,
    1383,
    1182,
    1147,
    1150,
    1151,
    1383,
    731,
    732,
    1386,
    1386,
    1386,
    1384,
    1384,
    1384,
    1385,
    1164,
    1387,
    1383,
    1384,
    1385,
    1387,
    1163,
    1384,
    1384,
    1385,
    1384,
    1385,
    1388,
    1383,
    1386,
    1387,
    1388,
    927,
    1091,
    1091,
    1091,
    731,
    732,
    927,
    1148,
    1199,
    1200,
    747,
    748,
    1388,
    747,
    748,
    927,
    1163,
    747,
    748,
    1147,
    1150,
    1151,
    1182,
    747,
    748,
    1383,
    1384,
    1387,
    1148,
    731,
    732,
    1199,
    1200,
    1386,
    747,
    748,
    1387,
    1384,
    1384,
    1182,
    1387,
    731,
    732,
    1147,
    1150,
    1151,
    731,
    732,
    1387,
    1388,
    1386,
    1386,
    1388,
    1387,
    1387,
    1388,
    1388,
    1387,
    1383,
    1388,
    1383,
    1387,
    1384,
    1385,
    1383,
    1386,
    1386,
    1383,
    1385,
    1386,
    1384,
    1182,
    1166,
    1167,
    1147,
    1108,
    5,
    817,
    818,
    819,
    1090,
    1383,
    1386,
    1092,
    785,
    786,
    787,
    785,
    786,
    787,
    801,
    802,
    803,
    1122,
    1386,
    1385,
    1383,
    1385,
    1388,
    1166,
    1167,
    1385,
    747,
    748,
    1383,
    1384,
    1384,
    1385,
    1388,
    1388,
    1387,
    1387,
    1388,
    1388,
    1388,
    1387,
    1385,
    1384,
    1385,
    1384,
    1384,
    1385,
    1387,
    1383,
    1385,
    1385,
    1385,
    1383,
    1383,
    1182,
    1385,
    1165,
    747,
    748,
    731,
    732,
    1215,
    1216,
    733,
    1385,
    1383,
    1384,
    927,
    1387,
    1199,
    1200,
    927,
    1384,
    1166,
    1167,
    731,
    732,
    1384,
    1386,
    1383,
    1383,
    1387,
    747,
    748,
    1215,
    1216,
    731,
    732,
    1199,
    1200,
    1388,
    1385,
    1385,
    1388,
    747,
    748,
    1182,
    1166,
    1167,
    747,
    748,
    1386,
    1147,
    1388,
    1386,
    1385,
    1383,
    1383,
    1383,
    1387,
    1388,
    1163,
    1385,
    1383,
    1388,
    1384,
    1383,
    1387,
    1384,
    1387,
    1383,
    1384,
    1388,
    1383,
    1384,
    1385,
    733,
    1123,
    1124,
    2,
    796,
    797,
    1105,
    1106,
    1197,
    1198,
    1108,
    801,
    802,
    803,
    801,
    802,
    803,
    817,
    818,
    819,
    1,
    1122,
    1385,
    1387,
    1182,
    731,
    732,
    733,
    1182,
    1388,
    1384,
    1387,
    1387,
    1385,
    1385,
    1386,
    1384,
    1384,
    1385,
    1384,
    1386,
    1386,
    1385,
    1387,
    1388,
    1383,
    1386,
    1386,
    1388,
    1385,
    1384,
    1386,
    1387,
    1386,
    1385,
    1387,
    1387,
    1386,
    731,
    732,
    1182,
    747,
    748,
    1383,
    1164,
    731,
    732,
    1385,
    1383,
    1199,
    1200,
    1215,
    1216,
    731,
    732,
    1197,
    1198,
    747,
    748,
    1386,
    1388,
    1384,
    731,
    732,
    1386,
    1147,
    731,
    732,
    747,
    748,
    1215,
    1216,
    1383,
    1383,
    1383,
    1383,
    1387,
    1165,
    1383,
    1147,
    1387,
    1388,
    1386,
    1147,
    1386,
    1383,
    1385,
    1385,
    1384,
    1385,
    1388,
    1383,
    1384,
    1383,
    1386,
    1385,
    1387,
    1385,
    1383,
    1388,
    1385,
    1387,
    1386,
    1386,
    1384,
    1384,
    1182,
    1383,
    1124,
    1,
    866,
    867,
    812,
    813,
    1105,
    1106,
    1213,
    1214,
    1108,
    817,
    818,
    819,
    817,
    818,
    819,
    801,
    802,
    803,
    7,
    1090,
    1385,
    1147,
    733,
    747,
    748,
    1388,
    1387,
    1147,
    1387,
    1163,
    1387,
    1387,
    1384,
    1385,
    1387,
    1385,
    1383,
    1388,
    1385,
    1383,
    1386,
    1384,
    1386,
    1384,
    1383,
    1384,
    1386,
    1385,
    1387,
    1386,
    1384,
    1383,
    1385,
    1388,
    1164,
    1182,
    747,
    748,
    1384,
    1148,
    1182,
    1384,
    1384,
    747,
    748,
    1384,
    1384,
    1215,
    1216,
    1182,
    1388,
    747,
    748,
    1213,
    1214,
    1385,
    1387,
    1385,
    1383,
    1388,
    747,
    748,
    731,
    732,
    747,
    748,
    1147,
    731,
    732,
    1147,
    702,
    1386,
    1387,
    1384,
    1386,
    1385,
    1383,
    1385,
    1383,
    1388,
    1182,
    1384,
    1388,
    1384,
    1388,
    1387,
    1388,
    1385,
    1385,
    1383,
    1384,
    1383,
    1383,
    1388,
    1384,
    1388,
    1383,
    1383,
    1383,
    1387,
    1384,
    1383,
    1388,
    1387,
    1123,
    1124,
    1,
    881,
    882,
    883,
    828,
    1,
    1090,
    1214,
    1147,
    1147,
    1125,
    796,
    797,
    2,
    785,
    786,
    787,
    817,
    818,
    819,
    1090,
    1165,
    1182,
    1384,
    1165,
    1384,
    1385,
    1384,
    1384,
    1386,
    1387,
    1386,
    1386,
    1388,
    1383,
    1388,
    1385,
    1384,
    1387,
    1383,
    1385,
    1387,
    1384,
    1386,
    1384,
    1384,
    1385,
    1385,
    1386,
    1383,
    1386,
    1383,
    1383,
    1387,
    1388,
    1385,
    1383,
    1386,
    1385,
    1182,
    1383,
    1388,
    1386,
    1388,
    1182,
    1387,
    1386,
    1388,
    1387,
    1182,
    1384,
    1384,
    1384,
    1387,
    1383,
    1388,
    1387,
    1386,
    1384,
    1387,
    1383,
    1197,
    1198,
    1147,
    747,
    748,
    1197,
    1198,
    1386,
    747,
    748,
    1388,
    1383,
    1385,
    1388,
    1164,
    1388,
    1387,
    1384,
    1384,
    1385,
    1388,
    1384,
    1383,
    1387,
    1385,
    1386,
    1385,
    1383,
    1385,
    1388,
    1385,
    1385,
    1385,
    1383,
    1388,
    1387,
    1387,
    1383,
    1387,
    1386,
    1388,
    1387,
    1388,
    1385,
    1124,
    1,
    789,
    790,
    897,
    898,
    899,
    2,
    1090,
    1148,
    1123,
    1123,
    1124,
    881,
    812,
    813,
    1104,
    801,
    802,
    803,
    785,
    786,
    787,
    1106,
    1386,
    1388,
    1388,
    1386,
    1388,
    1383,
    1147,
    1388,
    1387,
    1384,
    1388,
    1383,
    1388,
    1387,
    1388,
    1383,
    1387,
    1388,
    1387,
    1388,
    1388,
    1383,
    1385,
    1387,
    1387,
    1385,
    1383,
    1385,
    1383,
    1383,
    1387,
    1386,
    1386,
    1165,
    1386,
    1387,
    1388,
    1387,
    1383,
    1383,
    1386,
    1388,
    1385,
    1384,
    1385,
    1385,
    1383,
    1383,
    1384,
    1385,
    1388,
    1383,
    1384,
    1386,
    1387,
    1383,
    1386,
    1164,
    1384,
    1388,
    1213,
    1214,
    1387,
    1197,
    1198,
    1213,
    1214,
    1387,
    1384,
    1197,
    1198,
    1387,
    1388,
    1387,
    1385,
    1387,
    1387,
    1385,
    1385,
    1386,
    1385,
    1384,
    1386,
    1387,
    1383,
    1384,
    1388,
    1164,
    1384,
    1385,
    1385,
    1385,
    1387,
    1385,
    1386,
    1385,
    1387,
    1383,
    1388,
    1388,
    1385,
    1387,
    1163,
    1108,
    1,
    804,
    805,
    806,
    913,
    914,
    1,
    6,
    1122,
    1124,
    791,
    792,
    795,
    897,
    828,
    2,
    3,
    817,
    818,
    819,
    801,
    802,
    803,
    1122,
    1387,
    1383,
    1386,
    1388,
    1163,
    1387,
    1384,
    1384,
    1388,
    1383,
    1386,
    1386,
    1388,
    1385,
    1163,
    1387,
    1385,
    1383,
    1387,
    1383,
    1385,
    1388,
    1388,
    1383,
    1386,
    1385,
    1383,
    1163,
    1386,
    1386,
    1388,
    1384,
    1387,
    1386,
    1385,
    1385,
    1387,
    1386,
    1388,
    1387,
    1384,
    1387,
    1388,
    1385,
    1384,
    1384,
    1386,
    1386,
    1385,
    1388,
    1383,
    1385,
    1163,
    1385,
    1384,
    1383,
    1385,
    1386,
    1387,
    1388,
    1388,
    1384,
    1383,
    1213,
    1214,
    1388,
    1386,
    1197,
    1198,
    1213,
    1214,
    1386,
    1387,
    1388,
    1387,
    1384,
    1384,
    1384,
    1384,
    1388,
    1387,
    1384,
    1384,
    1383,
    1165,
    1388,
    1388,
    1383,
    1387,
    1386,
    1387,
    1383,
    1387,
    1384,
    1388,
    1387,
    1387,
    1384,
    1386,
    1386,
    1384,
    1383,
    1383,
    1108,
    1,
    820,
    821,
    822,
    2,
    3,
    13,
    791,
    792,
    795,
    807,
    808,
    811,
    913,
    914,
    1,
    1,
    796,
    797,
    2,
    817,
    818,
    819,
    14,
    1121,
    1384,
    1385,
    1384,
    1386,
    1385,
    1388,
    1387,
    927,
    1383,
    1384,
    1386,
    1387,
    1388,
    1383,
    1386,
    1384,
    1386,
    1387,
    1383,
    1387,
    1385,
    1388,
    1383,
    1384,
    1388,
    1388,
    1383,
    1388,
    1385,
    1383,
    1386,
    1388,
    1388,
    1384,
    1385,
    1384,
    1385,
    1387,
    1388,
    1383,
    1384,
    1385,
    1385,
    1385,
    1383,
    1387,
    1385,
    1383,
    1386,
    1383,
    1387,
    1383,
    1386,
    1383,
    1388,
    1383,
    1387,
    1388,
    1385,
    1387,
    1385,
    1387,
    1388,
    1386,
    1387,
    1388,
    1213,
    1214,
    1387,
    1388,
    1387,
    1385,
    1387,
    1387,
    1385,
    1385,
    1385,
    1385,
    1387,
    1387,
    1385,
    1385,
    1387,
    1388,
    1387,
    1384,
    1384,
    1383,
    1383,
    1387,
    1387,
    1386,
    1387,
    1387,
    1383,
    1385,
    1387,
    1388,
    1384,
    1387,
    1164,
    1182,
    1124,
    1,
    796,
    797,
    2,
    5,
    866,
    867,
    807,
    808,
    811,
    823,
    824,
    827,
    7,
    865,
    866,
    867,
    812,
    813,
    7,
    796,
    797,
    7,
    8,
    1089,
    1385,
    1383,
    1386,
    1383,
    1387,
    11,
    1388,
    733,
    1182,
    1388,
    1385,
    1387,
    1387,
    1388,
    1386,
    1383,
    1388,
    1385,
    1384,
    1384,
    1384,
    1384,
    1383,
    1387,
    1384,
    1388,
    1384,
    1388,
    1385,
    1383,
    1385,
    1383,
    1385,
    1388,
    1386,
    1386,
    1384,
    1384,
    1386,
    1388,
    1384,
    1386,
    1384,
    1388,
    1385,
    1387,
    1388,
    1388,
    1387,
    1384,
    1386,
    1386,
    1386,
    1387,
    1385,
    1388,
    1385,
    1383,
    1386,
    1388,
    1386,
    1385,
    1386,
    1384,
    1387,
    1383,
    1386,
    1386,
    1385,
    1387,
    1385,
    1384,
    1387,
    1385,
    1388,
    1384,
    1388,
    1384,
    1387,
    1385,
    1388,
    1384,
    1385,
    1387,
    1387,
    1385,
    1385,
    1383,
    1383,
    1182,
    1388,
    1383,
    1386,
    1384,
    1387,
    1386,
    1388,
    1386,
    1388,
    1383,
    1386,
    1124,
    2,
    1389,
    812,
    813,
    3,
    881,
    882,
    883,
    823,
    824,
    827,
    1090,
    1092,
    15,
    16,
    881,
    882,
    883,
    828,
    789,
    790,
    812,
    813,
    1090,
    1091,
    1384,
    1383,
    1384,
    1385,
    1386,
    1386,
    1385,
    1387,
    1386,
    1387,
    1383,
    1386,
    1388,
    1383,
    1388,
    1383,
    1387,
    1388,
    1384,
    1386,
    1387,
    1385,
    1384,
    1385,
    1385,
    1387,
    1387,
    1385,
    1386,
    1384,
    1385,
    1385,
    1384,
    1387,
    1387,
    1385,
    1387,
    1386,
    1383,
    1165,
    1387,
    1388,
    1164,
    1384,
    1388,
    1388,
    1384,
    1383,
    1384,
    1383,
    1386,
    1388,
    1384,
    1383,
    1386,
    1383,
    1386,
    1388,
    1386,
    1384,
    1385,
    1384,
    1385,
    1385,
    1385,
    1385,
    1384,
    1385,
    1383,
    1384,
    1384,
    1384,
    1383,
    1384,
    1386,
    1387,
    1388,
    1387,
    1388,
    1384,
    1386,
    1387,
    1388,
    1384,
    1387,
    1385,
    1388,
    1384,
    1383,
    1387,
    1384,
    1383,
    1385,
    1199,
    1200,
    1387,
    1182,
    1163,
    1165,
    1163,
    1386,
    1125,
    6,
    6,
    1405,
    828,
    866,
    867,
    897,
    898,
    899,
    1090,
    1091,
    1091,
    1123,
    1124,
    31,
    881,
    897,
    898,
    899,
    804,
    805,
    806,
    828,
    1105,
    1106,
    1385,
    1385,
    1385,
    1388,
    1388,
    1384,
    1384,
    1385,
    1386,
    1386,
    1163,
    1387,
    1387,
    1383,
    1384,
    1386,
    1387,
    1386,
    1387,
    1386,
    1388,
    1386,
    1383,
    1385,
    1386,
    1384,
    1383,
    1384,
    1388,
    1384,
    1385,
    10,
    1387,
    1383,
    1387,
    1385,
    1387,
    1387,
    1383,
    1388,
    1387,
    1384,
    1384,
    1385,
    1388,
    1386,
    1384,
    1385,
    1384,
    1384,
    1385,
    1383,
    1383,
    1387,
    1387,
    1388,
    1386,
    1386,
    1385,
    1388,
    1386,
    1386,
    1386,
    1386,
    1385,
    1386,
    1386,
    1384,
    1384,
    1384,
    1383,
    1383,
    1122,
    1385,
    1163,
    1387,
    1387,
    1385,
    1387,
    1385,
    1388,
    1387,
    1387,
    1385,
    1383,
    1384,
    1386,
    1387,
    1388,
    1384,
    1386,
    1387,
    1197,
    1198,
    1215,
    1216,
    1197,
    1198,
    1163,
    1164,
    1123,
    1124,
    2,
    3,
    4,
    1421,
    881,
    882,
    883,
    913,
    914,
    1090,
    1384,
    1123,
    1124,
    791,
    792,
    795,
    897,
    913,
    1090,
    1092,
    820,
    821,
    822,
    1,
    1090,
    1387,
    1387,
    1388,
    1385,
    1163,
    1386,
    1386,
    1383,
    1387,
    1383,
    1383,
    1383,
    1384,
    1387,
    1383,
    1385,
    1165,
    1383,
    1385,
    1385,
    1384,
    1386,
    1386,
    1386,
    1387,
    1385,
    1386,
    1387,
    1387,
    1164,
    1388,
    1385,
    1388,
    1388,
    1384,
    1384,
    1387,
    1385,
    1385,
    1387,
    1385,
    1383,
    1385,
    1388,
    1385,
    1387,
    927,
    1182,
    1383,
    1383,
    1384,
    1385,
    1386,
    1387,
    1388,
    1383,
    1385,
    1384,
    1387,
    1388,
    1384,
    1383,
    1383,
    1386,
    1388,
    1388,
    1383,
    1387,
    1388,
    1165,
    1385,
    1384,
    1386,
    1,
    1122,
    1383,
    1388,
    1384,
    1123,
    1383,
    927,
    1386,
    1164,
    1125,
    1121,
    1385,
    1388,
    1387,
    1387,
    1385,
    1387,
    1199,
    1200,
    1213,
    1214,
    1150,
    1151,
    1213,
    1214,
    1147,
    1125,
    3,
    1,
    5,
    5,
    789,
    790,
    897,
    898,
    899,
    1090,
    1091,
    1123,
    1125,
    3,
    1389,
    807,
    808,
    811,
    913,
    1090,
    1383,
    1108,
    785,
    786,
    787,
    1090,
    1165,
    1384,
    1386,
    1385,
    1386,
    1388,
    1384,
    1388,
    1383,
    1383,
    1386,
    1385,
    1386,
    1383,
    1385,
    1385,
    1383,
    1386,
    1386,
    1385,
    1383,
    1383,
    1386,
    1386,
    1387,
    1384,
    1388,
    1387,
    1388,
    1386,
    1384,
    1388,
    1385,
    1385,
    1388,
    1385,
    1388,
    1387,
    1383,
    1386,
    1384,
    1384,
    1388,
    1383,
    733,
    1388,
    11,
    1182,
    1164,
    1385,
    1388,
    1384,
    1383,
    1386,
    1387,
    1384,
    1388,
    1386,
    1384,
    1388,
    1388,
    1386,
    1383,
    1386,
    1384,
    11,
    1182,
    1384,
    1385,
    1385,
    1388,
    1385,
    1386,
    1384,
    1,
    1,
    1122,
    1123,
    1124,
    1074,
    1122,
    1123,
    1123,
    1124,
    47,
    7,
    1122,
    1182,
    1165,
    1388,
    1383,
    1182,
    1215,
    1216,
    1147,
    1148,
    1166,
    1167,
    1123,
    1123,
    1124,
    1023,
    1024,
    7,
    5,
    804,
    805,
    806,
    913,
    914,
    1,
    1122,
    1124,
    1023,
    1024,
    7,
    1405,
    823,
    824,
    827,
    1090,
    1130,
    1126,
    1125,
    801,
    802,
    803,
    1122,
    1384,
    1386,
    1383,
    1384,
    1383,
    1384,
    1384,
    1387,
    1386,
    1387,
    1385,
    1383,
    1383,
    1387,
    1386,
    1384,
    1385,
    1387,
    1384,
    1388,
    1387,
    1383,
    1383,
    1384,
    1385,
    1384,
    1384,
    1383,
    1387,
    1384,
    1384,
    1383,
    1385,
    1385,
    1385,
    1388,
    1383,
    1165,
    1384,
    1386,
    1383,
    1386,
    1385,
    1388,
    1383,
    733,
    1147,
    1386,
    1182,
    1386,
    1383,
    1385,
    1384,
    1384,
    1388,
    1385,
    1386,
    1383,
    1386,
    1388,
    1388,
    1387,
    1164,
    731,
    732,
    1150,
    1151,
    1388,
    1387,
    1387,
    1386,
    1384,
    1386,
    1388,
    793,
    794,
    793,
    794,
    793,
    794,
    793,
    794,
    793,
    794,
    875,
    876,
    877,
    1122,
    1383,
    1383,
    1385,
    1387,
    1123,
    1123,
    1124,
    1122,
    1123,
    1124,
    791,
    792,
    795,
    1039,
    1040,
    4,
    3,
    820,
    821,
    822,
    1,
    7,
    1,
    866,
    867,
    1039,
    1040,
    2,
    1421,
    1090,
    1091,
    1091,
    1130,
    1196,
    1135,
    1088,
    817,
    818,
    819,
    1105,
    1106,
    1384,
    1386,
    1386,
    1385,
    1385,
    1387,
    1388,
    1388,
    1387,
    1387,
    1384,
    1384,
    1388,
    1388,
    1387,
    1388,
    1384,
    1387,
    1384,
    1388,
    1384,
    1388,
    1386,
    1383,
    1386,
    1383,
    1383,
    1386,
    1387,
    1388,
    1383,
    1387,
    1388,
    1387,
    1388,
    1384,
    1383,
    1385,
    1383,
    1383,
    1384,
    1385,
    1387,
    1384,
    1384,
    1385,
    1165,
    1387,
    1387,
    1384,
    1164,
    1383,
    1387,
    1387,
    1386,
    1385,
    1384,
    1386,
    1384,
    1147,
    1385,
    1388,
    747,
    748,
    1166,
    1167,
    1387,
    1388,
    1164,
    1383,
    1387,
    1385,
    1383,
    809,
    810,
    809,
    810,
    809,
    810,
    809,
    810,
    809,
    810,
    891,
    892,
    893,
    894,
    1106,
    1384,
    1123,
    1124,
    1,
    791,
    792,
    793,
    794,
    795,
    807,
    808,
    811,
    1055,
    914,
    1,
    2,
    796,
    797,
    2,
    7,
    866,
    867,
    882,
    883,
    1055,
    1090,
    1091,
    1091,
    1107,
    1148,
    1124,
    1132,
    1134,
    1,
    865,
    796,
    797,
    1,
    1105,
    1106,
    1383,
    1384,
    1383,
    1383,
    1383,
    1385,
    1383,
    1385,
    1385,
    1387,
    1385,
    1384,
    1383,
    1388,
    1385,
    1386,
    1385,
    1388,
    1386,
    1387,
    1387,
    1385,
    1387,
    1387,
    1384,
    1385,
    1385,
    1384,
    1388,
    1388,
    1385,
    1386,
    1388,
    1386,
    1384,
    1388,
    1384,
    1388,
    1388,
    1383,
    1386,
    1384,
    1385,
    1383,
    1386,
    1387,
    1384,
    1386,
    1388,
    1388,
    1387,
    1384,
    1384,
    1383,
    1385,
    1387,
    1386,
    1387,
    1384,
    731,
    732,
    1386,
    1147,
    1182,
    1182,
    731,
    732,
    1387,
    1385,
    1387,
    1387,
    1165,
    1384,
    825,
    826,
    825,
    826,
    825,
    826,
    825,
    826,
    825,
    826,
    907,
    908,
    909,
    910,
    1122,
    1124,
    1074,
    866,
    867,
    807,
    808,
    809,
    810,
    811,
    823,
    824,
    827,
    7,
    865,
    6,
    1389,
    812,
    813,
    7,
    881,
    882,
    883,
    898,
    899,
    1090,
    1383,
    1076,
    1077,
    1123,
    1124,
    47,
    1,
    3,
    2,
    881,
    812,
    813,
    7,
    1089,
    1383,
    1385,
    1385,
    1384,
    1383,
    1387,
    1384,
    1386,
    1386,
    1387,
    1388,
    1385,
    1385,
    1385,
    1385,
    1385,
    1385,
    1386,
    1384,
    1384,
    1164,
    1383,
    1387,
    1388,
    1388,
    1388,
    1388,
    1387,
    1386,
    1388,
    1383,
    1386,
    1388,
    1163,
    1388,
    1388,
    1383,
    1388,
    1386,
    1386,
    1385,
    1383,
    1165,
    1388,
    1384,
    1383,
    1383,
    1387,
    1386,
    1386,
    1387,
    1386,
    1387,
    1388,
    1388,
    1384,
    1384,
    1386,
    1386,
    1147,
    747,
    748,
    1386,
    927,
    731,
    732,
    747,
    748,
    1385,
    1386,
    1388,
    1384,
    1384,
    1386,
    793,
    794,
    793,
    794,
    793,
    794,
    793,
    794,
    875,
    876,
    877,
    924,
    925,
    926,
    7,
    7,
    881,
    882,
    883,
    823,
    824,
    825,
    826,
    827,
    1090,
    1092,
    3,
    2,
    1,
    6,
    1405,
    828,
    866,
    867,
    897,
    898,
    899,
    914,
    1090,
    1388,
    1387,
    1077,
    1125,
    1074,
    791,
    792,
    793,
    794,
    795,
    897,
    828,
    7,
    1090,
    1387,
    1163,
    1386,
    1387,
    1383,
    1385,
    1386,
    1385,
    1387,
    1384,
    1385,
    1387,
    1383,
    1384,
    1163,
    1388,
    1383,
    927,
    1385,
    1386,
    1385,
    1385,
    1386,
    1383,
    1388,
    1383,
    1385,
    1386,
    1386,
    1387,
    1385,
    1388,
    1387,
    1387,
    1384,
    1388,
    1383,
    1383,
    1385,
    1383,
    1386,
    1388,
    1385,
    1383,
    1388,
    1385,
    1387,
    1387,
    1385,
    1386,
    1388,
    1384,
    1387,
    1383,
    1388,
    1388,
    1386,
    1388,
    1383,
    1384,
    1387,
    1387,
    1385,
    1147,
    1384,
    747,
    748,
    927,
    1387,
    731,
    732,
    1182,
    1387,
    1386,
    1388,
    809,
    810,
    809,
    810,
    809,
    810,
    809,
    810,
    891,
    892,
    893,
    894,
    1390,
    1391,
    1392,
    795,
    897,
    898,
    899,
    1,
    1090,
    1091,
    1091,
    1091,
    1165,
    1124,
    1023,
    1024,
    2,
    3,
    1421,
    881,
    882,
    883,
    913,
    914,
    7,
    1089,
    1383,
    1385,
    1163,
    1124,
    866,
    867,
    807,
    808,
    809,
    810,
    811,
    913,
    2,
    1105,
    1106,
    1387,
    1383,
    1385,
    1383,
    1383,
    1384,
    1387,
    1383,
    1383,
    1165,
    1384,
    1387,
    1384,
    1383,
    1386,
    1182,
    1388,
    11,
    1147,
    1387,
    1384,
    1384,
    1385,
    1388,
    1383,
    1387,
    1385,
    1385,
    1383,
    1383,
    1387,
    1383,
    1388,
    1387,
    1387,
    1383,
    1387,
    1384,
    1388,
    1385,
    1385,
    1385,
    1383,
    1388,
    1385,
    1387,
    1386,
    1383,
    1387,
    1384,
    1386,
    1385,
    1385,
    1386,
    1387,
    1384,
    1388,
    1384,
    1388,
    1147,
    1387,
    1385,
    1199,
    1200,
    1182,
    1388,
    1182,
    1383,
    1383,
    747,
    748,
    1385,
    1384,
    1163,
    1384,
    825,
    826,
    825,
    826,
    825,
    826,
    825,
    826,
    907,
    908,
    909,
    910,
    1406,
    1407,
    1408,
    811,
    913,
    1075,
    1075,
    1090,
    1165,
    1164,
    1147,
    1123,
    1124,
    881,
    1039,
    1040,
    2,
    914,
    1389,
    897,
    898,
    899,
    15,
    7,
    1090,
    1387,
    1147,
    1387,
    1124,
    881,
    882,
    883,
    823,
    824,
    825,
    826,
    827,
    1075,
    3,
    1105,
    1106,
    1387,
    1388,
    1385,
    1387,
    1386,
    1383,
    1384,
    1386,
    1387,
    1385,
    1383,
    1383,
    1387,
    1388,
    1388,
    733,
    1147,
    1182,
    1386,
    927,
    1384,
    1388,
    1385,
    1387,
    1388,
    1388,
    1388,
    1387,
    1388,
    1385,
    1386,
    1164,
    1388,
    1383,
    1386,
    1385,
    1385,
    1383,
    1387,
    1386,
    1386,
    1386,
    1383,
    1386,
    1385,
    1388,
    1388,
    1387,
    1388,
    1388,
    1387,
    1388,
    1386,
    1385,
    1383,
    1383,
    1387,
    1387,
    1384,
    1388,
    1384,
    1387,
    1215,
    1216,
    11,
    1197,
    1198,
    731,
    732,
    1165,
    1384,
    1383,
    1385,
    1383,
    1383,
    1,
    1,
    1090,
    1091,
    1092,
    1,
    1,
    1,
    1090,
    1092,
    925,
    926,
    1,
    1423,
    1424,
    827,
    1090,
    1091,
    1091,
    1076,
    1077,
    1163,
    1124,
    866,
    867,
    897,
    1055,
    6,
    1,
    2,
    1405,
    913,
    1090,
    1092,
    31,
    1090,
    1076,
    1077,
    1077,
    1124,
    790,
    897,
    898,
    899,
    3,
    4,
    13,
    1,
    1090,
    1091,
    1092,
    1,
    1122,
    1164,
    1384,
    1385,
    1386,
    1387,
    1383,
    1387,
    1386,
    1384,
    1384,
    1383,
    1383,
    1386,
    1384,
    927,
    10,
    927,
    1165,
    733,
    1385,
    1384,
    1383,
    1388,
    1383,
    1387,
    1387,
    1385,
    1384,
    1387,
    1387,
    1385,
    1386,
    1386,
    1383,
    1388,
    1386,
    1388,
    1385,
    1388,
    1386,
    1385,
    1385,
    1387,
    1383,
    1387,
    1387,
    1385,
    1388,
    1384,
    1387,
    1388,
    1388,
    1387,
    1388,
    1384,
    1386,
    1383,
    1388,
    1383,
    1387,
    1386,
    1182,
    1383,
    1182,
    1147,
    1213,
    1214,
    747,
    748,
    731,
    732,
    1388,
    1387,
    1383,
    1384,
    7,
    1090,
    1384,
    927,
    1387,
    1091,
    1091,
    1091,
    1384,
    1108,
    779,
    780,
    1,
    1,
    1090,
    1091,
    1076,
    1077,
    1076,
    1077,
    1123,
    1125,
    881,
    882,
    883,
    913,
    914,
    6,
    6,
    7,
    1421,
    1090,
    1385,
    1165,
    1091,
    1383,
    1076,
    1077,
    1125,
    805,
    806,
    913,
    914,
    915,
    2,
    2,
    48,
    1090,
    1165,
    1147,
    1124,
    7,
    1105,
    1106,
    1387,
    1384,
    1388,
    1386,
    1388,
    1385,
    1387,
    1388,
    1387,
    1386,
    1387,
    1386,
    1164,
    1182,
    927,
    1386,
    1387,
    1388,
    1388,
    1386,
    1386,
    1388,
    1388,
    1384,
    1385,
    1385,
    1388,
    1386,
    1383,
    1385,
    1387,
    1387,
    1385,
    1384,
    1385,
    1385,
    1383,
    1384,
    1386,
    1383,
    1388,
    1384,
    1387,
    1388,
    1388,
    1386,
    1164,
    1383,
    1383,
    1388,
    1385,
    1385,
    1383,
    1384,
    1386,
    1387,
    1385,
    1388,
    1386,
    1386,
    1383,
    1182,
    731,
    732,
    1147,
    1182,
    1385,
    1182,
    747,
    748,
    1388,
    1387,
    1388,
    1384,
    1090,
    1386,
    1147,
    1387,
    927,
    1387,
    1387,
    927,
    1076,
    1077,
    1092,
    1075,
    1090,
    1091,
    1107,
    1164,
    1386,
    1076,
    1077,
    1124,
    866,
    867,
    897,
    898,
    899,
    789,
    1023,
    1024,
    4,
    1090,
    1091,
    1387,
    1388,
    1387,
    1387,
    1385,
    1123,
    1124,
    820,
    821,
    822,
    4,
    13,
    1085,
    4,
    4,
    1089,
    1147,
    1107,
    1124,
    15,
    16,
    1105,
    1106,
    1386,
    1384,
    1383,
    1383,
    1387,
    1164,
    1385,
    1384,
    1385,
    1384,
    1385,
    1388,
    733,
    1387,
    1386,
    1386,
    1387,
    1388,
    1388,
    1385,
    1383,
    1385,
    1385,
    1387,
    1386,
    1385,
    1387,
    1387,
    1385,
    1386,
    1388,
    1383,
    1165,
    1384,
    1387,
    1383,
    1388,
    1383,
    1383,
    1384,
    1387,
    1388,
    1388,
    1383,
    1387,
    1387,
    1386,
    1386,
    1384,
    1386,
    1386,
    1384,
    1387,
    1386,
    1385,
    1388,
    1383,
    1165,
    1383,
    1387,
    1197,
    1198,
    747,
    748,
    1182,
    1383,
    1197,
    1198,
    1387,
    1182,
    1384,
    1385,
    1385,
    1386,
    1388,
    731,
    732,
    733,
    1383,
    1182,
    731,
    732,
    1150,
    1151,
    1077,
    1091,
    1076,
    1077,
    1076,
    1077,
    1123,
    1123,
    1124,
    881,
    882,
    883,
    913,
    914,
    804,
    805,
    1039,
    1040,
    1090,
    1386,
    1384,
    1384,
    1387,
    1387,
    1387,
    1124,
    2,
    14,
    796,
    797,
    915,
    4,
    1099,
    1101,
    1102,
    1090,
    1199,
    1200,
    1108,
    1109,
    31,
    32,
    1089,
    1383,
    1383,
    1387,
    1387,
    1383,
    1388,
    1386,
    1384,
    1386,
    1388,
    1383,
    1383,
    1385,
    1388,
    1385,
    1385,
    1387,
    1387,
    1388,
    1387,
    1163,
    1386,
    1384,
    1386,
    1163,
    1388,
    1386,
    1383,
    1388,
    1386,
    1383,
    1388,
    1383,
    1383,
    1387,
    1383,
    1386,
    1386,
    1385,
    1385,
    1386,
    1387,
    1165,
    1383,
    1385,
    1385,
    1388,
    1388,
    1386,
    1388,
    1388,
    1386,
    1384,
    1384,
    1385,
    1386,
    1384,
    1383,
    1388,
    1386,
    1383,
    1213,
    1214,
    1182,
    731,
    732,
    1147,
    1213,
    1214,
    1388,
    1386,
    1386,
    1383,
    1388,
    1385,
    11,
    747,
    748,
    1383,
    731,
    732,
    747,
    748,
    1166,
    1167,
    1384,
    1383,
    1386,
    1384,
    1123,
    1124,
    791,
    792,
    795,
    897,
    898,
    899,
    1090,
    1092,
    820,
    821,
    1055,
    1090,
    1163,
    1387,
    1383,
    1383,
    1388,
    1387,
    1108,
    1109,
    8,
    1389,
    812,
    813,
    4,
    1100,
    1117,
    12,
    1110,
    1111,
    1215,
    1216,
    1385,
    1092,
    1075,
    1090,
    1163,
    1387,
    1387,
    1385,
    1386,
    1383,
    1386,
    1386,
    1385,
    1383,
    1165,
    1384,
    1385,
    1386,
    1385,
    1386,
    1383,
    1383,
    1386,
    1165,
    1383,
    1383,
    1384,
    1383,
    1384,
    1383,
    1383,
    1384,
    1388,
    1385,
    1385,
    1386,
    1386,
    1383,
    1387,
    1387,
    1385,
    1383,
    1386,
    1386,
    1384,
    1388,
    1388,
    1383,
    1386,
    1387,
    1383,
    1386,
    1383,
    1387,
    1387,
    1388,
    1386,
    1385,
    1387,
    1385,
    1384,
    1383,
    1384,
    1386,
    1386,
    1383,
    1386,
    927,
    1388,
    747,
    748,
    731,
    732,
    1147,
    1383,
    1165,
    1388,
    1388,
    1383,
    1384,
    1147,
    1182,
    1150,
    1151,
    747,
    748,
    733,
    927,
    1165,
    1386,
    1165,
    1163,
    1123,
    1125,
    3,
    1389,
    807,
    808,
    811,
    913,
    1090,
    1091,
    1388,
    1124,
    785,
    786,
    787,
    1106,
    1384,
    1383,
    1388,
    1384,
    1385,
    1164,
    1386,
    1093,
    7,
    1405,
    828,
    1,
    1100,
    1117,
    1080,
    1080,
    1095,
    1164,
    1384,
    1386,
    1387,
    1388,
    1091,
    1384,
    1384,
    1384,
    1383,
    1383,
    1385,
    1386,
    1388,
    1383,
    1384,
    1386,
    1388,
    1388,
    1384,
    1387,
    1383,
    1385,
    1385,
    1164,
    1385,
    1386,
    1383,
    1388,
    1384,
    1385,
    1387,
    1383,
    1384,
    1385,
    1385,
    1387,
    1385,
    1384,
    1383,
    1383,
    1383,
    1385,
    1387,
    1383,
    1387,
    1383,
    1384,
    1385,
    1388,
    1384,
    1387,
    1386,
    1385,
    1387,
    1388,
    1385,
    1383,
    1384,
    1388,
    1385,
    1387,
    1388,
    1387,
    1383,
    1387,
    1386,
    1387,
    1387,
    1383,
    1386,
    1182,
    1388,
    1147,
    747,
    748,
    1385,
    1384,
    1385,
    1385,
    1384,
    1383,
    1383,
    731,
    732,
    1166,
    1167,
    1147,
    731,
    732,
    1182,
    1383,
    1124,
    1122,
    1124,
    1023,
    1024,
    7,
    1405,
    823,
    824,
    827,
    1090,
    1130,
    1126,
    1125,
    804,
    801,
    802,
    803,
    1122,
    1385,
    1388,
    1388,
    1385,
    1386,
    1387,
    1386,
    1386,
    1092,
    1421,
    1,
    1115,
    1116,
    1095,
    1096,
    1096,
    1383,
    1385,
    1388,
    1387,
    1387,
    1163,
    1385,
    1384,
    1387,
    1388,
    1388,
    1385,
    1384,
    1385,
    1385,
    1386,
    1387,
    1384,
    1386,
    1383,
    1386,
    1386,
    1388,
    1388,
    1387,
    1387,
    1388,
    1384,
    1385,
    1384,
    1386,
    1388,
    1388,
    1386,
    1383,
    1386,
    1387,
    1387,
    1384,
    1384,
    1386,
    1388,
    1385,
    1386,
    1387,
    1385,
    1386,
    1386,
    1385,
    1388,
    1388,
    1386,
    1388,
    1385,
    1386,
    1388,
    1388,
    1386,
    1388,
    1383,
    1383,
    1384,
    1385,
    1388,
    1386,
    1388,
    1386,
    1388,
    1182,
    1386,
    1385,
    1383,
    1147,
    1147,
    1199,
    1200,
    1384,
    1388,
    1387,
    1387,
    1385,
    1385,
    1383,
    1386,
    747,
    748,
    1182,
    731,
    732,
    747,
    748,
    1386,
    1108,
    1109,
    866,
    867,
    1039,
    1040,
    2,
    1421,
    1090,
    1091,
    1091,
    1130,
    1196,
    1135,
    5,
    6,
    817,
    818,
    819,
    1,
    1121,
    1388,
    1387,
    1383,
    1388,
    1386,
    1384,
    1385,
    1165,
    1093,
    1090,
    1091,
    1096,
    1385,
    1163,
    1385,
    1388,
    1384,
    1385,
    1386,
    1385,
    1386,
    1388,
    1383,
    1386,
    1384,
    1383,
    1384,
    1385,
    1384,
    1385,
    1386,
    1385,
    1387,
    1385,
    1387,
    1384,
    1388,
    1387,
    1384,
    1388,
    1386,
    1384,
    1383,
    1385,
    1383,
    1386,
    1383,
    1385,
    1385,
    1384,
    1388,
    1386,
    1384,
    1387,
    1383,
    1387,
    1383,
    1385,
    1388,
    1385,
    1385,
    1387,
    1386,
    1388,
    1383,
    1386,
    1388,
    1386,
    1383,
    1385,
    1383,
    1383,
    1383,
    1386,
    1388,
    1388,
    1387,
    1383,
    1164,
    1383,
    1385,
    1384,
    1384,
    1387,
    1386,
    1384,
    731,
    732,
    927,
    1215,
    1216,
    1383,
    1386,
    1383,
    1388,
    1385,
    1388,
    1385,
    1387,
    1383,
    1387,
    1384,
    747,
    748,
    1163,
    1385,
    1123,
    1124,
    881,
    882,
    883,
    1055,
    1090,
    1091,
    1091,
    1107,
    1148,
    1124,
    1132,
    1134,
    1,
    2,
    5,
    796,
    797,
    1,
    7,
    1089,
    1165,
    1384,
    1385,
    1385,
    1383,
    1388,
    1388,
    1388,
    1386,
    1385,
    1165,
    1388,
    1383,
    1388,
    1388,
    1384,
    1387,
    1388,
    1386,
    1388,
    1385,
    1387,
    1386,
    1388,
    1386,
    1384,
    1383,
    1386,
    1387,
    1383,
    1383,
    1383,
    1388,
    1383,
    1385,
    1383,
    1385,
    1384,
    1385,
    1384,
    1387,
    1386,
    1383,
    1388,
    1383,
    1385,
    1385,
    1386,
    1384,
    1388,
    1387,
    1388,
    1388,
    1387,
    1383,
    1384,
    1387,
    1383,
    1385,
    1387,
    1388,
    1385,
    1387,
    1384,
    1388,
    1386,
    1384,
    1388,
    1385,
    1386,
    1387,
    1387,
    1387,
    1386,
    1388,
    1386,
    1384,
    1383,
    1384,
    1384,
    1383,
    1386,
    1385,
    1383,
    1385,
    1147,
    747,
    748,
    1383,
    1387,
    1385,
    1386,
    1387,
    1388,
    1388,
    1383,
    1163,
    1386,
    1387,
    1387,
    927,
    1387,
    1182,
    11,
    927,
    1124,
    789,
    790,
    897,
    898,
    899,
    1090,
    1383,
    1076,
    1077,
    1123,
    1124,
    3,
    5,
    2,
    2,
    866,
    867,
    812,
    813,
    7,
    1090,
    1386,
    1384,
    1385,
    1387,
    1385,
    1384,
    1387,
    1386,
    1385,
    1388,
    1385,
    1385,
    1385,
    1387,
    1384,
    1385,
    1385,
    1385,
    1385,
    1384,
    1384,
    1384,
    1383,
    1388,
    1385,
    1384,
    1383,
    1385,
    1384,
    1384,
    1388,
    1385,
    1383,
    1387,
    1383,
    1385,
    1387,
    1383,
    1388,
    1384,
    1387,
    1383,
    1383,
    1384,
    1384,
    1383,
    1386,
    1384,
    1388,
    1386,
    1388,
    1388,
    1386,
    1385,
    1388,
    1385,
    1383,
    1387,
    1385,
    1383,
    1385,
    1384,
    1385,
    1384,
    1385,
    1384,
    1387,
    1384,
    1383,
    1387,
    1384,
    1388,
    1384,
    1165,
    1384,
    1384,
    1386,
    1384,
    1388,
    1385,
    1385,
    1385,
    1383,
    1387,
    1385,
    1388,
    1386,
    1387,
    1383,
    1386,
    1163,
    1387,
    1386,
    1383,
    1386,
    1388,
    1388,
    1388,
    1387,
    1383,
    1182,
    1147,
    1386,
    1387,
    927,
    1108,
    804,
    805,
    806,
    913,
    914,
    1090,
    1388,
    1387,
    1077,
    1125,
    1074,
    3,
    6,
    2,
    13,
    881,
    882,
    883,
    828,
    1,
    1090,
    1383,
    1388,
    1385,
    1385,
    1385,
    1384,
    1388,
    1383,
    1383,
    1384,
    1388,
    1388,
    1384,
    1385,
    1387,
    1387,
    1386,
    1388,
    1387,
    1385,
    1385,
    1388,
    1388,
    1388,
    1386,
    1386,
    1387,
    1387,
    1383,
    1387,
    1384,
    1388,
    1385,
    1388,
    1383,
    1384,
    1386,
    1383,
    1387,
    1388,
    1383,
    1385,
    1385,
    1386,
    1383,
    1385,
    1385,
    1387,
    1388,
    1383,
    1388,
    1384,
    1388,
    1385,
    1388,
    1386,
    1388,
    1388,
    1388,
    1385,
    1386,
    1385,
    1385,
    1386,
    1383,
    1385,
    1385,
    1388,
    1384,
    1388,
    1383,
    1388,
    1387,
    1386,
    1386,
    1388,
    1386,
    1385,
    1387,
    1388,
    1384,
    1384,
    1383,
    1384,
    1385,
    1383,
    1388,
    1385,
    1388,
    1386,
    1386,
    1387,
    1388,
    1383,
    1386,
    1387,
    1383,
    1383,
    1388,
    1385,
    1383,
    1383,
    1387,
    1163,
    1388,
    1383,
    1108,
    820,
    821,
    822,
    7,
    1089,
    1383,
    1385,
    1163,
    1124,
    3,
    791,
    792,
    793,
    794,
    795,
    897,
    898,
    899,
    1090,
    1091,
    1388,
    1383,
    1385,
    1384,
    1384,
    1383,
    1387,
    1383,
    1386,
    1385,
    1386,
    1383,
    1388,
    1383,
    1388,
    1383,
    1388,
    1384,
    1386,
    1388,
    1383,
    1383,
    1385,
    1384,
    1388,
    1385,
    1388,
    1383,
    1385,
    1387,
    1387,
    1383,
    1386,
    1163,
    1383,
    1386,
    1387,
    1383,
    1386,
    1386,
    1387,
    1384,
    1384,
    1388,
    1383,
    1388,
    1165,
    1385,
    1384,
    1385,
    1388,
    1385,
    1385,
    1383,
    1386,
    1386,
    1388,
    1384,
    1388,
    1387,
    1386,
    1386,
    1164,
    1386,
    1386,
    1387,
    1383,
    1383,
    1387,
    1387,
    1385,
    1384,
    1388,
    1386,
    1388,
    1384,
    1383,
    1385,
    1386,
    1388,
    1383,
    1384,
    1385,
    1385,
    1385,
    1388,
    1165,
    1182,
    1383,
    731,
    732,
    1384,
    1383,
    1383,
    1388,
    1386,
    1388,
    1387,
    1388,
    1383,
    1385,
    1383,
    1387,
    1386,
    1387,
    1383,
    1385,
    1124,
    785,
    786,
    787,
    1090,
    1387,
    1165,
    1387,
    1124,
    866,
    867,
    807,
    808,
    809,
    810,
    811,
    913,
    914,
    1090,
    1164,
    1387,
    1386,
    1387,
    1385,
    1384,
    1383,
    1385,
    1385,
    1385,
    1384,
    1383,
    1164,
    1383,
    1384,
    1384,
    1388,
    1383,
    1384,
    1386,
    1388,
    1383,
    1386,
    1383,
    1387,
    1384,
    1388,
    1384,
    1385,
    1386,
    1388,
    1388,
    1383,
    1386,
    1388,
    1384,
    1384,
    1388,
    1386,
    1383,
    1383,
    1388,
    1384,
    1384,
    1383,
    1387,
    1386,
    1384,
    1385,
    1384,
    1384,
    1386,
    1388,
    1387,
    1385,
    1388,
    1383,
    1385,
    1388,
    1383,
    1383,
    1385,
    1387,
    1386,
    1383,
    1384,
    1388,
    1384,
    1386,
    1384,
    1385,
    1387,
    1384,
    1385,
    1386,
    1383,
    1387,
    1386,
    1383,
    1388,
    1384,
    1386,
    1384,
    1386,
    1385,
    1387,
    1385,
    1385,
    1383,
    1385,
    1147,
    747,
    748,
    1147,
    1388,
    1387,
    1388,
    1388,
    1387,
    1387,
    1388,
    1384,
    1385,
    702,
    1388,
    1383,
    1386,
    1384,
    1125,
    1104,
    801,
    802,
    803,
    1106,
    1388,
    1077,
    1124,
    790,
    882,
    883,
    823,
    824,
    825,
    826,
    827,
    1090,
    1091,
    1383,
    1387,
    1384,
    1383,
    1383,
    1387,
    1388,
    1387,
    1387,
    1387,
    1385,
    1386,
    1384,
    1388,
    1386,
    1386,
    1385,
    1385,
    1385,
    1383,
    1386,
    1386,
    1388,
    1387,
    1164,
    1388,
    1385,
    1384,
    1385,
    1386,
    1386,
    1384,
    1387,
    1384,
    1385,
    1384,
    1384,
    1385,
    1387,
    1388,
    1388,
    1384,
    1387,
    1384,
    1386,
    1387,
    1387,
    1383,
    1388,
    1383,
    1387,
    1385,
    1387,
    1383,
    1385,
    1384,
    1386,
    1385,
    1383,
    1383,
    1383,
    1385,
    1385,
    1384,
    1386,
    1388,
    1386,
    1384,
    1387,
    1387,
    1383,
    1163,
    1386,
    1383,
    1386,
    1385,
    1383,
    1386,
    1384,
    1388,
    1384,
    1386,
    1385,
    1383,
    1385,
    1165,
    1384,
    1388,
    1386,
    1182,
    1197,
    1198,
    1383,
    1150,
    1151,
    1386,
    1386,
    1386,
    1386,
    1387,
    1387,
    1386,
    1386,
    1386,
    1387,
    1121,
    1123,
    1123,
    1124,
    1,
    1,
    817,
    818,
    819,
    1106,
    1077,
    1124,
    805,
    806,
    898,
    899,
    1,
    1,
    2,
    48,
    1090,
    1165,
    1147,
    1387,
    1386,
    1387,
    1387,
    1387,
    1388,
    1384,
    1383,
    1388,
    1388,
    1386,
    1383,
    1385,
    1383,
    1386,
    1384,
    1384,
    1163,
    1384,
    1388,
    1385,
    1388,
    1383,
    1387,
    1388,
    1388,
    1387,
    1387,
    1388,
    1386,
    1386,
    1385,
    1386,
    1383,
    1387,
    1387,
    1387,
    1384,
    1387,
    1388,
    1386,
    1385,
    1385,
    1388,
    1385,
    1383,
    1388,
    1383,
    1383,
    1383,
    1387,
    1383,
    1383,
    1388,
    1386,
    1386,
    11,
    1384,
    1386,
    1383,
    1387,
    1385,
    1384,
    1387,
    1387,
    1384,
    1388,
    1384,
    1384,
    1385,
    1385,
    1385,
    1388,
    1384,
    1385,
    1384,
    1386,
    1383,
    1384,
    1383,
    1388,
    1384,
    1387,
    1384,
    1388,
    1386,
    1386,
    1182,
    1388,
    1385,
    1213,
    1214,
    1182,
    1166,
    1167,
    1385,
    1388,
    1385,
    1165,
    1386,
    1387,
    1383,
    1164,
    1384,
    1387,
    1,
    1152,
    1,
    1,
    2,
    1,
    796,
    797,
    3,
    1122,
    1124,
    820,
    821,
    822,
    914,
    2,
    5,
    5,
    4,
    1089,
    1147,
    1383,
    1387,
    1388,
    1383,
    1386,
    1388,
    1383,
    1386,
    1388,
    1385,
    1387,
    1383,
    1383,
    1385,
    1385,
    1384,
    1385,
    1388,
    1386,
    1385,
    1385,
    1383,
    1388,
    1385,
    1387,
    1384,
    1387,
    1384,
    1386,
    1384,
    1384,
    1384,
    1385,
    1383,
    1387,
    1388,
    1387,
    1383,
    1384,
    1388,
    1383,
    1385,
    1387,
    1383,
    1388,
    1384,
    1384,
    1384,
    1385,
    1386,
    1383,
    1386,
    1164,
    1387,
    1383,
    1387,
    1385,
    1383,
    1384,
    1387,
    1386,
    1385,
    1383,
    1385,
    1387,
    1384,
    1386,
    1384,
    1386,
    1386,
    1385,
    1386,
    1385,
    1383,
    1388,
    1384,
    1385,
    1386,
    1387,
    1383,
    1386,
    1164,
    1384,
    1385,
    1387,
    1384,
    1386,
    1384,
    1385,
    1388,
    1386,
    1388,
    1182,
    731,
    732,
    1386,
    1147,
    1182,
    1385,
    1386,
    1384,
    1383,
    1387,
    1386,
    1388,
    1388,
    1385,
    1019,
    1020,
    1021,
    3,
    1,
    1389,
    812,
    813,
    6,
    1,
    14,
    796,
    797,
    915,
    4,
    1099,
    1101,
    1102,
    1090,
    1199,
    1200,
    1163,
    1386,
    1383,
    1385,
    1387,
    1387,
    1388,
    1383,
    1383,
    1386,
    1388,
    1383,
    1387,
    1388,
    1388,
    1385,
    1386,
    1386,
    1386,
    1383,
    1383,
    1383,
    1383,
    1384,
    1384,
    1386,
    1388,
    1384,
    1387,
    1385,
    1384,
    1385,
    1387,
    1387,
    1388,
    1388,
    1386,
    1385,
    1386,
    1385,
    1388,
    1388,
    1384,
    1385,
    1385,
    1387,
    1385,
    1387,
    1384,
    1388,
    1385,
    1388,
    1388,
    1384,
    1385,
    1387,
    1385,
    1384,
    1385,
    1386,
    1383,
    1383,
    1385,
    1386,
    1384,
    1384,
    1386,
    1388,
    1386,
    1386,
    1385,
    1383,
    1386,
    1388,
    1384,
    1384,
    1384,
    1386,
    1385,
    1387,
    1386,
    1387,
    1386,
    1383,
    1388,
    1387,
    1385,
    1385,
    1383,
    1383,
    1383,
    1385,
    1147,
    747,
    748,
    731,
    732,
    1383,
    1383,
    1384,
    1385,
    1388,
    1388,
    1385,
    1387,
    1384,
    1386,
    1035,
    1036,
    1037,
    1038,
    1,
    1405,
    828,
    13,
    1,
    6,
    1389,
    812,
    813,
    4,
    1100,
    1117,
    12,
    1110,
    1111,
    1215,
    1216,
    1388,
    1383,
    1386,
    1384,
    1386,
    1384,
    1164,
    1383,
    1386,
    1383,
    1386,
    1384,
    1386,
    1388,
    1383,
    1386,
    1383,
    1387,
    1386,
    1384,
    1383,
    1383,
    1386,
    1383,
    1387,
    1383,
    1387,
    1383,
    1383,
    1386,
    1385,
    1388,
    1384,
    1385,
    1386,
    1387,
    1386,
    1383,
    1383,
    1383,
    1385,
    1384,
    1386,
    1387,
    1388,
    1384,
    1386,
    1388,
    1387,
    1385,
    1388,
    1385,
    1388,
    1386,
    1384,
    1387,
    1386,
    1385,
    1385,
    1385,
    1384,
    1165,
    1384,
    1385,
    1385,
    1383,
    1387,
    1383,
    1383,
    1384,
    1386,
    1383,
    1385,
    1383,
    1383,
    1387,
    1388,
    1388,
    1386,
    1388,
    1384,
    1384,
    1386,
    1388,
    10,
    1385,
    1385,
    1386,
    1384,
    1383,
    1383,
    1387,
    1386,
    1387,
    1147,
    747,
    748,
    1388,
    1383,
    1385,
    1386,
    1388,
    1385,
    1386,
    1385,
    1384,
    1385,
    1051,
    1052,
    1053,
    1054,
    1,
    1421,
    3,
    1,
    3,
    2,
    1405,
    828,
    7,
    1099,
    1117,
    1086,
    1180,
    1095,
    1383,
    1387,
    1386,
    1383,
    1385,
    1387,
    1383,
    1383,
    1163,
    1387,
    1385,
    1384,
    1386,
    1385,
    1384,
    1383,
    1387,
    1388,
    1386,
    1386,
    1383,
    1383,
    1384,
    1385,
    1387,
    1387,
    1388,
    1385,
    1383,
    1384,
    1384,
    1385,
    1385,
    1385,
    1387,
    1386,
    1387,
    1386,
    1384,
    1388,
    1386,
    1388,
    1387,
    1385,
    1383,
    1386,
    1386,
    1383,
    1386,
    1383,
    1388,
    1386,
    1385,
    1386,
    1385,
    1387,
    1388,
    1383,
    1384,
    1386,
    1384,
    1385,
    1387,
    1388,
    1387,
    1385,
    1383,
    1383,
    1388,
    1388,
    1383,
    1387,
    1385,
    1384,
    1385,
    1384,
    1386,
    1388,
    1383,
    1388,
    1386,
    1385,
    1387,
    1387,
    1383,
    1386,
    1387,
    1383,
    1387,
    1388,
    1385,
    1383,
    1385,
    1387,
    1388,
    1383,
    1385,
    1387,
    1386,
    1386,
    1387,
    1387,
    1385,
    1386,
    1386,
    1386,
    1385,
    1385,
    1387,
    1387,
    1304,
    1068,
    1069,
    1070,
    1152,
    3,
    1,
    2,
    5,
    2,
    1421,
    1,
    1100,
    1117,
    1086,
    1087,
    1110,
    1111,
    1384,
    1386,
    1385,
    1388,
    1384,
    1386,
    1384,
    1386,
    1384,
    1385,
    1386,
    1386,
    1383,
    1386,
    1384,
    1385,
    1385,
    1165,
    1388,
    1384,
    1385,
    1386,
    1388,
    1388,
    1386,
    1386,
    1388,
    1387,
    1383,
    1386,
    1386,
    1386,
    1383,
    1386,
    1387,
    1388,
    1387,
    1386,
    1386,
    1383,
    1388,
    1383,
    1388,
    1386,
    1165,
    1388,
    1383,
    1388,
    1386,
    1388,
    1383,
    1383,
    1386,
    1388,
    1385,
    1385,
    1385,
    1383,
    1388,
    1383,
    1383,
    1385,
    1387,
    1385,
    1386,
    1385,
    1383,
    1386,
    1387,
    1388,
    1386,
    1388,
    1383,
    1387,
    1386,
    1163,
    1387,
    1385,
    1388,
    1385,
    1387,
    1388,
    1388,
    1383,
    1383,
    1383,
    1384,
    1387,
    1384,
    1384,
    11,
    1383,
    1387,
    1383,
    1384,
    1387,
    1388,
    1163,
    1387,
    1384,
    1383,
    1385,
    1384,
    1385,
    1384,
    1385,
    1388,
    1383,
    1386,
    1385,
    367,
    368,
    1438,
    1439,
    1440,
    936,
    937,
    1019,
    1020,
    1021,
    7,
    1115,
    1116,
    1086,
    1087,
    1117,
    1087,
    1127,
    1388,
    1385,
    1385,
    1388,
    1385,
    1386,
    1387,
    1383,
    1387,
    1386,
    1387,
    1383,
    1388,
    1383,
    1385,
    1386,
    1385,
    1386,
    1387,
    1387,
    1387,
    1384,
    1385,
    1384,
    1388,
    1386,
    1385,
    1386,
    1388,
    1383,
    1386,
    1386,
    1387,
    1386,
    1387,
    1388,
    1384,
    1387,
    1385,
    1386,
    1386,
    1385,
    1387,
    1387,
    1388,
    1387,
    1384,
    1386,
    1384,
    1386,
    1385,
    1384,
    1388,
    1388,
    1385,
    1388,
    1386,
    1385,
    1386,
    1386,
    1383,
    1387,
    1385,
    1387,
    1383,
    1388,
    1386,
    1384,
    1384,
    1387,
    1387,
    1387,
    1386,
    1384,
    1388,
    1384,
    1386,
    1386,
    1385,
    1383,
    1383,
    1383,
    1388,
    1387,
    1387,
    1387,
    1386,
    1388,
    1387,
    1384,
    1387,
    1386,
    1385,
    1387,
    1388,
    1383,
    1383,
    1387,
    1385,
    1383,
    1383,
    1386,
    1385,
    1386,
    1388,
    1383,
    1383,
    1385,
    1388,
    1385,
    383,
    384,
    1454,
    1455,
    1456,
    952,
    953,
    1035,
    1036,
    1037,
    1038,
    1115,
    1116,
    1087,
    1117,
    1086,
    1087,
    1083,
    1126,
    1164,
    1385,
    1386,
    1384,
    1386,
    1385,
    1383,
    1385,
    1384,
    1383,
    1385,
    1383,
    1386,
    1385,
    1163,
    1386,
    1383,
    1386,
    1384,
    1387,
    1386,
    1386,
    1386,
    1384,
    1386,
    1385,
    1383,
    1384,
    1387,
    1384,
    1388,
    1385,
    1383,
    1386,
    1384,
    1386,
    1385,
    1384,
    1386,
    1387,
    1384,
    1383,
    1383,
    1383,
    1383,
    1385,
    1387,
    1388,
    1385,
    1385,
    1383,
    1383,
    1388,
    1388,
    1383,
    1386,
    1385,
    1383,
    1385,
    1387,
    1386,
    1386,
    1386,
    1387,
    1387,
    1383,
    1383,
    1386,
    1388,
    1384,
    1387,
    1388,
    1386,
    1387,
    1385,
    1388,
    1383,
    1387,
    1386,
    1388,
    1386,
    1387,
    1385,
    1385,
    1385,
    1385,
    1387,
    1387,
    1383,
    1386,
    1383,
    1388,
    1385,
    1387,
    1385,
    1387,
    1384,
    1383,
    1147,
    1163,
    1386,
    1383,
    1384,
    1386,
    1388,
    1386,
    1385,
    1385,
    1387,
    399,
    400,
    703,
    1471,
    1472,
    968,
    969,
    1051,
    1052,
    1053,
    1054,
    1115,
    1116,
    1195,
    1117,
    1117,
    1117,
    1117,
    1110,
    1111,
    1386,
    1383,
    1383,
    1388,
    1388,
    1386,
    1385,
    1385,
    1386,
    1388,
    1387,
    1383,
    1384,
    1386,
    1383,
    1383,
    1385,
    1388,
    1386,
    1388,
    1387,
    1388,
    1387,
    1384,
    1384,
    1383,
    1386,
    1387,
    1387,
    1388,
    1388,
    1387,
    1383,
    1384,
    1388,
    1388,
    1383,
    1383,
    1388,
    1383,
    1386,
    1387,
    1383,
    1385,
    1384,
    1387,
    1386,
    1384,
    1388,
    1387,
    1388,
    1388,
    1383,
    1383,
    1385,
    1387,
    1385,
    1384,
    1385,
    1383,
    1388,
    1383,
    1385,
    1383,
    1386,
    1383,
    1386,
    1385,
    1387,
    1388,
    1385,
    1385,
    1384,
    1386,
    1383,
    1384,
    1385,
    1383,
    1383,
    1383,
    1384,
    1388,
    1388,
    1383,
    1388,
    1383,
    1387,
    1386,
    1387,
    1387,
    1384,
    1383,
    1386,
    1387,
    1386,
    1384,
    731,
    732,
    1150,
    1151,
    1386,
    1387,
    1387,
    1387,
    1386,
    1384,
    1388,
    1387,
    983,
    984,
    719,
    703,
    703,
    367,
    368,
    992,
    1068,
    1069,
    1070,
    7,
    1132,
    1086,
    1086,
    1087,
    1086,
    1086,
    1087,
    1127,
    1385,
    1383,
    1384,
    1386,
    1383,
    1383,
    1384,
    1388,
    1388,
    1383,
    1388,
    1384,
    1383,
    1388,
    1384,
    1388,
    1387,
    1388,
    1385,
    1388,
    1386,
    1383,
    1388,
    1387,
    1385,
    1163,
    1385,
    1384,
    1385,
    1384,
    1388,
    1387,
    1385,
    1387,
    1388,
    1385,
    1164,
    1385,
    1387,
    1386,
    1388,
    1387,
    1385,
    1387,
    1383,
    1386,
    1384,
    1383,
    1387,
    1385,
    1386,
    1388,
    1385,
    1385,
    1385,
    1385,
    1383,
    1388,
    1388,
    1387,
    1385,
    1387,
    1388,
    1386,
    1386,
    1387,
    1163,
    1383,
    1386,
    1386,
    1388,
    1388,
    1386,
    1388,
    1384,
    1164,
    1386,
    1383,
    1384,
    1384,
    1388,
    1388,
    1384,
    1388,
    1387,
    1386,
    1387,
    1385,
    1383,
    1384,
    1384,
    1384,
    1385,
    1385,
    1386,
    1147,
    747,
    748,
    1166,
    1167,
    731,
    732,
    1387,
    1388,
    1383,
    1385,
    1165,
    1383,
    999,
    1000,
    1304,
    719,
    719,
    383,
    384,
    1008,
    703,
    1015,
    1016,
    1017,
    1115,
    1116,
    1083,
    1086,
    1087,
    1086,
    1087,
    1110,
    1111,
    11,
    1386,
    1386,
    1384,
    1388,
    1384,
    1384,
    1385,
    1383,
    1385,
    1387,
    1386,
    1384,
    1384,
    1383,
    1387,
    1388,
    1383,
    1385,
    1388,
    1165,
    1387,
    1388,
    1388,
    1388,
    1386,
    1387,
    1383,
    1388,
    1383,
    1385,
    1385,
    1385,
    1386,
    1387,
    1385,
    1384,
    1383,
    1388,
    1388,
    1385,
    1385,
    1387,
    1388,
    1164,
    1387,
    1386,
    1388,
    1383,
    1385,
    1387,
    1383,
    1384,
    1383,
    1385,
    1383,
    1385,
    1383,
    1385,
    1388,
    1383,
    1383,
    1385,
    1386,
    1384,
    1388,
    1384,
    1388,
    1383,
    1385,
    1383,
    1386,
    1385,
    1388,
    1388,
    1386,
    1385,
    1388,
    1388,
    1387,
    1387,
    1387,
    1386,
    1385,
    1385,
    1385,
    1388,
    1163,
    1387,
    1385,
    1387,
    1387,
    1388,
    1384,
    1182,
    1387,
    1182,
    1147,
    1182,
    747,
    748,
    1147,
    1388,
    1383,
    1387,
    1387,
    1383,
    980,
    981,
    982,
    1304,
    1179,
    399,
    400,
    1304,
    719,
    1031,
    1032,
    1033,
    1034,
    1132,
    1133,
    1133,
    1086,
    1087,
    1086,
    1195,
    1127,
    1128,
    1163,
    1387,
    1383,
    1384,
    1385,
    1386,
    1387,
    1388,
    1385,
    1384,
    1164,
    1383,
    1385,
    1387,
    1385,
    1385,
    1388,
    1383,
    1383,
    1383,
    1384,
    1385,
    1386,
    1386,
    1383,
    1387,
    1383,
    1386,
    1387,
    1383,
    1385,
    1388,
    1386,
    1384,
    1386,
    1383,
    1386,
    1387,
    1386,
    1384,
    1387,
    1383,
    1387,
    1388,
    1386,
    1386,
    1383,
    1386,
    11,
    1386,
    1385,
    1383,
    1383,
    1388,
    1163,
    1384,
    1384,
    1388,
    1388,
    1387,
    1164,
    1384,
    1386,
    1386,
    1384,
    1388,
    1387,
    1388,
    1388,
    1386,
    1387,
    1386,
    1386,
    1384,
    1386,
    1386,
    1384,
    1388,
    1383,
    1164,
    1387,
    1383,
    1388,
    1386,
    1388,
    1386,
    1383,
    1386,
    1387,
    1387,
    1388,
    1384,
    1386,
    1385,
    1182,
    731,
    732,
    1147,
    733,
    1147,
    1384,
    1388,
    1383,
    1386,
    1386,
    1383,
    1092,
    997,
    998,
    975,
    976,
    983,
    984,
    1303,
    1304,
    1047,
    1048,
    1049,
    1050,
    7,
    1084,
    1084,
    1132,
    1133,
    1133,
    1086,
    1087,
    1087,
    1127,
    1383,
    1386,
    1384,
    1387,
    1386,
    1388,
    1387,
    1386,
    1385,
    1388,
    1383,
    1383,
    1386,
    1384,
    1384,
    1385,
    1385,
    1384,
    1387,
    1383,
    1384,
    1383,
    1385,
    1387,
    1383,
    1386,
    1388,
    1387,
    1383,
    1387,
    1383,
    1385,
    1385,
    1386,
    1383,
    1384,
    1387,
    1386,
    1385,
    1387,
    1385,
    1385,
    1383,
    1386,
    1385,
    1384,
    1383,
    1388,
    1386,
    1386,
    1388,
    1385,
    1384,
    1383,
    1387,
    1383,
    1386,
    1384,
    1387,
    1385,
    1383,
    1385,
    1387,
    1383,
    1383,
    1383,
    1388,
    1165,
    1383,
    1388,
    1387,
    1383,
    1384,
    1385,
    1384,
    1385,
    1385,
    1388,
    1387,
    1386,
    1386,
    1386,
    1386,
    1383,
    1386,
    1387,
    1383,
    1385,
    1385,
    1385,
    1386,
    1385,
    1386,
    1386,
    747,
    748,
    1387,
    731,
    732,
    1383,
    1383,
    1386,
    1383,
    1384,
    1383,
    1383,
    1091,
    1091,
    1092,
    1,
    999,
    1000,
    1319,
    1320,
    1304,
    1304,
    1438,
    1439,
    1440,
    936,
    937,
    1019,
    1020,
    1021,
    1132,
    1133,
    1133,
    1134,
    1106,
    1384,
    1385,
    1386,
    1383,
    1383,
    1387,
    1385,
    1388,
    1388,
    1384,
    1387,
    1384,
    1386,
    1388,
    1383,
    1388,
    1385,
    1388,
    1384,
    1388,
    1384,
    1384,
    1386,
    1388,
    1388,
    1387,
    1383,
    1386,
    1388,
    1383,
    1387,
    1384,
    1386,
    1385,
    1386,
    1385,
    1387,
    1384,
    1388,
    1385,
    1386,
    1385,
    1383,
    1386,
    927,
    1387,
    1385,
    733,
    1148,
    1386,
    1383,
    1384,
    1388,
    1388,
    1386,
    1388,
    1387,
    1387,
    1163,
    1388,
    1388,
    1386,
    1385,
    1388,
    1387,
    1387,
    1385,
    1384,
    1384,
    1386,
    1386,
    1383,
    1388,
    1386,
    1388,
    1385,
    1386,
    1385,
    1384,
    1384,
    1384,
    1383,
    1384,
    1386,
    1383,
    1383,
    1387,
    1387,
    1386,
    1385,
    1386,
    1386,
    1384,
    1387,
    1383,
    1182,
    747,
    748,
    1164,
    1388,
    1384,
    1383,
    1383,
    1384,
    1147,
    731,
    732,
    1147,
    1092,
    977,
    978,
    979,
    703,
    367,
    368,
    1454,
    1455,
    1456,
    952,
    953,
    1035,
    1036,
    1037,
    1038,
    1084,
    1084,
    1090,
    1388,
    1386,
    1385,
    1388,
    1383,
    1387,
    1386,
    1384,
    1383,
    1386,
    1386,
    1386,
    1383,
    1383,
    1387,
    1383,
    1388,
    1383,
    1385,
    1388,
    1383,
    1383,
    1386,
    1387,
    1387,
    1385,
    1384,
    1385,
    1385,
    1385,
    1387,
    1383,
    1383,
    1383,
    1383,
    1385,
    1387,
    1163,
    1385,
    1387,
    1386,
    1388,
    1387,
    1386,
    1148,
    1182,
    733,
    1147,
    1182,
    1384,
    1383,
    1384,
    1387,
    1383,
    1385,
    1385,
    1387,
    1385,
    1386,
    1386,
    1385,
    1387,
    1386,
    1383,
    1385,
    1385,
    1386,
    1387,
    1386,
    1384,
    1386,
    1387,
    1384,
    1388,
    1386,
    1384,
    1384,
    1385,
    1384,
    1385,
    1384,
    1386,
    1386,
    1387,
    1385,
    1385,
    1387,
    1388,
    731,
    732,
    1388,
    1386,
    1385,
    1385,
    1386,
    733,
    1387,
    1384,
    1384,
    1385,
    1388,
    1383,
    1163,
    1384,
    1387,
    1386,
    747,
    748,
    1150,
    1151,
    1092,
    994,
    995,
    719,
    383,
    384,
    703,
    1471,
    1472,
    968,
    969,
    1051,
    1052,
    1053,
    1054,
    1090,
    1091,
    1386,
    1385,
    1388,
    1386,
    1163,
    1387,
    1385,
    1385,
    1387,
    1388,
    1386,
    1385,
    1386,
    1383,
    1386,
    1386,
    1386,
    1386,
    1387,
    1385,
    1384,
    1388,
    1383,
    1385,
    1388,
    1388,
    1383,
    1388,
    1386,
    1383,
    1383,
    1384,
    1383,
    1388,
    1385,
    1383,
    1386,
    1388,
    1386,
    1385,
    1383,
    1387,
    1388,
    11,
    1387,
    1182,
    1387,
    1149,
    1182,
    11,
    733,
    1384,
    1386,
    1387,
    1387,
    1385,
    1385,
    1384,
    1387,
    1388,
    1384,
    1387,
    1387,
    1383,
    1384,
    1384,
    1383,
    1387,
    1388,
    1385,
    1386,
    1387,
    1387,
    1387,
    1385,
    1383,
    1386,
    1385,
    1383,
    1386,
    1386,
    1385,
    1387,
    1388,
    1388,
    1384,
    1385,
    1182,
    1388,
    747,
    748,
    1182,
    1147,
    1387,
    1383,
    1164,
    1383,
    1387,
    1386,
    1386,
    1387,
    1383,
    1384,
    1388,
    1388,
    1384,
    1163,
    1147,
    1164,
    1166,
    1167,
    1108,
    980,
    981,
    982,
    399,
    400,
    719,
    703,
    1319,
    1320,
    992,
    1304,
    1068,
    1069,
    1070,
    1122,
    1123,
    1123,
    1384,
    1387,
    1383,
    1386,
    1383,
    1383,
    1385,
    1384,
    1387,
    1386,
    1383,
    1385,
    1386,
    1387,
    1383,
    1385,
    1383,
    1383,
    1385,
    1384,
    1388,
    1385,
    1383,
    1385,
    1388,
    1386,
    1383,
    1165,
    1386,
    1386,
    1388,
    1388,
    1385,
    1383,
    1385,
    1387,
    1385,
    1383,
    1386,
    1383,
    1384,
    1385,
    1388,
    1383,
    1384,
    927,
    1386,
    1385,
    1182,
    927,
    1384,
    1383,
    1164,
    1388,
    1388,
    1384,
    1385,
    1387,
    1387,
    1386,
    1388,
    1387,
    1386,
    1388,
    1388,
    1386,
    1387,
    1387,
    1383,
    1385,
    1387,
    1384,
    1387,
    1383,
    1387,
    1383,
    1387,
    1383,
    1387,
    1383,
    1383,
    1383,
    1385,
    1384,
    1182,
    1383,
    1384,
    731,
    732,
    1147,
    1383,
    1385,
    1384,
    1384,
    1388,
    1384,
    1387,
    1384,
    1387,
    1386,
    1182,
    1385,
    1182,
    1384,
    1386,
    1123,
    1388,
    747,
    748,
    731,
    732,
    1092,
    997,
    998,
    983,
    984,
    703,
    719,
    367,
    368,
    1008,
    1320,
    1320,
    1438,
    1439,
    1440,
    1019,
    1020,
    1122,
    1383,
    1385,
    1388,
    1386,
    1384,
    1383,
    1384,
    1387,
    1385,
    1385,
    1384,
    1387,
    1387,
    1385,
    1383,
    1387,
    1387,
    1388,
    1384,
    1386,
    1385,
    1387,
    1386,
    1383,
    1388,
    1384,
    1384,
    1383,
    1386,
    1385,
    1385,
    1384,
    1386,
    1387,
    1387,
    1384,
    1385,
    1384,
    1384,
    1384,
    1388,
    1386,
    1163,
    1383,
    1388,
    733,
    1388,
    1385,
    1385,
    1388,
    1386,
    1384,
    1387,
    1387,
    1386,
    1385,
    1387,
    1388,
    1384,
    1386,
    1387,
    1385,
    1383,
    1163,
    1386,
    1384,
    1387,
    1387,
    1386,
    1387,
    1384,
    1385,
    1387,
    1385,
    1386,
    1383,
    1385,
    1385,
    1386,
    1388,
    1387,
    1383,
    1384,
    1388,
    1147,
    1387,
    747,
    748,
    1384,
    1182,
    1387,
    1387,
    1387,
    1388,
    1387,
    1385,
    1383,
    731,
    732,
    1385,
    731,
    732,
    1384,
    1384,
    1074,
    1122,
    1383,
    1147,
    747,
    748,
    1387,
    1091,
    1092,
    999,
    1000,
    719,
    703,
    383,
    384,
    703,
    367,
    368,
    1454,
    1455,
    1456,
    1035,
    1036,
    1037,
    1122,
    1386,
    1386,
    1383,
    1385,
    1385,
    1386,
    1387,
    1384,
    1383,
    1384,
    1387,
    1388,
    1387,
    1163,
    1383,
    1387,
    1385,
    1387,
    1383,
    1384,
    1383,
    1387,
    1383,
    1387,
    1383,
    1388,
    1388,
    1182,
    1386,
    1387,
    1383,
    1385,
    1384,
    1387,
    1387,
    1385,
    1383,
    1387,
    1387,
    1386,
    1383,
    1384,
    1384,
    1383,
    1388,
    1385,
    1384,
    1385,
    1384,
    1386,
    1165,
    1384,
    1386,
    1383,
    1385,
    1383,
    1384,
    1383,
    1385,
    1385,
    1387,
    1385,
    1385,
    1387,
    1385,
    1384,
    1386,
    1386,
    1388,
    1385,
    1387,
    1387,
    1386,
    1388,
    1385,
    1163,
    1385,
    1387,
    1384,
    1385,
    1384,
    1385,
    1384,
    1384,
    1182,
    1385,
    1386,
    1387,
    1384,
    1384,
    1386,
    1383,
    1385,
    1147,
    1388,
    1182,
    747,
    748,
    11,
    747,
    748,
    1386,
    1385,
    839,
    840,
    1121,
    1387,
    1150,
    1151,
    1147,
    1163,
    1108,
    980,
    981,
    1303,
    719,
    399,
    400,
    719,
    383,
    384,
    703,
    1471,
    1472,
    1051,
    1052,
    1053,
    1054,
    1121,
    1386,
    1384,
    1387,
    1386,
    1383,
    1383,
    1385,
    1386,
    1387,
    1386,
    1385,
    1387,
    1383,
    1388,
    1388,
    1388,
    1386,
    1385,
    1388,
    1383,
    1383,
    1388,
    1384,
    1386,
    1385,
    1386,
    1383,
    731,
    732,
    1388,
    1387,
    1386,
    1387,
    1386,
    1384,
    1163,
    1388,
    1388,
    1387,
    1384,
    1388,
    1384,
    1387,
    1388,
    1385,
    1385,
    1383,
    1386,
    1387,
    1384,
    1386,
    1385,
    1388,
    1387,
    1386,
    1388,
    1386,
    1386,
    1385,
    1383,
    1388,
    1387,
    1384,
    1387,
    1387,
    1388,
    1387,
    1383,
    1386,
    1388,
    1387,
    1384,
    1387,
    1383,
    1385,
    1385,
    1387,
    1385,
    1385,
    1388,
    1388,
    1386,
    1385,
    1163,
    1383,
    1387,
    1386,
    1384,
    1388,
    1387,
    1384,
    1388,
    1387,
    731,
    732,
    1182,
    1147,
    731,
    732,
    1182,
    1384,
    1388,
    855,
    856,
    1105,
    1106,
    1166,
    1167,
    1385,
    1147,
    1387,
    1092,
    997,
    998,
    975,
    976,
    983,
    984,
    399,
    400,
    719,
    1179,
    1303,
    1304,
    1068,
    1069,
    1070,
    1105,
    1106,
    1383,
    1385,
    1387,
    1386,
    1384,
    1384,
    1388,
    1385,
    1386,
    1384,
    1387,
    1385,
    1384,
    927,
    731,
    732,
    1385,
    1387,
    1386,
    1383,
    1385,
    1383,
    1182,
    731,
    732,
    1386,
    747,
    748,
    1386,
    1182,
    1384,
    1388,
    1385,
    1388,
    1386,
    1383,
    1387,
    1386,
    1386,
    1386,
    1384,
    1387,
    1385,
    1387,
    1165,
    1383,
    11,
    1386,
    1388,
    1387,
    1384,
    1386,
    1388,
    1386,
    1383,
    1387,
    1384,
    1388,
    1384,
    1383,
    1388,
    1387,
    1385,
    1387,
    1386,
    1385,
    1383,
    1386,
    1386,
    1387,
    1387,
    1386,
    1383,
    1387,
    1386,
    1385,
    1388,
    1385,
    1383,
    1384,
    1384,
    1388,
    1388,
    1384,
    1384,
    1388,
    1388,
    1388,
    1165,
    1385,
    1387,
    927,
    747,
    748,
    1199,
    1200,
    747,
    748,
    1385,
    1388,
    1384,
    836,
    837,
    838,
    1122,
    1384,
    1164,
    1388,
    1387,
    1387,
    1387,
    1091,
    1091,
    1092,
    1,
    999,
    1000,
    992,
    1319,
    1320,
    1304,
    703,
    1304,
    703,
    1015,
    1016,
    1017,
    1122,
    1387,
    1387,
    1387,
    1388,
    1385,
    1386,
    1384,
    1123,
    1123,
    1386,
    1388,
    1147,
    1383,
    1388,
    747,
    748,
    1147,
    1385,
    1384,
    1387,
    1150,
    1151,
    1384,
    747,
    748,
    1383,
    1386,
    731,
    732,
    1386,
    1384,
    1387,
    1385,
    1387,
    1386,
    1386,
    1385,
    1387,
    1388,
    1383,
    1387,
    1383,
    1384,
    1388,
    1387,
    1385,
    1384,
    1383,
    1384,
    1386,
    1386,
    1387,
    1388,
    1385,
    1387,
    1388,
    1384,
    1387,
    1388,
    1384,
    1384,
    1386,
    1384,
    1386,
    1383,
    1384,
    1385,
    1386,
    1384,
    1384,
    1384,
    1384,
    1385,
    1387,
    1384,
    1386,
    1388,
    1385,
    1388,
    1386,
    1387,
    1384,
    1383,
    1387,
    1384,
    1383,
    1384,
    1383,
    1386,
    1384,
    731,
    732,
    927,
    1163,
    1215,
    1216,
    1182,
    1383,
    1386,
    1384,
    1384,
    1092,
    853,
    854,
    839,
    1122,
    1383,
    1388,
    1383,
    1383,
    1383,
    1388,
    1165,
    1387,
    1092,
    980,
    981,
    1008,
    1304,
    1319,
    1320,
    719,
    1320,
    719,
    1031,
    1032,
    1033,
    1034,
    1106,
    1384,
    1386,
    1383,
    1383,
    1388,
    1125,
    1074,
    1074,
    1122,
    1123,
    1123,
    1123,
    1123,
    1384,
    927,
    1385,
    1385,
    1385,
    1383,
    1166,
    1167,
    1386,
    1384,
    1383,
    731,
    732,
    747,
    748,
    1385,
    1383,
    1385,
    1387,
    1388,
    1384,
    1388,
    1385,
    1388,
    1384,
    1387,
    1383,
    1386,
    1388,
    1384,
    1384,
    1388,
    1384,
    1165,
    1385,
    1386,
    1384,
    1385,
    1385,
    1385,
    1388,
    1386,
    1386,
    1387,
    1385,
    1385,
    1388,
    1385,
    1388,
    1383,
    1387,
    1384,
    1388,
    1388,
    1387,
    1388,
    1385,
    1386,
    1385,
    1386,
    1388,
    1384,
    1385,
    1165,
    1383,
    1388,
    1385,
    1383,
    1384,
    1383,
    1388,
    1384,
    1387,
    1385,
    1383,
    1388,
    747,
    748,
    1147,
    1383,
    1384,
    1386,
    1383,
    1385,
    1164,
    1388,
    1386,
    1387,
    1093,
    1,
    855,
    856,
    1121,
    1383,
    1387,
    1387,
    1386,
    1385,
    1385,
    927,
    1386,
    1092,
    997,
    998,
    975,
    976,
    983,
    984,
    367,
    368,
    1047,
    1048,
    1049,
    1050,
    1122,
    1123,
    1123,
    1123,
    1123,
    1124,
    934,
    935,
    936,
    937,
    936,
    937,
    1019,
    1020,
    1122,
    1182,
    1387,
    1387,
    1386,
    1388,
    1384,
    927,
    1388,
    927,
    1387,
    747,
    748,
    1386,
    1386,
    1387,
    1182,
    1388,
    1385,
    1384,
    1384,
    1388,
    1385,
    1386,
    1386,
    1384,
    1383,
    1388,
    1386,
    1387,
    1384,
    1383,
    1387,
    1385,
    1387,
    1385,
    1383,
    1386,
    1385,
    1383,
    1385,
    1383,
    1388,
    1388,
    1383,
    1383,
    1384,
    1386,
    1387,
    1387,
    1387,
    1386,
    1386,
    1383,
    1387,
    1385,
    1384,
    1386,
    1386,
    1388,
    1383,
    1388,
    1383,
    1387,
    1383,
    1384,
    1386,
    1386,
    1386,
    1385,
    1383,
    1388,
    1383,
    1384,
    1388,
    1386,
    927,
    1386,
    731,
    732,
    1384,
    1383,
    1388,
    1387,
    1388,
    1385,
    1387,
    1386,
    1163,
    1092,
    785,
    786,
    787,
    1106,
    1385,
    1383,
    1387,
    1388,
    1384,
    1385,
    1182,
    1385,
    1091,
    1092,
    1,
    7,
    999,
    1000,
    383,
    384,
    1304,
    1179,
    1438,
    1439,
    1440,
    936,
    937,
    936,
    937,
    938,
    950,
    951,
    952,
    953,
    952,
    953,
    1035,
    1036,
    1037,
    1122,
    1386,
    1164,
    1385,
    1123,
    1123,
    1123,
    1386,
    1182,
    1165,
    1385,
    1388,
    1383,
    1386,
    1182,
    731,
    732,
    1388,
    1383,
    1387,
    1385,
    1387,
    1386,
    1385,
    1388,
    1384,
    1385,
    1388,
    1387,
    1384,
    1386,
    1388,
    1383,
    1385,
    1386,
    1386,
    1384,
    1385,
    1383,
    1385,
    1383,
    1386,
    1383,
    1385,
    1387,
    1385,
    1383,
    1387,
    1386,
    1383,
    1384,
    1387,
    1385,
    1388,
    1387,
    1387,
    1385,
    1388,
    1384,
    1386,
    1385,
    1385,
    1385,
    1386,
    1388,
    1387,
    1383,
    11,
    1383,
    1386,
    1385,
    1386,
    1384,
    1386,
    1384,
    1385,
    1384,
    747,
    748,
    1182,
    1385,
    1385,
    1385,
    1165,
    1387,
    1388,
    1388,
    1387,
    1108,
    801,
    802,
    803,
    1106,
    1163,
    1387,
    1385,
    1383,
    1383,
    1388,
    1164,
    1148,
    1182,
    1383,
    1091,
    1092,
    977,
    978,
    399,
    400,
    367,
    368,
    1454,
    1455,
    1456,
    952,
    953,
    952,
    953,
    954,
    966,
    967,
    968,
    969,
    968,
    969,
    1051,
    1052,
    1053,
    1054,
    1106,
    1386,
    1124,
    1074,
    1074,
    1074,
    1122,
    1123,
    1123,
    1123,
    1383,
    1182,
    927,
    1384,
    747,
    748,
    1386,
    1383,
    1385,
    1386,
    1388,
    1388,
    1383,
    1163,
    1384,
    1386,
    1386,
    1388,
    1386,
    1384,
    1386,
    1384,
    1384,
    1388,
    1385,
    1388,
    1383,
    1383,
    1386,
    1386,
    1386,
    1386,
    1383,
    1387,
    1385,
    1385,
    1387,
    1386,
    1383,
    1387,
    1387,
    1386,
    1386,
    1387,
    1385,
    1386,
    1383,
    1383,
    1386,
    1385,
    1388,
    1386,
    1386,
    1388,
    1383,
    1384,
    1387,
    1387,
    1383,
    1386,
    1387,
    1387,
    1384,
    1383,
    1164,
    1387,
    1386,
    927,
    1388,
    1387,
    1386,
    1387,
    1384,
    1385,
    1384,
    1388,
    1383,
    1108,
    817,
    818,
    819,
    1122,
    1386,
    1388,
    1384,
    1385,
    1388,
    1388,
    1388,
    1182,
    731,
    732,
    1182,
    1384,
    1092,
    994,
    995,
    1319,
    383,
    384,
    703,
    1471,
    1472,
    968,
    969,
    968,
    969,
    970,
    1319,
    1320,
    703,
    1304,
    703,
    1303,
    1304,
    1068,
    1069,
    1070,
    1122,
    1124,
    934,
    935,
    936,
    937,
    936,
    937,
    1019,
    1020,
    1122,
    927,
    731,
    732,
    1182,
    1388,
    1385,
    1385,
    1385,
    1385,
    1388,
    1383,
    1383,
    1384,
    1383,
    1386,
    1385,
    1384,
    1387,
    1387,
    1388,
    1385,
    1383,
    1182,
    1384,
    1387,
    1386,
    1386,
    1164,
    1383,
    1388,
    1387,
    1388,
    1383,
    1383,
    1388,
    1385,
    1384,
    1383,
    1384,
    1385,
    1386,
    1383,
    1386,
    1383,
    1383,
    1387,
    1385,
    1384,
    1388,
    1384,
    1387,
    1385,
    1384,
    1383,
    1387,
    1388,
    1385,
    1385,
    1165,
    1387,
    1386,
    1385,
    1387,
    1386,
    1388,
    1182,
    1388,
    1383,
    1388,
    1388,
    1386,
    731,
    732,
    1385,
    1383,
    1387,
    1124,
    836,
    837,
    838,
    2,
    1122,
    1383,
    1388,
    1386,
    1387,
    1165,
    1385,
    733,
    747,
    748,
    731,
    732,
    1108,
    980,
    981,
    982,
    399,
    400,
    1319,
    367,
    368,
    703,
    703,
    1319,
    1320,
    1304,
    703,
    1319,
    719,
    1320,
    719,
    1319,
    1320,
    703,
    1438,
    1439,
    1440,
    938,
    950,
    951,
    952,
    953,
    952,
    953,
    1035,
    1036,
    1037,
    1121,
    747,
    748,
    1388,
    731,
    732,
    1384,
    1182,
    1164,
    1385,
    1384,
    1388,
    1385,
    1386,
    11,
    1385,
    1163,
    1383,
    1387,
    1388,
    1385,
    927,
    1388,
    1384,
    1388,
    1385,
    1385,
    1386,
    1147,
    1386,
    1385,
    1383,
    1387,
    1383,
    1383,
    1385,
    1384,
    1385,
    1383,
    1387,
    1385,
    1388,
    1386,
    1386,
    1388,
    1387,
    1384,
    1388,
    1388,
    1386,
    1384,
    1163,
    1387,
    1387,
    1385,
    1384,
    1387,
    1383,
    1388,
    1384,
    1386,
    1387,
    1388,
    1163,
    1385,
    1386,
    1385,
    1383,
    1386,
    927,
    1147,
    747,
    748,
    1384,
    1182,
    1385,
    1092,
    7,
    853,
    854,
    839,
    840,
    1121,
    1387,
    1386,
    1165,
    1388,
    1385,
    1385,
    1386,
    1182,
    747,
    748,
    1147,
    1092,
    997,
    998,
    983,
    984,
    703,
    383,
    384,
    719,
    719,
    1304,
    1304,
    992,
    719,
    1303,
    987,
    988,
    975,
    976,
    983,
    719,
    1454,
    1455,
    1456,
    954,
    966,
    967,
    968,
    969,
    968,
    969,
    1051,
    1052,
    1053,
    1054,
    1122,
    1385,
    927,
    747,
    748,
    1388,
    1387,
    1383,
    1385,
    1388,
    1384,
    1384,
    1385,
    1385,
    1388,
    1388,
    1386,
    1385,
    1182,
    1387,
    1385,
    1147,
    1388,
    1385,
    1385,
    1386,
    1150,
    1151,
    1386,
    1384,
    1383,
    1383,
    1383,
    1383,
    1388,
    1387,
    1383,
    1384,
    1388,
    1385,
    1383,
    1383,
    1383,
    1383,
    1387,
    1385,
    1385,
    1388,
    1384,
    1384,
    1386,
    1385,
    1383,
    1388,
    1385,
    1388,
    1387,
    1388,
    1383,
    1385,
    1383,
    1386,
    1387,
    1383,
    1387,
    1383,
    1388,
    1147,
    731,
    732,
    1182,
    1383,
    1387,
    1383,
    1387,
    1164,
    1091,
    1091,
    1092,
    855,
    856,
    1105,
    1106,
    1384,
    1387,
    1385,
    1387,
    1387,
    1149,
    1385,
    1387,
    1150,
    1151,
    733,
    1091,
    1092,
    999,
    1000,
    719,
    399,
    400,
    1319,
    1304,
    1319,
    1320,
    1008,
    1304,
    944,
    1003,
    1004,
    15,
    16,
    999,
    1000,
    703,
    1471,
    1472,
    970,
    1304,
    1179,
    703,
    1304,
    703,
    1303,
    1304,
    1068,
    1069,
    1070,
    7,
    1121,
    927,
    11,
    1383,
    1387,
    1388,
    1388,
    1386,
    1385,
    1385,
    1387,
    1383,
    1387,
    1386,
    1384,
    1383,
    1147,
    1385,
    1197,
    1198,
    1387,
    731,
    732,
    1385,
    1384,
    1166,
    1167,
    1388,
    1385,
    1385,
    1384,
    1383,
    1383,
    1383,
    1387,
    1385,
    1386,
    1385,
    1384,
    1383,
    1383,
    1387,
    1388,
    1386,
    1383,
    1384,
    1388,
    1384,
    1386,
    1388,
    1383,
    1386,
    1387,
    1385,
    1388,
    1385,
    1386,
    1384,
    1383,
    1385,
    1386,
    1387,
    1383,
    1383,
    1388,
    927,
    1386,
    747,
    748,
    1384,
    1388,
    1387,
    1147,
    1182,
    1387,
    1388,
    1386,
    1108,
    836,
    837,
    838,
    1122,
    1384,
    1388,
    1388,
    1387,
    1387,
    1385,
    1384,
    1182,
    1166,
    1167,
    731,
    732,
    1108,
    980,
    981,
    982,
    1319,
    1319,
    1320,
    1179,
    1304,
    1303,
    1304,
    959,
    960,
    15,
    1152,
    31,
    32,
    980,
    981,
    719,
    1319,
    1320,
    1304,
    1319,
    1320,
    719,
    1304,
    719,
    1319,
    1320,
    992,
    1015,
    1016,
    1017,
    1,
    1122,
    733,
    1384,
    1182,
    1388,
    1384,
    1383,
    1386,
    1388,
    1387,
    1386,
    1125,
    1122,
    1123,
    1123,
    1123,
    1123,
    1213,
    1214,
    1147,
    747,
    748,
    1182,
    1387,
    1387,
    1384,
    1387,
    1385,
    1384,
    1383,
    1388,
    1386,
    1388,
    1387,
    1384,
    1385,
    1384,
    1386,
    1388,
    1385,
    1384,
    1388,
    1385,
    1388,
    1384,
    1387,
    1385,
    1388,
    1387,
    1387,
    1385,
    1387,
    1384,
    1384,
    1164,
    1383,
    1383,
    1388,
    1384,
    1388,
    1383,
    1383,
    1388,
    1383,
    1388,
    1182,
    1383,
    1387,
    1388,
    1182,
    1386,
    1182,
    731,
    732,
    1387,
    1384,
    1385,
    1092,
    853,
    854,
    839,
    1122,
    1383,
    1388,
    1383,
    1383,
    1384,
    733,
    1384,
    731,
    732,
    747,
    748,
    1383,
    1092,
    997,
    998,
    975,
    976,
    975,
    976,
    985,
    986,
    989,
    990,
    991,
    31,
    1090,
    1091,
    1092,
    996,
    997,
    998,
    975,
    976,
    975,
    976,
    975,
    976,
    975,
    976,
    983,
    984,
    1008,
    1031,
    1032,
    1033,
    1034,
    1105,
    1106,
    1383,
    1165,
    1387,
    1388,
    1123,
    1123,
    1123,
    1123,
    1124,
    934,
    935,
    936,
    937,
    1019,
    1020,
    1122,
    1384,
    1182,
    733,
    1150,
    1151,
    1384,
    1147,
    731,
    732,
    1383,
    1387,
    1386,
    1384,
    1384,
    1386,
    1384,
    1386,
    1388,
    1385,
    1386,
    1384,
    1386,
    1387,
    1384,
    1385,
    1386,
    1384,
    1386,
    1386,
    1385,
    1383,
    1386,
    1387,
    1387,
    1384,
    1385,
    1388,
    1387,
    1387,
    1385,
    1165,
    1388,
    1386,
    1385,
    1385,
    1386,
    1387,
    1383,
    1383,
    1386,
    1384,
    731,
    732,
    733,
    747,
    748,
    1383,
    1383,
    1388,
    1387,
    1093,
    1,
    855,
    856,
    1121,
    1383,
    1387,
    1387,
    1384,
    1384,
    1385,
    747,
    748,
    1148,
    1182,
    731,
    732,
    1091,
    1092,
    7,
    14,
    1090,
    1091,
    1092,
    1002,
    1005,
    1006,
    1007,
    1089,
    1385,
    1164,
    1163,
    1092,
    7,
    1,
    1001,
    1002,
    1,
    1075,
    1075,
    7,
    1075,
    1002,
    999,
    1000,
    719,
    1047,
    1048,
    1049,
    1050,
    7,
    1122,
    1123,
    1123,
    1123,
    1124,
    934,
    935,
    936,
    937,
    938,
    950,
    951,
    952,
    953,
    1035,
    1036,
    1037,
    1122,
    927,
    1387,
    1166,
    1167,
    1387,
    1182,
    747,
    748,
    1383,
    1387,
    1383,
    1385,
    1384,
    1387,
    1384,
    1383,
    1383,
    1388,
    1387,
    1388,
    1385,
    1388,
    1384,
    1383,
    1387,
    1388,
    1383,
    1384,
    1388,
    1387,
    1383,
    1387,
    1385,
    1385,
    1388,
    1385,
    1383,
    1388,
    1387,
    1383,
    1387,
    1384,
    1384,
    1386,
    1386,
    1165,
    1386,
    1147,
    1182,
    1388,
    747,
    748,
    1148,
    1147,
    1385,
    1384,
    1386,
    1386,
    1386,
    1165,
    1092,
    785,
    786,
    787,
    1106,
    1385,
    1383,
    1385,
    1383,
    1388,
    1387,
    1388,
    1387,
    733,
    747,
    748,
    1163,
    1147,
    1091,
    1091,
    1147,
    927,
    733,
    1092,
    7,
    2,
    1090,
    1385,
    1387,
    1388,
    1387,
    1165,
    1091,
    1092,
    7,
    1,
    1090,
    1091,
    1091,
    1091,
    1091,
    1092,
    977,
    978,
    979,
    1303,
    1304,
    1438,
    1439,
    1440,
    936,
    937,
    936,
    937,
    938,
    950,
    951,
    952,
    953,
    954,
    966,
    967,
    968,
    969,
    1051,
    1052,
    1053,
    1054,
    1106,
    1165,
    1182,
    1388,
    731,
    732,
    1182,
    1387,
    1383,
    1385,
    1385,
    1385,
    1387,
    1388,
    1385,
    1388,
    1386,
    1383,
    1388,
    1386,
    1385,
    1388,
    1388,
    1386,
    1386,
    1385,
    1383,
    1383,
    1388,
    1386,
    1388,
    1384,
    1385,
    1387,
    1385,
    1383,
    1383,
    1387,
    1383,
    1388,
    1384,
    1386,
    1383,
    1386,
    1386,
    1388,
    1182,
    731,
    732,
    1384,
    1182,
    1386,
    731,
    732,
    1383,
    1147,
    1386,
    1387,
    1388,
    1387,
    1108,
    801,
    802,
    803,
    1106,
    1385,
    1387,
    1385,
    1385,
    1388,
    1383,
    1383,
    1387,
    1388,
    1182,
    1388,
    1385,
    1386,
    1165,
    1182,
    1388,
    1182,
    1147,
    927,
    1093,
    1089,
    1165,
    1163,
    1384,
    1384,
    1384,
    1384,
    1384,
    1384,
    1093,
    1089,
    1386,
    731,
    732,
    1387,
    1165,
    1383,
    1092,
    994,
    995,
    1319,
    1320,
    1454,
    1455,
    1456,
    952,
    953,
    952,
    953,
    954,
    966,
    967,
    968,
    969,
    970,
    703,
    1303,
    1304,
    703,
    1304,
    1068,
    1069,
    1070,
    1122,
    1123,
    1123,
    927,
    747,
    748,
    1164,
    1147,
    1384,
    1383,
    1388,
    1388,
    1383,
    1384,
    1384,
    1385,
    1388,
    1384,
    1385,
    1383,
    1387,
    1387,
    1387,
    1384,
    1388,
    1388,
    1386,
    1385,
    1384,
    1386,
    1383,
    1383,
    1385,
    1388,
    1385,
    1384,
    1383,
    1385,
    1388,
    1383,
    1384,
    1388,
    1384,
    1383,
    1385,
    1383,
    1384,
    747,
    748,
    1386,
    1384,
    1386,
    747,
    748,
    1384,
    1384,
    1387,
    1383,
    1388,
    1383,
    1108,
    817,
    818,
    819,
    1122,
    1163,
    1388,
    1388,
    1165,
    1388,
    1385,
    1388,
    1385,
    1387,
    1388,
    1383,
    1387,
    1383,
    1383,
    1383,
    1147,
    1385,
    1182,
    1383,
    1384,
    1164,
    1163,
    1383,
    1387,
    1384,
    1384,
    1384,
    1384,
    1165,
    733,
    1150,
    1151,
    747,
    748,
    1150,
    1151,
    1384,
    1108,
    977,
    978,
    979,
    1303,
    1304,
    1471,
    1472,
    968,
    969,
    968,
    969,
    970,
    703,
    1303,
    1319,
    1320,
    1320,
    719,
    1304,
    1320,
    719,
    1303,
    1304,
    1438,
    1439,
    1440,
    1019,
    1020,
    1122,
    1182,
    1388,
    1182,
    1384,
    1386,
    1387,
    1387,
    1385,
    1385,
    1384,
    1388,
    1385,
    1383,
    1388,
    1386,
    1386,
    1383,
    1385,
    1383,
    1387,
    1383,
    1384,
    1383,
    1385,
    1386,
    1385,
    1386,
    1384,
    1387,
    1385,
    1383,
    1387,
    1388,
    1384,
    1387,
    1385,
    1182,
    1388,
    1385,
    1383,
    1387,
    1383,
    1386,
    1386,
    1388,
    1150,
    1151,
    1388,
    1147,
    1199,
    1200,
    1182,
    1386,
    1385,
    1383,
    1387,
    1124,
    836,
    837,
    838,
    2,
    1122,
    1383,
    1387,
    1386,
    1387,
    1388,
    1384,
    1385,
    1388,
    1384,
    1384,
    1387,
    1384,
    1386,
    1388,
    1384,
    1388,
    1386,
    1383,
    1165,
    1388,
    1387,
    1388,
    1387,
    1385,
    1385,
    1384,
    1384,
    1388,
    1165,
    1166,
    1167,
    1147,
    1147,
    1166,
    1167,
    1383,
    1385,
    1092,
    994,
    995,
    1319,
    1320,
    703,
    1303,
    1304,
    703,
    1303,
    1304,
    703,
    719,
    1319,
    1320,
    987,
    988,
    975,
    976,
    983,
    984,
    1319,
    1320,
    1454,
    1455,
    1456,
    1035,
    1036,
    1037,
    1122,
    1387,
    1387,
    1385,
    1388,
    1182,
    1387,
    1383,
    1388,
    1386,
    1388,
    1383,
    1385,
    1386,
    1384,
    1385,
    1387,
    1387,
    1383,
    1385,
    1385,
    1388,
    1384,
    1386,
    1387,
    1386,
    1384,
    1383,
    1383,
    1387,
    1150,
    1151,
    1387,
    1199,
    1200,
    1182,
    731,
    732,
    1164,
    1383,
    1386,
    731,
    732,
    1148,
    1384,
    1166,
    1167,
    1387,
    1182,
    1215,
    1216,
    1383,
    1385,
    1385,
    1387,
    1385,
    1092,
    7,
    853,
    854,
    911,
    912,
    1122,
    1387,
    1386,
    1388,
    1384,
    1387,
    1388,
    1387,
    1385,
    1386,
    1386,
    1387,
    1387,
    1164,
    1387,
    1384,
    1384,
    1387,
    1388,
    1387,
    1384,
    1384,
    1384,
    1384,
    1386,
    1384,
    1384,
    1150,
    1151,
    731,
    732,
    11,
    927,
    731,
    732,
    1147,
    1163,
    1108,
    980,
    981,
    1319,
    1320,
    719,
    1319,
    1320,
    719,
    1319,
    1320,
    719,
    1303,
    1303,
    1014,
    1003,
    1004,
    1090,
    1092,
    999,
    1000,
    1304,
    1303,
    1304,
    1471,
    1472,
    1051,
    1052,
    1053,
    1054,
    1106,
    1165,
    1182,
    733,
    1123,
    1123,
    1385,
    1383,
    733,
    1150,
    1151,
    1388,
    1384,
    1386,
    1388,
    1387,
    1383,
    1383,
    1385,
    1388,
    1384,
    1388,
    1386,
    1388,
    1387,
    1385,
    1383,
    1383,
    1182,
    1166,
    1167,
    1386,
    1215,
    1216,
    1147,
    747,
    748,
    1388,
    1383,
    1147,
    747,
    748,
    1182,
    731,
    732,
    1384,
    1383,
    1150,
    1151,
    1384,
    1387,
    1383,
    1385,
    1386,
    1388,
    1388,
    1093,
    1090,
    1091,
    1092,
    1,
    7,
    1122,
    1383,
    1388,
    1383,
    1388,
    1383,
    1385,
    1384,
    1386,
    1388,
    1384,
    1385,
    1387,
    1387,
    1385,
    1385,
    1385,
    1387,
    1165,
    1387,
    1384,
    1384,
    1165,
    1385,
    1385,
    1383,
    1166,
    1167,
    747,
    748,
    1199,
    1200,
    747,
    748,
    1386,
    1385,
    1387,
    1092,
    997,
    998,
    975,
    976,
    975,
    976,
    975,
    976,
    985,
    986,
    1028,
    1029,
    1030,
    1090,
    1091,
    1182,
    1108,
    977,
    978,
    979,
    1319,
    1320,
    1304,
    367,
    368,
    1068,
    1069,
    1070,
    1122,
    1123,
    1123,
    1124,
    1152,
    1074,
    1122,
    1123,
    1123,
    1166,
    1167,
    1384,
    1386,
    1385,
    1384,
    1199,
    1200,
    1386,
    1387,
    1385,
    1385,
    1384,
    731,
    732,
    1387,
    1199,
    1200,
    731,
    732,
    1387,
    731,
    732,
    1386,
    731,
    732,
    1182,
    1384,
    1386,
    1388,
    1384,
    1182,
    731,
    732,
    747,
    748,
    11,
    1385,
    1166,
    1167,
    1182,
    1384,
    1384,
    1388,
    1383,
    1385,
    1384,
    1388,
    1164,
    1385,
    1124,
    1023,
    1024,
    1,
    1121,
    1387,
    1383,
    1383,
    1387,
    1388,
    1385,
    1147,
    1388,
    1386,
    1384,
    1387,
    1385,
    1388,
    1148,
    1384,
    1385,
    1387,
    1387,
    1385,
    1385,
    1388,
    1383,
    1388,
    1164,
    1386,
    1147,
    1150,
    1151,
    1215,
    1216,
    1147,
    731,
    732,
    1388,
    1383,
    1182,
    1093,
    1,
    7,
    1075,
    1075,
    1090,
    1091,
    1092,
    1001,
    1002,
    1044,
    1089,
    1091,
    1384,
    1383,
    1385,
    1387,
    1092,
    994,
    995,
    1304,
    703,
    1303,
    1319,
    1320,
    992,
    1438,
    1439,
    1440,
    936,
    937,
    936,
    937,
    936,
    937,
    1019,
    1020,
    1122,
    927,
    1384,
    1387,
    1150,
    1151,
    1215,
    1216,
    1386,
    1383,
    1199,
    1200,
    1388,
    747,
    748,
    1388,
    1215,
    1216,
    747,
    748,
    1147,
    747,
    748,
    1182,
    747,
    748,
    1387,
    1385,
    1384,
    1384,
    1385,
    1385,
    747,
    748,
    1383,
    1182,
    1147,
    1182,
    927,
    731,
    732,
    1147,
    1388,
    1386,
    1388,
    1383,
    1385,
    1387,
    1388,
    1124,
    790,
    1039,
    1040,
    7,
    1089,
    1388,
    1383,
    1386,
    1383,
    1384,
    1388,
    1386,
    1150,
    1151,
    1383,
    1384,
    1386,
    1387,
    1388,
    1383,
    1150,
    1151,
    1385,
    1388,
    1384,
    1387,
    1388,
    1386,
    1385,
    1199,
    1200,
    1166,
    1167,
    731,
    732,
    927,
    747,
    748,
    1384,
    1383,
    1386,
    1164,
    1092,
    1090,
    1091,
    1091,
    1383,
    1150,
    1151,
    1091,
    1091,
    1091,
    1182,
    1388,
    1385,
    1386,
    1150,
    1151,
    1108,
    980,
    981,
    982,
    719,
    1319,
    1320,
    719,
    1008,
    1454,
    1455,
    1456,
    952,
    953,
    952,
    953,
    952,
    953,
    1035,
    1036,
    1037,
    1122,
    1386,
    1383,
    1166,
    1167,
    1383,
    1197,
    1198,
    927,
    1215,
    1216,
    1388,
    1384,
    1199,
    1200,
    731,
    732,
    1182,
    1182,
    731,
    732,
    1148,
    1199,
    1200,
    1384,
    1388,
    1385,
    1388,
    1383,
    1384,
    1388,
    1147,
    1386,
    1387,
    731,
    732,
    1383,
    1384,
    747,
    748,
    1384,
    1182,
    1383,
    1388,
    1383,
    1388,
    1387,
    1124,
    805,
    806,
    1055,
    8,
    1090,
    1383,
    1386,
    1383,
    1383,
    1383,
    1384,
    1182,
    1388,
    1166,
    1167,
    1385,
    1388,
    1387,
    731,
    732,
    1385,
    1166,
    1167,
    1386,
    1387,
    1388,
    1388,
    1385,
    1388,
    1388,
    1215,
    1216,
    1182,
    1386,
    747,
    748,
    1147,
    1387,
    1150,
    1151,
    1388,
    1388,
    1383,
    1383,
    1388,
    1182,
    1165,
    1388,
    1166,
    1167,
    1165,
    1148,
    1197,
    1198,
    1383,
    1388,
    1384,
    1166,
    1167,
    1387,
    1092,
    997,
    998,
    983,
    984,
    1303,
    1304,
    367,
    368,
    1471,
    1472,
    968,
    969,
    968,
    969,
    968,
    969,
    1051,
    1052,
    1053,
    1054,
    1106,
    1388,
    1182,
    1388,
    1387,
    1213,
    1214,
    1150,
    1151,
    1385,
    731,
    732,
    1215,
    1216,
    747,
    748,
    731,
    732,
    747,
    748,
    11,
    1215,
    1216,
    1182,
    1386,
    1386,
    1386,
    1147,
    1384,
    1385,
    1388,
    731,
    732,
    747,
    748,
    1147,
    1386,
    1199,
    1200,
    1182,
    1384,
    1386,
    1383,
    1384,
    1384,
    1124,
    820,
    821,
    822,
    1090,
    1091,
    1387,
    1386,
    1385,
    1387,
    1383,
    1387,
    1388,
    1387,
    927,
    731,
    732,
    1387,
    1182,
    1387,
    747,
    748,
    1197,
    1198,
    1388,
    1387,
    1387,
    1385,
    1387,
    1387,
    1386,
    1386,
    1388,
    1388,
    927,
    1386,
    1383,
    1197,
    1198,
    1182,
    1166,
    1167,
    1384,
    1384,
    1388,
    1383,
    1387,
    1384,
    1385,
    1385,
    1383,
    1385,
    1383,
    1387,
    1213,
    1214,
    1383,
    1384,
    1387,
    1384,
    1383,
    1182,
    927,
    1091,
    1092,
    999,
    1000,
    1319,
    1320,
    383,
    384,
    703,
    1303,
    1304,
    703,
    1303,
    1304,
    703,
    1303,
    1304,
    1068,
    1069,
    1070,
    1122,
    1387,
    1385,
    1386,
    731,
    732,
    1384,
    1166,
    1167,
    927,
    747,
    748,
    1147,
    927,
    1147,
    1383,
    747,
    748,
    1182,
    1147,
    731,
    732,
    1388,
    1387,
    1386,
    1384,
    731,
    732,
    1383,
    1385,
    1387,
    747,
    748,
    1383,
    731,
    732,
    1182,
    1215,
    1216,
    1150,
    1151,
    1387,
    1386,
    1387,
    1165,
    1092,
    785,
    786,
    787,
    1106,
    1163,
    1383,
    1387,
    1388,
    1384,
    1385,
    1388,
    1388,
    1386,
    1384,
    747,
    748,
    1385,
    1387,
    1388,
    1387,
    1384,
    1213,
    1214,
    1182,
    1387,
    1385,
    1385,
    1388,
    1385,
    1387,
    1384,
    1386,
    1385,
    1388,
    1388,
    1383,
    1213,
    1214,
    1388,
    1386,
    1386,
    1383,
    1386,
    1386,
    1385,
    1387,
    1387,
    1385,
    1385,
    1387,
    1385,
    1385,
    1387,
    1386,
    1387,
    1387,
    1387,
    1387,
    1383,
    1163,
    1388,
    1385,
    1388,
    1108,
    980,
    981,
    982,
    1304,
    399,
    400,
    719,
    1319,
    1320,
    719,
    1319,
    1320,
    719,
    1319,
    1320,
    1304,
    1015,
    1016,
    1017,
    1122,
    1385,
    1182,
    747,
    748,
    1182,
    1199,
    1200,
    1386,
    1182,
    1199,
    1200,
    1182,
    1385,
    1182,
    1386,
    1384,
    1182,
    1182,
    747,
    748,
    1384,
    1388,
    1383,
    1147,
    747,
    748,
    1386,
    1388,
    1387,
    1147,
    1386,
    1147,
    747,
    748,
    731,
    732,
    1182,
    1166,
    1167,
    1388,
    1388,
    1388,
    1387,
    1108,
    801,
    802,
    803,
    1106,
    1385,
    1387,
    1385,
    1383,
    1383,
    1388,
    1383,
    1383,
    1182,
    1385,
    1386,
    1182,
    1384,
    1385,
    1387,
    1387,
    1182,
    1385,
    1384,
    1387,
    1385,
    1388,
    1384,
    1386,
    1163,
    1384,
    1385,
    1387,
    1383,
    1385,
    1388,
    1387,
    1387,
    1385,
    1387,
    1384,
    1386,
    1386,
    1385,
    1383,
    1387,
    1388,
    1388,
    1385,
    1385,
    1164,
    1386,
    1383,
    1386,
    1387,
    1383,
    1387,
    1164,
    1388,
    1130,
    1126,
    1129,
    1127,
    1385,
    733,
    1092,
    997,
    998,
    975,
    976,
    985,
    986,
    987,
    988,
    975,
    976,
    975,
    976,
    983,
    984,
    703,
    1031,
    1032,
    1033,
    1034,
    1106,
    1387,
    1383,
    731,
    732,
    1215,
    1216,
    731,
    732,
    1215,
    1216,
    1383,
    1384,
    1385,
    1383,
    1384,
    1386,
    1383,
    1182,
    1387,
    1387,
    1386,
    1147,
    731,
    732,
    1199,
    1200,
    1383,
    1388,
    1387,
    1383,
    1197,
    1198,
    1383,
    747,
    748,
    1199,
    1200,
    1182,
    1386,
    1385,
    1387,
    1383,
    1108,
    817,
    818,
    819,
    1122,
    1386,
    1388,
    1384,
    1385,
    1388,
    1388,
    1388,
    1386,
    1386,
    1384,
    1384,
    1386,
    1383,
    1384,
    1387,
    1385,
    1388,
    1384,
    1383,
    1384,
    1386,
    1387,
    1388,
    1383,
    1383,
    1386,
    1386,
    1387,
    1384,
    1384,
    1387,
    1388,
    1386,
    1388,
    1383,
    1387,
    1386,
    1388,
    1387,
    1387,
    1385,
    1383,
    1388,
    1385,
    1385,
    1385,
    1383,
    1386,
    1386,
    1165,
    1387,
    1386,
    1386,
    1130,
    12,
    1087,
    1180,
    1110,
    1111,
    1387,
    1386,
    1093,
    1075,
    1075,
    1075,
    1001,
    1002,
    1003,
    1004,
    15,
    14,
    15,
    1152,
    999,
    1000,
    367,
    368,
    1048,
    1049,
    1050,
    1122,
    1387,
    1387,
    747,
    748,
    927,
    1385,
    747,
    748,
    1383,
    1388,
    1387,
    1388,
    1385,
    1383,
    1384,
    1386,
    1388,
    1383,
    1385,
    1388,
    1388,
    1388,
    747,
    748,
    1215,
    1216,
    1386,
    1387,
    1384,
    1383,
    1213,
    1214,
    1388,
    731,
    732,
    1215,
    1216,
    731,
    732,
    1384,
    1387,
    1387,
    1124,
    836,
    837,
    838,
    2,
    1122,
    1383,
    1165,
    1386,
    1387,
    1386,
    1384,
    1385,
    1385,
    1165,
    1385,
    1386,
    1385,
    1383,
    1384,
    1386,
    1387,
    1383,
    1385,
    1388,
    1387,
    1387,
    1385,
    1383,
    1386,
    1387,
    1387,
    1385,
    1388,
    1383,
    1384,
    1383,
    1385,
    1386,
    1387,
    1384,
    1387,
    1384,
    1387,
    1387,
    1385,
    1385,
    1385,
    1386,
    1386,
    1383,
    1384,
    1385,
    1384,
    1387,
    1383,
    1386,
    1388,
    1098,
    1117,
    1086,
    1087,
    1094,
    1164,
    1386,
    1386,
    927,
    1091,
    1091,
    1091,
    1092,
    1152,
    15,
    16,
    31,
    32,
    31,
    32,
    929,
    930,
    383,
    384,
    992,
    1015,
    1016,
    1017,
    1122,
    1384,
    1384,
    1388,
    1385,
    1385,
    1388,
    1386,
    1387,
    1165,
    1147,
    731,
    732,
    1383,
    1388,
    1383,
    1388,
    1386,
    1165,
    1385,
    1387,
    1387,
    1385,
    1385,
    731,
    732,
    1182,
    1388,
    1383,
    1388,
    731,
    732,
    1388,
    747,
    748,
    1182,
    1147,
    747,
    748,
    1386,
    1384,
    1385,
    1092,
    7,
    853,
    854,
    839,
    840,
    1121,
    1387,
    1386,
    1387,
    1388,
    1386,
    1388,
    1384,
    1383,
    1387,
    1385,
    1147,
    1385,
    1388,
    1387,
    1387,
    1385,
    1388,
    1387,
    1387,
    1385,
    1388,
    1384,
    1387,
    1386,
    1387,
    1386,
    1385,
    1384,
    1387,
    1385,
    1384,
    1383,
    1388,
    1385,
    1387,
    1387,
    1387,
    1386,
    1385,
    1388,
    1388,
    731,
    732,
    1182,
    1383,
    1385,
    1383,
    1386,
    1387,
    1383,
    1383,
    1165,
    1097,
    1080,
    1094,
    11,
    1383,
    1387,
    1383,
    1182,
    1147,
    1150,
    1151,
    733,
    1093,
    31,
    32,
    1090,
    1091,
    1092,
    1,
    945,
    946,
    399,
    400,
    1008,
    1031,
    1032,
    1033,
    1034,
    1106,
    1388,
    1383,
    1383,
    1147,
    1148,
    1387,
    1182,
    1150,
    1151,
    747,
    748,
    733,
    1383,
    1386,
    1387,
    1388,
    1386,
    1386,
    1388,
    1387,
    731,
    732,
    747,
    748,
    1197,
    1198,
    1385,
    1384,
    747,
    748,
    1387,
    1199,
    1200,
    731,
    732,
    1147,
    1386,
    1386,
    1386,
    1387,
    1165,
    1091,
    1091,
    1092,
    855,
    856,
    1105,
    1106,
    1384,
    1387,
    1385,
    1387,
    1387,
    1385,
    1386,
    1387,
    1383,
    1386,
    1383,
    1384,
    1383,
    1384,
    1387,
    1388,
    1384,
    1165,
    1383,
    1383,
    1383,
    1388,
    1383,
    1383,
    1383,
    1388,
    1165,
    1384,
    1387,
    1387,
    1387,
    1384,
    1383,
    1385,
    1388,
    1384,
    1387,
    1383,
    1383,
    1386,
    747,
    748,
    731,
    732,
    1387,
    1383,
    1388,
    1385,
    1383,
    1384,
    1384,
    1385,
    1096,
    1163,
    1387,
    1384,
    1383,
    1386,
    1387,
    1383,
    1166,
    1167,
    1385,
    1383,
    1091,
    1091,
    1386,
    1165,
    1383,
    1092,
    961,
    962,
    1303,
    1303,
    1304,
    1047,
    1048,
    1049,
    1050,
    1122,
    1386,
    1387,
    731,
    732,
    1147,
    733,
    1148,
    1166,
    1167,
    1199,
    1200,
    1387,
    731,
    732,
    1383,
    1385,
    1385,
    1383,
    731,
    732,
    747,
    748,
    1199,
    1200,
    1213,
    1214,
    1386,
    1387,
    1384,
    731,
    732,
    1215,
    1216,
    747,
    748,
    1388,
    1385,
    1384,
    1384,
    1386,
    1387,
    1388,
    1386,
    1108,
    836,
    837,
    838,
    1122,
    1384,
    1388,
    1388,
    1388,
    1384,
    1384,
    1383,
    1383,
    1387,
    1384,
    1384,
    1383,
    1384,
    1383,
    1384,
    1384,
    1385,
    1384,
    1385,
    1386,
    1383,
    1388,
    1384,
    1383,
    1387,
    1384,
    1386,
    1384,
    1384,
    1387,
    1388,
    1386,
    1385,
    1165,
    1383,
    1384,
    1388,
    1385,
    1182,
    1383,
    927,
    1384,
    747,
    748,
    1388,
    1386,
    1386,
    1387,
    1383,
    1388,
    1385,
    1383,
    1387,
    1385,
    1384,
    1384,
    1385,
    1385,
    1384,
    1387,
    1387,
    1388,
    1383,
    1386,
    1165,
    1147,
    1387,
    1385,
    1385,
    1108,
    929,
    930,
    992,
    1319,
    1320,
    367,
    368,
    941,
    942,
    1,
    1121,
    1387,
    747,
    748,
    731,
    732,
    11,
    731,
    732,
    1215,
    1216,
    1388,
    747,
    748,
    1388,
    1383,
    1384,
    1383,
    747,
    748,
    1150,
    1151,
    1215,
    1216,
    1385,
    1386,
    1197,
    1198,
    1384,
    747,
    748,
    1388,
    731,
    732,
    1384,
    733,
    1182,
    1384,
    1384,
    1383,
    1386,
    1387,
    1384,
    1385,
    1092,
    853,
    854,
    839,
    1122,
    1163,
    1388,
    1386,
    1385,
    1384,
    1384,
    1387,
    1384,
    1388,
    1385,
    1387,
    1384,
    1386,
    1384,
    1387,
    1384,
    1384,
    1387,
    1383,
    1383,
    1388,
    1387,
    1388,
    1164,
    1383,
    1384,
    1388,
    1387,
    1383,
    1386,
    1384,
    1386,
    1386,
    1387,
    1385,
    1385,
    1385,
    1383,
    1386,
    1384,
    1388,
    1147,
    1384,
    1182,
    1388,
    1386,
    1388,
    1387,
    1383,
    1384,
    1387,
    1388,
    1386,
    1388,
    1384,
    1385,
    1384,
    1388,
    1383,
    1388,
    1387,
    1387,
    1383,
    1385,
    1387,
    1384,
    1164,
    733,
    1108,
    945,
    946,
    1008,
    1304,
    703,
    383,
    384,
    957,
    958,
    1152,
    1105,
    1106,
    1387,
    1147,
    747,
    748,
    1148,
    747,
    748,
    733,
    927,
    11,
    1199,
    1200,
    1384,
    1386,
    1388,
    11,
    1197,
    1198,
    1166,
    1167,
    1147,
    1182,
    731,
    732,
    1213,
    1214,
    1199,
    1200,
    1387,
    1147,
    747,
    748,
    1199,
    1200,
    1147,
    11,
    1182,
    1385,
    1387,
    1383,
    1383,
    1164,
    1387,
    1093,
    1,
    855,
    856,
    1121,
    1383,
    1386,
    1383,
    1387,
    1386,
    1386,
    1384,
    1385,
    1383,
    1386,
    1388,
    1383,
    1386,
    1383,
    1386,
    1385,
    1386,
    1386,
    1385,
    1386,
    1385,
    1386,
    1386,
    1386,
    1388,
    1386,
    1383,
    1384,
    1385,
    1388,
    1386,
    1386,
    1383,
    1386,
    1387,
    1384,
    1387,
    1386,
    1385,
    1386,
    1383,
    1388,
    1383,
    1387,
    1164,
    1388,
    1384,
    1383,
    1387,
    1386,
    1385,
    1387,
    1387,
    1384,
    1383,
    1387,
    1384,
    1386,
    1384,
    1388,
    1384,
    1383,
    1386,
    1383,
    1384,
    1386,
    1385,
    1124,
    961,
    962,
    1319,
    1320,
    1304,
    703,
    1304,
    973,
    974,
    15,
    1105,
    1106,
    1384,
    1387,
    1148,
    731,
    732,
    1199,
    1200,
    1148,
    1150,
    1151,
    1215,
    1216,
    1388,
    1386,
    731,
    732,
    1213,
    1214,
    1147,
    1199,
    1200,
    1387,
    747,
    748,
    1383,
    1182,
    1215,
    1216,
    1147,
    11,
    1199,
    1200,
    1215,
    1216,
    731,
    732,
    927,
    1147,
    1385,
    1384,
    1386,
    1386,
    1386,
    1387,
    1092,
    785,
    786,
    787,
    1106,
    1384,
    1388,
    1383,
    1164,
    1387,
    1386,
    1383,
    1384,
    1387,
    1384,
    1383,
    1383,
    1387,
    1387,
    1386,
    1388,
    1385,
    1383,
    1387,
    1383,
    1384,
    1387,
    1384,
    1385,
    1386,
    1386,
    1388,
    1386,
    1385,
    1383,
    1386,
    1387,
    1387,
    1384,
    1383,
    1385,
    1383,
    1384,
    1386,
    1384,
    1387,
    1383,
    1386,
    1388,
    1387,
    1385,
    1383,
    1384,
    1386,
    1386,
    1385,
    702,
    1385,
    1388,
    1383,
    1384,
    1384,
    1388,
    1388,
    1386,
    1387,
    1385,
    1383,
    1388,
    1388,
    1125,
    1,
    929,
    930,
    383,
    1304,
    1304,
    719,
    1320,
    941,
    942,
    31,
    32,
    1122,
    1387,
    1388,
    11,
    747,
    748,
    1215,
    1216,
    927,
    1166,
    1167,
    1388,
    1384,
    1164,
    1387,
    747,
    748,
    1386,
    731,
    732,
    1215,
    1216,
    1388,
    1383,
    927,
    1199,
    1200,
    1147,
    1150,
    1151
   ]
  },
  {
   "id": 2,
   "name": "spawns",
   "type": "objectgroup",
   "x": 0,
   "y": 0,
   "width": 0,
   "height": 0,
   "opacity": 1,
   "visible": true,
   "draworder": "topdown",
   "objects": [
    {
     "height": 0,
     "id": 1,
     "name": "edge-1",
     "point": true,
     "rotation": 0,
     "type": "",
     "visible": true,
     "width": 0,
     "x": 2020,
     "y": 60
    },
    {
     "height": 0,
     "id": 2,
     "name": "edge-2",
     "point": true,
     "rotation": 0,
     "type": "",
     "visible": true,
     "width": 0,
     "x": 60,
     "y": 1820
    },
    {
     "height": 0,
     "id": 3,
     "name": "edge-3",
     "point": true,
     "rotation": 0,
     "type": "",
     "visible": true,
     "width": 0,
     "x": 5060,
     "y": 2940
    },
    {
     "height": 0,
     "id": 4,
     "name": "edge-4",
     "point": true,
     "rotation": 0,
     "type": "",
     "visible": true,
     "width": 0,
     "x": 2860,
     "y": 5060
    }
   ]
  },
  {
   "id": 3,
   "name": "collision",
   "type": "tilelayer",
   "x": 0,
   "y": 0,
   "width": 128,
   "height": 128,
   "opacity": 1,
   "visible": false,
   "data": [
    1552,
    1552,
    1552,
    1552,
    1552,
    1552,
    0,
    1552,
    1552,
    0,
    1552,
    1552,
    1552,
    0,
    0,
    0,
    1552,
    1552,
    0,
    0,
    0,
    0,
    0,
    1552,
    1552,
    0,
    0,
    1552,
    1552,
    0,
    1552,
    1552,
    0,
    0,
    0,
    0,
    0,
    1552,
    0,
    0,
    0,
    0,
    0,
    0,
    0,
    0,
    0,
    0,
    0,
    0,
    1552,
    0,
    0,
    0,
    0,
    0,
    0,
    0,
    1552,
    1552,
    0,
    1552,
    1552,
    0,
    1552,
    0,
    0,
    0,
    1552,
    0,
    0,
    0,
    1552,
    1552,
    1552,
    0,
    1552,
    1552,
    1552,
    1552,
    1552,
    1552,
    0,
    0,
    0,
    0,
    0,
    0,
    0,
    0,
    0,
    0,
    0,
    0,
    0,
    0,
    0,
    1552,
    1552,
    0,
    0,
    0,
    1552,
    1552,
    1552,
    1552,
    1552,
    1552,
    1552,
    1552,
    0,
    0,
    0,
    0,
    0,
    0,
    0,
    0,
    0,
    0,
    0,
    0,
    0,
    0,
    0,
    0,
    0,
    0,
    0,
    1552,
    1552,
    1552,
    1552,
    1552,
    1552,
    1552,
    1552,
    1552,
    1552,
    1552,
    0,
    0,
    0,
    0,
    1552,
    1552,
    0,
    0,
    0,
    0,
    1552,
    1552,
    1552,
    0,
    0,
    1552,
    1552,
    0,
    1552,
    1552,
    0,
    1552,
    0,
    0,
    1552,
    1552,
    1552,
    0,
    1552,
    0,
    0,
    0,
    0,
    0,
    0,
    0,
    0,
    0,
    0,
    0,
    0,
    1552,
    1552,
    1552,
    0,
    0,
    1552,
    1552,
    0,
    1552,
    1552,
    0,
    1552,
    1552,
    0,
    0,
    0,
    0,
    0,
    0,
    0,
    1552,
    0,
    1552,
    1552,
    1552,
    1552,
    1552,
    1552,
    1552,
    0,
    0,
    0,
    0,
    1552,
    0,
    0,
    0,
    0,
    0,
    0,
    0,
    0,
    0,
    0,
    0,
    0,
    0,
    0,
    0,
    0,
    1552,
    1552,
    1552,
    1552,
    1552,
    1552,
    0,
    1552,
    0,
    0,
    0,
    0,
    0,
    0,
    0,
    0,
    0,
    0,
    0,
    0,
    0,
    0,
    0,
    0,
    0,
    0,
    0,
    0,
    0,
    1552,
    1552,
    1552,
    1552,
    1552,
    0,
    1552,
    1552,
    0,
    0,
    0,
    0,
    0,
    0,
    0,
    0,
    1552,
    1552,
    0,
    0,
    0,
    0,
    0,
    1552,
    0,
    0,
    1552,
    1552,
    0,
    0,
    0,
    1552,
    1552,
    1552,
    1552,
    1552,
    0,
    0,
    0,
    0,
    0,
    0,
    0,
    0,
    0,
    0,
    0,
    0,
    0,
    1552,
    1552,
    1552,
    1552,
    0,
    1552,
    1552,
    0,
    1552,
    1552,
    0,
    1552,
    1552,
    0,
    0,
    0,
    0,
    1552,
    1552,
    1552,
    1552,
    1552,
    1552,
    1552,
    1552,
    1552,
    1552,
    0,
    0,
    0,
    0,
    1552,
    1552,
    1552,
    1552,
    1552,
    1552,
    1552,
    0,
    0,
    0,
    0,
    0,
    0,
    0,
    0,
    0,
    0,
    0,
    0,
    0,
    1552,
    0,
    1552,
    1552,
    1552,
    1552,
    0,
    0,
    0,
    0,
    0,
    0,
    0,
    0,
    0,
    0,
    0,
    0,
    0,
    0,
    0,
    0,
    0,
    0,
    1552,
    1552,
    0,
    0,
    0,
    0,
    1552,
    1552,
    0,
    0,
    0,
    0,
    0,
    0,
    0,
    0,
    1552,
    0,
    0,
    1552,
    1552,
    0,
    0,
    0,
    0,
    0,
    1552,
    0,
    0,
    0,
    1552,
    0,
    0,
    0,
    0,
    1552,
    1552,
    1552,
    1552,
    1552,
    0,
    0,
    0,
    0,
    0,
    0,
    0,
    0,
    0,
    0,
    0,
    0,
    1552,
    1552,
    1552,
    1552,
    1552,
    0,
    1552,
    1552,
    0,
    1552,
    1552,
    0,
    1552,
    1552,
    0,
    0,
    0,
    0,
    1552,
    1552,
    1552,
    1552,
    1552,
    1552,
    1552,
    1552,
    1552,
    0,
    0,
    0,
    0,
    1552,
    0,
    0,
    0,
    0,
    0,
    0,
    0,
    1552,
    0,
    0,
    1552,
    1552,
    1552,
    0,
    1552,
    1552,
    1552,
    0,
    0,
    0,
    0,
    1552,
    1552,
    1552,
    1552,
    0,
    0,
    0,
    0,
    0,
    0,
    0,
    0,
    0,
    0,
    0,
    0,
    0,
    0,
    0,
    0,
    0,
    0,
    0,
    1552,
    1552,
    1552,
    0,
    0,
    0,
    0,
    0,
    0,
    1552,
    0,
    0,
    0,
    0,
    0,
    0,
    1552,
    1552,
    1552,
    0,
    0,
    0,
    0,
    1552,
    0,
    0,
    0,
    0,
    0,
    1552,
    1552,
    0,
    0,
    0,
    0,
    1552,
    1552,
    1552,
    1552,
    0,
    0,
    0,
    0,
    0,
    0,
    0,
    0,
    0,
    0,
    1552,
    0,
    1552,
    1552,
    1552,
    1552,
    1552,
    1552,
    0,
    1552,
    0,
    0,
    1552,
    1552,
    0,
    1552,
    1552,
    0,
    0,
    1552,
    0,
    1552,
    1552,
    0,
    1552,
    1552,
    1552,
    1552,
    0,
    0,
    0,
    0,
    1552,
    1552,
    0,
    0,
    0,
    0,
    0,
    0,
    0,
    0,
    1552,
    0,
    0,
    0,
    1552,
    1552,
    1552,
    1552,
    1552,
    1552,
    1552,
    1552,
    0,
    0,
    0,
    0,
    1552,
    0,
    0,
    0,
    0,
    0,
    0,
    0,
    0,
    0,
    0,
    0,
    0,
    0,
    0,
    0,
    0,
    0,
    0,
    0,
    0,
    1552,
    1552,
    1552,
    1552,
    1552,
    1552,
    0,
    0,
    0,
    0,
    0,
    0,
    0,
    0,
    0,
    1552,
    1552,
    1552,
    0,
    0,
    0,
    0,
    1552,
    1552,
    0,
    0,
    0,
    1552,
    1552,
    1552,
    0,
    0,
    0,
    1552,
    1552,
    0,
    0,
    1552,
    1552,
    0,
    0,
    0,
    0,
    0,
    0,
    0,
    0,
    0,
    0,
    0,
    1552,
    1552,
    1552,
    1552,
    0,
    0,
    0,
    1552,
    1552,
    0,
    0,
    1552,
    1552,
    0,
    1552,
    1552,
    0,
    0,
    0,
    1552,
    1552,
    1552,
    1552,
    1552,
    1552,
    1552,
    1552,
    0,
    0,
    0,
    1552,
    0,
    0,
    0,
    0,
    0,
    0,
    0,
    0,
    0,
    0,
    0,
    1552,
    1552,
    0,
    0,
    0,
    1552,
    1552,
    1552,
    1552,
    1552,
    1552,
    1552,
    0,
    0,
    0,
    0,
    0,
    0,
    0,
    0,
    0,
    0,
    0,
    0,
    0,
    0,
    0,
    0,
    0,
    0,
    0,
    0,
    0,
    0,
    0,
    0,
    0,
    1552,
    1552,
    1552,
    0,
    1552,
    0,
    1552,
    0,
    0,
    0,
    1552,
    0,
    0,
    1552,
    0,
    0,
    0,
    0,
    0,
    0,
    1552,
    1552,
    0,
    0,
    0,
    0,
    1552,
    1552,
    0,
    0,
    0,
    1552,
    1552,
    1552,
    1552,
    0,
    0,
    0,
    0,
    0,
    1552,
    1552,
    1552,
    0,
    1552,
    0,
    0,
    0,
    0,
    0,
    1552,
    0,
    0,
    0,
    0,
    1552,
    1552,
    0,
    0,
    0,
    1552,
    1552,
    0,
    1552,
    1552,
    0,
    0,
    0,
    1552,
    1552,
    1552,
    1552,
    1552,
    1552,
    1552,
    0,
    0,
    1552,
    1552,
    0,
    0,
    0,
    0,
    1552,
    1552,
    1552,
    1552,
    1552,
    0,
    1552,
    0,
    0,
    0,
    1552,
    0,
    0,
    0,
    1552,
    1552,
    1552,
    0,
    1552,
    1552,
    1552,
    0,
    0,
    0,
    0,
    0,
    0,
    0,
    0,
    0,
    0,
    0,
    0,
    0,
    0,
    0,
    0,
    0,
    0,
    0,
    0,
    0,
    0,
    0,
    0,
    0,
    0,
    0,
    0,
    0,
    0,
    0,
    0,
    0,
    1552,
    1552,
    0,
    0,
    0,
    0,
    0,
    0,
    0,
    1552,
    1552,
    0,
    0,
    0,
    0,
    0,
    1552,
    0,
    0,
    0,
    0,
    1552,
    1552,
    1552,
    1552,
    1552,
    0,
    0,
    0,
    0,
    1552,
    0,
    1552,
    1552,
    1552,
    1552,
    0,
    0,
    0,
    0,
    0,
    0,
    0,
    0,
    1552,
    1552,
    1552,
    0,
    0,
    0,
    0,
    1552,
    0,
    0,
    1552,
    1552,
    0,
    0,
    0,
    0,
    1552,
    1552,
    1552,
    1552,
    1552,
    0,
    0,
    1552,
    0,
    0,
    0,
    0,
    0,
    1552,
    0,
    0,
    0,
    0,
    0,
    1552,
    0,
    0,
    0,
    0,
    1552,
    0,
    0,
    0,
    0,
    0,
    0,
    1552,
    1552,
    1552,
    1552,
    1552,
    0,
    0,
    0,
    0,
    0,
    0,
    0,
    0,
    0,
    0,
    0,
    0,
    0,
    0,
    0,
    0,
    0,
    0,
    0,
    0,
    0,
    0,
    1552,
    1552,
    1552,
    1552,
    1552,
    1552,
    1552,
    1552,
    1552,
    1552,
    1552,
    0,
    0,
    0,
    0,
    0,
    0,
    0,
    1552,
    1552,
    0,
    0,
    0,
    0,
    0,
    0,
    0,
    0,
    0,
    0,
    1552,
    1552,
    1552,
    1552,
    1552,
    0,
    0,
    0,
    0,
    0,
    1552,
    1552,
    1552,
    1552,
    1552,
    1552,
    1552,
    0,
    0,
    0,
    0,
    0,
    0,
    1552,
    0,
    0,
    0,
    0,
    0,
    0,
    1552,
    1552,
    0,
    0,
    1552,
    0,
    0,
    1552,
    0,
    1552,
    1552,
    0,
    1552,
    1552,
    0,
    0,
    0,
    1552,
    0,
    0,
    0,
    0,
    0,
    1552,
    0,
    0,
    0,
    0,
    0,
    1552,
    0,
    0,
    0,
    0,
    0,
    1552,
    1552,
    1552,
    1552,
    0,
    0,
    0,
    0,
    1552,
    1552,
    1552,
    0,
    1552,
    0,
    0,
    0,
    0,
    0,
    0,
    0,
    0,
    0,
    0,
    0,
    0,
    0,
    0,
    0,
    0,
    0,
    0,
    0,
    0,
    1552,
    1552,
    1552,
    1552,
    1552,
    1552,
    1552,
    1552,
    0,
    0,
    0,
    0,
    0,
    0,
    0,
    0,
    1552,
    1552,
    0,
    0,
    0,
    0,
    0,
    1552,
    0,
    0,
    0,
    0,
    0,
    0,
    0,
    0,
    0,
    0,
    0,
    0,
    0,
    0,
    1552,
    1552,
    1552,
    1552,
    1552,
    1552,
    1552,
    1552,
    0,
    0,
    0,
    0,
    0,
    0,
    0,
    0,
    1552,
    0,
    0,
    0,
    0,
    1552,
    1552,
    0,
    0,
    1552,
    1552,
    0,
    0,
    0,
    1552,
    1552,
    1552,
    0,
    0,
    0,
    0,
    0,
    0,
    0,
    0,
    0,
    0,
    0,
    1552,
    1552,
    0,
    0,
    0,
    0,
    0,
    1552,
    1552,
    0,
    0,
    0,
    0,
    0,
    0,
    0,
    0,
    1552,
    0,
    0,
    0,
    1552,
    1552,
    1552,
    1552,
    0,
    0,
    0,
    0,
    0,
    0,
    0,
    0,
    0,
    0,
    0,
    0,
    0,
    0,
    0,
    0,
    0,
    0,
    0,
    0,
    0,
    0,
    0,
    0,
    0,
    0,
    0,
    0,
    0,
    0,
    0,
    0,
    1552,
    1552,
    1552,
    1552,
    1552,
    1552,
    0,
    0,
    0,
    0,
    0,
    1552,
    1552,
    0,
    0,
    0,
    0,
    0,
    0,
    0,
    0,
    0,
    0,
    0,
    0,
    0,
    1552,
    1552,
    1552,
    1552,
    1552,
    1552,
    1552,
    1552,
    1552,
    1552,
    0,
    0,
    0,
    0,
    0,
    0,
    1552,
    1552,
    0,
    0,
    0,
    1552,
    0,
    0,
    0,
    1552,
    1552,
    0,
    0,
    0,
    1552,
    1552,
    1552,
    0,
    0,
    1552,
    1552,
    1552,
    0,
    1552,
    1552,
    0,
    1552,
    0,
    0,
    1552,
    1552,
    0,
    0,
    1552,
    1552,
    0,
    0,
    1552,
    0,
    0,
    0,
    0,
    0,
    1552,
    1552,
    0,
    1552,
    0,
    0,
    0,
    0,
    1552,
    1552,
    1552,
    0,
    0,
    0,
    0,
    0,
    0,
    0,
    0,
    0,
    0,
    0,
    0,
    0,
    0,
    0,
    0,
    0,
    0,
    0,
    0,
    0,
    1552,
    1552,
    1552,
    1552,
    1552,
    1552,
    1552,
    1552,
    1552,
    1552,
    1552,
    1552,
    1552,
    1552,
    0,
    0,
    0,
    0,
    0,
    0,
    1552,
    1552,
    1552,
    0,
    0,
    0,
    0,
    0,
    0,
    0,
    0,
    0,
    0,
    0,
    1552,
    0,
    1552,
    0,
    1552,
    1552,
    1552,
    1552,
    0,
    1552,
    0,
    0,
    0,
    1552,
    0,
    0,
    0,
    0,
    1552,
    1552,
    0,
    0,
    0,
    0,
    0,
    0,
    0,
    1552,
    0,
    0,
    0,
    0,
    1552,
    1552,
    0,
    0,
    0,
    1552,
    1552,
    1552,
    1552,
    0,
    1552,
    1552,
    0,
    0,
    0,
    0,
    1552,
    1552,
    0,
    1552,
    1552,
    1552,
    1552,
    0,
    0,
    1552,
    1552,
    0,
    0,
    0,
    0,
    0,
    1552,
    0,
    1552,
    1552,
    0,
    0,
    0,
    0,
    1552,
    0,
    0,
    0,
    0,
    0,
    0,
    0,
    0,
    0,
    0,
    0,
    0,
    0,
    0,
    0,
    0,
    0,
    0,
    0,
    0,
    0,
    1552,
    1552,
    1552,
    1552,
    1552,
    1552,
    1552,
    1552,
    1552,
    0,
    0,
    0,
    0,
    0,
    0,
    0,
    0,
    0,
    0,
    1552,
    1552,
    1552,
    0,
    0,
    1552,
    0,
    1552,
    0,
    0,
    1552,
    0,
    0,
    0,
    0,
    0,
    1552,
    1552,
    1552,
    1552,
    0,
    0,
    0,
    0,
    0,
    0,
    0,
    1552,
    1552,
    0,
    0,
    0,
    0,
    1552,
    0,
    0,
    0,
    0,
    0,
    0,
    0,
    0,
    0,
    0,
    0,
    0,
    1552,
    1552,
    1552,
    0,
    0,
    1552,
    1552,
    1552,
    1552,
    0,
    0,
    1552,
    1552,
    0,
    0,
    0,
    0,
    0,
    0,
    0,
    1552,
    1552,
    1552,
    1552,
    1552,
    0,
    0,
    0,
    1552,
    0,
    0,
    0,
    0,
    1552,
    0,
    0,
    0,
    1552,
    0,
    0,
    1552,
    1552,
    1552,
    1552,
    0,
    0,
    0,
    0,
    0,
    0,
    0,
    0,
    0,
    0,
    0,
    0,
    0,
    0,
    0,
    0,
    0,
    0,
    0,
    0,
    0,
    0,
    0,
    0,
    0,
    0,
    0,
    0,
    0,
    0,
    0,
    0,
    0,
    1552,
    1552,
    1552,
    1552,
    1552,
    1552,
    0,
    0,
    0,
    0,
    1552,
    1552,
    0,
    0,
    0,
    0,
    0,
    0,
    0,
    0,
    0,
    1552,
    1552,
    0,
    0,
    0,
    0,
    1552,
    1552,
    1552,
    1552,
    1552,
    1552,
    0,
    0,
    0,
    0,
    1552,
    0,
    0,
    0,
    0,
    0,
    0,
    0,
    1552,
    0,
    0,
    0,
    0,
    0,
    0,
    0,
    0,
    0,
    1552,
    1552,
    1552,
    1552,
    1552,
    0,
    0,
    0,
    1552,
    1552,
    0,
    0,
    0,
    0,
    1552,
    0,
    0,
    0,
    1552,
    1552,
    1552,
    1552,
    0,
    0,
    1552,
    0,
    0,
    0,
    0,
    0,
    1552,
    1552,
    0,
    1552,
    0,
    0,
    0,
    1552,
    1552,
    0,
    0,
    0,
    0,
    0,
    0,
    0,
    0,
    0,
    0,
    0,
    0,
    0,
    0,
    0,
    0,
    0,
    0,
    0,
    0,
    1552,
    1552,
    1552,
    1552,
    1552,
    1552,
    1552,
    1552,
    1552,
    1552,
    1552,
    1552,
    1552,
    1552,
    1552,
    1552,
    1552,
    0,
    0,
    0,
    0,
    1552,
    1552,
    1552,
    1552,
    1552,
    1552,
    0,
    0,
    0,
    0,
    0,
    1552,
    0,
    0,
    0,
    0,
    0,
    1552,
    1552,
    1552,
    1552,
    1552,
    1552,
    0,
    0,
    0,
    0,
    0,
    0,
    0,
    1552,
    0,
    0,
    0,
    0,
    1552,
    1552,
    1552,
    1552,
    0,
    0,
    0,
    1552,
    1552,
    1552,
    1552,
    0,
    0,
    1552,
    1552,
    1552,
    1552,
    1552,
    1552,
    0,
    0,
    1552,
    1552,
    0,
    0,
    0,
    1552,
    1552,
    0,
    0,
    0,
    1552,
    1552,
    1552,
    1552,
    1552,
    0,
    0,
    1552,
    1552,
    1552,
    1552,
    0,
    0,
    0,
    1552,
    0,
    1552,
    1552,
    0,
    0,
    1552,
    1552,
    0,
    0,
    0,
    0,
    0,
    0,
    0,
    0,
    0,
    0,
    0,
    0,
    0,
    0,
    0,
    0,
    0,
    0,
    0,
    1552,
    1552,
    1552,
    1552,
    1552,
    1552,
    1552,
    1552,
    1552,
    1552,
    1552,
    1552,
    0,
    0,
    0,
    0,
    0,
    0,
    0,
    0,
    0,
    1552,
    1552,
    1552,
    1552,
    1552,
    0,
    0,
    0,
    0,
    0,
    0,
    0,
    0,
    1552,
    0,
    0,
    1552,
    1552,
    0,
    0,
    0,
    0,
    0,
    0,
    0,
    0,
    0,
    0,
    0,
    1552,
    0,
    0,
    1552,
    1552,
    1552,
    1552,
    1552,
    1552,
    0,
    0,
    0,
    1552,
    1552,
    1552,
    1552,
    1552,
    0,
    0,
    1552,
    1552,
    1552,
    0,
    1552,
    1552,
    0,
    0,
    0,
    1552,
    1552,
    0,
    0,
    1552,
    1552,
    0,
    0,
    0,
    1552,
    1552,
    1552,
    1552,
    1552,
    0,
    0,
    0,
    1552,
    0,
    0,
    1552,
    0,
    0,
    1552,
    0,
    0,
    0,
    1552,
    0,
    1552,
    0,
    0,
    0,
    0,
    0,
    0,
    0,
    0,
    0,
    0,
    0,
    0,
    0,
    0,
    0,
    0,
    0,
    0,
    0,
    0,
    0,
    0,
    0,
    0,
    0,
    0,
    0,
    0,
    0,
    0,
    0,
    0,
    0,
    0,
    0,
    0,
    0,
    0,
    0,
    1552,
    1552,
    1552,
    1552,
    1552,
    1552,
    1552,
    1552,
    0,
    0,
    0,
    0,
    0,
    0,
    1552,
    1552,
    0,
    0,
    1552,
    0,
    0,
    0,
    0,
    0,
    0,
    0,
    0,
    0,
    0,
    0,
    0,
    0,
    0,
    1552,
    1552,
    0,
    0,
    0,
    0,
    0,
    0,
    0,
    0,
    1552,
    1552,
    1552,
    0,
    0,
    0,
    1552,
    1552,
    1552,
    0,
    1552,
    1552,
    1552,
    1552,
    0,
    0,
    0,
    0,
    0,
    0,
    1552,
    1552,
    0,
    0,
    0,
    0,
    1552,
    1552,
    1552,
    0,
    1552,
    0,
    0,
    0,
    0,
    0,
    1552,
    0,
    0,
    1552,
    1552,
    0,
    1552,
    1552,
    0,
    0,
    0,
    0,
    0,
    0,
    0,
    0,
    0,
    0,
    0,
    0,
    0,
    0,
    0,
    0,
    0,
    0,
    0,
    0,
    0,
    0,
    0,
    0,
    0,
    0,
    0,
    0,
    0,
    0,
    0,
    1552,
    0,
    0,
    1552,
    1552,
    0,
    1552,
    0,
    0,
    0,
    1552,
    1552,
    1552,
    1552,
    1552,
    1552,
    1552,
    0,
    0,
    0,
    0,
    1552,
    0,
    1552,
    1552,
    1552,
    0,
    1552,
    1552,
    0,
    0,
    1552,
    0,
    1552,
    0,
    0,
    1552,
    0,
    0,
    0,
    0,
    0,
    1552,
    0,
    0,
    0,
    0,
    0,
    0,
    0,
    1552,
    0,
    1552,
    1552,
    1552,
    1552,
    1552,
    0,
    0,
    0,
    0,
    0,
    0,
    0,
    0,
    0,
    0,
    0,
    0,
    0,
    0,
    0,
    0,
    1552,
    1552,
    0,
    0,
    0,
    0,
    0,
    1552,
    0,
    0,
    1552,
    1552,
    1552,
    0,
    0,
    0,
    1552,
    1552,
    0,
    1552,
    1552,
    0,
    1552,
    1552,
    0,
    0,
    0,
    1552,
    0,
    0,
    0,
    0,
    0,
    0,
    0,
    0,
    0,
    0,
    0,
    0,
    0,
    0,
    0,
    0,
    0,
    0,
    1552,
    1552,
    1552,
    1552,
    0,
    1552,
    1552,
    1552,
    0,
    0,
    1552,
    0,
    0,
    0,
    1552,
    0,
    0,
    0,
    1552,
    0,
    1552,
    1552,
    1552,
    1552,
    1552,
    1552,
    0,
    0,
    0,
    0,
    0,
    1552,
    1552,
    1552,
    0,
    0,
    1552,
    1552,
    0,
    0,
    1552,
    1552,
    0,
    0,
    1552,
    1552,
    0,
    0,
    0,
    0,
    1552,
    0,
    0,
    0,
    0,
    0,
    1552,
    1552,
    1552,
    1552,
    0,
    0,
    1552,
    1552,
    1552,
    1552,
    0,
    0,
    0,
    1552,
    1552,
    1552,
    0,
    1552,
    1552,
    1552,
    0,
    0,
    0,
    0,
    0,
    0,
    1552,
    1552,
    0,
    0,
    0,
    0,
    0,
    0,
    1552,
    1552,
    1552,
    1552,
    1552,
    1552,
    0,
    0,
    1552,
    0,
    0,
    1552,
    1552,
    0,
    1552,
    1552,
    0,
    0,
    0,
    0,
    1552,
    1552,
    0,
    1552,
    0,
    0,
    0,
    0,
    0,
    0,
    0,
    0,
    0,
    0,
    0,
    0,
    0,
    0,
    1552,
    1552,
    0,
    1552,
    1552,
    1552,
    1552,
    1552,
    1552,
    1552,
    0,
    0,
    0,
    0,
    0,
    0,
    0,
    0,
    0,
    0,
    0,
    0,
    0,
    0,
    1552,
    1552,
    0,
    0,
    0,
    0,
    0,
    1552,
    1552,
    0,
    0,
    0,
    1552,
    1552,
    0,
    0,
    0,
    0,
    0,
    1552,
    1552,
    0,
    0,
    0,
    0,
    0,
    0,
    0,
    0,
    0,
    0,
    1552,
    1552,
    1552,
    1552,
    1552,
    0,
    1552,
    1552,
    1552,
    1552,
    0,
    0,
    0,
    1552,
    1552,
    1552,
    1552,
    1552,
    1552,
    1552,
    1552,
    0,
    0,
    0,
    1552,
    0,
    0,
    1552,
    1552,
    0,
    0,
    0,
    0,
    0,
    0,
    1552,
    1552,
    1552,
    1552,
    1552,
    1552,
    0,
    0,
    1552,
    0,
    0,
    1552,
    1552,
    0,
    1552,
    1552,
    0,
    0,
    0,
    0,
    1552,
    1552,
    1552,
    0,
    1552,
    0,
    0,
    0,
    0,
    0,
    0,
    0,
    0,
    0,
    0,
    0,
    0,
    0,
    0,
    0,
    0,
    1552,
    1552,
    0,
    1552,
    0,
    1552,
    0,
    0,
    0,
    0,
    0,
    0,
    0,
    0,
    0,
    0,
    0,
    0,
    0,
    0,
    0,
    0,
    0,
    0,
    0,
    0,
    0,
    0,
    0,
    0,
    0,
    0,
    0,
    1552,
    0,
    0,
    0,
    0,
    1552,
    1552,
    0,
    0,
    0,
    1552,
    0,
    0,
    0,
    0,
    0,
    0,
    0,
    1552,
    1552,
    1552,
    0,
    0,
    0,
    1552,
    1552,
    1552,
    0,
    0,
    0,
    0,
    0,
    1552,
    1552,
    1552,
    1552,
    1552,
    1552,
    1552,
    1552,
    0,
    0,
    1552,
    1552,
    0,
    0,
    1552,
    1552,
    0,
    0,
    0,
    0,
    0,
    0,
    0,
    0,
    1552,
    1552,
    1552,
    0,
    0,
    1552,
    0,
    0,
    0,
    1552,
    0,
    0,
    1552,
    1552,
    0,
    0,
    0,
    0,
    1552,
    1552,
    1552,
    1552,
    0,
    1552,
    1552,
    1552,
    0,
    0,
    0,
    0,
    0,
    0,
    0,
    0,
    0,
    0,
    0,
    0,
    0,
    0,
    0,
    0,
    0,
    0,
    0,
    1552,
    0,
    0,
    0,
    0,
    0,
    0,
    0,
    0,
    0,
    0,
    0,
    0,
    0,
    0,
    0,
    0,
    0,
    0,
    0,
    0,
    0,
    0,
    0,
    0,
    0,
    1552,
    1552,
    0,
    0,
    1552,
    1552,
    1552,
    0,
    0,
    0,
    1552,
    1552,
    0,
    0,
    0,
    0,
    0,
    0,
    0,
    0,
    0,
    0,
    0,
    0,
    0,
    0,
    0,
    1552,
    0,
    0,
    0,
    0,
    0,
    0,
    1552,
    1552,
    1552,
    1552,
    1552,
    1552,
    1552,
    0,
    0,
    1552,
    1552,
    0,
    0,
    1552,
    1552,
    0,
    0,
    0,
    0,
    0,
    0,
    0,
    0,
    0,
    0,
    0,
    1552,
    0,
    0,
    0,
    0,
    0,
    1552,
    0,
    0,
    1552,
    1552,
    0,
    0,
    0,
    1552,
    0,
    1552,
    1552,
    0,
    1552,
    1552,
    1552,
    0,
    0,
    0,
    0,
    0,
    0,
    0,
    0,
    0,
    0,
    0,
    0,
    0,
    0,
    0,
    0,
    0,
    0,
    0,
    0,
    0,
    0,
    0,
    0,
    0,
    0,
    0,
    0,
    0,
    1552,
    0,
    0,
    0,
    0,
    0,
    0,
    0,
    0,
    0,
    0,
    0,
    0,
    0,
    0,
    0,
    1552,
    1552,
    0,
    0,
    1552,
    1552,
    1552,
    0,
    0,
    0,
    0,
    1552,
    0,
    0,
    0,
    0,
    0,
    0,
    0,
    0,
    0,
    0,
    0,
    0,
    0,
    0,
    0,
    0,
    0,
    0,
    0,
    0,
    0,
    0,
    0,
    0,
    0,
    1552,
    1552,
    1552,
    1552,
    1552,
    1552,
    0,
    1552,
    1552,
    0,
    1552,
    1552,
    1552,
    0,
    0,
    0,
    0,
    0,
    0,
    0,
    0,
    0,
    0,
    0,
    0,
    1552,
    0,
    0,
    0,
    1552,
    0,
    0,
    0,
    1552,
    0,
    0,
    0,
    0,
    0,
    1552,
    1552,
    1552,
    1552,
    1552,
    1552,
    1552,
    1552,
    0,
    1552,
    0,
    0,
    0,
    0,
    0,
    0,
    0,
    0,
    0,
    0,
    0,
    0,
    0,
    0,
    0,
    0,
    0,
    0,
    0,
    0,
    0,
    0,
    0,
    0,
    0,
    0,
    0,
    0,
    0,
    0,
    0,
    1552,
    0,
    0,
    0,
    0,
    0,
    0,
    0,
    0,
    1552,
    1552,
    0,
    0,
    0,
    0,
    1552,
    0,
    0,
    0,
    1552,
    0,
    1552,
    1552,
    0,
    0,
    1552,
    1552,
    1552,
    0,
    0,
    0,
    0,
    0,
    0,
    0,
    0,
    0,
    0,
    0,
    0,
    0,
    0,
    0,
    0,
    0,
    0,
    0,
    0,
    0,
    0,
    0,
    0,
    0,
    0,
    0,
    1552,
    1552,
    0,
    0,
    0,
    1552,
    1552,
    0,
    0,
    0,
    0,
    0,
    0,
    0,
    0,
    0,
    0,
    0,
    0,
    0,
    1552,
    0,
    0,
    0,
    0,
    1552,
    1552,
    0,
    0,
    0,
    1552,
    1552,
    1552,
    1552,
    1552,
    1552,
    1552,
    1552,
    1552,
    1552,
    0,
    1552,
    1552,
    0,
    0,
    0,
    1552,
    0,
    0,
    0,
    0,
    0,
    0,
    0,
    0,
    0,
    0,
    0,
    0,
    0,
    0,
    0,
    0,
    0,
    0,
    0,
    1552,
    0,
    0,
    0,
    0,
    0,
    0,
    0,
    0,
    0,
    0,
    0,
    0,
    0,
    0,
    1552,
    1552,
    0,
    0,
    0,
    0,
    1552,
    1552,
    0,
    0,
    0,
    0,
    0,
    1552,
    1552,
    0,
    0,
    1552,
    1552,
    1552,
    1552,
    0,
    1552,
    1552,
    0,
    0,
    0,
    0,
    0,
    0,
    0,
    0,
    0,
    0,
    0,
    0,
    0,
    0,
    0,
    0,
    0,
    0,
    0,
    0,
    0,
    0,
    0,
    1552,
    1552,
    1552,
    0,
    0,
    1552,
    1552,
    1552,
    0,
    0,
    0,
    0,
    0,
    1552,
    0,
    0,
    0,
    0,
    0,
    1552,
    0,
    0,
    0,
    0,
    1552,
    1552,
    0,
    0,
    0,
    1552,
    1552,
    1552,
    1552,
    1552,
    1552,
    1552,
    1552,
    1552,
    1552,
    1552,
    1552,
    1552,
    1552,
    0,
    1552,
    1552,
    1552,
    1552,
    0,
    0,
    0,
    0,
    0,
    0,
    0,
    0,
    0,
    0,
    0,
    0,
    0,
    0,
    0,
    0,
    0,
    0,
    0,
    1552,
    0,
    0,
    0,
    0,
    0,
    0,
    0,
    0,
    0,
    0,
    0,
    0,
    0,
    1552,
    0,
    0,
    0,
    0,
    0,
    1552,
    1552,
    0,
    0,
    0,
    0,
    0,
    1552,
    1552,
    0,
    0,
    0,
    1552,
    1552,
    1552,
    1552,
    1552,
    1552,
    0,
    0,
    0,
    0,
    0,
    0,
    0,
    0,
    0,
    0,
    0,
    0,
    0,
    0,
    0,
    0,
    0,
    0,
    0,
    0,
    0,
    0,
    0,
    1552,
    1552,
    0,
    0,
    0,
    0,
    1552,
    1552,
    0,
    0,
    0,
    0,
    0,
    1552,
    0,
    0,
    0,
    0,
    0,
    0,
    0,
    0,
    0,
    1552,
    0,
    0,
    0,
    1552,
    1552,
    0,
    1552,
    1552,
    1552,
    1552,
    1552,
    1552,
    1552,
    1552,
    1552,
    1552,
    1552,
    1552,
    0,
    0,
    0,
    1552,
    1552,
    0,
    0,
    0,
    0,
    0,
    0,
    0,
    0,
    0,
    0,
    0,
    0,
    0,
    0,
    0,
    0,
    0,
    0,
    0,
    1552,
    1552,
    1552,
    0,
    0,
    0,
    0,
    0,
    0,
    0,
    0,
    0,
    0,
    0,
    0,
    1552,
    0,
    0,
    0,
    0,
    0,
    1552,
    1552,
    0,
    0,
    0,
    0,
    0,
    0,
    1552,
    0,
    0,
    0,
    0,
    1552,
    1552,
    1552,
    1552,
    1552,
    0,
    0,
    0,
    0,
    0,
    0,
    0,
    0,
    0,
    0,
    0,
    0,
    0,
    0,
    0,
    0,
    0,
    0,
    0,
    0,
    0,
    0,
    0,
    0,
    1552,
    0,
    0,
    0,
    0,
    0,
    1552,
    1552,
    1552,
    1552,
    1552,
    1552,
    1552,
    1552,
    0,
    0,
    0,
    0,
    0,
    0,
    0,
    1552,
    0,
    0,
    0,
    0,
    1552,
    1552,
    1552,
    1552,
    1552,
    1552,
    0,
    1552,
    1552,
    1552,
    1552,
    1552,
    1552,
    1552,
    1552,
    0,
    1552,
    1552,
    1552,
    1552,
    1552,
    0,
    0,
    0,
    0,
    0,
    0,
    0,
    0,
    0,
    0,
    0,
    0,
    0,
    0,
    0,
    0,
    0,
    0,
    0,
    1552,
    1552,
    0,
    0,
    0,
    0,
    0,
    0,
    0,
    0,
    0,
    0,
    0,
    0,
    0,
    1552,
    1552,
    0,
    0,
    0,
    0,
    1552,
    0,
    0,
    0,
    0,
    0,
    0,
    0,
    1552,
    1552,
    0,
    0,
    0,
    1552,
    1552,
    1552,
    1552,
    0,
    0,
    0,
    0,
    0,
    0,
    0,
    0,
    0,
    0,
    0,
    0,
    0,
    0,
    0,
    0,
    0,
    0,
    0,
    0,
    0,
    0,
    0,
    0,
    0,
    1552,
    0,
    0,
    0,
    0,
    1552,
    1552,
    1552,
    1552,
    0,
    0,
    1552,
    1552,
    1552,
    0,
    0,
    0,
    0,
    0,
    0,
    0,
    0,
    0,
    0,
    0,
    0,
    1552,
    1552,
    1552,
    0,
    1552,
    1552,
    1552,
    1552,
    1552,
    1552,
    1552,
    1552,
    1552,
    0,
    1552,
    1552,
    1552,
    1552,
    1552,
    1552,
    0,
    0,
    0,
    0,
    0,
    0,
    0,
    0,
    0,
    0,
    0,
    0,
    0,
    0,
    1552,
    0,
    0,
    0,
    1552,
    0,
    0,
    1552,
    0,
    0,
    1552,
    1552,
    1552,
    0,
    0,
    0,
    0,
    0,
    0,
    0,
    0,
    0,
    1552,
    0,
    0,
    0,
    0,
    1552,
    0,
    0,
    0,
    0,
    0,
    0,
    0,
    0,
    1552,
    0,
    0,
    1552,
    1552,
    0,
    0,
    0,
    0,
    0,
    0,
    0,
    0,
    0,
    0,
    0,
    0,
    0,
    0,
    1552,
    0,
    0,
    0,
    0,
    0,
    0,
    0,
    0,
    0,
    0,
    0,
    0,
    1552,
    1552,
    0,
    0,
    0,
    0,
    0,
    0,
    0,
    0,
    0,
    0,
    0,
    1552,
    1552,
    0,
    0,
    1552,
    0,
    0,
    0,
    0,
    1552,
    1552,
    1552,
    0,
    0,
    0,
    1552,
    1552,
    1552,
    1552,
    1552,
    1552,
    1552,
    1552,
    0,
    1552,
    1552,
    1552,
    1552,
    1552,
    1552,
    1552,
    1552,
    0,
    0,
    1552,
    0,
    0,
    0,
    0,
    0,
    0,
    0,
    0,
    0,
    0,
    0,
    0,
    0,
    0,
    0,
    0,
    0,
    1552,
    1552,
    0,
    0,
    1552,
    1552,
    1552,
    1552,
    0,
    0,
    0,
    0,
    0,
    0,
    0,
    0,
    1552,
    1552,
    0,
    0,
    0,
    0,
    0,
    0,
    0,
    0,
    0,
    0,
    0,
    0,
    0,
    1552,
    0,
    0,
    0,
    0,
    1552,
    0,
    1552,
    1552,
    0,
    0,
    0,
    0,
    0,
    0,
    0,
    0,
    0,
    0,
    0,
    0,
    0,
    0,
    0,
    0,
    0,
    0,
    0,
    0,
    0,
    0,
    0,
    0,
    1552,
    1552,
    0,
    0,
    0,
    0,
    0,
    0,
    0,
    1552,
    0,
    0,
    0,
    1552,
    1552,
    1552,
    1552,
    0,
    0,
    0,
    1552,
    1552,
    1552,
    1552,
    1552,
    0,
    0,
    0,
    1552,
    1552,
    1552,
    1552,
    1552,
    1552,
    0,
    1552,
    1552,
    1552,
    1552,
    1552,
    1552,
    1552,
    1552,
    1552,
    0,
    0,
    1552,
    0,
    0,
    0,
    0,
    0,
    0,
    0,
    0,
    0,
    0,
    0,
    0,
    0,
    0,
    0,
    0,
    0,
    1552,
    0,
    0,
    0,
    0,
    1552,
    0,
    0,
    0,
    0,
    0,
    0,
    0,
    0,
    0,
    0,
    1552,
    1552,
    0,
    0,
    0,
    0,
    0,
    0,
    0,
    0,
    0,
    0,
    0,
    0,
    0,
    0,
    1552,
    1552,
    0,
    0,
    0,
    1552,
    1552,
    1552,
    0,
    0,
    0,
    0,
    0,
    0,
    0,
    0,
    0,
    0,
    0,
    0,
    0,
    0,
    0,
    0,
    0,
    0,
    0,
    0,
    0,
    0,
    0,
    0,
    1552,
    1552,
    1552,
    1552,
    0,
    0,
    0,
    1552,
    0,
    1552,
    1552,
    0,
    0,
    1552,
    1552,
    1552,
    0,
    0,
    0,
    1552,
    1552,
    1552,
    1552,
    1552,
    1552,
    1552,
    1552,
    0,
    0,
    0,
    1552,
    1552,
    1552,
    1552,
    1552,
    1552,
    1552,
    1552,
    1552,
    1552,
    1552,
    1552,
    1552,
    0,
    0,
    1552,
    1552,
    0,
    0,
    0,
    0,
    0,
    0,
    0,
    0,
    0,
    0,
    0,
    0,
    0,
    0,
    0,
    0,
    0,
    0,
    0,
    1552,
    0,
    0,
    0,
    0,
    0,
    0,
    0,
    0,
    0,
    0,
    0,
    0,
    0,
    1552,
    1552,
    0,
    0,
    0,
    0,
    0,
    0,
    0,
    0,
    0,
    0,
    0,
    0,
    0,
    0,
    0,
    0,
    1552,
    0,
    0,
    0,
    0,
    0,
    0,
    0,
    0,
    0,
    0,
    0,
    0,
    0,
    0,
    0,
    0,
    0,
    0,
    0,
    0,
    0,
    0,
    0,
    0,
    0,
    0,
    0,
    0,
    0,
    0,
    0,
    0,
    1552,
    1552,
    0,
    0,
    0,
    1552,
    1552,
    1552,
    1552,
    0,
    0,
    0,
    0,
    0,
    0,
    0,
    1552,
    1552,
    1552,
    1552,
    1552,
    1552,
    1552,
    1552,
    1552,
    0,
    0,
    0,
    1552,
    1552,
    1552,
    1552,
    1552,
    1552,
    1552,
    1552,
    0,
    1552,
    1552,
    0,
    0,
    0,
    1552,
    1552,
    0,
    0,
    0,
    0,
    0,
    0,
    0,
    0,
    0,
    0,
    0,
    0,
    0,
    0,
    0,
    0,
    0,
    0,
    0,
    0,
    0,
    0,
    0,
    0,
    0,
    0,
    0,
    0,
    0,
    0,
    0,
    0,
    0,
    1552,
    1552,
    0,
    0,
    0,
    0,
    0,
    0,
    0,
    0,
    0,
    0,
    0,
    0,
    0,
    0,
    0,
    1552,
    1552,
    0,
    0,
    0,
    0,
    0,
    0,
    0,
    0,
    0,
    0,
    0,
    0,
    0,
    0,
    0,
    0,
    0,
    0,
    0,
    0,
    0,
    0,
    0,
    0,
    0,
    0,
    0,
    0,
    0,
    0,
    0,
    0,
    0,
    1552,
    0,
    0,
    0,
    0,
    0,
    1552,
    1552,
    1552,
    0,
    0,
    0,
    0,
    0,
    0,
    0,
    0,
    0,
    0,
    1552,
    1552,
    1552,
    1552,
    1552,
    1552,
    0,
    0,
    1552,
    1552,
    1552,
    1552,
    1552,
    1552,
    1552,
    1552,
    1552,
    0,
    1552,
    1552,
    0,
    0,
    1552,
    1552,
    0,
    0,
    0,
    0,
    0,
    0,
    0,
    0,
    0,
    0,
    0,
    0,
    0,
    0,
    0,
    0,
    0,
    0,
    0,
    0,
    0,
    0,
    0,
    0,
    0,
    0,
    0,
    0,
    0,
    0,
    0,
    0,
    0,
    0,
    1552,
    0,
    0,
    0,
    0,
    0,
    0,
    0,
    0,
    0,
    0,
    0,
    0,
    0,
    0,
    0,
    1552,
    1552,
    0,
    0,
    0,
    0,
    0,
    0,
    0,
    0,
    0,
    0,
    0,
    0,
    0,
    0,
    0,
    0,
    0,
    0,
    0,
    0,
    0,
    0,
    0,
    0,
    0,
    0,
    0,
    0,
    0,
    0,
    0,
    0,
    0,
    0,
    1552,
    1552,
    0,
    0,
    0,
    0,
    1552,
    1552,
    0,
    0,
    0,
    0,
    0,
    0,
    0,
    0,
    0,
    0,
    1552,
    0,
    1552,
    1552,
    1552,
    1552,
    1552,
    0,
    0,
    0,
    1552,
    1552,
    1552,
    1552,
    1552,
    1552,
    1552,
    1552,
    1552,
    0,
    0,
    1552,
    1552,
    1552,
    0,
    0,
    0,
    0,
    0,
    0,
    0,
    0,
    0,
    0,
    0,
    0,
    0,
    0,
    0,
    0,
    0,
    0,
    0,
    0,
    0,
    0,
    0,
    0,
    0,
    0,
    0,
    0,
    0,
    0,
    0,
    0,
    0,
    0,
    0,
    1552,
    0,
    0,
    0,
    0,
    0,
    0,
    0,
    0,
    1552,
    0,
    0,
    0,
    0,
    0,
    1552,
    1552,
    0,
    0,
    0,
    0,
    0,
    0,
    0,
    0,
    0,
    0,
    0,
    0,
    0,
    0,
    0,
    0,
    0,
    0,
    0,
    0,
    0,
    0,
    0,
    0,
    0,
    0,
    0,
    0,
    0,
    0,
    0,
    0,
    0,
    0,
    1552,
    1552,
    1552,
    1552,
    0,
    0,
    0,
    1552,
    0,
    0,
    0,
    1552,
    1552,
    0,
    0,
    0,
    0,
    0,
    1552,
    1552,
    1552,
    1552,
    1552,
    1552,
    1552,
    0,
    0,
    0,
    1552,
    1552,
    1552,
    1552,
    1552,
    1552,
    1552,
    1552,
    0,
    0,
    0,
    1552,
    1552,
    0,
    0,
    0,
    0,
    0,
    0,
    0,
    0,
    0,
    0,
    0,
    0,
    0,
    0,
    0,
    0,
    0,
    0,
    0,
    0,
    0,
    0,
    0,
    0,
    1552,
    0,
    0,
    0,
    0,
    0,
    0,
    0,
    0,
    0,
    0,
    0,
    0,
    0,
    0,
    0,
    0,
    0,
    0,
    0,
    0,
    0,
    1552,
    0,
    0,
    0,
    0,
    0,
    1552,
    0,
    0,
    0,
    0,
    0,
    0,
    0,
    0,
    0,
    0,
    0,
    0,
    0,
    0,
    0,
    0,
    0,
    0,
    0,
    0,
    0,
    0,
    0,
    0,
    0,
    0,
    0,
    0,
    0,
    0,
    0,
    0,
    0,
    0,
    0,
    0,
    0,
    1552,
    1552,
    0,
    0,
    0,
    0,
    0,
    1552,
    1552,
    0,
    0,
    0,
    0,
    0,
    0,
    1552,
    1552,
    1552,
    1552,
    1552,
    1552,
    1552,
    1552,
    0,
    0,
    0,
    1552,
    1552,
    0,
    1552,
    1552,
    1552,
    0,
    0,
    0,
    1552,
    1552,
    1552,
    1552,
    0,
    0,
    0,
    0,
    0,
    0,
    0,
    0,
    0,
    0,
    0,
    0,
    0,
    0,
    0,
    0,
    0,
    0,
    0,
    0,
    0,
    0,
    1552,
    1552,
    1552,
    0,
    0,
    0,
    0,
    0,
    0,
    0,
    0,
    0,
    0,
    0,
    0,
    0,
    0,
    0,
    0,
    0,
    0,
    0,
    1552,
    1552,
    0,
    0,
    0,
    0,
    0,
    0,
    1552,
    1552,
    0,
    0,
    0,
    0,
    0,
    0,
    0,
    0,
    0,
    0,
    0,
    0,
    0,
    0,
    0,
    0,
    0,
    0,
    0,
    0,
    0,
    0,
    0,
    0,
    0,
    0,
    0,
    0,
    0,
    0,
    0,
    0,
    0,
    0,
    0,
    0,
    1552,
    0,
    0,
    0,
    1552,
    1552,
    1552,
    1552,
    0,
    0,
    0,
    0,
    0,
    1552,
    1552,
    1552,
    1552,
    1552,
    1552,
    1552,
    1552,
    1552,
    1552,
    0,
    0,
    0,
    0,
    1552,
    1552,
    1552,
    0,
    0,
    0,
    1552,
    1552,
    1552,
    1552,
    1552,
    0,
    0,
    0,
    0,
    0,
    0,
    0,
    0,
    0,
    0,
    0,
    0,
    0,
    0,
    0,
    0,
    0,
    0,
    0,
    0,
    0,
    0,
    0,
    0,
    0,
    0,
    0,
    0,
    0,
    0,
    0,
    0,
    0,
    0,
    0,
    0,
    0,
    0,
    0,
    0,
    0,
    0,
    0,
    0,
    1552,
    1552,
    0,
    0,
    0,
    0,
    0,
    0,
    0,
    0,
    1552,
    0,
    0,
    0,
    0,
    1552,
    0,
    0,
    0,
    0,
    0,
    0,
    0,
    0,
    0,
    0,
    0,
    0,
    0,
    0,
    0,
    0,
    0,
    0,
    0,
    0,
    0,
    0,
    0,
    0,
    0,
    0,
    0,
    0,
    0,
    0,
    0,
    1552,
    1552,
    1552,
    1552,
    1552,
    0,
    0,
    0,
    0,
    0,
    0,
    1552,
    1552,
    1552,
    1552,
    1552,
    1552,
    1552,
    1552,
    1552,
    1552,
    1552,
    1552,
    0,
    0,
    0,
    0,
    0,
    0,
    0,
    0,
    1552,
    1552,
    1552,
    1552,
    1552,
    1552,
    0,
    0,
    0,
    0,
    0,
    1552,
    0,
    0,
    0,
    0,
    0,
    0,
    0,
    0,
    0,
    0,
    0,
    0,
    0,
    0,
    0,
    0,
    0,
    0,
    0,
    0,
    0,
    0,
    0,
    0,
    0,
    0,
    0,
    0,
    0,
    0,
    0,
    0,
    0,
    0,
    1552,
    0,
    0,
    0,
    1552,
    1552,
    0,
    0,
    0,
    0,
    0,
    0,
    0,
    1552,
    1552,
    0,
    0,
    0,
    0,
    0,
    0,
    0,
    0,
    0,
    0,
    0,
    0,
    0,
    0,
    0,
    0,
    0,
    0,
    0,
    0,
    0,
    0,
    0,
    0,
    0,
    0,
    0,
    0,
    0,
    0,
    0,
    0,
    0,
    0,
    0,
    0,
    1552,
    1552,
    1552,
    0,
    0,
    0,
    0,
    0,
    0,
    0,
    1552,
    1552,
    1552,
    1552,
    1552,
    1552,
    1552,
    1552,
    1552,
    1552,
    0,
    1552,
    1552,
    1552,
    1552,
    0,
    0,
    0,
    0,
    0,
    1552,
    1552,
    1552,
    0,
    1552,
    1552,
    1552,
    0,
    0,
    0,
    0,
    1552,
    0,
    1552,
    0,
    1552,
    0,
    0,
    0,
    0,
    0,
    0,
    0,
    0,
    0,
    0,
    0,
    0,
    0,
    0,
    0,
    0,
    0,
    0,
    0,
    0,
    0,
    0,
    0,
    0,
    0,
    0,
    0,
    0,
    0,
    0,
    0,
    0,
    1552,
    0,
    0,
    0,
    1552,
    0,
    0,
    0,
    0,
    0,
    0,
    0,
    1552,
    1552,
    0,
    0,
    0,
    0,
    0,
    0,
    1552,
    0,
    0,
    0,
    0,
    0,
    0,
    0,
    0,
    0,
    0,
    0,
    0,
    0,
    0,
    0,
    0,
    0,
    0,
    0,
    0,
    0,
    0,
    0,
    0,
    0,
    0,
    0,
    0,
    0,
    0,
    0,
    0,
    0,
    0,
    0,
    0,
    1552,
    1552,
    1552,
    1552,
    1552,
    0,
    0,
    1552,
    1552,
    1552,
    0,
    1552,
    1552,
    1552,
    0,
    1552,
    1552,
    1552,
    1552,
    1552,
    0,
    0,
    0,
    1552,
    1552,
    1552,
    1552,
    0,
    0,
    1552,
    0,
    0,
    0,
    1552,
    0,
    1552,
    1552,
    1552,
    0,
    0,
    1552,
    1552,
    0,
    0,
    0,
    0,
    0,
    0,
    0,
    0,
    0,
    0,
    0,
    0,
    0,
    0,
    0,
    0,
    0,
    0,
    0,
    0,
    0,
    0,
    0,
    0,
    0,
    0,
    0,
    0,
    1552,
    1552,
    0,
    0,
    0,
    0,
    1552,
    1552,
    0,
    0,
    1552,
    0,
    0,
    1552,
    1552,
    0,
    0,
    0,
    0,
    0,
    0,
    0,
    0,
    0,
    0,
    0,
    0,
    0,
    0,
    0,
    0,
    0,
    0,
    0,
    0,
    0,
    0,
    0,
    0,
    0,
    0,
    0,
    0,
    0,
    0,
    0,
    0,
    0,
    0,
    0,
    0,
    0,
    0,
    0,
    0,
    0,
    0,
    1552,
    1552,
    1552,
    1552,
    1552,
    1552,
    0,
    1552,
    1552,
    1552,
    1552,
    1552,
    1552,
    1552,
    1552,
    0,
    1552,
    1552,
    1552,
    1552,
    1552,
    0,
    0,
    1552,
    1552,
    1552,
    1552,
    1552,
    1552,
    1552,
    1552,
    0,
    0,
    0,
    1552,
    1552,
    0,
    1552,
    1552,
    1552,
    1552,
    1552,
    0,
    0,
    0,
    0,
    0,
    0,
    0,
    0,
    0,
    0,
    0,
    0,
    0,
    0,
    0,
    0,
    0,
    0,
    0,
    0,
    0,
    0,
    0,
    0,
    1552,
    1552,
    0,
    0,
    0,
    1552,
    1552,
    0,
    0,
    0,
    0,
    0,
    0,
    1552,
    0,
    0,
    1552,
    0,
    1552,
    1552,
    0,
    0,
    0,
    0,
    0,
    1552,
    1552,
    1552,
    1552,
    0,
    1552,
    1552,
    0,
    0,
    0,
    0,
    0,
    0,
    0,
    0,
    0,
    0,
    0,
    0,
    0,
    0,
    0,
    0,
    0,
    0,
    0,
    0,
    0,
    0,
    0,
    0,
    1552,
    0,
    0,
    0,
    1552,
    1552,
    1552,
    1552,
    1552,
    1552,
    1552,
    1552,
    0,
    1552,
    1552,
    1552,
    0,
    1552,
    1552,
    1552,
    1552,
    1552,
    1552,
    1552,
    1552,
    0,
    0,
    0,
    1552,
    1552,
    1552,
    1552,
    1552,
    0,
    1552,
    1552,
    0,
    0,
    0,
    1552,
    0,
    1552,
    1552,
    1552,
    1552,
    1552,
    1552,
    1552,
    0,
    0,
    0,
    0,
    0,
    0,
    0,
    0,
    0,
    0,
    0,
    0,
    0,
    0,
    0,
    0,
    0,
    0,
    0,
    0,
    0,
    0,
    0,
    1552,
    1552,
    1552,
    1552,
    0,
    0,
    1552,
    1552,
    0,
    0,
    0,
    0,
    0,
    1552,
    1552,
    0,
    1552,
    1552,
    0,
    1552,
    1552,
    0,
    0,
    0,
    0,
    0,
    0,
    0,
    1552,
    1552,
    0,
    1552,
    1552,
    0,
    0,
    0,
    0,
    0,
    0,
    0,
    0,
    0,
    0,
    0,
    0,
    0,
    0,
    0,
    0,
    0,
    0,
    0,
    0,
    0,
    0,
    0,
    0,
    0,
    1552,
    0,
    0,
    1552,
    1552,
    1552,
    1552,
    1552,
    1552,
    1552,
    0,
    0,
    0,
    1552,
    0,
    1552,
    1552,
    1552,
    0,
    1552,
    1552,
    1552,
    1552,
    0,
    0,
    0,
    0,
    0,
    1552,
    1552,
    1552,
    1552,
    1552,
    1552,
    1552,
    1552,
    0,
    0,
    0,
    0,
    1552,
    1552,
    1552,
    1552,
    1552,
    1552,
    1552,
    0,
    1552,
    0,
    0,
    0,
    0,
    0,
    0,
    0,
    0,
    0,
    0,
    0,
    0,
    0,
    0,
    0,
    0,
    0,
    0,
    0,
    0,
    0,
    0,
    0,
    1552,
    0,
    0,
    0,
    1552,
    0,
    0,
    0,
    1552,
    1552,
    0,
    1552,
    1552,
    0,
    1552,
    1552,
    0,
    1552,
    1552,
    0,
    0,
    0,
    0,
    0,
    1552,
    1552,
    1552,
    1552,
    1552,
    0,
    0,
    0,
    0,
    0,
    0,
    0,
    0,
    0,
    0,
    0,
    0,
    0,
    0,
    0,
    0,
    0,
    0,
    0,
    0,
    0,
    0,
    0,
    0,
    0,
    0,
    0,
    0,
    0,
    1552,
    1552,
    1552,
    1552,
    1552,
    0,
    0,
    1552,
    1552,
    0,
    0,
    1552,
    1552,
    1552,
    1552,
    1552,
    1552,
    1552,
    1552,
    1552,
    1552,
    0,
    0,
    0,
    1552,
    1552,
    0,
    1552,
    1552,
    1552,
    1552,
    1552,
    1552,
    1552,
    0,
    0,
    0,
    0,
    0,
    0,
    0,
    1552,
    0,
    0,
    0,
    1552,
    0,
    0,
    0,
    0,
    0,
    0,
    0,
    0,
    0,
    0,
    0,
    0,
    0,
    0,
    0,
    0,
    0,
    0,
    0,
    0,
    0,
    0,
    1552,
    0,
    0,
    0,
    0,
    1552,
    1552,
    0,
    0,
    0,
    1552,
    1552,
    0,
    1552,
    1552,
    0,
    1552,
    1552,
    0,
    1552,
    1552,
    0,
    0,
    0,
    0,
    1552,
    1552,
    1552,
    1552,
    0,
    0,
    1552,
    0,
    0,
    0,
    0,
    0,
    0,
    0,
    0,
    0,
    0,
    0,
    0,
    0,
    0,
    0,
    0,
    0,
    0,
    0,
    0,
    0,
    0,
    0,
    0,
    0,
    0,
    0,
    1552,
    1552,
    1552,
    0,
    1552,
    1552,
    0,
    0,
    1552,
    1552,
    0,
    0,
    1552,
    1552,
    1552,
    0,
    1552,
    1552,
    1552,
    1552,
    0,
    0,
    0,
    0,
    0,
    1552,
    1552,
    1552,
    1552,
    1552,
    1552,
    1552,
    1552,
    1552,
    1552,
    1552,
    0,
    0,
    0,
    0,
    0,
    0,
    0,
    0,
    0,
    1552,
    0,
    0,
    0,
    0,
    0,
    0,
    0,
    0,
    0,
    0,
    0,
    0,
    0,
    0,
    0,
    0,
    0,
    0,
    0,
    0,
    0,
    0,
    0,
    0,
    0,
    0,
    0,
    1552,
    1552,
    0,
    0,
    0,
    1552,
    1552,
    1552,
    0,
    1552,
    0,
    0,
    1552,
    1552,
    0,
    1552,
    1552,
    0,
    0,
    0,
    1552,
    0,
    0,
    0,
    0,
    0,
    0,
    0,
    0,
    0,
    0,
    0,
    0,
    0,
    0,
    0,
    0,
    0,
    0,
    0,
    0,
    0,
    0,
    0,
    0,
    0,
    0,
    0,
    0,
    0,
    0,
    0,
    0,
    0,
    0,
    0,
    0,
    1552,
    0,
    0,
    0,
    0,
    1552,
    0,
    0,
    0,
    0,
    1552,
    0,
    0,
    0,
    0,
    0,
    0,
    0,
    0,
    0,
    0,
    0,
    1552,
    1552,
    1552,
    1552,
    1552,
    1552,
    1552,
    0,
    1552,
    1552,
    0,
    0,
    0,
    0,
    0,
    0,
    0,
    0,
    0,
    0,
    0,
    0,
    0,
    0,
    0,
    0,
    0,
    0,
    0,
    0,
    0,
    0,
    0,
    0,
    0,
    0,
    0,
    0,
    0,
    0,
    0,
    0,
    0,
    0,
    0,
    0,
    0,
    1552,
    1552,
    0,
    0,
    0,
    0,
    1552,
    0,
    0,
    0,
    1552,
    1552,
    0,
    0,
    1552,
    1552,
    0,
    1552,
    1552,
    0,
    0,
    0,
    0,
    0,
    0,
    0,
    0,
    1552,
    0,
    0,
    0,
    0,
    0,
    0,
    0,
    0,
    0,
    0,
    0,
    0,
    0,
    0,
    0,
    0,
    0,
    0,
    0,
    0,
    0,
    0,
    0,
    0,
    0,
    0,
    0,
    0,
    0,
    0,
    0,
    0,
    0,
    0,
    0,
    0,
    0,
    0,
    0,
    0,
    0,
    0,
    0,
    0,
    0,
    0,
    0,
    0,
    0,
    0,
    0,
    0,
    0,
    1552,
    1552,
    0,
    1552,
    1552,
    1552,
    1552,
    0,
    0,
    1552,
    1552,
    0,
    0,
    0,
    0,
    0,
    0,
    0,
    0,
    0,
    0,
    0,
    0,
    0,
    0,
    0,
    0,
    0,
    0,
    0,
    0,
    0,
    0,
    0,
    0,
    0,
    0,
    0,
    0,
    0,
    0,
    0,
    0,
    0,
    0,
    0,
    1552,
    1552,
    0,
    0,
    0,
    0,
    0,
    0,
    0,
    0,
    1552,
    1552,
    0,
    0,
    0,
    1552,
    1552,
    0,
    1552,
    1552,
    0,
    0,
    0,
    0,
    0,
    0,
    0,
    0,
    0,
    0,
    0,
    0,
    0,
    0,
    0,
    0,
    0,
    0,
    0,
    0,
    0,
    0,
    0,
    0,
    0,
    0,
    0,
    0,
    0,
    0,
    0,
    0,
    0,
    0,
    0,
    0,
    0,
    0,
    0,
    0,
    0,
    0,
    0,
    0,
    0,
    0,
    0,
    0,
    0,
    0,
    0,
    0,
    0,
    0,
    0,
    0,
    0,
    0,
    0,
    0,
    0,
    0,
    0,
    0,
    0,
    1552,
    1552,
    0,
    0,
    1552,
    1552,
    1552,
    1552,
    0,
    0,
    0,
    0,
    0,
    0,
    0,
    0,
    0,
    0,
    0,
    0,
    0,
    0,
    0,
    0,
    0,
    0,
    0,
    0,
    0,
    0,
    0,
    0,
    0,
    0,
    0,
    0,
    0,
    0,
    0,
    0,
    0,
    0,
    0,
    1552,
    0,
    0,
    0,
    0,
    0,
    1552,
    1552,
    1552,
    1552,
    1552,
    0,
    0,
    0,
    0,
    1552,
    0,
    0,
    1552,
    1552,
    0,
    0,
    0,
    0,
    0,
    0,
    0,
    0,
    0,
    0,
    1552,
    0,
    0,
    0,
    0,
    0,
    0,
    0,
    0,
    0,
    0,
    0,
    0,
    0,
    0,
    0,
    0,
    0,
    0,
    0,
    0,
    0,
    0,
    0,
    0,
    0,
    0,
    0,
    0,
    0,
    0,
    0,
    0,
    0,
    0,
    0,
    0,
    0,
    0,
    0,
    0,
    0,
    0,
    0,
    0,
    0,
    0,
    0,
    0,
    0,
    0,
    0,
    0,
    0,
    0,
    0,
    0,
    0,
    0,
    1552,
    1552,
    0,
    0,
    0,
    0,
    0,
    0,
    0,
    0,
    0,
    0,
    0,
    0,
    0,
    0,
    0,
    0,
    0,
    0,
    0,
    0,
    0,
    0,
    0,
    0,
    0,
    0,
    0,
    0,
    0,
    0,
    0,
    0,
    0,
    1552,
    0,
    0,
    1552,
    0,
    0,
    0,
    0,
    1552,
    1552,
    1552,
    1552,
    0,
    0,
    0,
    0,
    0,
    0,
    1552,
    1552,
    0,
    0,
    1552,
    0,
    0,
    1552,
    0,
    0,
    0,
    0,
    0,
    0,
    1552,
    0,
    1552,
    1552,
    0,
    0,
    0,
    0,
    0,
    0,
    0,
    0,
    0,
    0,
    0,
    0,
    0,
    0,
    0,
    0,
    0,
    0,
    0,
    0,
    0,
    0,
    0,
    0,
    0,
    0,
    0,
    0,
    0,
    0,
    0,
    0,
    0,
    0,
    0,
    0,
    0,
    0,
    0,
    0,
    0,
    0,
    0,
    0,
    0,
    0,
    0,
    0,
    0,
    0,
    0,
    0,
    0,
    0,
    0,
    0,
    0,
    0,
    0,
    0,
    0,
    0,
    0,
    0,
    0,
    0,
    0,
    0,
    0,
    0,
    0,
    0,
    0,
    0,
    0,
    0,
    0,
    0,
    0,
    0,
    1552,
    0,
    0,
    0,
    0,
    0,
    0,
    0,
    0,
    0,
    0,
    0,
    0,
    0,
    0,
    1552,
    0,
    0,
    0,
    1552,
    1552,
    1552,
    0,
    0,
    0,
    0,
    0,
    0,
    0,
    1552,
    1552,
    0,
    0,
    1552,
    1552,
    0,
    0,
    0,
    0,
    0,
    0,
    0,
    0,
    0,
    0,
    0,
    0,
    0,
    0,
    0,
    0,
    0,
    0,
    0,
    0,
    0,
    0,
    0,
    0,
    0,
    0,
    0,
    0,
    0,
    0,
    0,
    0,
    0,
    0,
    0,
    0,
    0,
    0,
    0,
    0,
    0,
    0,
    0,
    0,
    0,
    0,
    0,
    0,
    0,
    0,
    0,
    0,
    0,
    0,
    0,
    0,
    0,
    0,
    0,
    0,
    0,
    0,
    0,
    0,
    0,
    0,
    0,
    0,
    0,
    0,
    0,
    0,
    0,
    0,
    0,
    0,
    0,
    0,
    0,
    0,
    0,
    0,
    0,
    0,
    0,
    0,
    0,
    0,
    0,
    0,
    0,
    0,
    0,
    0,
    0,
    0,
    1552,
    1552,
    0,
    1552,
    0,
    0,
    0,
    0,
    0,
    0,
    0,
    1552,
    0,
    0,
    1552,
    1552,
    0,
    0,
    0,
    0,
    0,
    0,
    0,
    0,
    1552,
    1552,
    0,
    0,
    0,
    1552,
    1552,
    0,
    0,
    0,
    0,
    0,
    0,
    0,
    0,
    0,
    0,
    0,
    0,
    0,
    0,
    0,
    0,
    0,
    0,
    0,
    0,
    0,
    0,
    0,
    0,
    0,
    0,
    0,
    0,
    0,
    0,
    0,
    0,
    0,
    0,
    1552,
    0,
    0,
    0,
    0,
    0,
    0,
    0,
    0,
    0,
    0,
    0,
    0,
    0,
    0,
    0,
    0,
    0,
    0,
    0,
    0,
    0,
    0,
    0,
    0,
    0,
    0,
    0,
    0,
    0,
    0,
    0,
    0,
    0,
    0,
    0,
    0,
    0,
    0,
    0,
    0,
    0,
    0,
    0,
    0,
    0,
    0,
    0,
    0,
    0,
    0,
    0,
    0,
    0,
    0,
    0,
    0,
    0,
    0,
    0,
    0,
    1552,
    1552,
    1552,
    1552,
    1552,
    1552,
    0,
    0,
    0,
    0,
    0,
    0,
    0,
    0,
    0,
    1552,
    1552,
    0,
    0,
    0,
    0,
    0,
    0,
    0,
    0,
    1552,
    1552,
    0,
    0,
    0,
    0,
    1552,
    0,
    0,
    0,
    0,
    0,
    0,
    0,
    0,
    0,
    0,
    0,
    0,
    0,
    0,
    0,
    0,
    0,
    0,
    0,
    0,
    0,
    0,
    0,
    0,
    0,
    0,
    0,
    0,
    0,
    0,
    0,
    0,
    0,
    0,
    0,
    0,
    0,
    0,
    0,
    0,
    0,
    0,
    0,
    0,
    0,
    0,
    0,
    0,
    0,
    1552,
    1552,
    0,
    0,
    0,
    0,
    0,
    0,
    0,
    0,
    0,
    0,
    0,
    0,
    0,
    0,
    0,
    0,
    0,
    0,
    0,
    0,
    0,
    0,
    0,
    0,
    0,
    0,
    0,
    0,
    0,
    0,
    0,
    0,
    1552,
    0,
    0,
    0,
    0,
    0,
    0,
    0,
    0,
    0,
    0,
    1552,
    1552,
    1552,
    1552,
    1552,
    1552,
    1552,
    1552,
    1552,
    0,
    0,
    0,
    0,
    0,
    0,
    1552,
    1552,
    0,
    0,
    0,
    0,
    0,
    0,
    0,
    0,
    1552,
    1552,
    1552,
    0,
    0,
    0,
    0,
    1552,
    1552,
    0,
    0,
    0,
    0,
    0,
    0,
    0,
    0,
    0,
    0,
    0,
    0,
    0,
    0,
    0,
    0,
    0,
    0,
    0,
    0,
    0,
    0,
    0,
    0,
    0,
    0,
    0,
    0,
    0,
    0,
    0,
    0,
    0,
    0,
    0,
    0,
    0,
    0,
    0,
    0,
    0,
    0,
    0,
    0,
    0,
    0,
    1552,
    0,
    1552,
    1552,
    0,
    0,
    0,
    0,
    0,
    0,
    0,
    0,
    0,
    0,
    0,
    0,
    0,
    0,
    0,
    0,
    0,
    1552,
    1552,
    0,
    0,
    0,
    0,
    0,
    0,
    0,
    0,
    0,
    0,
    0,
    0,
    0,
    0,
    0,
    0,
    0,
    1552,
    0,
    0,
    1552,
    0,
    0,
    0,
    1552,
    1552,
    1552,
    1552,
    1552,
    1552,
    1552,
    0,
    0,
    0,
    1552,
    0,
    0,
    0,
    0,
    1552,
    1552,
    0,
    0,
    0,
    0,
    0,
    1552,
    0,
    0,
    1552,
    0,
    0,
    0,
    0,
    0,
    0,
    0,
    1552,
    1552,
    0,
    0,
    0,
    0,
    0,
    0,
    0,
    0,
    0,
    0,
    0,
    0,
    0,
    0,
    0,
    0,
    0,
    0,
    0,
    0,
    0,
    0,
    0,
    0,
    0,
    0,
    0,
    0,
    0,
    0,
    0,
    0,
    0,
    0,
    0,
    0,
    0,
    0,
    0,
    0,
    0,
    0,
    0,
    0,
    0,
    0,
    0,
    1552,
    1552,
    0,
    1552,
    0,
    0,
    0,
    0,
    0,
    0,
    0,
    0,
    0,
    0,
    0,
    0,
    0,
    0,
    1552,
    1552,
    1552,
    1552,
    0,
    0,
    0,
    0,
    0,
    0,
    0,
    1552,
    1552,
    1552,
    1552,
    1552,
    1552,
    1552,
    1552,
    1552,
    1552,
    0,
    0,
    0,
    0,
    0,
    0,
    0,
    0,
    0,
    0,
    0,
    0,
    0,
    0,
    0,
    0,
    1552,
    1552,
    0,
    0,
    0,
    0,
    1552,
    0,
    0,
    0,
    0,
    0,
    1552,
    1552,
    0,
    0,
    0,
    0,
    0,
    0,
    0,
    1552,
    0,
    0,
    1552,
    1552,
    0,
    0,
    0,
    0,
    0,
    0,
    0,
    0,
    0,
    0,
    0,
    0,
    0,
    0,
    0,
    0,
    0,
    0,
    0,
    0,
    0,
    0,
    0,
    0,
    0,
    0,
    0,
    0,
    0,
    0,
    0,
    0,
    0,
    0,
    0,
    0,
    0,
    0,
    0,
    0,
    0,
    0,
    0,
    0,
    0,
    0,
    0,
    0,
    0,
    0,
    0,
    0,
    0,
    0,
    0,
    0,
    0,
    0,
    0,
    0,
    0,
    0,
    1552,
    0,
    0,
    1552,
    1552,
    1552,
    1552,
    0,
    0,
    0,
    0,
    0,
    0,
    0,
    1552,
    1552,
    1552,
    1552,
    1552,
    1552,
    1552,
    1552,
    1552,
    1552,
    1552,
    1552,
    0,
    0,
    0,
    0,
    0,
    0,
    0,
    0,
    0,
    1552,
    1552,
    1552,
    1552,
    1552,
    1552,
    0,
    0,
    0,
    0,
    1552,
    0,
    0,
    0,
    0,
    1552,
    1552,
    1552,
    0,
    0,
    0,
    0,
    0,
    1552,
    0,
    0,
    0,
    0,
    0,
    1552,
    0,
    0,
    0,
    0,
    0,
    0,
    0,
    0,
    0,
    0,
    0,
    0,
    0,
    0,
    0,
    0,
    0,
    0,
    0,
    0,
    0,
    0,
    0,
    0,
    0,
    0,
    0,
    0,
    0,
    0,
    0,
    0,
    0,
    0,
    0,
    0,
    0,
    0,
    0,
    0,
    0,
    0,
    0,
    0,
    0,
    0,
    0,
    0,
    0,
    0,
    0,
    0,
    0,
    0,
    0,
    0,
    0,
    0,
    0,
    0,
    0,
    0,
    0,
    1552,
    1552,
    0,
    1552,
    1552,
    1552,
    1552,
    1552,
    0,
    0,
    0,
    0,
    0,
    0,
    0,
    0,
    0,
    0,
    0,
    0,
    0,
    0,
    0,
    0,
    0,
    1552,
    1552,
    0,
    0,
    0,
    0,
    0,
    1552,
    1552,
    1552,
    1552,
    1552,
    1552,
    0,
    0,
    0,
    0,
    0,
    0,
    0,
    1552,
    0,
    0,
    1552,
    1552,
    1552,
    1552,
    0,
    0,
    0,
    0,
    0,
    0,
    0,
    1552,
    0,
    0,
    0,
    1552,
    1552,
    0,
    0,
    0,
    0,
    0,
    0,
    0,
    0,
    0,
    0,
    0,
    0,
    0,
    0,
    0,
    0,
    0,
    0,
    0,
    0,
    0,
    0,
    0,
    0,
    0,
    0,
    0,
    0,
    0,
    0,
    0,
    0,
    0,
    0,
    0,
    0,
    0,
    0,
    0,
    0,
    0,
    0,
    0,
    0,
    0,
    0,
    0,
    0,
    0,
    0,
    0,
    0,
    0,
    0,
    0,
    0,
    0,
    0,
    0,
    0,
    0,
    0,
    1552,
    1552,
    1552,
    0,
    1552,
    1552,
    1552,
    1552,
    1552,
    0,
    0,
    0,
    0,
    0,
    0,
    1552,
    1552,
    1552,
    1552,
    1552,
    1552,
    1552,
    1552,
    0,
    0,
    0,
    0,
    1552,
    0,
    0,
    0,
    1552,
    1552,
    1552,
    0,
    0,
    0,
    0,
    0,
    0,
    0,
    0,
    0,
    0,
    0,
    1552,
    0,
    0,
    1552,
    1552,
    1552,
    0,
    0,
    0,
    0,
    0,
    0,
    0,
    0,
    1552,
    1552,
    1552,
    1552,
    1552,
    1552,
    0,
    0,
    0,
    0,
    0,
    0,
    0,
    0,
    0,
    0,
    0,
    0,
    0,
    0,
    0,
    0,
    0,
    0,
    0,
    0,
    1552,
    0,
    0,
    0,
    0,
    0,
    0,
    0,
    0,
    0,
    0,
    0,
    0,
    0,
    0,
    0,
    0,
    0,
    0,
    0,
    0,
    0,
    0,
    0,
    0,
    0,
    0,
    0,
    0,
    0,
    0,
    0,
    0,
    0,
    0,
    0,
    0,
    0,
    0,
    0,
    0,
    0,
    0,
    0,
    0,
    0,
    1552,
    0,
    1552,
    1552,
    1552,
    0,
    1552,
    1552,
    1552,
    0,
    0,
    0,
    1552,
    1552,
    1552,
    1552,
    1552,
    1552,
    1552,
    1552,
    1552,
    1552,
    0,
    0,
    0,
    1552,
    1552,
    1552,
    1552,
    1552,
    0,
    0,
    0,
    0,
    0,
    0,
    0,
    0,
    1552,
    0,
    0,
    0,
    0,
    1552,
    1552,
    1552,
    0,
    0,
    0,
    0,
    0,
    0,
    0,
    0,
    0,
    1552,
    1552,
    1552,
    1552,
    1552,
    1552,
    0,
    0,
    0,
    0,
    0,
    0,
    0,
    0,
    0,
    0,
    0,
    0,
    0,
    0,
    0,
    0,
    0,
    0,
    0,
    1552,
    0,
    1552,
    1552,
    0,
    0,
    0,
    0,
    0,
    0,
    0,
    0,
    0,
    0,
    0,
    0,
    0,
    0,
    0,
    0,
    0,
    0,
    0,
    0,
    0,
    0,
    0,
    0,
    0,
    0,
    0,
    0,
    0,
    0,
    0,
    0,
    0,
    0,
    0,
    0,
    0,
    0,
    0,
    0,
    1552,
    0,
    0,
    1552,
    1552,
    1552,
    0,
    1552,
    0,
    0,
    1552,
    1552,
    0,
    0,
    0,
    0,
    0,
    0,
    0,
    0,
    0,
    0,
    0,
    0,
    0,
    1552,
    1552,
    0,
    0,
    1552,
    1552,
    1552,
    0,
    0,
    0,
    0,
    0,
    0,
    1552,
    0,
    0,
    0,
    1552,
    0,
    0,
    0,
    0,
    1552,
    1552,
    0,
    0,
    0,
    0,
    0,
    1552,
    0,
    0,
    1552,
    1552,
    1552,
    1552,
    0,
    0,
    0,
    0,
    0,
    0,
    0,
    0,
    0,
    0,
    0,
    0,
    0,
    0,
    0,
    0,
    0,
    0,
    0,
    0,
    0,
    0,
    0,
    1552,
    1552,
    1552,
    0,
    1552,
    0,
    0,
    0,
    0,
    0,
    0,
    0,
    0,
    0,
    0,
    0,
    0,
    0,
    0,
    0,
    0,
    0,
    0,
    0,
    0,
    0,
    0,
    0,
    0,
    0,
    0,
    0,
    0,
    0,
    0,
    0,
    0,
    0,
    0,
    0,
    0,
    0,
    0,
    0,
    0,
    0,
    0,
    1552,
    1552,
    1552,
    1552,
    1552,
    1552,
    1552,
    0,
    0,
    0,
    0,
    0,
    0,
    0,
    0,
    0,
    0,
    0,
    0,
    0,
    0,
    0,
    0,
    1552,
    0,
    0,
    0,
    0,
    0,
    0,
    0,
    0,
    0,
    0,
    0,
    0,
    0,
    1552,
    1552,
    0,
    0,
    0,
    0,
    1552,
    0,
    0,
    0,
    0,
    0,
    0,
    0,
    0,
    0,
    1552,
    1552,
    1552,
    0,
    0,
    0,
    0,
    0,
    0,
    0,
    0,
    0,
    0,
    0,
    0,
    0,
    0,
    0,
    0,
    0,
    0,
    0,
    0,
    0,
    0,
    0,
    0,
    1552,
    1552,
    1552,
    0,
    1552,
    0,
    0,
    0,
    0,
    0,
    0,
    0,
    0,
    0,
    0,
    0,
    0,
    0,
    0,
    0,
    0,
    0,
    0,
    0,
    0,
    0,
    0,
    0,
    0,
    0,
    0,
    0,
    0,
    0,
    0,
    0,
    0,
    0,
    0,
    0,
    0,
    0,
    0,
    0,
    0,
    0,
    0,
    1552,
    0,
    1552,
    1552,
    1552,
    1552,
    1552,
    1552,
    1552,
    1552,
    0,
    0,
    0,
    0,
    0,
    0,
    0,
    1552,
    0,
    0,
    0,
    0,
    0,
    0,
    0,
    0,
    0,
    0,
    0,
    0,
    0,
    0,
    0,
    0,
    0,
    0,
    0,
    1552,
    1552,
    0,
    0,
    0,
    0,
    0,
    0,
    0,
    0,
    0,
    0,
    0,
    0,
    0,
    0,
    1552,
    1552,
    0,
    0,
    0,
    0,
    0,
    1552,
    0,
    0,
    1552,
    0,
    0,
    0,
    0,
    0,
    0,
    0,
    0,
    0,
    0,
    0,
    0,
    0,
    0,
    0,
    0,
    0,
    1552,
    1552,
    0,
    0,
    0,
    0,
    0,
    0,
    0,
    0,
    0,
    0,
    0,
    0,
    0,
    0,
    0,
    0,
    0,
    0,
    0,
    0,
    0,
    0,
    0,
    0,
    0,
    0,
    0,
    0,
    0,
    0,
    0,
    0,
    0,
    0,
    0,
    0,
    0,
    0,
    0,
    0,
    0,
    0,
    0,
    0,
    0,
    0,
    1552,
    1552,
    1552,
    1552,
    1552,
    0,
    1552,
    1552,
    1552,
    0,
    0,
    0,
    0,
    0,
    0,
    1552,
    0,
    1552,
    0,
    0,
    1552,
    0,
    0,
    0,
    0,
    0,
    0,
    0,
    0,
    0,
    0,
    0,
    0,
    0,
    1552,
    1552,
    0,
    0,
    0,
    1552,
    0,
    0,
    0,
    0,
    0,
    0,
    0,
    0,
    0,
    0,
    0,
    1552,
    1552,
    0,
    0,
    0,
    0,
    0,
    0,
    0,
    1552,
    0,
    0,
    0,
    0,
    0,
    0,
    0,
    0,
    0,
    0,
    0,
    0,
    0,
    0,
    0,
    0,
    0,
    0,
    1552,
    0,
    0,
    0,
    0,
    0,
    0,
    0,
    0,
    0,
    0,
    0,
    0,
    0,
    0,
    0,
    0,
    0,
    0,
    0,
    0,
    0,
    0,
    0,
    0,
    0,
    0,
    0,
    0,
    0,
    0,
    0,
    0,
    0,
    0,
    0,
    0,
    0,
    0,
    0,
    0,
    0,
    0,
    0,
    0,
    0,
    0,
    0,
    1552,
    1552,
    1552,
    1552,
    1552,
    0,
    1552,
    1552,
    0,
    1552,
    0,
    0,
    0,
    0,
    0,
    1552,
    1552,
    1552,
    0,
    1552,
    1552,
    1552,
    1552,
    1552,
    0,
    0,
    0,
    0,
    0,
    0,
    0,
    0,
    0,
    1552,
    1552,
    1552,
    0,
    0,
    0,
    1552,
    1552,
    0,
    0,
    0,
    0,
    0,
    0,
    0,
    0,
    0,
    0,
    0,
    1552,
    0,
    0,
    0,
    0,
    0,
    0,
    0,
    1552,
    1552,
    0,
    0,
    0,
    0,
    0,
    0,
    0,
    0,
    0,
    0,
    0,
    0,
    0,
    0,
    0,
    0,
    0,
    0,
    0,
    0,
    0,
    0,
    0,
    0,
    0,
    0,
    0,
    0,
    0,
    0,
    0,
    0,
    0,
    0,
    0,
    0,
    0,
    0,
    0,
    0,
    0,
    0,
    0,
    0,
    0,
    0,
    0,
    0,
    0,
    0,
    0,
    0,
    0,
    0,
    0,
    0,
    0,
    0,
    0,
    0,
    0,
    0,
    0,
    0,
    0,
    0,
    1552,
    1552,
    1552,
    1552,
    1552,
    1552,
    1552,
    1552,
    0,
    0,
    0,
    0,
    0,
    0,
    1552,
    1552,
    1552,
    0,
    1552,
    1552,
    1552,
    1552,
    1552,
    1552,
    0,
    0,
    0,
    0,
    0,
    0,
    0,
    0,
    1552,
    1552,
    1552,
    0,
    0,
    0,
    0,
    1552,
    0,
    0,
    0,
    0,
    0,
    0,
    0,
    0,
    0,
    0,
    1552,
    1552,
    1552,
    0,
    0,
    0,
    0,
    1552,
    0,
    0,
    1552,
    1552,
    0,
    0,
    0,
    0,
    0,
    0,
    0,
    0,
    0,
    0,
    0,
    0,
    0,
    0,
    0,
    0,
    0,
    0,
    0,
    0,
    0,
    0,
    0,
    0,
    0,
    0,
    0,
    0,
    0,
    0,
    0,
    0,
    0,
    0,
    0,
    0,
    0,
    0,
    0,
    0,
    0,
    0,
    0,
    0,
    0,
    0,
    0,
    0,
    0,
    0,
    0,
    0,
    0,
    0,
    0,
    0,
    0,
    0,
    0,
    0,
    0,
    0,
    0,
    0,
    0,
    0,
    0,
    1552,
    0,
    1552,
    1552,
    1552,
    1552,
    1552,
    0,
    0,
    0,
    0,
    0,
    0,
    1552,
    1552,
    1552,
    1552,
    1552,
    1552,
    1552,
    1552,
    0,
    0,
    0,
    0,
    0,
    0,
    0,
    0,
    1552,
    1552,
    1552,
    0,
    0,
    0,
    0,
    0,
    1552,
    1552,
    0,
    0,
    0,
    0,
    0,
    0,
    0,
    0,
    0,
    0,
    0,
    1552,
    0,
    0,
    0,
    0,
    0,
    0,
    0,
    0,
    0,
    0,
    0,
    0,
    0,
    0,
    0,
    0,
    0,
    0,
    0,
    0,
    0,
    0,
    0,
    0,
    0,
    0,
    0,
    0,
    0,
    0,
    0,
    0,
    0,
    0,
    0,
    0,
    0,
    0,
    0,
    0,
    0,
    0,
    0,
    0,
    0,
    0,
    0,
    0,
    0,
    0,
    0,
    0,
    0,
    0,
    0,
    0,
    0,
    0,
    0,
    0,
    0,
    0,
    0,
    0,
    0,
    0,
    0,
    0,
    0,
    0,
    0,
    0,
    0,
    0,
    0,
    0,
    0,
    0,
    1552,
    0,
    1552,
    1552,
    1552,
    0,
    0,
    0,
    0,
    0,
    0,
    0,
    1552,
    1552,
    1552,
    1552,
    1552,
    1552,
    1552,
    1552,
    0,
    0,
    0,
    0,
    1552,
    1552,
    0,
    1552,
    0,
    0,
    0,
    0,
    0,
    0,
    0,
    0,
    1552,
    1552,
    0,
    0,
    0,
    0,
    0,
    0,
    0,
    0,
    0,
    0,
    0,
    0,
    0,
    0,
    0,
    0,
    0,
    0,
    0,
    0,
    0,
    0,
    0,
    0,
    0,
    0,
    0,
    0,
    0,
    0,
    0,
    0,
    0,
    0,
    0,
    0,
    0,
    0,
    0,
    0,
    0,
    0,
    0,
    0,
    0,
    0,
    0,
    0,
    0,
    0,
    0,
    0,
    0,
    0,
    0,
    0,
    0,
    0,
    0,
    0,
    0,
    0,
    0,
    0,
    0,
    0,
    0,
    0,
    0,
    0,
    0,
    0,
    0,
    0,
    0,
    0,
    0,
    0,
    0,
    0,
    0,
    0,
    0,
    0,
    0,
    0,
    1552,
    0,
    0,
    0,
    1552,
    1552,
    1552,
    1552,
    0,
    0,
    0,
    0,
    0,
    0,
    0,
    0,
    1552,
    1552,
    1552,
    1552,
    1552,
    1552,
    1552,
    0,
    0,
    0,
    0,
    1552,
    1552,
    0,
    0,
    0,
    0,
    0,
    0,
    0,
    1552,
    0,
    0,
    0,
    1552,
    1552,
    0,
    0,
    0,
    0,
    0,
    0,
    0,
    0,
    0,
    0,
    0,
    0,
    0,
    0,
    0,
    0,
    0,
    0,
    0,
    0,
    0,
    0,
    0,
    0,
    0,
    0,
    0,
    0,
    0,
    0,
    0,
    0,
    0,
    0,
    0,
    0,
    0,
    0,
    0,
    0,
    0,
    0,
    0,
    0,
    0,
    0,
    0,
    0,
    0,
    0,
    0,
    0,
    0,
    0,
    0,
    0,
    0,
    0,
    0,
    0,
    0,
    0,
    0,
    0,
    0,
    0,
    0,
    0,
    0,
    0,
    0,
    0,
    0,
    0,
    0,
    0,
    0,
    0,
    0,
    0,
    0,
    0,
    0,
    0,
    0,
    0,
    0,
    0,
    0,
    1552,
    1552,
    1552,
    1552,
    1552,
    0,
    0,
    0,
    0,
    0,
    0,
    0,
    0,
    0,
    0,
    0,
    1552,
    1552,
    0,
    0,
    0,
    0,
    0,
    1552,
    1552,
    1552,
    0,
    0,
    0,
    0,
    1552,
    0,
    0,
    0,
    0,
    0,
    0,
    1552,
    0,
    0,
    0,
    0,
    0,
    0,
    0,
    0,
    0,
    0,
    0,
    0,
    0,
    0,
    0,
    0,
    0,
    0,
    0,
    0,
    0,
    0,
    0,
    0,
    0,
    0,
    0,
    0,
    0,
    0,
    0,
    0,
    0,
    0,
    0,
    0,
    0,
    0,
    0,
    0,
    0,
    0,
    0,
    0,
    0,
    0,
    0,
    0,
    0,
    0,
    0,
    0,
    0,
    0,
    0,
    0,
    0,
    0,
    0,
    0,
    0,
    0,
    0,
    0,
    0,
    0,
    0,
    0,
    0,
    0,
    0,
    0,
    0,
    0,
    0,
    0,
    0,
    0,
    0,
    0,
    0,
    0,
    0,
    0,
    0,
    0,
    0,
    0,
    0,
    1552,
    1552,
    1552,
    0,
    0,
    0,
    0,
    0,
    0,
    0,
    0,
    0,
    0,
    0,
    0,
    1552,
    0,
    1552,
    1552,
    1552,
    0,
    0,
    1552,
    1552,
    0,
    0,
    0,
    0,
    0,
    0,
    0,
    0,
    0,
    0,
    0,
    0,
    0,
    1552,
    1552,
    0,
    0,
    0,
    0,
    0,
    0,
    0,
    0,
    0,
    0,
    0,
    0,
    0,
    0,
    0,
    0,
    0,
    0,
    0,
    0,
    0,
    0,
    0,
    0,
    0,
    0,
    0,
    0,
    0,
    0,
    0,
    0,
    0,
    0,
    0,
    0,
    0,
    0,
    0,
    0,
    0,
    0,
    0,
    0,
    0,
    0,
    0,
    0,
    0,
    0,
    0,
    0,
    0,
    0,
    0,
    0,
    0,
    0,
    0,
    0,
    0,
    0,
    0,
    0,
    0,
    0,
    0,
    0,
    0,
    0,
    0,
    0,
    0,
    0,
    0,
    0,
    0,
    0,
    0,
    0,
    0,
    0,
    0,
    0,
    0,
    0,
    0,
    0,
    0,
    0,
    0,
    0,
    0,
    0,
    0,
    0,
    0,
    0,
    0,
    0,
    0,
    0,
    0,
    1552,
    1552,
    0,
    0,
    1552,
    0,
    0,
    1552,
    1552,
    0,
    0,
    0,
    0,
    0,
    0,
    0,
    0,
    0,
    0,
    0,
    0,
    1552,
    1552,
    1552,
    0,
    0,
    0,
    0,
    0,
    0,
    0,
    0,
    0,
    0,
    0,
    0,
    0,
    0,
    0,
    0,
    0,
    0,
    0,
    0,
    0,
    0,
    0,
    0,
    0,
    0,
    0,
    0,
    0,
    0,
    0,
    0,
    0,
    0,
    0,
    0,
    0,
    0,
    0,
    0,
    0,
    0,
    0,
    0,
    0,
    0,
    0,
    0,
    0,
    0,
    0,
    0,
    0,
    0,
    0,
    0,
    0,
    0,
    0,
    0,
    0,
    0,
    0,
    0,
    0,
    0,
    0,
    0,
    0,
    0,
    0,
    0,
    0,
    0,
    0,
    0,
    0,
    0,
    0,
    0,
    0,
    0,
    0,
    0,
    0,
    0,
    0,
    0,
    0,
    0,
    0,
    0,
    0,
    0,
    0,
    0,
    0,
    0,
    0,
    0,
    0,
    0,
    0,
    0,
    0,
    0,
    0,
    0,
    0,
    0,
    1552,
    1552,
    0,
    0,
    0,
    0,
    0,
    0,
    0,
    0,
    0,
    0,
    1552,
    1552,
    1552,
    1552,
    1552,
    0,
    0,
    0,
    0,
    0,
    0,
    0,
    0,
    0,
    0,
    0,
    0,
    0,
    0,
    0,
    0,
    0,
    0,
    0,
    0,
    0,
    0,
    0,
    0,
    0,
    0,
    0,
    0,
    0,
    0,
    0,
    0,
    0,
    0,
    0,
    0,
    0,
    0,
    0,
    0,
    0,
    0,
    0,
    0,
    0,
    0,
    0,
    0,
    0,
    0,
    0,
    0,
    0,
    0,
    0,
    0,
    0,
    0,
    0,
    0,
    0,
    0,
    0,
    0,
    0,
    0,
    0,
    0,
    0,
    0,
    0,
    0,
    0,
    0,
    0,
    0,
    0,
    0,
    0,
    0,
    0,
    0,
    0,
    0,
    0,
    0,
    0,
    0,
    0,
    0,
    1552,
    0,
    1552,
    1552,
    0,
    0,
    0,
    0,
    0,
    0,
    0,
    0,
    0,
    0,
    0,
    0,
    0,
    0,
    0,
    0,
    0,
    1552,
    1552,
    0,
    0,
    0,
    0,
    0,
    0,
    0,
    1552,
    1552,
    1552,
    1552,
    1552,
    1552,
    0,
    0,
    0,
    0,
    0,
    0,
    0,
    0,
    0,
    0,
    0,
    0,
    0,
    0,
    0,
    0,
    0,
    0,
    0,
    0,
    0,
    0,
    0,
    0,
    0,
    0,
    0,
    0,
    0,
    0,
    0,
    0,
    0,
    0,
    0,
    0,
    0,
    0,
    0,
    0,
    0,
    0,
    0,
    0,
    0,
    0,
    0,
    0,
    0,
    0,
    0,
    0,
    0,
    0,
    0,
    0,
    0,
    0,
    0,
    0,
    0,
    0,
    0,
    0,
    0,
    0,
    0,
    0,
    0,
    0,
    0,
    0,
    0,
    0,
    0,
    0,
    0,
    0,
    0,
    0,
    0,
    0,
    0,
    0,
    0,
    0,
    0,
    0,
    0,
    0,
    0,
    0,
    0,
    1552,
    1552,
    1552,
    1552,
    0,
    0,
    0,
    0,
    0,
    0,
    0,
    0,
    0,
    1552,
    0,
    0,
    0,
    0,
    0,
    0,
    1552,
    1552,
    0,
    0,
    0,
    0,
    0,
    1552,
    1552,
    1552,
    0,
    0,
    0,
    0,
    0,
    0,
    0,
    0,
    0,
    0,
    0,
    0,
    0,
    0,
    0,
    0,
    0,
    0,
    0,
    0,
    0,
    0,
    0,
    0,
    0,
    0,
    0,
    0,
    0,
    0,
    0,
    0,
    0,
    0,
    0,
    0,
    0,
    0,
    0,
    0,
    0,
    0,
    0,
    0,
    0,
    0,
    0,
    0,
    0,
    0,
    0,
    0,
    0,
    0,
    0,
    0,
    0,
    0,
    0,
    0,
    0,
    0,
    0,
    0,
    0,
    0,
    0,
    0,
    0,
    0,
    0,
    0,
    0,
    0,
    0,
    0,
    0,
    0,
    0,
    0,
    0,
    0,
    0,
    0,
    0,
    0,
    0,
    0,
    0,
    0,
    0,
    0,
    0,
    0,
    0,
    0,
    1552,
    1552,
    1552,
    0,
    1552,
    1552,
    0,
    0,
    0,
    0,
    0,
    0,
    0,
    0,
    0,
    0,
    0,
    0,
    0,
    0,
    0,
    0,
    1552,
    1552,
    0,
    0,
    0,
    0,
    1552,
    1552,
    1552,
    0,
    0,
    0,
    0,
    1552,
    0,
    0,
    1552,
    0,
    0,
    0,
    0,
    0,
    0,
    0,
    0,
    0,
    0,
    0,
    0,
    0,
    0,
    0,
    0,
    0,
    0,
    0,
    0,
    0,
    0,
    0,
    0,
    0,
    0,
    0,
    0,
    0,
    0,
    0,
    0,
    0,
    0,
    0,
    0,
    0,
    0,
    0,
    0,
    0,
    0,
    0,
    0,
    0,
    0,
    0,
    0,
    0,
    0,
    0,
    0,
    0,
    0,
    0,
    0,
    1552,
    0,
    0,
    0,
    0,
    0,
    0,
    0,
    0,
    0,
    0,
    0,
    0,
    0,
    0,
    0,
    0,
    0,
    0,
    0,
    0,
    0,
    0,
    0,
    0,
    0,
    0,
    0,
    0,
    0,
    0,
    1552,
    0,
    0,
    1552,
    1552,
    1552,
    1552,
    1552,
    0,
    0,
    0,
    0,
    0,
    0,
    0,
    0,
    0,
    0,
    0,
    1552,
    0,
    0,
    0,
    0,
    1552,
    0,
    0,
    0,
    0,
    0,
    1552,
    0,
    0,
    0,
    0,
    0,
    0,
    0,
    1552,
    0,
    0,
    0,
    0,
    0,
    0,
    0,
    0,
    0,
    0,
    0,
    0,
    0,
    0,
    0,
    0,
    0,
    0,
    0,
    0,
    0,
    0,
    0,
    0,
    0,
    0,
    0,
    0,
    0,
    0,
    0,
    0,
    0,
    0,
    0,
    0,
    0,
    0,
    0,
    0,
    0,
    0,
    0,
    0,
    0,
    0,
    0,
    0,
    0,
    0,
    0,
    0,
    0,
    0,
    0,
    0,
    0,
    0,
    0,
    0,
    0,
    0,
    0,
    0,
    0,
    0,
    0,
    0,
    0,
    0,
    0,
    0,
    0,
    0,
    0,
    0,
    0,
    0,
    0,
    0,
    0,
    0,
    0,
    0,
    0,
    0,
    0,
    0,
    0,
    0,
    0,
    0,
    1552,
    1552,
    1552,
    0,
    1552,
    1552,
    0,
    0,
    0,
    0,
    0,
    0,
    0,
    0,
    0,
    1552,
    0,
    0,
    0,
    0,
    0,
    1552,
    0,
    0,
    0,
    0,
    1552,
    0,
    0,
    0,
    0,
    0,
    0,
    0,
    1552,
    1552,
    0,
    0,
    0,
    0,
    0,
    0,
    0,
    0,
    0,
    0,
    0,
    0,
    0,
    0,
    0,
    0,
    0,
    0,
    0,
    0,
    0,
    0,
    0,
    0,
    0,
    0,
    0,
    0,
    0,
    0,
    0,
    0,
    0,
    0,
    0,
    0,
    0,
    0,
    0,
    0,
    0,
    0,
    0,
    0,
    0,
    0,
    0,
    0,
    0,
    0,
    0,
    0,
    0,
    0,
    0,
    0,
    0,
    0,
    0,
    0,
    0,
    0,
    0,
    0,
    0,
    0,
    0,
    0,
    0,
    0,
    0,
    0,
    0,
    0,
    0,
    0,
    0,
    0,
    0,
    0,
    0,
    0,
    0,
    0,
    0,
    0,
    0,
    0,
    0,
    0,
    0,
    0,
    1552,
    1552,
    1552,
    1552,
    1552,
    0,
    0,
    0,
    0,
    0,
    0,
    0,
    0,
    0,
    0,
    1552,
    1552,
    0,
    0,
    0,
    1552,
    0,
    0,
    0,
    0,
    0,
    1552,
    0,
    0,
    0,
    0,
    1552,
    0,
    0,
    1552,
    1552,
    0,
    0,
    0,
    0,
    0,
    0,
    0,
    0,
    0,
    0,
    0,
    0,
    0,
    0,
    0,
    0,
    0,
    0,
    0,
    0,
    0,
    0,
    0,
    0,
    0,
    0,
    0,
    0,
    0,
    0,
    0,
    0,
    0,
    0,
    0,
    0,
    0,
    0,
    0,
    0,
    0,
    0,
    0,
    0,
    0,
    0,
    0,
    0,
    0,
    0,
    0,
    0,
    0,
    0,
    0,
    0,
    0,
    0,
    0,
    0,
    0,
    0,
    0,
    0,
    0,
    0,
    0,
    0,
    0,
    0,
    0,
    0,
    0,
    0,
    0,
    0,
    0,
    0,
    0,
    0,
    0,
    0,
    0,
    0,
    1552,
    0,
    0,
    0,
    0,
    0,
    0,
    0,
    0,
    0,
    1552,
    1552,
    1552,
    0,
    0,
    0,
    0,
    0,
    0,
    0,
    0,
    0,
    0,
    1552,
    1552,
    1552,
    0,
    0,
    0,
    0,
    0,
    0,
    0,
    1552,
    0,
    0,
    0,
    0,
    0,
    0,
    0,
    0,
    0,
    0,
    0,
    0,
    0,
    0,
    0,
    0,
    0,
    0,
    0,
    0,
    0,
    0,
    0,
    0,
    0,
    0,
    0,
    0,
    0,
    0,
    0,
    0,
    0,
    0,
    0,
    0,
    0,
    0,
    0,
    0,
    0,
    0,
    0,
    0,
    0,
    0,
    0,
    0,
    0,
    0,
    0,
    0,
    0,
    0,
    0,
    0,
    0,
    0,
    0,
    0,
    0,
    0,
    0,
    0,
    0,
    0,
    0,
    0,
    0,
    0,
    0,
    0,
    0,
    0,
    0,
    0,
    0,
    0,
    0,
    0,
    0,
    0,
    0,
    0,
    0,
    0,
    0,
    0,
    0,
    0,
    0,
    0,
    0,
    0,
    0,
    0,
    0,
    0,
    0,
    0,
    0,
    0,
    0,
    0,
    0,
    0,
    0,
    0,
    0,
    0,
    0,
    0,
    0,
    0,
    0,
    0,
    0,
    1552,
    1552,
    1552,
    1552,
    1552,
    0,
    0,
    0,
    0,
    0,
    0,
    0,
    0,
    0,
    0,
    0,
    0,
    0,
    0,
    0,
    0,
    0,
    0,
    0,
    0,
    0,
    0,
    0,
    0,
    0,
    0,
    0,
    0,
    0,
    0,
    0,
    0,
    0,
    0,
    0,
    0,
    0,
    0,
    0,
    0,
    0,
    0,
    0,
    0,
    0,
    0,
    0,
    0,
    0,
    0,
    0,
    0,
    0,
    0,
    0,
    0,
    0,
    0,
    0,
    0,
    0,
    0,
    0,
    0,
    0,
    0,
    0,
    0,
    0,
    0,
    0,
    0,
    0,
    0,
    0,
    0,
    0,
    0,
    0,
    0,
    0,
    0,
    0,
    0,
    0,
    0,
    0,
    0,
    0,
    0,
    0,
    0,
    0,
    0,
    0,
    0,
    0,
    0,
    0,
    0,
    0,
    0,
    0,
    1552,
    0,
    0,
    0,
    0,
    0,
    0,
    0,
    0,
    0,
    0,
    0,
    0,
    0,
    0,
    0,
    0,
    0,
    0,
    0,
    1552,
    1552,
    1552,
    1552,
    1552,
    1552,
    1552,
    1552,
    0,
    0,
    0,
    0,
    0,
    0,
    0,
    0,
    0,
    0,
    0,
    0,
    0,
    0,
    0,
    0,
    0,
    0,
    0,
    0,
    0,
    0,
    0,
    0,
    0,
    0,
    0,
    0,
    0,
    0,
    0,
    0,
    0,
    0,
    0,
    0,
    0,
    0,
    0,
    0,
    0,
    0,
    0,
    0,
    0,
    0,
    0,
    0,
    0,
    0,
    0,
    0,
    0,
    0,
    0,
    0,
    0,
    0,
    0,
    0,
    0,
    0,
    0,
    0,
    0,
    0,
    0,
    0,
    0,
    0,
    0,
    0,
    0,
    0,
    0,
    0,
    0,
    0,
    0,
    0,
    0,
    0,
    0,
    0,
    0,
    0,
    0,
    0,
    0,
    0,
    0,
    0,
    0,
    0,
    0,
    0,
    0,
    0,
    0,
    0,
    0,
    0,
    0,
    0,
    0,
    0,
    0,
    0,
    0,
    0,
    0,
    0,
    0,
    0,
    0,
    0,
    0,
    0,
    0,
    0,
    1552,
    1552,
    1552,
    1552,
    1552,
    1552,
    1552,
    1552,
    1552,
    0,
    0,
    0,
    0,
    0,
    0,
    0,
    0,
    0,
    0,
    0,
    0,
    0,
    0,
    0,
    0,
    0,
    0,
    0,
    0,
    0,
    0,
    0,
    0,
    0,
    0,
    0,
    0,
    0,
    0,
    0,
    0,
    0,
    0,
    0,
    0,
    0,
    0,
    0,
    0,
    0,
    0,
    0,
    0,
    0,
    0,
    0,
    0,
    0,
    0,
    0,
    0,
    0,
    0,
    0,
    0,
    0,
    0,
    0,
    0,
    0,
    0,
    0,
    0,
    0,
    0,
    0,
    0,
    0,
    0,
    0,
    0,
    0,
    0,
    0,
    0,
    0,
    0,
    0,
    0,
    0,
    0,
    0,
    0,
    0,
    0,
    0,
    0,
    0,
    0,
    0,
    0,
    0,
    0,
    0,
    0,
    0,
    0,
    0,
    0,
    0,
    0,
    0,
    0,
    0,
    0,
    0,
    0,
    1552,
    0,
    0,
    0,
    0,
    0,
    0,
    0,
    0,
    0,
    0,
    1552,
    1552,
    1552,
    1552,
    1552,
    1552,
    1552,
    1552,
    1552,
    1552,
    0,
    0,
    0,
    0,
    0,
    0,
    0,
    0,
    0,
    0,
    0,
    0,
    0,
    0,
    0,
    0,
    0,
    0,
    0,
    0,
    0,
    0,
    0,
    0,
    0,
    0,
    0,
    0,
    0,
    0,
    0,
    0,
    0,
    0,
    0,
    0,
    0,
    0,
    0,
    0,
    0,
    0,
    0,
    0,
    0,
    0,
    0,
    0,
    0,
    0,
    0,
    0,
    0,
    0,
    0,
    0,
    0,
    0,
    0,
    0,
    0,
    0,
    0,
    0,
    0,
    0,
    0,
    0,
    0,
    0,
    0,
    0,
    0,
    0,
    0,
    0,
    0,
    0,
    0,
    0,
    0,
    0,
    0,
    0,
    0,
    0,
    0,
    0,
    0,
    0,
    0,
    0,
    0,
    0,
    0,
    0,
    0,
    0,
    0,
    0,
    0,
    0,
    0,
    0,
    0,
    0,
    1552,
    1552,
    1552,
    1552,
    0,
    0,
    0,
    0,
    0,
    0,
    0,
    0,
    1552,
    1552,
    1552,
    1552,
    1552,
    1552,
    1552,
    1552,
    1552,
    1552,
    1552,
    0,
    0,
    0,
    0,
    0,
    0,
    0,
    0,
    0,
    0,
    0,
    0,
    0,
    0,
    0,
    0,
    0,
    0,
    0,
    0,
    0,
    0,
    0,
    0,
    0,
    0,
    0,
    0,
    0,
    0,
    0,
    0,
    0,
    0,
    0,
    0,
    0,
    0,
    0,
    0,
    0,
    0,
    0,
    0,
    0,
    0,
    0,
    0,
    0,
    0,
    0,
    0,
    0,
    0,
    0,
    0,
    0,
    0,
    0,
    0,
    0,
    0,
    0,
    0,
    0,
    0,
    0,
    0,
    0,
    0,
    0,
    0,
    0,
    0,
    0,
    0,
    0,
    0,
    0,
    0,
    0,
    0,
    0,
    0,
    0,
    0,
    0,
    0,
    0,
    0,
    0,
    0,
    0,
    0,
    0,
    0,
    0,
    0,
    0,
    0,
    0,
    0,
    0,
    0,
    1552,
    1552,
    1552,
    1552,
    1552,
    1552,
    1552,
    0,
    0,
    0,
    0,
    0,
    0,
    1552,
    1552,
    1552,
    1552,
    1552,
    1552,
    1552,
    1552,
    1552,
    1552,
    1552,
    1552,
    0,
    0,
    0,
    0,
    0,
    0,
    0,
    0,
    0,
    1552,
    0,
    0,
    0,
    0,
    0,
    0,
    0,
    0,
    0,
    0,
    0,
    0,
    0,
    0,
    0,
    0,
    0,
    0,
    0,
    0,
    0,
    0,
    0,
    0,
    0,
    0,
    0,
    0,
    0,
    0,
    0,
    0,
    0,
    0,
    0,
    0,
    0,
    0,
    0,
    0,
    0,
    0,
    0,
    0,
    0,
    0,
    0,
    0,
    0,
    0,
    0,
    0,
    0,
    0,
    0,
    0,
    0,
    0,
    0,
    0,
    0,
    0,
    0,
    0,
    0,
    0,
    0,
    0,
    0,
    0,
    0,
    0,
    0,
    0,
    0,
    0,
    0,
    0,
    0,
    0,
    0,
    0,
    0,
    0,
    0,
    0,
    0,
    0,
    0,
    0,
    0,
    0,
    0,
    1552,
    0,
    1552,
    1552,
    1552,
    1552,
    1552,
    1552,
    0,
    0,
    0,
    0,
    0,
    0,
    1552,
    1552,
    1552,
    1552,
    1552,
    1552,
    1552,
    1552,
    1552,
    1552,
    1552,
    0,
    0,
    0,
    0,
    0,
    0,
    0,
    0,
    0,
    0,
    0,
    0,
    0,
    0,
    0,
    0,
    0,
    0,
    0,
    0,
    0,
    0,
    0,
    0,
    0,
    0,
    0,
    0,
    0,
    0,
    0,
    0,
    0,
    0,
    0,
    0,
    0,
    0,
    0,
    0,
    0,
    0,
    0,
    0,
    0,
    0,
    0,
    0,
    0,
    0,
    0,
    0,
    0,
    0,
    0,
    0,
    0,
    0,
    1552,
    0,
    0,
    0,
    0,
    0,
    0,
    0,
    0,
    0,
    0,
    0,
    0,
    0,
    0,
    0,
    0,
    0,
    0,
    0,
    0,
    0,
    0,
    0,
    0,
    0,
    0,
    0,
    0,
    0,
    0,
    0,
    0,
    0,
    0,
    0,
    0,
    0,
    0,
    0,
    0,
    0,
    0,
    0,
    0,
    0,
    1552,
    1552,
    1552,
    1552,
    1552,
    1552,
    0,
    0,
    0,
    0,
    0,
    0,
    0,
    0,
    1552,
    1552,
    1552,
    1552,
    1552,
    1552,
    1552,
    1552,
    1552,
    1552,
    1552,
    0,
    0,
    0,
    0,
    0,
    0,
    0,
    0,
    0,
    0,
    0,
    0,
    0,
    0,
    0,
    0,
    0,
    0,
    0,
    0,
    0,
    0,
    0,
    0,
    0,
    0,
    0,
    0,
    0,
    0,
    0,
    0,
    0,
    0,
    0,
    0,
    0,
    0,
    0,
    0,
    0,
    0,
    0,
    0,
    0,
    0,
    0,
    0,
    0,
    0,
    0,
    0,
    0,
    0,
    0,
    0,
    0,
    0,
    0,
    0,
    0,
    0,
    0,
    0,
    0,
    0,
    0,
    0,
    0,
    0,
    0,
    0,
    0,
    0,
    0,
    0,
    0,
    0,
    0,
    0,
    0,
    0,
    0,
    0,
    0,
    0,
    0,
    0,
    0,
    0,
    0,
    0,
    0,
    0,
    0,
    0,
    0,
    0,
    0,
    0,
    0,
    0,
    0,
    0,
    1552,
    1552,
    0,
    1552,
    1552,
    0,
    0,
    0,
    0,
    0,
    0,
    0,
    0,
    0,
    0,
    0,
    1552,
    1552,
    1552,
    1552,
    1552,
    1552,
    1552,
    1552,
    1552,
    1552,
    1552,
    1552,
    0,
    0,
    0,
    0,
    0,
    0,
    0,
    0,
    0,
    0,
    0,
    0,
    0,
    0,
    0,
    0,
    0,
    0,
    0,
    0,
    0,
    0,
    0,
    0,
    0,
    0,
    0,
    0,
    0,
    0,
    0,
    0,
    0,
    0,
    0,
    0,
    0,
    0,
    0,
    0,
    0,
    0,
    0,
    0,
    0,
    0,
    0,
    0,
    0,
    0,
    0,
    1552,
    0,
    0,
    1552,
    1552,
    0,
    0,
    0,
    0,
    0,
    0,
    0,
    0,
    0,
    0,
    0,
    0,
    0,
    0,
    0,
    0,
    0,
    0,
    0,
    0,
    0,
    0,
    0,
    0,
    0,
    0,
    0,
    0,
    0,
    0,
    0,
    0,
    0,
    0,
    0,
    0,
    0,
    0,
    0,
    0,
    0,
    0,
    0,
    0,
    0,
    0,
    1552,
    1552,
    1552,
    0,
    0,
    0,
    0,
    0,
    0,
    1552,
    1552,
    1552,
    1552,
    0,
    0,
    1552,
    1552,
    1552,
    1552,
    1552,
    1552,
    1552,
    1552,
    1552,
    1552,
    1552,
    1552,
    0,
    0,
    0,
    0,
    0,
    0,
    0,
    0,
    0,
    0,
    0,
    0,
    0,
    0,
    0,
    0,
    0,
    0,
    0,
    0,
    0,
    0,
    0,
    0,
    0,
    0,
    0,
    0,
    0,
    0,
    0,
    0,
    0,
    0,
    0,
    0,
    0,
    0,
    0,
    0,
    0,
    0,
    0,
    0,
    0,
    0,
    0,
    0,
    0,
    1552,
    1552,
    1552,
    1552,
    1552,
    0,
    0,
    0,
    0,
    0,
    0,
    0,
    0,
    0,
    0,
    0,
    0,
    0,
    0,
    0,
    0,
    0,
    0,
    0,
    0,
    0,
    0,
    0,
    0,
    0,
    0,
    0,
    0,
    0,
    0,
    0,
    0,
    0,
    0,
    0,
    0,
    0,
    0,
    0,
    1552,
    1552,
    0,
    0,
    0,
    0,
    0,
    1552,
    0,
    0,
    0,
    0,
    0,
    0,
    0,
    0,
    0,
    0,
    1552,
    1552,
    1552,
    1552,
    0,
    1552,
    1552,
    1552,
    1552,
    1552,
    1552,
    1552,
    1552,
    1552,
    1552,
    1552,
    1552,
    1552,
    0,
    0,
    0,
    0,
    0,
    0,
    0,
    0,
    0,
    0,
    0,
    0,
    0,
    0,
    0,
    0,
    0,
    0,
    0,
    0,
    0,
    0,
    0,
    0,
    0,
    0,
    0,
    0,
    0,
    0,
    0,
    0,
    0,
    0,
    0,
    0,
    0,
    0,
    0,
    0,
    0,
    0,
    0,
    0,
    0,
    0,
    1552,
    0,
    1552,
    0,
    1552,
    1552,
    1552,
    1552,
    0,
    0,
    0,
    0,
    0,
    0,
    0,
    0,
    0,
    0,
    0,
    0,
    0,
    0,
    0,
    0,
    0,
    0,
    0,
    0,
    0,
    0,
    0,
    0,
    0,
    0,
    0,
    0,
    0,
    0,
    0,
    0,
    0,
    0,
    0,
    0,
    1552,
    0,
    1552,
    1552,
    1552,
    1552,
    0,
    0,
    0,
    0,
    0,
    0,
    0,
    0,
    0,
    0,
    0,
    0,
    0,
    0,
    1552,
    0,
    1552,
    1552,
    0,
    0,
    1552,
    1552,
    1552,
    1552,
    1552,
    1552,
    1552,
    1552,
    1552,
    1552,
    1552,
    1552,
    1552,
    0,
    0,
    0,
    0,
    0,
    0,
    0,
    0,
    0,
    0,
    0,
    0,
    0,
    0,
    0,
    0,
    0,
    0,
    0,
    0,
    0,
    0,
    0,
    0,
    0,
    0,
    0,
    0,
    0,
    0,
    0,
    0,
    0,
    0,
    0,
    0,
    0,
    0,
    0,
    0,
    0,
    0,
    0,
    0,
    0,
    0,
    0,
    0,
    1552,
    0,
    0,
    1552,
    1552,
    0,
    0,
    0,
    0,
    0,
    0,
    0,
    0,
    0,
    0,
    0,
    0,
    0,
    0,
    0,
    0,
    0,
    0,
    0,
    0,
    0,
    0,
    0,
    0,
    0,
    0,
    0,
    0,
    0,
    0,
    0,
    0,
    0,
    0,
    1552,
    0,
    0,
    1552,
    1552,
    1552,
    0,
    0,
    0,
    0,
    0,
    0,
    0,
    0,
    0,
    0,
    1552,
    0,
    1552,
    0,
    0,
    0,
    0,
    1552,
    1552,
    1552,
    1552,
    0,
    0,
    1552,
    1552,
    1552,
    1552,
    1552,
    1552,
    1552,
    1552,
    1552,
    1552,
    1552,
    1552,
    1552,
    1552,
    0,
    0,
    0,
    0,
    0,
    0,
    0,
    0,
    0,
    0,
    0,
    0,
    0,
    0,
    0,
    0,
    0,
    0,
    0,
    0,
    0,
    0,
    0,
    0,
    0,
    0,
    0,
    0,
    0,
    0,
    0,
    0,
    0,
    0,
    0,
    0,
    0,
    0,
    0,
    0,
    0,
    0,
    0,
    0,
    0,
    0,
    0,
    1552,
    0,
    0,
    0,
    0,
    0,
    0,
    0,
    0,
    0,
    0,
    0,
    0,
    0,
    0,
    0,
    0,
    0,
    0,
    0,
    0,
    0,
    0,
    0,
    0,
    0,
    0,
    0,
    0,
    0,
    0,
    0,
    0,
    0,
    0,
    0,
    0,
    0,
    0,
    1552,
    0,
    1552,
    1552,
    0,
    1552,
    0,
    0,
    0,
    0,
    0,
    0,
    0,
    1552,
    1552,
    0,
    1552,
    1552,
    0,
    0,
    0,
    0,
    0,
    1552,
    1552,
    1552,
    0,
    0,
    0,
    1552,
    1552,
    1552,
    1552,
    1552,
    1552,
    1552,
    1552,
    1552,
    1552,
    1552,
    1552,
    1552,
    1552,
    0,
    0,
    0,
    0,
    0,
    0,
    0,
    0,
    0,
    0,
    0,
    0,
    0,
    0,
    0,
    0,
    0,
    0,
    0,
    0,
    0,
    0,
    0,
    0,
    0,
    0,
    0,
    0,
    0,
    1552,
    0,
    0,
    0,
    0,
    0,
    0,
    0,
    0,
    0,
    0,
    0,
    0,
    0,
    0,
    0,
    0,
    0,
    0,
    0,
    0,
    0,
    0,
    0,
    0,
    0,
    0,
    0,
    0,
    0,
    0,
    0,
    0,
    0,
    0,
    0,
    0,
    0,
    0,
    0,
    0,
    0,
    0,
    0,
    0,
    0,
    0,
    0,
    0,
    0,
    0,
    0,
    0,
    0,
    0,
    0,
    0,
    1552,
    0,
    0,
    0,
    0,
    0,
    0,
    0,
    0,
    1552,
    0,
    1552,
    1552,
    1552,
    1552,
    1552,
    1552,
    0,
    0,
    1552,
    0,
    0,
    0,
    1552,
    1552,
    1552,
    0,
    0,
    0,
    1552,
    1552,
    1552,
    1552,
    1552,
    1552,
    1552,
    1552,
    1552,
    1552,
    1552,
    1552,
    1552,
    1552,
    0,
    0,
    0,
    0,
    0,
    0,
    0,
    0,
    0,
    0,
    0,
    0,
    0,
    0,
    0,
    0,
    0,
    0,
    0,
    0,
    0,
    0,
    0,
    0,
    0,
    0,
    0,
    0,
    0,
    1552,
    1552,
    0,
    0,
    0,
    0,
    0,
    0,
    0,
    0,
    0,
    0,
    0,
    0,
    0,
    0,
    0,
    0,
    0,
    0,
    0,
    0,
    0,
    0,
    0,
    0,
    0,
    0,
    0,
    0,
    0,
    0,
    0,
    0,
    0,
    0,
    0,
    0,
    0,
    0,
    0,
    0,
    0,
    0,
    0,
    0,
    0,
    0,
    0,
    0,
    0,
    0,
    0,
    0,
    0,
    0,
    0,
    0,
    0,
    0,
    0,
    0,
    0,
    0,
    0,
    0,
    1552,
    1552,
    1552,
    1552,
    1552,
    1552,
    1552,
    0,
    0,
    1552,
    1552,
    0,
    0,
    1552,
    1552,
    0,
    1552,
    0,
    0,
    0,
    1552,
    1552,
    1552,
    1552,
    1552,
    1552,
    1552,
    1552,
    1552,
    1552,
    1552,
    1552,
    1552,
    1552,
    0,
    0,
    0,
    0,
    0,
    0,
    0,
    0,
    0,
    0,
    0,
    0,
    0,
    0,
    0,
    1552,
    1552,
    1552,
    0,
    0,
    0,
    0,
    0,
    0,
    1552,
    1552,
    1552,
    0,
    1552,
    1552,
    0,
    1552,
    0,
    0,
    0,
    0,
    0,
    0,
    0,
    0,
    0,
    0,
    0,
    0,
    0,
    0,
    0,
    0,
    1552,
    0,
    0,
    0,
    0,
    0,
    0,
    0,
    0,
    0,
    0,
    0,
    0,
    0,
    0,
    0,
    0,
    0,
    0,
    0,
    0,
    0,
    0,
    0,
    0,
    0,
    0,
    0,
    0,
    0,
    0,
    0,
    0,
    0,
    0,
    0,
    0,
    0,
    0,
    0,
    0,
    0,
    0,
    0,
    0,
    1552,
    1552,
    1552,
    1552,
    1552,
    1552,
    1552,
    0,
    0,
    0,
    0,
    1552,
    0,
    0,
    0,
    0,
    0,
    0,
    0,
    0,
    0,
    0,
    0,
    0,
    1552,
    1552,
    1552,
    1552,
    1552,
    1552,
    1552,
    1552,
    1552,
    1552,
    1552,
    1552,
    0,
    0,
    0,
    0,
    0,
    0,
    0,
    0,
    0,
    0,
    0,
    0,
    1552,
    0,
    0,
    1552,
    1552,
    1552,
    0,
    0,
    0,
    1552,
    1552,
    0,
    1552,
    1552,
    0,
    0,
    1552,
    1552,
    0,
    0,
    0,
    0,
    0,
    0,
    0,
    0,
    0,
    0,
    0,
    0,
    0,
    0,
    0,
    0,
    0,
    0,
    0,
    0,
    0,
    0,
    0,
    0,
    0,
    0,
    0,
    0,
    0,
    0,
    0,
    0,
    0,
    0,
    0,
    0,
    0,
    0,
    0,
    0,
    0,
    0,
    0,
    0,
    0,
    0,
    0,
    0,
    0,
    0,
    0,
    0,
    0,
    0,
    0,
    0,
    0,
    0,
    0,
    0,
    0,
    1552,
    1552,
    1552,
    0,
    1552,
    1552,
    1552,
    0,
    0,
    0,
    0,
    0,
    0,
    1552,
    1552,
    0,
    0,
    0,
    0,
    0,
    0,
    0,
    0,
    0,
    0,
    0,
    1552,
    1552,
    1552,
    1552,
    1552,
    1552,
    1552,
    1552,
    1552,
    1552,
    1552,
    0,
    0,
    0,
    0,
    0,
    0,
    0,
    0,
    0,
    0,
    0,
    0,
    0,
    0,
    0,
    0,
    1552,
    0,
    0,
    0,
    0,
    1552,
    1552,
    0,
    0,
    0,
    1552,
    1552,
    1552,
    1552,
    0,
    0,
    0,
    0,
    0,
    0,
    0,
    0,
    0,
    0,
    0,
    0,
    0,
    0,
    0,
    0,
    0,
    0,
    0,
    0,
    0,
    0,
    0,
    0,
    0,
    0,
    0,
    0,
    0,
    0,
    0,
    0,
    0,
    0,
    0,
    0,
    0,
    0,
    0,
    0,
    0,
    0,
    0,
    0,
    0,
    0,
    0,
    0,
    0,
    0,
    0,
    0,
    0,
    0,
    0,
    0,
    0,
    0,
    0,
    0,
    0,
    1552,
    1552,
    1552,
    0,
    0,
    0,
    0,
    0,
    0,
    0,
    0,
    0,
    0,
    0,
    1552,
    1552,
    0,
    0,
    0,
    0,
    0,
    0,
    0,
    1552,
    0,
    0,
    0,
    1552,
    1552,
    1552,
    1552,
    1552,
    1552,
    1552,
    1552,
    1552,
    1552,
    1552,
    0,
    0,
    0,
    0,
    0,
    0,
    1552,
    1552,
    1552,
    1552,
    1552,
    1552,
    1552,
    0,
    0,
    1552,
    0,
    0,
    0,
    0,
    0,
    1552,
    0,
    1552,
    0,
    1552,
    1552,
    0,
    0,
    0,
    1552,
    0,
    0,
    0,
    0,
    0,
    0,
    0,
    0,
    0,
    0,
    0,
    0,
    0,
    0,
    0,
    0,
    0,
    0,
    0,
    0,
    0,
    0,
    0,
    0,
    0,
    0,
    0,
    0,
    0,
    0,
    0,
    0,
    0,
    0,
    0,
    0,
    0,
    0,
    0,
    0,
    0,
    0,
    0,
    0,
    0,
    0,
    0,
    0,
    0,
    0,
    0,
    0,
    0,
    0,
    0,
    0,
    0,
    0,
    0,
    1552,
    0,
    1552,
    1552,
    0,
    0,
    0,
    0,
    0,
    0,
    0,
    0,
    0,
    0,
    1552,
    1552,
    0,
    0,
    0,
    0,
    0,
    0,
    0,
    0,
    1552,
    0,
    0,
    0,
    0,
    0,
    1552,
    1552,
    1552,
    1552,
    1552,
    1552,
    1552,
    1552,
    1552,
    1552,
    1552,
    1552,
    1552,
    1552,
    1552,
    1552,
    1552,
    1552,
    1552,
    1552,
    1552,
    1552,
    0,
    0,
    0,
    0,
    0,
    0,
    0,
    0,
    0,
    1552,
    0,
    0,
    0,
    0,
    0,
    1552,
    1552,
    1552,
    0,
    0,
    0,
    0,
    0,
    0,
    0,
    0,
    0,
    0,
    0,
    0,
    0,
    0,
    0,
    0,
    0,
    0,
    0,
    0,
    0,
    0,
    0,
    0,
    0,
    0,
    0,
    0,
    0,
    0,
    0,
    0,
    0,
    0,
    0,
    0,
    0,
    0,
    0,
    0,
    0,
    0,
    0,
    0,
    0,
    0,
    0,
    0,
    0,
    0,
    1552,
    0,
    0,
    0,
    0,
    0,
    0,
    0,
    0,
    0,
    1552,
    1552,
    1552,
    0,
    0,
    0,
    0,
    0,
    0,
    0,
    0,
    0,
    1552,
    1552,
    0,
    0,
    0,
    0,
    0,
    0,
    0,
    0,
    0,
    1552,
    1552,
    0,
    0,
    0,
    0,
    1552,
    1552,
    1552,
    1552,
    1552,
    1552,
    1552,
    1552,
    1552,
    1552,
    1552,
    1552,
    1552,
    1552,
    1552,
    1552,
    1552,
    1552,
    1552,
    1552,
    1552,
    1552,
    0,
    0,
    0,
    0,
    0,
    0,
    0,
    0,
    0,
    0,
    0,
    0,
    1552,
    1552,
    0,
    1552,
    1552,
    0,
    0,
    0,
    0,
    0,
    0,
    0,
    0,
    0,
    0,
    0,
    0,
    0,
    0,
    0,
    0,
    0,
    0,
    0,
    0,
    0,
    0,
    0,
    0,
    0,
    0,
    0,
    0,
    0,
    0,
    0,
    0,
    0,
    0,
    0,
    0,
    0,
    0,
    0,
    0,
    0,
    0,
    0,
    0,
    0,
    0,
    0,
    0,
    0,
    0,
    0,
    0,
    0,
    0,
    0,
    0,
    0,
    0,
    0,
    0,
    0,
    1552,
    0,
    0,
    0,
    0,
    0,
    0,
    0,
    0,
    0,
    0,
    1552,
    1552,
    0,
    0,
    0,
    0,
    0,
    0,
    0,
    0,
    0,
    1552,
    1552,
    1552,
    1552,
    0,
    0,
    1552,
    1552,
    1552,
    1552,
    1552,
    1552,
    1552,
    1552,
    1552,
    1552,
    1552,
    1552,
    1552,
    1552,
    1552,
    1552,
    1552,
    1552,
    1552,
    1552,
    1552,
    1552,
    1552,
    0,
    0,
    1552,
    1552,
    1552,
    1552,
    1552,
    1552,
    1552,
    0,
    0,
    1552,
    1552,
    1552,
    1552,
    0,
    0,
    0,
    0,
    0,
    0,
    0,
    0,
    0,
    0,
    0,
    0,
    0,
    0,
    0,
    0,
    0,
    0,
    1552,
    0,
    0,
    0,
    0,
    0,
    0,
    0,
    0,
    0,
    0,
    0,
    0,
    0,
    0,
    0,
    0,
    0,
    0,
    0,
    0,
    0,
    0,
    0,
    0,
    0,
    0,
    0,
    0,
    0,
    0,
    0,
    0,
    0,
    0,
    0,
    0,
    0,
    0,
    0,
    0,
    0,
    0,
    1552,
    0,
    0,
    0,
    0,
    0,
    1552,
    1552,
    0,
    0,
    0,
    0,
    0,
    1552,
    0,
    0,
    0,
    0,
    0,
    0,
    0,
    0,
    0,
    1552,
    1552,
    1552,
    1552,
    1552,
    0,
    0,
    1552,
    1552,
    1552,
    1552,
    1552,
    1552,
    1552,
    1552,
    1552,
    1552,
    1552,
    1552,
    1552,
    1552,
    1552,
    1552,
    1552,
    1552,
    1552,
    1552,
    1552,
    1552,
    1552,
    1552,
    1552,
    1552,
    1552,
    1552,
    1552,
    1552,
    1552,
    1552,
    0,
    0,
    1552,
    1552,
    0,
    1552,
    1552,
    0,
    1552,
    0,
    0,
    0,
    0,
    0,
    0,
    1552,
    0,
    0,
    0,
    0,
    0,
    0,
    1552,
    0,
    0,
    0,
    0,
    0,
    0,
    1552,
    0,
    0,
    0,
    0,
    0,
    0,
    0,
    0,
    0,
    0,
    0,
    0,
    0,
    0,
    0,
    0,
    0,
    0,
    0,
    0,
    0,
    0,
    0,
    0,
    0,
    0,
    0,
    0,
    0,
    0,
    0,
    0,
    0,
    0,
    0,
    0,
    0,
    0,
    0,
    0,
    1552,
    1552,
    1552,
    1552,
    0,
    1552,
    0,
    0,
    0,
    0,
    1552,
    1552,
    0,
    0,
    0,
    0,
    0,
    0,
    0,
    0,
    0,
    1552,
    1552,
    1552,
    1552,
    0,
    0,
    1552,
    1552,
    1552,
    1552,
    1552,
    1552,
    1552,
    1552,
    1552,
    1552,
    1552,
    1552,
    1552,
    1552,
    1552,
    1552,
    1552,
    1552,
    1552,
    1552,
    1552,
    1552,
    1552,
    1552,
    1552,
    1552,
    1552,
    1552,
    1552,
    1552,
    1552,
    1552,
    0,
    0,
    0,
    1552,
    1552,
    1552,
    0,
    0,
    0,
    0,
    0,
    0,
    0,
    0,
    0,
    0,
    0,
    0,
    0,
    1552,
    0,
    0,
    1552,
    0,
    0,
    0,
    0,
    1552,
    1552,
    0,
    0,
    0,
    0,
    0,
    0,
    0,
    0,
    0,
    0,
    0,
    0,
    0,
    0,
    0,
    0,
    0,
    0,
    0,
    0,
    0,
    0,
    0,
    0,
    0,
    0,
    0,
    0,
    0,
    0,
    0,
    0,
    0,
    0,
    0,
    0,
    0,
    0,
    0,
    1552,
    1552,
    1552,
    1552,
    0,
    0,
    0,
    0,
    0,
    0,
    0,
    0,
    1552,
    1552,
    0,
    0,
    0,
    0,
    0,
    0,
    0,
    1552,
    0,
    0,
    1552,
    1552,
    1552,
    0,
    0,
    1552,
    1552,
    1552,
    1552,
    1552,
    1552,
    1552,
    1552,
    1552,
    1552,
    1552,
    1552,
    1552,
    0,
    0,
    0,
    1552,
    1552,
    1552,
    1552,
    1552,
    1552,
    1552,
    1552,
    1552,
    1552,
    1552,
    1552,
    1552,
    1552,
    1552,
    1552,
    0,
    0,
    1552,
    1552,
    0,
    0,
    0,
    0,
    0,
    0,
    0,
    0,
    0,
    0,
    0,
    0,
    0,
    1552,
    0,
    1552,
    1552,
    0,
    1552,
    1552,
    0,
    0,
    1552,
    1552,
    0,
    0,
    0,
    0,
    0,
    0,
    0,
    0,
    0,
    0,
    0,
    0,
    0,
    0,
    0,
    0,
    0,
    0,
    0,
    0,
    0,
    0,
    0,
    0,
    0,
    0,
    0,
    0,
    0,
    0,
    0,
    0,
    0,
    0,
    0,
    0,
    0,
    0,
    1552,
    0,
    1552,
    1552,
    0,
    0,
    0,
    1552,
    1552,
    0,
    0,
    0,
    0,
    0,
    1552,
    0,
    0,
    0,
    0,
    0,
    0,
    0,
    0,
    0,
    1552,
    1552,
    1552,
    1552,
    1552,
    0,
    0,
    1552,
    1552,
    1552,
    1552,
    1552,
    1552,
    1552,
    1552,
    1552,
    1552,
    1552,
    0,
    1552,
    0,
    0,
    0,
    1552,
    1552,
    1552,
    1552,
    1552,
    1552,
    1552,
    1552,
    1552,
    1552,
    1552,
    1552,
    1552,
    1552,
    1552,
    1552,
    0,
    0,
    1552,
    0,
    1552,
    0,
    0,
    0,
    0,
    0,
    0,
    0,
    0,
    0,
    0,
    0,
    0,
    0,
    1552,
    1552,
    1552,
    1552,
    1552,
    1552,
    0,
    0,
    0,
    0,
    0,
    0,
    0,
    0,
    0,
    0,
    0,
    0,
    0,
    0,
    0,
    0,
    0,
    0,
    0,
    0,
    0,
    0,
    0,
    0,
    0,
    0,
    0,
    0,
    0,
    0,
    0,
    0,
    0,
    0,
    0,
    0,
    0,
    0,
    0,
    0,
    0,
    0,
    1552,
    0,
    0,
    0,
    1552,
    0,
    1552,
    1552,
    1552,
    0,
    0,
    0,
    0,
    0,
    1552,
    1552,
    0,
    0,
    0,
    0,
    0,
    0,
    1552,
    0,
    1552,
    1552,
    1552,
    1552,
    0,
    0,
    0,
    1552,
    1552,
    1552,
    1552,
    1552,
    1552,
    1552,
    1552,
    1552,
    0,
    0,
    0,
    0,
    0,
    0,
    0,
    1552,
    1552,
    1552,
    1552,
    1552,
    1552,
    1552,
    1552,
    1552,
    1552,
    1552,
    1552,
    1552,
    1552,
    1552,
    0,
    0,
    0,
    0,
    0,
    0,
    0,
    0,
    0,
    0,
    0,
    0,
    1552,
    1552,
    1552,
    1552,
    1552,
    0,
    0,
    0,
    1552,
    1552,
    1552,
    1552,
    0,
    1552,
    1552,
    1552,
    0,
    0,
    0,
    0,
    0,
    0,
    0,
    0,
    0,
    0,
    0,
    0,
    0,
    0,
    0,
    0,
    0,
    0,
    0,
    0,
    0,
    0,
    0,
    0,
    0,
    0,
    0,
    0,
    0,
    0,
    0,
    0,
    0,
    0,
    0,
    0,
    0,
    0,
    0,
    0,
    0,
    0,
    1552,
    1552,
    1552,
    1552,
    1552,
    0,
    0,
    0,
    0,
    0,
    0,
    1552,
    1552,
    0,
    0,
    0,
    0,
    0,
    0,
    0,
    1552,
    1552,
    1552,
    1552,
    1552,
    1552,
    0,
    0,
    0,
    0,
    0,
    0,
    0,
    1552,
    1552,
    0,
    0,
    0,
    0,
    0,
    0,
    0,
    0,
    0,
    0,
    1552,
    0,
    0,
    0,
    0,
    0,
    1552,
    1552,
    1552,
    1552,
    1552,
    1552,
    1552,
    1552,
    0,
    0,
    0,
    0,
    0,
    0,
    1552,
    1552,
    1552,
    1552,
    1552,
    1552,
    1552,
    1552,
    1552,
    1552,
    1552,
    0,
    0,
    1552,
    0,
    1552,
    1552,
    0,
    1552,
    1552,
    1552,
    0,
    0,
    0,
    0,
    0,
    0,
    0,
    0,
    0,
    0,
    0,
    0,
    0,
    0,
    0,
    0,
    0,
    0,
    0,
    0,
    0,
    0,
    0,
    0,
    0,
    0,
    0,
    0,
    0,
    0,
    0,
    0,
    0,
    0,
    0,
    0,
    0,
    0,
    0,
    1552,
    1552,
    0,
    1552,
    1552,
    1552,
    1552,
    0,
    0,
    0,
    0,
    0,
    0,
    0,
    1552,
    1552,
    0,
    0,
    0,
    0,
    0,
    0,
    0,
    0,
    0,
    0,
    1552,
    1552,
    1552,
    0,
    1552,
    0,
    0,
    1552,
    1552,
    1552,
    0,
    0,
    0,
    0,
    0,
    0,
    0,
    0,
    0,
    0,
    0,
    0,
    0,
    0,
    0,
    0,
    0,
    0,
    0,
    0,
    1552,
    1552,
    1552,
    1552,
    1552,
    1552,
    1552,
    1552,
    1552,
    1552,
    1552,
    1552,
    1552,
    1552,
    1552,
    1552,
    1552,
    1552,
    1552,
    1552,
    1552,
    1552,
    1552,
    1552,
    0,
    0,
    0,
    1552,
    0,
    1552,
    1552,
    1552,
    0,
    0,
    0,
    0,
    0,
    0,
    0,
    0,
    0,
    0,
    0,
    0,
    0,
    0,
    0,
    0,
    0,
    0,
    0,
    0,
    0,
    0,
    0,
    0,
    0,
    0,
    0,
    0,
    0,
    0,
    0,
    0,
    0,
    0,
    0,
    0,
    0,
    0,
    0,
    1552,
    1552,
    1552,
    0,
    1552,
    0,
    1552,
    1552,
    0,
    1552,
    0,
    0,
    0,
    0,
    0,
    1552,
    1552,
    0,
    0,
    0,
    0,
    0,
    0,
    0,
    0,
    0,
    0,
    0,
    1552,
    0,
    0,
    0,
    0,
    1552,
    0,
    1552,
    1552,
    1552,
    0,
    0,
    0,
    0,
    0,
    0,
    0,
    0,
    0,
    0,
    0,
    0,
    0,
    1552,
    1552,
    0,
    0,
    0,
    0,
    1552,
    1552,
    1552,
    1552,
    1552,
    1552,
    1552,
    1552,
    1552,
    1552,
    1552,
    1552,
    1552,
    1552,
    1552,
    1552,
    1552,
    1552,
    1552,
    1552,
    1552,
    1552,
    1552,
    1552,
    1552,
    0,
    0,
    0,
    1552,
    1552,
    1552,
    0,
    1552,
    0,
    0,
    0,
    0,
    0,
    0,
    0,
    0,
    0,
    0,
    0,
    0,
    0,
    0,
    0,
    0,
    0,
    0,
    0,
    0,
    0,
    0,
    0,
    0,
    0,
    0,
    0,
    0,
    0,
    0,
    0,
    0,
    0,
    0,
    0,
    0,
    0,
    0,
    0,
    1552,
    1552,
    0,
    0,
    0,
    1552,
    1552,
    0,
    0,
    0,
    0,
    0,
    0,
    0,
    1552,
    1552,
    0,
    0,
    0,
    0,
    0,
    0,
    0,
    0,
    0,
    0,
    0,
    0,
    0,
    0,
    0,
    0,
    0,
    1552,
    0,
    1552,
    0,
    0,
    0,
    0,
    0,
    0,
    0,
    0,
    0,
    0,
    0,
    1552,
    1552,
    1552,
    1552,
    1552,
    1552,
    1552,
    0,
    0,
    0,
    1552,
    1552,
    1552,
    1552,
    1552,
    1552,
    1552,
    1552,
    1552,
    1552,
    1552,
    1552,
    1552,
    1552,
    1552,
    1552,
    1552,
    1552,
    1552,
    1552,
    1552,
    1552,
    1552,
    1552,
    1552,
    1552,
    0,
    0,
    1552,
    0,
    1552,
    0,
    0,
    0,
    0,
    0,
    0,
    0,
    0,
    0,
    0,
    0,
    0,
    0,
    0,
    0,
    0,
    0,
    0,
    0,
    0,
    0,
    0,
    0,
    0,
    0,
    0,
    0,
    0,
    0,
    0,
    0,
    0,
    0,
    1552,
    0,
    0,
    0,
    0,
    0,
    0,
    0,
    0,
    1552,
    1552,
    0,
    1552,
    1552,
    1552,
    1552,
    0,
    0,
    0,
    0,
    0,
    0,
    1552,
    0,
    0,
    0,
    0,
    0,
    0,
    0,
    0,
    0,
    0,
    0,
    0,
    0,
    0,
    0,
    0,
    0,
    0,
    0,
    0,
    0,
    0,
    0,
    0,
    0,
    0,
    0,
    0,
    0,
    0,
    0,
    0,
    1552,
    1552,
    1552,
    1552,
    1552,
    1552,
    0,
    0,
    0,
    1552,
    1552,
    1552,
    1552,
    1552,
    1552,
    1552,
    1552,
    1552,
    1552,
    1552,
    1552,
    1552,
    1552,
    1552,
    1552,
    1552,
    1552,
    1552,
    1552,
    1552,
    1552,
    1552,
    1552,
    1552,
    1552,
    1552,
    0,
    0,
    0,
    0,
    0,
    0,
    1552,
    0,
    0,
    0,
    0,
    0,
    0,
    0,
    0,
    0,
    0,
    0,
    0,
    0,
    0,
    0,
    0,
    0,
    0,
    0,
    0,
    0,
    0,
    0,
    0,
    1552,
    1552,
    0,
    1552,
    1552,
    1552,
    1552,
    1552,
    0,
    0,
    0,
    1552,
    1552,
    1552,
    0,
    1552,
    1552,
    0,
    1552,
    1552,
    1552,
    0,
    0,
    0,
    0,
    0,
    0,
    0,
    0,
    1552,
    1552,
    1552,
    0,
    0,
    0,
    0,
    0,
    0,
    0,
    0,
    0,
    0,
    0,
    0,
    0,
    0,
    0,
    0,
    0,
    0,
    0,
    0,
    0,
    0,
    0,
    0,
    0,
    0,
    0,
    1552,
    1552,
    1552,
    1552,
    1552,
    1552,
    1552,
    1552,
    1552,
    0,
    0,
    0,
    1552,
    1552,
    1552,
    1552,
    1552,
    1552,
    1552,
    1552,
    1552,
    1552,
    1552,
    1552,
    1552,
    1552,
    0,
    0,
    0,
    1552,
    1552,
    1552,
    1552,
    1552,
    1552,
    1552,
    1552,
    1552,
    1552,
    0,
    0,
    0,
    1552,
    1552,
    0,
    0,
    0,
    0,
    1552,
    1552,
    1552,
    0,
    0,
    0,
    0,
    0,
    0,
    0,
    0,
    0,
    0,
    0,
    0,
    0,
    0,
    0,
    0,
    0,
    1552,
    1552,
    1552,
    0,
    1552,
    1552,
    1552,
    1552,
    1552,
    0,
    0,
    1552,
    1552,
    1552,
    1552,
    1552,
    1552,
    0,
    0,
    1552,
    1552,
    0,
    0,
    0,
    0,
    0,
    0,
    0,
    0,
    0,
    0,
    0,
    0,
    0,
    0,
    0,
    0,
    0,
    0,
    0,
    0,
    0,
    0,
    0,
    0,
    0,
    0,
    0,
    0,
    0,
    0,
    0,
    0,
    0,
    0,
    0,
    0,
    0,
    0,
    0,
    1552,
    1552,
    1552,
    1552,
    1552,
    1552,
    1552,
    1552,
    0,
    0,
    0,
    0,
    0,
    1552,
    1552,
    1552,
    1552,
    1552,
    1552,
    1552,
    1552,
    1552,
    1552,
    1552,
    0,
    0,
    0,
    1552,
    0,
    0,
    1552,
    1552,
    1552,
    1552,
    1552,
    1552,
    1552,
    1552,
    1552,
    1552,
    0,
    0,
    0,
    0,
    1552,
    0,
    0,
    0,
    0,
    1552,
    1552,
    0,
    0,
    0,
    0,
    1552,
    1552,
    0,
    0,
    0,
    0,
    0,
    1552,
    1552,
    0,
    1552,
    1552,
    1552,
    1552,
    0,
    1552,
    1552,
    0,
    1552,
    1552,
    1552,
    0,
    0,
    0,
    0,
    1552,
    1552,
    1552,
    1552,
    1552,
    1552,
    0,
    1552,
    1552,
    1552,
    0,
    0,
    0,
    0,
    0,
    0,
    0,
    0,
    0,
    0,
    1552,
    1552,
    0,
    0,
    0,
    0,
    0,
    0,
    0,
    0,
    1552,
    0,
    0,
    0,
    0,
    0,
    0,
    1552,
    0,
    0,
    0,
    0,
    0,
    0,
    0,
    0,
    0,
    0,
    0,
    1552,
    1552,
    1552,
    1552,
    1552,
    1552,
    1552,
    1552,
    0,
    0,
    1552,
    0,
    0,
    0,
    0,
    0,
    0,
    0,
    0,
    0,
    1552,
    1552,
    0,
    0,
    0,
    0,
    0,
    0,
    0,
    1552,
    1552,
    1552,
    1552,
    1552,
    1552,
    1552,
    1552,
    1552,
    1552,
    1552,
    1552,
    1552,
    1552,
    1552,
    1552,
    1552,
    1552,
    0,
    0,
    1552,
    0,
    0,
    1552,
    1552,
    1552,
    1552,
    0,
    0,
    1552,
    1552,
    0,
    1552,
    1552,
    0,
    1552,
    1552,
    1552,
    1552,
    1552,
    1552,
    1552,
    1552,
    1552,
    1552,
    0,
    0,
    0,
    0,
    0,
    0,
    1552,
    1552,
    0,
    1552,
    1552,
    1552,
    1552,
    1552,
    1552,
    1552,
    0,
    0,
    0,
    0,
    0,
    0,
    0,
    0,
    1552,
    1552,
    0,
    0,
    0,
    0,
    0,
    0,
    0,
    0,
    0,
    0,
    1552,
    1552,
    0,
    0,
    0,
    0,
    0,
    0,
    1552,
    1552,
    0,
    0,
    0,
    0,
    0,
    0,
    0,
    1552,
    1552,
    1552,
    1552,
    1552,
    1552,
    1552,
    1552,
    1552,
    0,
    0,
    0,
    0,
    0,
    0,
    0,
    0,
    0,
    1552,
    1552,
    0,
    0,
    0,
    1552,
    0,
    0,
    0,
    1552,
    1552,
    0,
    0,
    1552,
    1552,
    1552,
    1552,
    1552,
    1552,
    1552,
    1552,
    1552,
    1552,
    1552,
    1552,
    1552,
    1552,
    1552,
    1552,
    1552,
    1552,
    0,
    0,
    0,
    0,
    1552,
    1552,
    0,
    1552,
    1552,
    1552,
    1552,
    1552,
    0,
    0,
    1552,
    1552,
    1552,
    1552,
    1552,
    1552,
    1552,
    1552,
    1552,
    1552,
    1552,
    0,
    0,
    0,
    0,
    0,
    0,
    0,
    1552,
    0,
    0,
    1552,
    1552,
    0,
    0,
    1552,
    1552,
    0,
    1552,
    0,
    0,
    0,
    0,
    0,
    0,
    1552,
    1552,
    1552,
    1552,
    0,
    0,
    0,
    0,
    0,
    0,
    0,
    1552,
    0,
    1552,
    1552,
    0,
    0,
    0,
    1552,
    1552,
    0,
    1552,
    1552,
    0,
    0,
    0,
    0,
    0,
    0,
    0,
    1552,
    1552,
    1552,
    0,
    1552,
    1552,
    1552,
    0,
    1552,
    1552,
    0,
    0,
    0,
    0,
    0,
    1552,
    0,
    0,
    1552,
    1552,
    0,
    1552,
    1552,
    1552,
    0,
    0,
    0,
    1552,
    1552,
    0,
    0,
    0,
    1552,
    1552,
    1552,
    1552,
    1552,
    1552,
    1552,
    1552,
    1552,
    1552,
    1552,
    1552,
    1552,
    1552,
    1552,
    1552,
    1552,
    1552,
    0,
    0,
    0,
    1552,
    0,
    0,
    1552,
    1552,
    1552,
    1552,
    0,
    1552,
    1552,
    1552,
    1552,
    1552,
    1552,
    1552,
    1552,
    1552,
    1552,
    1552,
    1552,
    1552,
    1552,
    0,
    0,
    0,
    1552,
    0,
    0,
    0,
    1552,
    1552,
    1552,
    1552,
    1552,
    0,
    1552,
    1552,
    1552,
    0,
    0,
    0,
    0,
    0,
    0,
    1552,
    1552,
    0,
    0,
    0,
    0,
    0,
    0,
    0,
    0,
    0,
    0,
    0,
    1552,
    1552,
    1552,
    0,
    1552,
    0,
    1552,
    1552,
    1552,
    1552,
    0,
    0,
    0,
    0,
    0,
    0,
    0,
    0,
    0,
    0,
    1552,
    0,
    0,
    1552,
    1552,
    1552,
    1552,
    1552,
    0,
    0,
    0,
    0,
    0,
    0,
    0,
    0,
    0,
    0,
    0,
    0,
    1552,
    1552,
    0,
    0,
    0,
    0,
    0,
    1552,
    1552,
    0,
    0,
    1552,
    1552,
    1552,
    1552,
    1552,
    1552,
    1552,
    1552,
    1552,
    1552,
    1552,
    1552,
    1552,
    1552,
    1552,
    1552,
    1552,
    1552,
    0,
    0,
    0,
    0,
    1552,
    1552,
    0,
    1552,
    1552,
    1552,
    1552,
    1552,
    1552,
    1552,
    1552,
    0,
    1552,
    1552,
    1552,
    1552,
    1552,
    1552,
    0,
    0,
    0,
    0,
    1552,
    1552,
    0,
    0,
    0,
    1552,
    1552,
    0,
    1552,
    1552,
    1552,
    1552,
    1552,
    1552,
    1552,
    0,
    0,
    0,
    0,
    0,
    1552,
    1552,
    0,
    0,
    0,
    0,
    0,
    0,
    0,
    0,
    0,
    0,
    0,
    0,
    1552,
    1552,
    0,
    0,
    0,
    0,
    0,
    1552,
    1552,
    1552,
    0,
    0,
    0,
    0,
    0,
    0,
    0,
    0,
    0,
    0,
    0,
    0,
    1552,
    1552,
    0,
    0,
    0,
    0,
    0,
    0,
    0,
    0,
    0,
    0,
    0,
    0,
    0,
    0,
    0,
    0,
    0,
    0,
    0,
    0,
    0,
    0,
    0,
    0,
    0,
    0,
    0,
    1552,
    1552,
    1552,
    1552,
    1552,
    1552,
    1552,
    1552,
    1552,
    1552,
    1552,
    1552,
    1552,
    1552,
    1552,
    1552,
    1552,
    1552,
    0,
    0,
    1552,
    1552,
    1552,
    1552,
    1552,
    1552,
    0,
    1552,
    1552,
    1552,
    1552,
    0,
    1552,
    0,
    0,
    1552,
    1552,
    1552,
    1552,
    0,
    0,
    0,
    1552,
    1552,
    1552,
    0,
    0,
    0,
    1552,
    0,
    1552,
    1552,
    1552,
    1552,
    1552,
    1552,
    1552,
    1552,
    0,
    0,
    0,
    0,
    0,
    1552,
    1552,
    0,
    0,
    0,
    0,
    0,
    0,
    0,
    0,
    0,
    0,
    1552,
    0,
    0,
    1552,
    0,
    0,
    0,
    0,
    1552,
    0,
    0,
    0,
    0,
    0,
    0,
    0,
    0,
    0,
    0,
    0,
    0,
    0,
    0,
    0,
    0,
    0,
    0,
    0,
    0,
    0,
    0,
    0,
    0,
    0,
    0,
    0,
    0,
    0,
    0,
    0,
    0,
    0,
    0,
    0,
    0,
    0,
    0,
    0,
    0,
    0,
    0,
    1552,
    0,
    0,
    1552,
    1552,
    1552,
    1552,
    1552,
    1552,
    1552,
    1552,
    1552,
    1552,
    1552,
    1552,
    1552,
    1552,
    1552,
    1552,
    1552,
    0,
    0,
    0,
    0,
    1552,
    1552,
    1552,
    1552,
    1552,
    1552,
    1552,
    1552,
    0,
    0,
    0,
    0,
    0,
    0,
    0,
    1552,
    0,
    0,
    0,
    1552,
    1552,
    1552,
    1552,
    1552,
    0,
    0,
    0,
    0,
    1552,
    1552,
    0,
    1552,
    1552,
    1552,
    1552,
    1552,
    0,
    0,
    0,
    0,
    0,
    1552,
    1552,
    0,
    0,
    0,
    0,
    0,
    0,
    0,
    0,
    0,
    0,
    0,
    0,
    0,
    0,
    0,
    0,
    0,
    0,
    0,
    0,
    0,
    0,
    0,
    0,
    0,
    0,
    0,
    0,
    0,
    0,
    0,
    0,
    0,
    0,
    0,
    0,
    0,
    0,
    0,
    0,
    0,
    0,
    0,
    0,
    0,
    0,
    0,
    0,
    0,
    0,
    0,
    0,
    0,
    0,
    0,
    0,
    1552,
    0,
    0,
    0,
    0,
    0,
    0,
    0,
    0,
    0,
    0,
    0,
    1552,
    1552,
    0,
    0,
    0,
    0,
    1552,
    1552,
    1552,
    1552,
    1552,
    1552,
    1552,
    1552,
    0,
    0,
    0,
    1552,
    1552,
    1552,
    0,
    1552,
    1552,
    0,
    0,
    0,
    0,
    0,
    0,
    0,
    0,
    0,
    0,
    0,
    0,
    0,
    0,
    1552,
    1552,
    1552,
    1552,
    0,
    0,
    0,
    0,
    1552,
    1552,
    0,
    1552,
    1552,
    1552,
    1552,
    1552,
    1552,
    0,
    0,
    0,
    0,
    0,
    1552,
    0,
    0,
    0,
    0,
    0,
    0,
    0,
    0,
    0,
    0,
    0,
    0,
    0,
    0,
    0,
    0,
    0,
    0,
    0,
    0,
    0,
    0,
    0,
    0,
    0,
    0,
    0,
    0,
    0,
    0,
    0,
    0,
    0,
    0,
    0,
    0,
    0,
    0,
    0,
    0,
    0,
    0,
    0,
    0,
    0,
    0,
    0,
    0,
    0,
    0,
    0,
    0,
    0,
    0,
    0,
    0,
    0,
    0,
    0,
    0,
    0,
    0,
    0,
    1552,
    0,
    0,
    0,
    0,
    1552,
    0,
    0,
    0,
    0,
    0,
    0,
    1552,
    1552,
    1552,
    1552,
    1552,
    1552,
    1552,
    1552,
    0,
    0,
    0,
    0,
    0,
    0,
    0,
    0,
    0,
    0,
    1552,
    1552,
    1552,
    0,
    0,
    0,
    0,
    0,
    0,
    0,
    0,
    0,
    0,
    0,
    1552,
    1552,
    1552,
    0,
    0,
    0,
    1552,
    1552,
    0,
    1552,
    1552,
    1552,
    1552,
    1552,
    1552,
    0,
    0,
    0,
    0,
    0,
    0,
    1552,
    1552,
    0,
    0,
    0,
    0,
    0,
    0,
    0,
    0,
    0,
    0,
    0,
    0,
    1552,
    0,
    0,
    0,
    0,
    0,
    0,
    0,
    0,
    0,
    0,
    0,
    0,
    0,
    0,
    0,
    0,
    0,
    0,
    0,
    0,
    0,
    0,
    0,
    0,
    0,
    0,
    0,
    0,
    0,
    0,
    1552,
    1552,
    1552,
    0,
    0,
    0,
    0,
    0,
    0,
    0,
    0,
    0,
    0,
    0,
    1552,
    0,
    0,
    0,
    1552,
    1552,
    1552,
    1552,
    1552,
    0,
    0,
    0,
    0,
    0,
    0,
    0,
    1552,
    1552,
    1552,
    1552,
    1552,
    1552,
    1552,
    1552,
    0,
    0,
    0,
    0,
    0,
    1552,
    1552,
    0,
    1552,
    1552,
    1552,
    1552,
    1552,
    1552,
    0,
    0,
    0,
    0,
    0,
    0,
    0,
    0,
    1552,
    1552,
    1552,
    1552,
    1552,
    1552,
    0,
    0,
    1552,
    1552,
    0,
    1552,
    1552,
    1552,
    1552,
    1552,
    0,
    0,
    0,
    0,
    0,
    0,
    0,
    0,
    1552,
    1552,
    0,
    0,
    0,
    0,
    0,
    0,
    0,
    0,
    0,
    0,
    0,
    0,
    0,
    0,
    0,
    0,
    0,
    0,
    0,
    0,
    0,
    0,
    0,
    0,
    0,
    0,
    0,
    0,
    0,
    0,
    0,
    0,
    0,
    0,
    0,
    0,
    0,
    0,
    0,
    0,
    0,
    0,
    1552,
    1552,
    1552,
    1552,
    0,
    0,
    0,
    0,
    0,
    0,
    0,
    0,
    0,
    0,
    0,
    0,
    0,
    0,
    0,
    0,
    1552,
    1552,
    0,
    0,
    0,
    0,
    0,
    0,
    0,
    0,
    1552,
    1552,
    1552,
    1552,
    1552,
    1552,
    1552,
    1552,
    1552,
    0,
    0,
    0,
    1552,
    1552,
    1552,
    1552,
    1552,
    1552,
    1552,
    1552,
    1552,
    0,
    1552,
    1552,
    0,
    0,
    0,
    0,
    1552,
    1552,
    1552,
    1552,
    1552,
    1552,
    1552,
    1552,
    0,
    0,
    0,
    1552,
    1552,
    1552,
    1552,
    1552,
    1552,
    0,
    0,
    0,
    0,
    0,
    0,
    0,
    0,
    0,
    0,
    1552,
    0,
    0,
    0,
    0,
    0,
    0,
    0,
    0,
    0,
    0,
    0,
    0,
    0,
    0,
    0,
    0,
    0,
    0,
    0,
    0,
    0,
    0,
    0,
    0,
    0,
    0,
    0,
    0,
    0,
    0,
    0,
    0,
    0,
    0,
    0,
    0,
    0,
    0,
    0,
    0,
    1552,
    0,
    1552,
    0,
    1552,
    1552,
    0,
    0,
    0,
    0,
    0,
    0,
    0,
    0,
    0,
    0,
    0,
    0,
    0,
    0,
    0,
    0,
    0,
    0,
    0,
    0,
    0,
    1552,
    0,
    0,
    0,
    0,
    1552,
    1552,
    1552,
    1552,
    1552,
    1552,
    1552,
    1552,
    1552,
    0,
    0,
    0,
    1552,
    1552,
    1552,
    1552,
    1552,
    1552,
    1552,
    1552,
    1552,
    0,
    1552,
    1552,
    0,
    0,
    0,
    0,
    1552,
    1552,
    1552,
    1552,
    1552,
    1552,
    0,
    0,
    1552,
    1552,
    0,
    1552,
    1552,
    0,
    1552,
    1552,
    0,
    1552,
    1552,
    0,
    0,
    0,
    0,
    0,
    0,
    0,
    0,
    0,
    1552,
    1552,
    0,
    0,
    0,
    0,
    0,
    0,
    0,
    0,
    0,
    0,
    0,
    0,
    0,
    0,
    0,
    0,
    0,
    0,
    0,
    0,
    0,
    0,
    0,
    0,
    0,
    0,
    0,
    0,
    0,
    0,
    0,
    0,
    0,
    0,
    0,
    0,
    0,
    0,
    0,
    0,
    0,
    0,
    1552,
    0,
    1552,
    0,
    0,
    0,
    0,
    0,
    0,
    0,
    0,
    0,
    0,
    0,
    0,
    0,
    0,
    0,
    0,
    0,
    0,
    0,
    0,
    0,
    0,
    0,
    1552,
    0,
    1552,
    1552,
    1552,
    1552,
    1552,
    1552,
    1552,
    1552,
    1552,
    1552,
    0,
    0,
    0,
    1552,
    1552,
    1552,
    1552,
    1552,
    1552,
    1552,
    1552,
    1552,
    1552,
    1552,
    0,
    0,
    0,
    1552,
    1552,
    1552,
    1552,
    1552,
    1552,
    1552,
    1552,
    1552,
    1552,
    1552,
    1552,
    1552,
    0,
    1552,
    1552,
    1552,
    1552,
    1552,
    1552,
    1552,
    1552,
    0,
    0,
    0,
    0,
    0,
    0,
    0,
    0,
    1552,
    1552,
    0,
    0,
    0,
    0,
    0,
    0,
    0,
    0,
    0,
    0,
    0,
    0,
    0,
    0,
    0,
    0,
    0,
    0,
    0,
    0,
    0,
    0,
    0,
    0,
    0,
    0,
    0,
    0,
    0,
    0,
    0,
    0,
    0,
    0,
    0,
    0,
    0,
    0,
    0,
    0,
    0,
    0,
    0,
    0,
    0,
    0,
    0,
    0,
    0,
    0,
    0,
    0,
    0,
    0,
    0,
    0,
    0,
    0,
    0,
    0,
    0,
    0,
    0,
    0,
    0,
    0,
    0,
    0,
    0,
    1552,
    1552,
    1552,
    1552,
    1552,
    1552,
    1552,
    1552,
    1552,
    0,
    0,
    0,
    0,
    0,
    1552,
    1552,
    1552,
    1552,
    1552,
    1552,
    1552,
    1552,
    1552,
    1552,
    0,
    0,
    1552,
    1552,
    1552,
    1552,
    1552,
    1552,
    1552,
    0,
    1552,
    1552,
    0,
    1552,
    1552,
    1552,
    1552,
    1552,
    1552,
    1552,
    1552,
    1552,
    1552,
    1552,
    1552,
    1552,
    0,
    0,
    0,
    0,
    0,
    0,
    0,
    1552,
    1552,
    0,
    0,
    0,
    0,
    0,
    0,
    0,
    0,
    0,
    0,
    0,
    0,
    0,
    0,
    0,
    0,
    0,
    0,
    0,
    0,
    0,
    0,
    0,
    0,
    0,
    0,
    0,
    0,
    0,
    0,
    0,
    0,
    0,
    0,
    0,
    0,
    0,
    0,
    0,
    0,
    0,
    0,
    0,
    0,
    0,
    0,
    0,
    0,
    0,
    0,
    0,
    0,
    0,
    1552,
    0,
    0,
    0,
    0,
    0,
    0,
    0,
    0,
    0,
    0,
    0,
    0,
    0,
    0,
    0,
    1552,
    1552,
    1552,
    1552,
    1552,
    1552,
    1552,
    1552,
    1552,
    0,
    0,
    0,
    0,
    0,
    1552,
    1552,
    1552,
    1552,
    1552,
    1552,
    1552,
    1552,
    0,
    0,
    0,
    0,
    1552,
    1552,
    0,
    1552,
    1552,
    1552,
    1552,
    0,
    0,
    1552,
    1552,
    1552,
    1552,
    1552,
    1552
   ]
  }
 ]
}
